(G-CODE GENERATED BY FLATCAM v8.993 - www.flatcam.org - Version Date: 2020/06/05)

(Name: 1mix_Ф1_верх.gbr_cutout_cnc)
(Type: G-code from Geometry)
(Units: MM)

(Created on Tuesday, 29 September 2020 at 02:26)

(This preprocessor is the default preprocessor used by FlatCAM.)
(It is made to work with MACH3 compatible motion controllers.)

(TOOL DIAMETER: 0.8 mm)
(Feedrate_XY: 60.0 mm/min)
(Feedrate_Z: 70.0 mm/min)
(Feedrate rapids 1500.0 mm/min)

(Z_Cut: -1.7 mm)
(DepthPerCut: 0.1 mm <=>17 passes)
(Z_Move: 2.0 mm)
(Z Start: None mm)
(Z End: 25.0 mm)
(Steps per circle: 128)
(Preprocessor Geometry: default)

(X range:   -0.4000 ...   47.4000  mm)
(Y range:  -28.4000 ...    0.4000  mm)

(Spindle Speed: None RPM)
G21
G90
G94



G01 F60.00
G00 Z2.0000

M03
G00 X-0.4000 Y-13.5500
G01 F70.00
G01 Z-0.1000
G01 F60.00
G01 X-0.4000 Y-0.0000
G01 X-0.3981 Y0.0392
G01 X-0.3923 Y0.0780
G01 X-0.3828 Y0.1161
G01 X-0.3696 Y0.1531
G01 X-0.3528 Y0.1886
G01 X-0.3326 Y0.2222
G01 X-0.3092 Y0.2538
G01 X-0.2828 Y0.2828
G01 X-0.2538 Y0.3092
G01 X-0.2222 Y0.3326
G01 X-0.1886 Y0.3528
G01 X-0.1531 Y0.3696
G01 X-0.1161 Y0.3828
G01 X-0.0780 Y0.3923
G01 X-0.0392 Y0.3981
G01 X0.0000 Y0.4000
G01 X47.0000 Y0.4000
G01 X47.0392 Y0.3981
G01 X47.0780 Y0.3923
G01 X47.1161 Y0.3828
G01 X47.1531 Y0.3696
G01 X47.1886 Y0.3528
G01 X47.2222 Y0.3326
G01 X47.2538 Y0.3092
G01 X47.2828 Y0.2828
G01 X47.3092 Y0.2538
G01 X47.3326 Y0.2222
G01 X47.3528 Y0.1886
G01 X47.3696 Y0.1531
G01 X47.3828 Y0.1161
G01 X47.3923 Y0.0780
G01 X47.3981 Y0.0392
G01 X47.4000 Y-0.0000
G01 X47.4000 Y-13.5500
G00 X47.4000 Y-13.5500
G01 F70.00
G01 Z-0.2000
G01 F60.00
G01 X47.4000 Y-0.0000
G01 X47.3981 Y0.0392
G01 X47.3923 Y0.0780
G01 X47.3828 Y0.1161
G01 X47.3696 Y0.1531
G01 X47.3528 Y0.1886
G01 X47.3326 Y0.2222
G01 X47.3092 Y0.2538
G01 X47.2828 Y0.2828
G01 X47.2538 Y0.3092
G01 X47.2222 Y0.3326
G01 X47.1886 Y0.3528
G01 X47.1531 Y0.3696
G01 X47.1161 Y0.3828
G01 X47.0780 Y0.3923
G01 X47.0392 Y0.3981
G01 X47.0000 Y0.4000
G01 X0.0000 Y0.4000
G01 X-0.0392 Y0.3981
G01 X-0.0780 Y0.3923
G01 X-0.1161 Y0.3828
G01 X-0.1531 Y0.3696
G01 X-0.1886 Y0.3528
G01 X-0.2222 Y0.3326
G01 X-0.2538 Y0.3092
G01 X-0.2828 Y0.2828
G01 X-0.3092 Y0.2538
G01 X-0.3326 Y0.2222
G01 X-0.3528 Y0.1886
G01 X-0.3696 Y0.1531
G01 X-0.3828 Y0.1161
G01 X-0.3923 Y0.0780
G01 X-0.3981 Y0.0392
G01 X-0.4000 Y-0.0000
G01 X-0.4000 Y-13.5500
G00 X-0.4000 Y-13.5500
G01 F70.00
G01 Z-0.3000
G01 F60.00
G01 X-0.4000 Y-0.0000
G01 X-0.3981 Y0.0392
G01 X-0.3923 Y0.0780
G01 X-0.3828 Y0.1161
G01 X-0.3696 Y0.1531
G01 X-0.3528 Y0.1886
G01 X-0.3326 Y0.2222
G01 X-0.3092 Y0.2538
G01 X-0.2828 Y0.2828
G01 X-0.2538 Y0.3092
G01 X-0.2222 Y0.3326
G01 X-0.1886 Y0.3528
G01 X-0.1531 Y0.3696
G01 X-0.1161 Y0.3828
G01 X-0.0780 Y0.3923
G01 X-0.0392 Y0.3981
G01 X0.0000 Y0.4000
G01 X47.0000 Y0.4000
G01 X47.0392 Y0.3981
G01 X47.0780 Y0.3923
G01 X47.1161 Y0.3828
G01 X47.1531 Y0.3696
G01 X47.1886 Y0.3528
G01 X47.2222 Y0.3326
G01 X47.2538 Y0.3092
G01 X47.2828 Y0.2828
G01 X47.3092 Y0.2538
G01 X47.3326 Y0.2222
G01 X47.3528 Y0.1886
G01 X47.3696 Y0.1531
G01 X47.3828 Y0.1161
G01 X47.3923 Y0.0780
G01 X47.3981 Y0.0392
G01 X47.4000 Y-0.0000
G01 X47.4000 Y-13.5500
G00 X47.4000 Y-13.5500
G01 F70.00
G01 Z-0.4000
G01 F60.00
G01 X47.4000 Y-0.0000
G01 X47.3981 Y0.0392
G01 X47.3923 Y0.0780
G01 X47.3828 Y0.1161
G01 X47.3696 Y0.1531
G01 X47.3528 Y0.1886
G01 X47.3326 Y0.2222
G01 X47.3092 Y0.2538
G01 X47.2828 Y0.2828
G01 X47.2538 Y0.3092
G01 X47.2222 Y0.3326
G01 X47.1886 Y0.3528
G01 X47.1531 Y0.3696
G01 X47.1161 Y0.3828
G01 X47.0780 Y0.3923
G01 X47.0392 Y0.3981
G01 X47.0000 Y0.4000
G01 X0.0000 Y0.4000
G01 X-0.0392 Y0.3981
G01 X-0.0780 Y0.3923
G01 X-0.1161 Y0.3828
G01 X-0.1531 Y0.3696
G01 X-0.1886 Y0.3528
G01 X-0.2222 Y0.3326
G01 X-0.2538 Y0.3092
G01 X-0.2828 Y0.2828
G01 X-0.3092 Y0.2538
G01 X-0.3326 Y0.2222
G01 X-0.3528 Y0.1886
G01 X-0.3696 Y0.1531
G01 X-0.3828 Y0.1161
G01 X-0.3923 Y0.0780
G01 X-0.3981 Y0.0392
G01 X-0.4000 Y-0.0000
G01 X-0.4000 Y-13.5500
G00 X-0.4000 Y-13.5500
G01 F70.00
G01 Z-0.5000
G01 F60.00
G01 X-0.4000 Y-0.0000
G01 X-0.3981 Y0.0392
G01 X-0.3923 Y0.0780
G01 X-0.3828 Y0.1161
G01 X-0.3696 Y0.1531
G01 X-0.3528 Y0.1886
G01 X-0.3326 Y0.2222
G01 X-0.3092 Y0.2538
G01 X-0.2828 Y0.2828
G01 X-0.2538 Y0.3092
G01 X-0.2222 Y0.3326
G01 X-0.1886 Y0.3528
G01 X-0.1531 Y0.3696
G01 X-0.1161 Y0.3828
G01 X-0.0780 Y0.3923
G01 X-0.0392 Y0.3981
G01 X0.0000 Y0.4000
G01 X47.0000 Y0.4000
G01 X47.0392 Y0.3981
G01 X47.0780 Y0.3923
G01 X47.1161 Y0.3828
G01 X47.1531 Y0.3696
G01 X47.1886 Y0.3528
G01 X47.2222 Y0.3326
G01 X47.2538 Y0.3092
G01 X47.2828 Y0.2828
G01 X47.3092 Y0.2538
G01 X47.3326 Y0.2222
G01 X47.3528 Y0.1886
G01 X47.3696 Y0.1531
G01 X47.3828 Y0.1161
G01 X47.3923 Y0.0780
G01 X47.3981 Y0.0392
G01 X47.4000 Y-0.0000
G01 X47.4000 Y-13.5500
G00 X47.4000 Y-13.5500
G01 F70.00
G01 Z-0.6000
G01 F60.00
G01 X47.4000 Y-0.0000
G01 X47.3981 Y0.0392
G01 X47.3923 Y0.0780
G01 X47.3828 Y0.1161
G01 X47.3696 Y0.1531
G01 X47.3528 Y0.1886
G01 X47.3326 Y0.2222
G01 X47.3092 Y0.2538
G01 X47.2828 Y0.2828
G01 X47.2538 Y0.3092
G01 X47.2222 Y0.3326
G01 X47.1886 Y0.3528
G01 X47.1531 Y0.3696
G01 X47.1161 Y0.3828
G01 X47.0780 Y0.3923
G01 X47.0392 Y0.3981
G01 X47.0000 Y0.4000
G01 X0.0000 Y0.4000
G01 X-0.0392 Y0.3981
G01 X-0.0780 Y0.3923
G01 X-0.1161 Y0.3828
G01 X-0.1531 Y0.3696
G01 X-0.1886 Y0.3528
G01 X-0.2222 Y0.3326
G01 X-0.2538 Y0.3092
G01 X-0.2828 Y0.2828
G01 X-0.3092 Y0.2538
G01 X-0.3326 Y0.2222
G01 X-0.3528 Y0.1886
G01 X-0.3696 Y0.1531
G01 X-0.3828 Y0.1161
G01 X-0.3923 Y0.0780
G01 X-0.3981 Y0.0392
G01 X-0.4000 Y-0.0000
G01 X-0.4000 Y-13.5500
G00 X-0.4000 Y-13.5500
G01 F70.00
G01 Z-0.7000
G01 F60.00
G01 X-0.4000 Y-0.0000
G01 X-0.3981 Y0.0392
G01 X-0.3923 Y0.0780
G01 X-0.3828 Y0.1161
G01 X-0.3696 Y0.1531
G01 X-0.3528 Y0.1886
G01 X-0.3326 Y0.2222
G01 X-0.3092 Y0.2538
G01 X-0.2828 Y0.2828
G01 X-0.2538 Y0.3092
G01 X-0.2222 Y0.3326
G01 X-0.1886 Y0.3528
G01 X-0.1531 Y0.3696
G01 X-0.1161 Y0.3828
G01 X-0.0780 Y0.3923
G01 X-0.0392 Y0.3981
G01 X0.0000 Y0.4000
G01 X47.0000 Y0.4000
G01 X47.0392 Y0.3981
G01 X47.0780 Y0.3923
G01 X47.1161 Y0.3828
G01 X47.1531 Y0.3696
G01 X47.1886 Y0.3528
G01 X47.2222 Y0.3326
G01 X47.2538 Y0.3092
G01 X47.2828 Y0.2828
G01 X47.3092 Y0.2538
G01 X47.3326 Y0.2222
G01 X47.3528 Y0.1886
G01 X47.3696 Y0.1531
G01 X47.3828 Y0.1161
G01 X47.3923 Y0.0780
G01 X47.3981 Y0.0392
G01 X47.4000 Y-0.0000
G01 X47.4000 Y-13.5500
G00 X47.4000 Y-13.5500
G01 F70.00
G01 Z-0.8000
G01 F60.00
G01 X47.4000 Y-0.0000
G01 X47.3981 Y0.0392
G01 X47.3923 Y0.0780
G01 X47.3828 Y0.1161
G01 X47.3696 Y0.1531
G01 X47.3528 Y0.1886
G01 X47.3326 Y0.2222
G01 X47.3092 Y0.2538
G01 X47.2828 Y0.2828
G01 X47.2538 Y0.3092
G01 X47.2222 Y0.3326
G01 X47.1886 Y0.3528
G01 X47.1531 Y0.3696
G01 X47.1161 Y0.3828
G01 X47.0780 Y0.3923
G01 X47.0392 Y0.3981
G01 X47.0000 Y0.4000
G01 X0.0000 Y0.4000
G01 X-0.0392 Y0.3981
G01 X-0.0780 Y0.3923
G01 X-0.1161 Y0.3828
G01 X-0.1531 Y0.3696
G01 X-0.1886 Y0.3528
G01 X-0.2222 Y0.3326
G01 X-0.2538 Y0.3092
G01 X-0.2828 Y0.2828
G01 X-0.3092 Y0.2538
G01 X-0.3326 Y0.2222
G01 X-0.3528 Y0.1886
G01 X-0.3696 Y0.1531
G01 X-0.3828 Y0.1161
G01 X-0.3923 Y0.0780
G01 X-0.3981 Y0.0392
G01 X-0.4000 Y-0.0000
G01 X-0.4000 Y-13.5500
G00 X-0.4000 Y-13.5500
G01 F70.00
G01 Z-0.9000
G01 F60.00
G01 X-0.4000 Y-0.0000
G01 X-0.3981 Y0.0392
G01 X-0.3923 Y0.0780
G01 X-0.3828 Y0.1161
G01 X-0.3696 Y0.1531
G01 X-0.3528 Y0.1886
G01 X-0.3326 Y0.2222
G01 X-0.3092 Y0.2538
G01 X-0.2828 Y0.2828
G01 X-0.2538 Y0.3092
G01 X-0.2222 Y0.3326
G01 X-0.1886 Y0.3528
G01 X-0.1531 Y0.3696
G01 X-0.1161 Y0.3828
G01 X-0.0780 Y0.3923
G01 X-0.0392 Y0.3981
G01 X0.0000 Y0.4000
G01 X47.0000 Y0.4000
G01 X47.0392 Y0.3981
G01 X47.0780 Y0.3923
G01 X47.1161 Y0.3828
G01 X47.1531 Y0.3696
G01 X47.1886 Y0.3528
G01 X47.2222 Y0.3326
G01 X47.2538 Y0.3092
G01 X47.2828 Y0.2828
G01 X47.3092 Y0.2538
G01 X47.3326 Y0.2222
G01 X47.3528 Y0.1886
G01 X47.3696 Y0.1531
G01 X47.3828 Y0.1161
G01 X47.3923 Y0.0780
G01 X47.3981 Y0.0392
G01 X47.4000 Y-0.0000
G01 X47.4000 Y-13.5500
G00 X47.4000 Y-13.5500
G01 F70.00
G01 Z-1.0000
G01 F60.00
G01 X47.4000 Y-0.0000
G01 X47.3981 Y0.0392
G01 X47.3923 Y0.0780
G01 X47.3828 Y0.1161
G01 X47.3696 Y0.1531
G01 X47.3528 Y0.1886
G01 X47.3326 Y0.2222
G01 X47.3092 Y0.2538
G01 X47.2828 Y0.2828
G01 X47.2538 Y0.3092
G01 X47.2222 Y0.3326
G01 X47.1886 Y0.3528
G01 X47.1531 Y0.3696
G01 X47.1161 Y0.3828
G01 X47.0780 Y0.3923
G01 X47.0392 Y0.3981
G01 X47.0000 Y0.4000
G01 X0.0000 Y0.4000
G01 X-0.0392 Y0.3981
G01 X-0.0780 Y0.3923
G01 X-0.1161 Y0.3828
G01 X-0.1531 Y0.3696
G01 X-0.1886 Y0.3528
G01 X-0.2222 Y0.3326
G01 X-0.2538 Y0.3092
G01 X-0.2828 Y0.2828
G01 X-0.3092 Y0.2538
G01 X-0.3326 Y0.2222
G01 X-0.3528 Y0.1886
G01 X-0.3696 Y0.1531
G01 X-0.3828 Y0.1161
G01 X-0.3923 Y0.0780
G01 X-0.3981 Y0.0392
G01 X-0.4000 Y-0.0000
G01 X-0.4000 Y-13.5500
G00 X-0.4000 Y-13.5500
G01 F70.00
G01 Z-1.1000
G01 F60.00
G01 X-0.4000 Y-0.0000
G01 X-0.3981 Y0.0392
G01 X-0.3923 Y0.0780
G01 X-0.3828 Y0.1161
G01 X-0.3696 Y0.1531
G01 X-0.3528 Y0.1886
G01 X-0.3326 Y0.2222
G01 X-0.3092 Y0.2538
G01 X-0.2828 Y0.2828
G01 X-0.2538 Y0.3092
G01 X-0.2222 Y0.3326
G01 X-0.1886 Y0.3528
G01 X-0.1531 Y0.3696
G01 X-0.1161 Y0.3828
G01 X-0.0780 Y0.3923
G01 X-0.0392 Y0.3981
G01 X0.0000 Y0.4000
G01 X47.0000 Y0.4000
G01 X47.0392 Y0.3981
G01 X47.0780 Y0.3923
G01 X47.1161 Y0.3828
G01 X47.1531 Y0.3696
G01 X47.1886 Y0.3528
G01 X47.2222 Y0.3326
G01 X47.2538 Y0.3092
G01 X47.2828 Y0.2828
G01 X47.3092 Y0.2538
G01 X47.3326 Y0.2222
G01 X47.3528 Y0.1886
G01 X47.3696 Y0.1531
G01 X47.3828 Y0.1161
G01 X47.3923 Y0.0780
G01 X47.3981 Y0.0392
G01 X47.4000 Y-0.0000
G01 X47.4000 Y-13.5500
G00 X47.4000 Y-13.5500
G01 F70.00
G01 Z-1.2000
G01 F60.00
G01 X47.4000 Y-0.0000
G01 X47.3981 Y0.0392
G01 X47.3923 Y0.0780
G01 X47.3828 Y0.1161
G01 X47.3696 Y0.1531
G01 X47.3528 Y0.1886
G01 X47.3326 Y0.2222
G01 X47.3092 Y0.2538
G01 X47.2828 Y0.2828
G01 X47.2538 Y0.3092
G01 X47.2222 Y0.3326
G01 X47.1886 Y0.3528
G01 X47.1531 Y0.3696
G01 X47.1161 Y0.3828
G01 X47.0780 Y0.3923
G01 X47.0392 Y0.3981
G01 X47.0000 Y0.4000
G01 X0.0000 Y0.4000
G01 X-0.0392 Y0.3981
G01 X-0.0780 Y0.3923
G01 X-0.1161 Y0.3828
G01 X-0.1531 Y0.3696
G01 X-0.1886 Y0.3528
G01 X-0.2222 Y0.3326
G01 X-0.2538 Y0.3092
G01 X-0.2828 Y0.2828
G01 X-0.3092 Y0.2538
G01 X-0.3326 Y0.2222
G01 X-0.3528 Y0.1886
G01 X-0.3696 Y0.1531
G01 X-0.3828 Y0.1161
G01 X-0.3923 Y0.0780
G01 X-0.3981 Y0.0392
G01 X-0.4000 Y-0.0000
G01 X-0.4000 Y-13.5500
G00 X-0.4000 Y-13.5500
G01 F70.00
G01 Z-1.3000
G01 F60.00
G01 X-0.4000 Y-0.0000
G01 X-0.3981 Y0.0392
G01 X-0.3923 Y0.0780
G01 X-0.3828 Y0.1161
G01 X-0.3696 Y0.1531
G01 X-0.3528 Y0.1886
G01 X-0.3326 Y0.2222
G01 X-0.3092 Y0.2538
G01 X-0.2828 Y0.2828
G01 X-0.2538 Y0.3092
G01 X-0.2222 Y0.3326
G01 X-0.1886 Y0.3528
G01 X-0.1531 Y0.3696
G01 X-0.1161 Y0.3828
G01 X-0.0780 Y0.3923
G01 X-0.0392 Y0.3981
G01 X0.0000 Y0.4000
G01 X47.0000 Y0.4000
G01 X47.0392 Y0.3981
G01 X47.0780 Y0.3923
G01 X47.1161 Y0.3828
G01 X47.1531 Y0.3696
G01 X47.1886 Y0.3528
G01 X47.2222 Y0.3326
G01 X47.2538 Y0.3092
G01 X47.2828 Y0.2828
G01 X47.3092 Y0.2538
G01 X47.3326 Y0.2222
G01 X47.3528 Y0.1886
G01 X47.3696 Y0.1531
G01 X47.3828 Y0.1161
G01 X47.3923 Y0.0780
G01 X47.3981 Y0.0392
G01 X47.4000 Y-0.0000
G01 X47.4000 Y-13.5500
G00 X47.4000 Y-13.5500
G01 F70.00
G01 Z-1.4000
G01 F60.00
G01 X47.4000 Y-0.0000
G01 X47.3981 Y0.0392
G01 X47.3923 Y0.0780
G01 X47.3828 Y0.1161
G01 X47.3696 Y0.1531
G01 X47.3528 Y0.1886
G01 X47.3326 Y0.2222
G01 X47.3092 Y0.2538
G01 X47.2828 Y0.2828
G01 X47.2538 Y0.3092
G01 X47.2222 Y0.3326
G01 X47.1886 Y0.3528
G01 X47.1531 Y0.3696
G01 X47.1161 Y0.3828
G01 X47.0780 Y0.3923
G01 X47.0392 Y0.3981
G01 X47.0000 Y0.4000
G01 X0.0000 Y0.4000
G01 X-0.0392 Y0.3981
G01 X-0.0780 Y0.3923
G01 X-0.1161 Y0.3828
G01 X-0.1531 Y0.3696
G01 X-0.1886 Y0.3528
G01 X-0.2222 Y0.3326
G01 X-0.2538 Y0.3092
G01 X-0.2828 Y0.2828
G01 X-0.3092 Y0.2538
G01 X-0.3326 Y0.2222
G01 X-0.3528 Y0.1886
G01 X-0.3696 Y0.1531
G01 X-0.3828 Y0.1161
G01 X-0.3923 Y0.0780
G01 X-0.3981 Y0.0392
G01 X-0.4000 Y-0.0000
G01 X-0.4000 Y-13.5500
G00 X-0.4000 Y-13.5500
G01 F70.00
G01 Z-1.5000
G01 F60.00
G01 X-0.4000 Y-0.0000
G01 X-0.3981 Y0.0392
G01 X-0.3923 Y0.0780
G01 X-0.3828 Y0.1161
G01 X-0.3696 Y0.1531
G01 X-0.3528 Y0.1886
G01 X-0.3326 Y0.2222
G01 X-0.3092 Y0.2538
G01 X-0.2828 Y0.2828
G01 X-0.2538 Y0.3092
G01 X-0.2222 Y0.3326
G01 X-0.1886 Y0.3528
G01 X-0.1531 Y0.3696
G01 X-0.1161 Y0.3828
G01 X-0.0780 Y0.3923
G01 X-0.0392 Y0.3981
G01 X0.0000 Y0.4000
G01 X47.0000 Y0.4000
G01 X47.0392 Y0.3981
G01 X47.0780 Y0.3923
G01 X47.1161 Y0.3828
G01 X47.1531 Y0.3696
G01 X47.1886 Y0.3528
G01 X47.2222 Y0.3326
G01 X47.2538 Y0.3092
G01 X47.2828 Y0.2828
G01 X47.3092 Y0.2538
G01 X47.3326 Y0.2222
G01 X47.3528 Y0.1886
G01 X47.3696 Y0.1531
G01 X47.3828 Y0.1161
G01 X47.3923 Y0.0780
G01 X47.3981 Y0.0392
G01 X47.4000 Y-0.0000
G01 X47.4000 Y-13.5500
G00 X47.4000 Y-13.5500
G01 F70.00
G01 Z-1.6000
G01 F60.00
G01 X47.4000 Y-0.0000
G01 X47.3981 Y0.0392
G01 X47.3923 Y0.0780
G01 X47.3828 Y0.1161
G01 X47.3696 Y0.1531
G01 X47.3528 Y0.1886
G01 X47.3326 Y0.2222
G01 X47.3092 Y0.2538
G01 X47.2828 Y0.2828
G01 X47.2538 Y0.3092
G01 X47.2222 Y0.3326
G01 X47.1886 Y0.3528
G01 X47.1531 Y0.3696
G01 X47.1161 Y0.3828
G01 X47.0780 Y0.3923
G01 X47.0392 Y0.3981
G01 X47.0000 Y0.4000
G01 X0.0000 Y0.4000
G01 X-0.0392 Y0.3981
G01 X-0.0780 Y0.3923
G01 X-0.1161 Y0.3828
G01 X-0.1531 Y0.3696
G01 X-0.1886 Y0.3528
G01 X-0.2222 Y0.3326
G01 X-0.2538 Y0.3092
G01 X-0.2828 Y0.2828
G01 X-0.3092 Y0.2538
G01 X-0.3326 Y0.2222
G01 X-0.3528 Y0.1886
G01 X-0.3696 Y0.1531
G01 X-0.3828 Y0.1161
G01 X-0.3923 Y0.0780
G01 X-0.3981 Y0.0392
G01 X-0.4000 Y-0.0000
G01 X-0.4000 Y-13.5500
G00 X-0.4000 Y-13.5500
G01 F70.00
G01 Z-1.7000
G01 F60.00
G01 X-0.4000 Y-0.0000
G01 X-0.3981 Y0.0392
G01 X-0.3923 Y0.0780
G01 X-0.3828 Y0.1161
G01 X-0.3696 Y0.1531
G01 X-0.3528 Y0.1886
G01 X-0.3326 Y0.2222
G01 X-0.3092 Y0.2538
G01 X-0.2828 Y0.2828
G01 X-0.2538 Y0.3092
G01 X-0.2222 Y0.3326
G01 X-0.1886 Y0.3528
G01 X-0.1531 Y0.3696
G01 X-0.1161 Y0.3828
G01 X-0.0780 Y0.3923
G01 X-0.0392 Y0.3981
G01 X0.0000 Y0.4000
G01 X47.0000 Y0.4000
G01 X47.0392 Y0.3981
G01 X47.0780 Y0.3923
G01 X47.1161 Y0.3828
G01 X47.1531 Y0.3696
G01 X47.1886 Y0.3528
G01 X47.2222 Y0.3326
G01 X47.2538 Y0.3092
G01 X47.2828 Y0.2828
G01 X47.3092 Y0.2538
G01 X47.3326 Y0.2222
G01 X47.3528 Y0.1886
G01 X47.3696 Y0.1531
G01 X47.3828 Y0.1161
G01 X47.3923 Y0.0780
G01 X47.3981 Y0.0392
G01 X47.4000 Y-0.0000
G01 X47.4000 Y-13.5500
G00 Z2.0000
G00 X47.4000 Y-14.4500
G01 F70.00
G01 Z-0.1000
G01 F60.00
G01 X47.4000 Y-28.0000
G01 X47.3981 Y-28.0392
G01 X47.3923 Y-28.0780
G01 X47.3828 Y-28.1161
G01 X47.3696 Y-28.1531
G01 X47.3528 Y-28.1886
G01 X47.3326 Y-28.2222
G01 X47.3092 Y-28.2538
G01 X47.2828 Y-28.2828
G01 X47.2538 Y-28.3092
G01 X47.2222 Y-28.3326
G01 X47.1886 Y-28.3528
G01 X47.1531 Y-28.3696
G01 X47.1161 Y-28.3828
G01 X47.0780 Y-28.3923
G01 X47.0392 Y-28.3981
G01 X47.0000 Y-28.4000
G00 X47.0000 Y-28.4000
G01 F70.00
G01 Z-0.2000
G01 F60.00
G01 X47.0392 Y-28.3981
G01 X47.0780 Y-28.3923
G01 X47.1161 Y-28.3828
G01 X47.1531 Y-28.3696
G01 X47.1886 Y-28.3528
G01 X47.2222 Y-28.3326
G01 X47.2538 Y-28.3092
G01 X47.2828 Y-28.2828
G01 X47.3092 Y-28.2538
G01 X47.3326 Y-28.2222
G01 X47.3528 Y-28.1886
G01 X47.3696 Y-28.1531
G01 X47.3828 Y-28.1161
G01 X47.3923 Y-28.0780
G01 X47.3981 Y-28.0392
G01 X47.4000 Y-28.0000
G01 X47.4000 Y-14.4500
G00 X47.4000 Y-14.4500
G01 F70.00
G01 Z-0.3000
G01 F60.00
G01 X47.4000 Y-28.0000
G01 X47.3981 Y-28.0392
G01 X47.3923 Y-28.0780
G01 X47.3828 Y-28.1161
G01 X47.3696 Y-28.1531
G01 X47.3528 Y-28.1886
G01 X47.3326 Y-28.2222
G01 X47.3092 Y-28.2538
G01 X47.2828 Y-28.2828
G01 X47.2538 Y-28.3092
G01 X47.2222 Y-28.3326
G01 X47.1886 Y-28.3528
G01 X47.1531 Y-28.3696
G01 X47.1161 Y-28.3828
G01 X47.0780 Y-28.3923
G01 X47.0392 Y-28.3981
G01 X47.0000 Y-28.4000
G00 X47.0000 Y-28.4000
G01 F70.00
G01 Z-0.4000
G01 F60.00
G01 X47.0392 Y-28.3981
G01 X47.0780 Y-28.3923
G01 X47.1161 Y-28.3828
G01 X47.1531 Y-28.3696
G01 X47.1886 Y-28.3528
G01 X47.2222 Y-28.3326
G01 X47.2538 Y-28.3092
G01 X47.2828 Y-28.2828
G01 X47.3092 Y-28.2538
G01 X47.3326 Y-28.2222
G01 X47.3528 Y-28.1886
G01 X47.3696 Y-28.1531
G01 X47.3828 Y-28.1161
G01 X47.3923 Y-28.0780
G01 X47.3981 Y-28.0392
G01 X47.4000 Y-28.0000
G01 X47.4000 Y-14.4500
G00 X47.4000 Y-14.4500
G01 F70.00
G01 Z-0.5000
G01 F60.00
G01 X47.4000 Y-28.0000
G01 X47.3981 Y-28.0392
G01 X47.3923 Y-28.0780
G01 X47.3828 Y-28.1161
G01 X47.3696 Y-28.1531
G01 X47.3528 Y-28.1886
G01 X47.3326 Y-28.2222
G01 X47.3092 Y-28.2538
G01 X47.2828 Y-28.2828
G01 X47.2538 Y-28.3092
G01 X47.2222 Y-28.3326
G01 X47.1886 Y-28.3528
G01 X47.1531 Y-28.3696
G01 X47.1161 Y-28.3828
G01 X47.0780 Y-28.3923
G01 X47.0392 Y-28.3981
G01 X47.0000 Y-28.4000
G00 X47.0000 Y-28.4000
G01 F70.00
G01 Z-0.6000
G01 F60.00
G01 X47.0392 Y-28.3981
G01 X47.0780 Y-28.3923
G01 X47.1161 Y-28.3828
G01 X47.1531 Y-28.3696
G01 X47.1886 Y-28.3528
G01 X47.2222 Y-28.3326
G01 X47.2538 Y-28.3092
G01 X47.2828 Y-28.2828
G01 X47.3092 Y-28.2538
G01 X47.3326 Y-28.2222
G01 X47.3528 Y-28.1886
G01 X47.3696 Y-28.1531
G01 X47.3828 Y-28.1161
G01 X47.3923 Y-28.0780
G01 X47.3981 Y-28.0392
G01 X47.4000 Y-28.0000
G01 X47.4000 Y-14.4500
G00 X47.4000 Y-14.4500
G01 F70.00
G01 Z-0.7000
G01 F60.00
G01 X47.4000 Y-28.0000
G01 X47.3981 Y-28.0392
G01 X47.3923 Y-28.0780
G01 X47.3828 Y-28.1161
G01 X47.3696 Y-28.1531
G01 X47.3528 Y-28.1886
G01 X47.3326 Y-28.2222
G01 X47.3092 Y-28.2538
G01 X47.2828 Y-28.2828
G01 X47.2538 Y-28.3092
G01 X47.2222 Y-28.3326
G01 X47.1886 Y-28.3528
G01 X47.1531 Y-28.3696
G01 X47.1161 Y-28.3828
G01 X47.0780 Y-28.3923
G01 X47.0392 Y-28.3981
G01 X47.0000 Y-28.4000
G00 X47.0000 Y-28.4000
G01 F70.00
G01 Z-0.8000
G01 F60.00
G01 X47.0392 Y-28.3981
G01 X47.0780 Y-28.3923
G01 X47.1161 Y-28.3828
G01 X47.1531 Y-28.3696
G01 X47.1886 Y-28.3528
G01 X47.2222 Y-28.3326
G01 X47.2538 Y-28.3092
G01 X47.2828 Y-28.2828
G01 X47.3092 Y-28.2538
G01 X47.3326 Y-28.2222
G01 X47.3528 Y-28.1886
G01 X47.3696 Y-28.1531
G01 X47.3828 Y-28.1161
G01 X47.3923 Y-28.0780
G01 X47.3981 Y-28.0392
G01 X47.4000 Y-28.0000
G01 X47.4000 Y-14.4500
G00 X47.4000 Y-14.4500
G01 F70.00
G01 Z-0.9000
G01 F60.00
G01 X47.4000 Y-28.0000
G01 X47.3981 Y-28.0392
G01 X47.3923 Y-28.0780
G01 X47.3828 Y-28.1161
G01 X47.3696 Y-28.1531
G01 X47.3528 Y-28.1886
G01 X47.3326 Y-28.2222
G01 X47.3092 Y-28.2538
G01 X47.2828 Y-28.2828
G01 X47.2538 Y-28.3092
G01 X47.2222 Y-28.3326
G01 X47.1886 Y-28.3528
G01 X47.1531 Y-28.3696
G01 X47.1161 Y-28.3828
G01 X47.0780 Y-28.3923
G01 X47.0392 Y-28.3981
G01 X47.0000 Y-28.4000
G00 X47.0000 Y-28.4000
G01 F70.00
G01 Z-1.0000
G01 F60.00
G01 X47.0392 Y-28.3981
G01 X47.0780 Y-28.3923
G01 X47.1161 Y-28.3828
G01 X47.1531 Y-28.3696
G01 X47.1886 Y-28.3528
G01 X47.2222 Y-28.3326
G01 X47.2538 Y-28.3092
G01 X47.2828 Y-28.2828
G01 X47.3092 Y-28.2538
G01 X47.3326 Y-28.2222
G01 X47.3528 Y-28.1886
G01 X47.3696 Y-28.1531
G01 X47.3828 Y-28.1161
G01 X47.3923 Y-28.0780
G01 X47.3981 Y-28.0392
G01 X47.4000 Y-28.0000
G01 X47.4000 Y-14.4500
G00 X47.4000 Y-14.4500
G01 F70.00
G01 Z-1.1000
G01 F60.00
G01 X47.4000 Y-28.0000
G01 X47.3981 Y-28.0392
G01 X47.3923 Y-28.0780
G01 X47.3828 Y-28.1161
G01 X47.3696 Y-28.1531
G01 X47.3528 Y-28.1886
G01 X47.3326 Y-28.2222
G01 X47.3092 Y-28.2538
G01 X47.2828 Y-28.2828
G01 X47.2538 Y-28.3092
G01 X47.2222 Y-28.3326
G01 X47.1886 Y-28.3528
G01 X47.1531 Y-28.3696
G01 X47.1161 Y-28.3828
G01 X47.0780 Y-28.3923
G01 X47.0392 Y-28.3981
G01 X47.0000 Y-28.4000
G00 X47.0000 Y-28.4000
G01 F70.00
G01 Z-1.2000
G01 F60.00
G01 X47.0392 Y-28.3981
G01 X47.0780 Y-28.3923
G01 X47.1161 Y-28.3828
G01 X47.1531 Y-28.3696
G01 X47.1886 Y-28.3528
G01 X47.2222 Y-28.3326
G01 X47.2538 Y-28.3092
G01 X47.2828 Y-28.2828
G01 X47.3092 Y-28.2538
G01 X47.3326 Y-28.2222
G01 X47.3528 Y-28.1886
G01 X47.3696 Y-28.1531
G01 X47.3828 Y-28.1161
G01 X47.3923 Y-28.0780
G01 X47.3981 Y-28.0392
G01 X47.4000 Y-28.0000
G01 X47.4000 Y-14.4500
G00 X47.4000 Y-14.4500
G01 F70.00
G01 Z-1.3000
G01 F60.00
G01 X47.4000 Y-28.0000
G01 X47.3981 Y-28.0392
G01 X47.3923 Y-28.0780
G01 X47.3828 Y-28.1161
G01 X47.3696 Y-28.1531
G01 X47.3528 Y-28.1886
G01 X47.3326 Y-28.2222
G01 X47.3092 Y-28.2538
G01 X47.2828 Y-28.2828
G01 X47.2538 Y-28.3092
G01 X47.2222 Y-28.3326
G01 X47.1886 Y-28.3528
G01 X47.1531 Y-28.3696
G01 X47.1161 Y-28.3828
G01 X47.0780 Y-28.3923
G01 X47.0392 Y-28.3981
G01 X47.0000 Y-28.4000
G00 X47.0000 Y-28.4000
G01 F70.00
G01 Z-1.4000
G01 F60.00
G01 X47.0392 Y-28.3981
G01 X47.0780 Y-28.3923
G01 X47.1161 Y-28.3828
G01 X47.1531 Y-28.3696
G01 X47.1886 Y-28.3528
G01 X47.2222 Y-28.3326
G01 X47.2538 Y-28.3092
G01 X47.2828 Y-28.2828
G01 X47.3092 Y-28.2538
G01 X47.3326 Y-28.2222
G01 X47.3528 Y-28.1886
G01 X47.3696 Y-28.1531
G01 X47.3828 Y-28.1161
G01 X47.3923 Y-28.0780
G01 X47.3981 Y-28.0392
G01 X47.4000 Y-28.0000
G01 X47.4000 Y-14.4500
G00 X47.4000 Y-14.4500
G01 F70.00
G01 Z-1.5000
G01 F60.00
G01 X47.4000 Y-28.0000
G01 X47.3981 Y-28.0392
G01 X47.3923 Y-28.0780
G01 X47.3828 Y-28.1161
G01 X47.3696 Y-28.1531
G01 X47.3528 Y-28.1886
G01 X47.3326 Y-28.2222
G01 X47.3092 Y-28.2538
G01 X47.2828 Y-28.2828
G01 X47.2538 Y-28.3092
G01 X47.2222 Y-28.3326
G01 X47.1886 Y-28.3528
G01 X47.1531 Y-28.3696
G01 X47.1161 Y-28.3828
G01 X47.0780 Y-28.3923
G01 X47.0392 Y-28.3981
G01 X47.0000 Y-28.4000
G00 X47.0000 Y-28.4000
G01 F70.00
G01 Z-1.6000
G01 F60.00
G01 X47.0392 Y-28.3981
G01 X47.0780 Y-28.3923
G01 X47.1161 Y-28.3828
G01 X47.1531 Y-28.3696
G01 X47.1886 Y-28.3528
G01 X47.2222 Y-28.3326
G01 X47.2538 Y-28.3092
G01 X47.2828 Y-28.2828
G01 X47.3092 Y-28.2538
G01 X47.3326 Y-28.2222
G01 X47.3528 Y-28.1886
G01 X47.3696 Y-28.1531
G01 X47.3828 Y-28.1161
G01 X47.3923 Y-28.0780
G01 X47.3981 Y-28.0392
G01 X47.4000 Y-28.0000
G01 X47.4000 Y-14.4500
G00 X47.4000 Y-14.4500
G01 F70.00
G01 Z-1.7000
G01 F60.00
G01 X47.4000 Y-28.0000
G01 X47.3981 Y-28.0392
G01 X47.3923 Y-28.0780
G01 X47.3828 Y-28.1161
G01 X47.3696 Y-28.1531
G01 X47.3528 Y-28.1886
G01 X47.3326 Y-28.2222
G01 X47.3092 Y-28.2538
G01 X47.2828 Y-28.2828
G01 X47.2538 Y-28.3092
G01 X47.2222 Y-28.3326
G01 X47.1886 Y-28.3528
G01 X47.1531 Y-28.3696
G01 X47.1161 Y-28.3828
G01 X47.0780 Y-28.3923
G01 X47.0392 Y-28.3981
G01 X47.0000 Y-28.4000
G00 Z2.0000
G00 X47.0000 Y-28.4000
G01 F70.00
G01 Z-0.1000
G01 F60.00
G01 X0.0000 Y-28.4000
G01 X-0.0392 Y-28.3981
G01 X-0.0780 Y-28.3923
G01 X-0.1161 Y-28.3828
G01 X-0.1531 Y-28.3696
G01 X-0.1886 Y-28.3528
G01 X-0.2222 Y-28.3326
G01 X-0.2538 Y-28.3092
G01 X-0.2828 Y-28.2828
G01 X-0.3092 Y-28.2538
G01 X-0.3326 Y-28.2222
G01 X-0.3528 Y-28.1886
G01 X-0.3696 Y-28.1531
G01 X-0.3828 Y-28.1161
G01 X-0.3923 Y-28.0780
G01 X-0.3981 Y-28.0392
G01 X-0.4000 Y-28.0000
G01 X-0.4000 Y-14.4500
G00 X-0.4000 Y-14.4500
G01 F70.00
G01 Z-0.2000
G01 F60.00
G01 X-0.4000 Y-28.0000
G01 X-0.3981 Y-28.0392
G01 X-0.3923 Y-28.0780
G01 X-0.3828 Y-28.1161
G01 X-0.3696 Y-28.1531
G01 X-0.3528 Y-28.1886
G01 X-0.3326 Y-28.2222
G01 X-0.3092 Y-28.2538
G01 X-0.2828 Y-28.2828
G01 X-0.2538 Y-28.3092
G01 X-0.2222 Y-28.3326
G01 X-0.1886 Y-28.3528
G01 X-0.1531 Y-28.3696
G01 X-0.1161 Y-28.3828
G01 X-0.0780 Y-28.3923
G01 X-0.0392 Y-28.3981
G01 X0.0000 Y-28.4000
G01 X47.0000 Y-28.4000
G00 X47.0000 Y-28.4000
G01 F70.00
G01 Z-0.3000
G01 F60.00
G01 X0.0000 Y-28.4000
G01 X-0.0392 Y-28.3981
G01 X-0.0780 Y-28.3923
G01 X-0.1161 Y-28.3828
G01 X-0.1531 Y-28.3696
G01 X-0.1886 Y-28.3528
G01 X-0.2222 Y-28.3326
G01 X-0.2538 Y-28.3092
G01 X-0.2828 Y-28.2828
G01 X-0.3092 Y-28.2538
G01 X-0.3326 Y-28.2222
G01 X-0.3528 Y-28.1886
G01 X-0.3696 Y-28.1531
G01 X-0.3828 Y-28.1161
G01 X-0.3923 Y-28.0780
G01 X-0.3981 Y-28.0392
G01 X-0.4000 Y-28.0000
G01 X-0.4000 Y-14.4500
G00 X-0.4000 Y-14.4500
G01 F70.00
G01 Z-0.4000
G01 F60.00
G01 X-0.4000 Y-28.0000
G01 X-0.3981 Y-28.0392
G01 X-0.3923 Y-28.0780
G01 X-0.3828 Y-28.1161
G01 X-0.3696 Y-28.1531
G01 X-0.3528 Y-28.1886
G01 X-0.3326 Y-28.2222
G01 X-0.3092 Y-28.2538
G01 X-0.2828 Y-28.2828
G01 X-0.2538 Y-28.3092
G01 X-0.2222 Y-28.3326
G01 X-0.1886 Y-28.3528
G01 X-0.1531 Y-28.3696
G01 X-0.1161 Y-28.3828
G01 X-0.0780 Y-28.3923
G01 X-0.0392 Y-28.3981
G01 X0.0000 Y-28.4000
G01 X47.0000 Y-28.4000
G00 X47.0000 Y-28.4000
G01 F70.00
G01 Z-0.5000
G01 F60.00
G01 X0.0000 Y-28.4000
G01 X-0.0392 Y-28.3981
G01 X-0.0780 Y-28.3923
G01 X-0.1161 Y-28.3828
G01 X-0.1531 Y-28.3696
G01 X-0.1886 Y-28.3528
G01 X-0.2222 Y-28.3326
G01 X-0.2538 Y-28.3092
G01 X-0.2828 Y-28.2828
G01 X-0.3092 Y-28.2538
G01 X-0.3326 Y-28.2222
G01 X-0.3528 Y-28.1886
G01 X-0.3696 Y-28.1531
G01 X-0.3828 Y-28.1161
G01 X-0.3923 Y-28.0780
G01 X-0.3981 Y-28.0392
G01 X-0.4000 Y-28.0000
G01 X-0.4000 Y-14.4500
G00 X-0.4000 Y-14.4500
G01 F70.00
G01 Z-0.6000
G01 F60.00
G01 X-0.4000 Y-28.0000
G01 X-0.3981 Y-28.0392
G01 X-0.3923 Y-28.0780
G01 X-0.3828 Y-28.1161
G01 X-0.3696 Y-28.1531
G01 X-0.3528 Y-28.1886
G01 X-0.3326 Y-28.2222
G01 X-0.3092 Y-28.2538
G01 X-0.2828 Y-28.2828
G01 X-0.2538 Y-28.3092
G01 X-0.2222 Y-28.3326
G01 X-0.1886 Y-28.3528
G01 X-0.1531 Y-28.3696
G01 X-0.1161 Y-28.3828
G01 X-0.0780 Y-28.3923
G01 X-0.0392 Y-28.3981
G01 X0.0000 Y-28.4000
G01 X47.0000 Y-28.4000
G00 X47.0000 Y-28.4000
G01 F70.00
G01 Z-0.7000
G01 F60.00
G01 X0.0000 Y-28.4000
G01 X-0.0392 Y-28.3981
G01 X-0.0780 Y-28.3923
G01 X-0.1161 Y-28.3828
G01 X-0.1531 Y-28.3696
G01 X-0.1886 Y-28.3528
G01 X-0.2222 Y-28.3326
G01 X-0.2538 Y-28.3092
G01 X-0.2828 Y-28.2828
G01 X-0.3092 Y-28.2538
G01 X-0.3326 Y-28.2222
G01 X-0.3528 Y-28.1886
G01 X-0.3696 Y-28.1531
G01 X-0.3828 Y-28.1161
G01 X-0.3923 Y-28.0780
G01 X-0.3981 Y-28.0392
G01 X-0.4000 Y-28.0000
G01 X-0.4000 Y-14.4500
G00 X-0.4000 Y-14.4500
G01 F70.00
G01 Z-0.8000
G01 F60.00
G01 X-0.4000 Y-28.0000
G01 X-0.3981 Y-28.0392
G01 X-0.3923 Y-28.0780
G01 X-0.3828 Y-28.1161
G01 X-0.3696 Y-28.1531
G01 X-0.3528 Y-28.1886
G01 X-0.3326 Y-28.2222
G01 X-0.3092 Y-28.2538
G01 X-0.2828 Y-28.2828
G01 X-0.2538 Y-28.3092
G01 X-0.2222 Y-28.3326
G01 X-0.1886 Y-28.3528
G01 X-0.1531 Y-28.3696
G01 X-0.1161 Y-28.3828
G01 X-0.0780 Y-28.3923
G01 X-0.0392 Y-28.3981
G01 X0.0000 Y-28.4000
G01 X47.0000 Y-28.4000
G00 X47.0000 Y-28.4000
G01 F70.00
G01 Z-0.9000
G01 F60.00
G01 X0.0000 Y-28.4000
G01 X-0.0392 Y-28.3981
G01 X-0.0780 Y-28.3923
G01 X-0.1161 Y-28.3828
G01 X-0.1531 Y-28.3696
G01 X-0.1886 Y-28.3528
G01 X-0.2222 Y-28.3326
G01 X-0.2538 Y-28.3092
G01 X-0.2828 Y-28.2828
G01 X-0.3092 Y-28.2538
G01 X-0.3326 Y-28.2222
G01 X-0.3528 Y-28.1886
G01 X-0.3696 Y-28.1531
G01 X-0.3828 Y-28.1161
G01 X-0.3923 Y-28.0780
G01 X-0.3981 Y-28.0392
G01 X-0.4000 Y-28.0000
G01 X-0.4000 Y-14.4500
G00 X-0.4000 Y-14.4500
G01 F70.00
G01 Z-1.0000
G01 F60.00
G01 X-0.4000 Y-28.0000
G01 X-0.3981 Y-28.0392
G01 X-0.3923 Y-28.0780
G01 X-0.3828 Y-28.1161
G01 X-0.3696 Y-28.1531
G01 X-0.3528 Y-28.1886
G01 X-0.3326 Y-28.2222
G01 X-0.3092 Y-28.2538
G01 X-0.2828 Y-28.2828
G01 X-0.2538 Y-28.3092
G01 X-0.2222 Y-28.3326
G01 X-0.1886 Y-28.3528
G01 X-0.1531 Y-28.3696
G01 X-0.1161 Y-28.3828
G01 X-0.0780 Y-28.3923
G01 X-0.0392 Y-28.3981
G01 X0.0000 Y-28.4000
G01 X47.0000 Y-28.4000
G00 X47.0000 Y-28.4000
G01 F70.00
G01 Z-1.1000
G01 F60.00
G01 X0.0000 Y-28.4000
G01 X-0.0392 Y-28.3981
G01 X-0.0780 Y-28.3923
G01 X-0.1161 Y-28.3828
G01 X-0.1531 Y-28.3696
G01 X-0.1886 Y-28.3528
G01 X-0.2222 Y-28.3326
G01 X-0.2538 Y-28.3092
G01 X-0.2828 Y-28.2828
G01 X-0.3092 Y-28.2538
G01 X-0.3326 Y-28.2222
G01 X-0.3528 Y-28.1886
G01 X-0.3696 Y-28.1531
G01 X-0.3828 Y-28.1161
G01 X-0.3923 Y-28.0780
G01 X-0.3981 Y-28.0392
G01 X-0.4000 Y-28.0000
G01 X-0.4000 Y-14.4500
G00 X-0.4000 Y-14.4500
G01 F70.00
G01 Z-1.2000
G01 F60.00
G01 X-0.4000 Y-28.0000
G01 X-0.3981 Y-28.0392
G01 X-0.3923 Y-28.0780
G01 X-0.3828 Y-28.1161
G01 X-0.3696 Y-28.1531
G01 X-0.3528 Y-28.1886
G01 X-0.3326 Y-28.2222
G01 X-0.3092 Y-28.2538
G01 X-0.2828 Y-28.2828
G01 X-0.2538 Y-28.3092
G01 X-0.2222 Y-28.3326
G01 X-0.1886 Y-28.3528
G01 X-0.1531 Y-28.3696
G01 X-0.1161 Y-28.3828
G01 X-0.0780 Y-28.3923
G01 X-0.0392 Y-28.3981
G01 X0.0000 Y-28.4000
G01 X47.0000 Y-28.4000
G00 X47.0000 Y-28.4000
G01 F70.00
G01 Z-1.3000
G01 F60.00
G01 X0.0000 Y-28.4000
G01 X-0.0392 Y-28.3981
G01 X-0.0780 Y-28.3923
G01 X-0.1161 Y-28.3828
G01 X-0.1531 Y-28.3696
G01 X-0.1886 Y-28.3528
G01 X-0.2222 Y-28.3326
G01 X-0.2538 Y-28.3092
G01 X-0.2828 Y-28.2828
G01 X-0.3092 Y-28.2538
G01 X-0.3326 Y-28.2222
G01 X-0.3528 Y-28.1886
G01 X-0.3696 Y-28.1531
G01 X-0.3828 Y-28.1161
G01 X-0.3923 Y-28.0780
G01 X-0.3981 Y-28.0392
G01 X-0.4000 Y-28.0000
G01 X-0.4000 Y-14.4500
G00 X-0.4000 Y-14.4500
G01 F70.00
G01 Z-1.4000
G01 F60.00
G01 X-0.4000 Y-28.0000
G01 X-0.3981 Y-28.0392
G01 X-0.3923 Y-28.0780
G01 X-0.3828 Y-28.1161
G01 X-0.3696 Y-28.1531
G01 X-0.3528 Y-28.1886
G01 X-0.3326 Y-28.2222
G01 X-0.3092 Y-28.2538
G01 X-0.2828 Y-28.2828
G01 X-0.2538 Y-28.3092
G01 X-0.2222 Y-28.3326
G01 X-0.1886 Y-28.3528
G01 X-0.1531 Y-28.3696
G01 X-0.1161 Y-28.3828
G01 X-0.0780 Y-28.3923
G01 X-0.0392 Y-28.3981
G01 X0.0000 Y-28.4000
G01 X47.0000 Y-28.4000
G00 X47.0000 Y-28.4000
G01 F70.00
G01 Z-1.5000
G01 F60.00
G01 X0.0000 Y-28.4000
G01 X-0.0392 Y-28.3981
G01 X-0.0780 Y-28.3923
G01 X-0.1161 Y-28.3828
G01 X-0.1531 Y-28.3696
G01 X-0.1886 Y-28.3528
G01 X-0.2222 Y-28.3326
G01 X-0.2538 Y-28.3092
G01 X-0.2828 Y-28.2828
G01 X-0.3092 Y-28.2538
G01 X-0.3326 Y-28.2222
G01 X-0.3528 Y-28.1886
G01 X-0.3696 Y-28.1531
G01 X-0.3828 Y-28.1161
G01 X-0.3923 Y-28.0780
G01 X-0.3981 Y-28.0392
G01 X-0.4000 Y-28.0000
G01 X-0.4000 Y-14.4500
G00 X-0.4000 Y-14.4500
G01 F70.00
G01 Z-1.6000
G01 F60.00
G01 X-0.4000 Y-28.0000
G01 X-0.3981 Y-28.0392
G01 X-0.3923 Y-28.0780
G01 X-0.3828 Y-28.1161
G01 X-0.3696 Y-28.1531
G01 X-0.3528 Y-28.1886
G01 X-0.3326 Y-28.2222
G01 X-0.3092 Y-28.2538
G01 X-0.2828 Y-28.2828
G01 X-0.2538 Y-28.3092
G01 X-0.2222 Y-28.3326
G01 X-0.1886 Y-28.3528
G01 X-0.1531 Y-28.3696
G01 X-0.1161 Y-28.3828
G01 X-0.0780 Y-28.3923
G01 X-0.0392 Y-28.3981
G01 X0.0000 Y-28.4000
G01 X47.0000 Y-28.4000
G00 X47.0000 Y-28.4000
G01 F70.00
G01 Z-1.7000
G01 F60.00
G01 X0.0000 Y-28.4000
G01 X-0.0392 Y-28.3981
G01 X-0.0780 Y-28.3923
G01 X-0.1161 Y-28.3828
G01 X-0.1531 Y-28.3696
G01 X-0.1886 Y-28.3528
G01 X-0.2222 Y-28.3326
G01 X-0.2538 Y-28.3092
G01 X-0.2828 Y-28.2828
G01 X-0.3092 Y-28.2538
G01 X-0.3326 Y-28.2222
G01 X-0.3528 Y-28.1886
G01 X-0.3696 Y-28.1531
G01 X-0.3828 Y-28.1161
G01 X-0.3923 Y-28.0780
G01 X-0.3981 Y-28.0392
G01 X-0.4000 Y-28.0000
G01 X-0.4000 Y-14.4500
G00 Z2.0000
M05
G00 Z2.0000
G00 Z25.00

