(G-CODE GENERATED BY FLATCAM v8.993 - www.flatcam.org - Version Date: 2020/06/05)

(Name: 1mix_Ф1_верх.gbr_iso_combined_cnc)
(Type: G-code from Geometry)
(Units: MM)

(Created on Tuesday, 29 September 2020 at 01:16)

(This preprocessor is the default preprocessor used by FlatCAM.)
(It is made to work with MACH3 compatible motion controllers.)

(TOOL DIAMETER: 0.13 mm)
(Feedrate_XY: 60.0 mm/min)
(Feedrate_Z: 70.0 mm/min)
(Feedrate rapids 1500.0 mm/min)

(Z_Cut: -0.06 mm)
(Z_Move: 2.0 mm)
(Z Start: None mm)
(Z End: 25.0 mm)
(Steps per circle: 128)
(Preprocessor Geometry: default)

(X range:    1.4688 ...   45.4094  mm)
(Y range:  -25.8166 ...   -0.8338  mm)

(Spindle Speed: None RPM)
G21
G90
G94



G01 F60.00
G00 Z2.0000

M03
G00 X1.9847 Y-2.3558
G01 F70.00
G01 Z-0.0600
G01 F60.00
G01 X2.4605 Y-2.3558
G01 X2.4700 Y-2.3552
G01 X2.4784 Y-2.3535
G01 X2.4866 Y-2.3508
G01 X2.6764 Y-2.2717
G01 X2.6863 Y-2.2666
G01 X2.6946 Y-2.2606
G01 X2.7025 Y-2.2528
G01 X2.7086 Y-2.2445
G01 X2.7941 Y-2.1020
G01 X2.7979 Y-2.0943
G01 X2.8007 Y-2.0861
G01 X2.8026 Y-2.0769
G01 X2.8032 Y-2.0683
G01 X2.8032 Y-1.9316
G01 X2.8022 Y-1.9214
G01 X2.7999 Y-1.9122
G01 X2.7932 Y-1.8973
G01 X2.7095 Y-1.7578
G01 X2.7031 Y-1.7488
G01 X2.6920 Y-1.7382
G01 X2.6780 Y-1.7299
G01 X2.4866 Y-1.6501
G01 X2.4776 Y-1.6472
G01 X2.4682 Y-1.6455
G01 X1.9830 Y-1.6451
G01 X1.9710 Y-1.6464
G01 X1.9595 Y-1.6498
G01 X1.9487 Y-1.6550
G01 X1.9396 Y-1.6615
G01 X1.9295 Y-1.6720
G01 X1.9218 Y-1.6844
G01 X1.9168 Y-1.6981
G01 X1.9147 Y-1.7125
G01 X1.9148 Y-2.2901
G01 X1.9168 Y-2.3028
G01 X1.9214 Y-2.3157
G01 X1.9279 Y-2.3268
G01 X1.9364 Y-2.3365
G01 X1.9472 Y-2.3450
G01 X1.9587 Y-2.3508
G01 X1.9719 Y-2.3546
G01 X1.9847 Y-2.3558
G00 Z2.0000
G00 X1.9847 Y-2.4258
G01 F70.00
G01 Z-0.0600
G01 F60.00
G01 X2.4605 Y-2.4258
G01 X2.4811 Y-2.4243
G01 X2.4980 Y-2.4207
G01 X2.5127 Y-2.4157
G01 X2.7049 Y-2.3357
G01 X2.7157 Y-2.3304
G01 X2.7260 Y-2.3243
G01 X2.7371 Y-2.3163
G01 X2.7461 Y-2.3084
G01 X2.7577 Y-2.2959
G01 X2.7678 Y-2.2820
G01 X2.8567 Y-2.1335
G01 X2.8632 Y-2.1195
G01 X2.8686 Y-2.1032
G01 X2.8719 Y-2.0863
G01 X2.8732 Y-2.0692
G01 X2.8731 Y-1.9282
G01 X2.8709 Y-1.9077
G01 X2.8661 Y-1.8894
G01 X2.8605 Y-1.8750
G01 X2.8533 Y-1.8613
G01 X2.7687 Y-1.7203
G01 X2.7599 Y-1.7077
G01 X2.7509 Y-1.6973
G01 X2.7410 Y-1.6879
G01 X2.7303 Y-1.6795
G01 X2.7187 Y-1.6721
G01 X2.7065 Y-1.6659
G01 X2.5111 Y-1.5846
G01 X2.4930 Y-1.5789
G01 X2.4743 Y-1.5758
G01 X2.4605 Y-1.5751
G01 X1.9761 Y-1.5753
G01 X1.9641 Y-1.5766
G01 X1.9523 Y-1.5789
G01 X1.9408 Y-1.5821
G01 X1.9295 Y-1.5864
G01 X1.9172 Y-1.5924
G01 X1.9069 Y-1.5987
G01 X1.8972 Y-1.6058
G01 X1.8881 Y-1.6137
G01 X1.8787 Y-1.6236
G01 X1.8702 Y-1.6345
G01 X1.8637 Y-1.6446
G01 X1.8574 Y-1.6568
G01 X1.8523 Y-1.6695
G01 X1.8489 Y-1.6811
G01 X1.8465 Y-1.6928
G01 X1.8449 Y-1.7065
G01 X1.8447 Y-2.2858
G01 X1.8457 Y-2.3030
G01 X1.8477 Y-2.3148
G01 X1.8512 Y-2.3281
G01 X1.8560 Y-2.3410
G01 X1.8612 Y-2.3518
G01 X1.8673 Y-2.3622
G01 X1.8754 Y-2.3733
G01 X1.8833 Y-2.3824
G01 X1.8919 Y-2.3907
G01 X1.9013 Y-2.3983
G01 X1.9127 Y-2.4059
G01 X1.9248 Y-2.4124
G01 X1.9359 Y-2.4170
G01 X1.9473 Y-2.4207
G01 X1.9607 Y-2.4238
G01 X1.9727 Y-2.4253
G01 X1.9847 Y-2.4258
G00 Z2.0000
G00 X2.5326 Y-2.4831
G01 F70.00
G01 Z-0.0600
G01 F60.00
G01 X2.5729 Y-2.4665
G01 X2.5709 Y-2.4866
G01 X2.5707 Y-2.5043
G01 X2.5326 Y-2.4831
G00 Z2.0000
G00 X2.7668 Y-2.6496
G01 F70.00
G01 Z-0.0600
G01 F60.00
G01 X2.7719 Y-2.6531
G01 X2.7762 Y-2.6587
G01 X2.9078 Y-2.8780
G01 X2.9110 Y-2.8856
G01 X2.9114 Y-3.3321
G01 X2.9110 Y-3.3375
G01 X2.9095 Y-3.3419
G01 X2.9070 Y-3.3459
G01 X2.9036 Y-3.3491
G01 X2.8996 Y-3.3514
G01 X2.8942 Y-3.3527
G01 X2.8895 Y-3.3526
G01 X2.8842 Y-3.3510
G01 X2.8802 Y-3.3485
G01 X2.8770 Y-3.3451
G01 X2.8747 Y-3.3411
G01 X2.8734 Y-3.3357
G01 X2.8732 Y-2.9316
G01 X2.8722 Y-2.9162
G01 X2.8698 Y-2.9027
G01 X2.8644 Y-2.8845
G01 X2.8558 Y-2.8658
G01 X2.7609 Y-2.7077
G01 X2.7517 Y-2.6954
G01 X2.7412 Y-2.6843
G01 X2.7296 Y-2.6743
G01 X2.7169 Y-2.6657
G01 X2.3858 Y-2.4816
G01 X2.3702 Y-2.4741
G01 X2.3537 Y-2.4687
G01 X2.3368 Y-2.4653
G01 X2.3178 Y-2.4640
G01 X1.9847 Y-2.4640
G01 X1.9641 Y-2.4655
G01 X1.9490 Y-2.4686
G01 X1.9327 Y-2.4740
G01 X1.9187 Y-2.4805
G01 X1.9055 Y-2.4885
G01 X1.8932 Y-2.4980
G01 X1.8821 Y-2.5087
G01 X1.8722 Y-2.5206
G01 X1.8637 Y-2.5335
G01 X1.8560 Y-2.5488
G01 X1.8502 Y-2.5650
G01 X1.8465 Y-2.5817
G01 X1.8447 Y-2.6005
G01 X1.8446 Y-3.3347
G01 X1.8435 Y-3.3402
G01 X1.8409 Y-3.3451
G01 X1.8369 Y-3.3491
G01 X1.8320 Y-3.3517
G01 X1.8265 Y-3.3528
G01 X1.8210 Y-3.3523
G01 X1.8158 Y-3.3501
G01 X1.8109 Y-3.3459
G01 X1.8074 Y-3.3393
G01 X1.8065 Y-3.3321
G01 X1.8065 Y-1.5577
G01 X1.8080 Y-1.5487
G01 X1.8103 Y-1.5447
G01 X1.8135 Y-1.5413
G01 X1.8201 Y-1.5378
G01 X1.8273 Y-1.5369
G01 X2.4942 Y-1.5371
G01 X2.5012 Y-1.5391
G01 X2.7648 Y-1.6488
G01 X2.7696 Y-1.6513
G01 X2.7737 Y-1.6550
G01 X2.9078 Y-1.8780
G01 X2.9105 Y-1.8838
G01 X2.9114 Y-1.8910
G01 X2.9114 Y-2.1098
G01 X2.9105 Y-2.1170
G01 X2.9078 Y-2.1228
G01 X2.7743 Y-2.3451
G01 X2.7711 Y-2.3485
G01 X2.7672 Y-2.3510
G01 X2.7252 Y-2.3686
G01 X2.7129 Y-2.3746
G01 X2.6984 Y-2.3838
G01 X2.6865 Y-2.3935
G01 X2.6734 Y-2.4071
G01 X2.6614 Y-2.4237
G01 X2.6519 Y-2.4420
G01 X2.6452 Y-2.4614
G01 X2.6424 Y-2.4748
G01 X2.6408 Y-2.4901
G01 X2.6409 Y-2.5055
G01 X2.6424 Y-2.5192
G01 X2.6452 Y-2.5326
G01 X2.6499 Y-2.5472
G01 X2.6554 Y-2.5598
G01 X2.6631 Y-2.5732
G01 X2.6700 Y-2.5829
G01 X2.6789 Y-2.5933
G01 X2.6875 Y-2.6017
G01 X2.6982 Y-2.6103
G01 X2.7111 Y-2.6187
G01 X2.7668 Y-2.6496
G00 Z2.0000
G00 X2.8015 Y-2.5888
G01 F70.00
G01 Z-0.0600
G01 F60.00
G01 X2.8094 Y-2.5937
G01 X2.8194 Y-2.6016
G01 X2.8281 Y-2.6109
G01 X2.8358 Y-2.6220
G01 X2.9682 Y-2.8427
G01 X2.9746 Y-2.8552
G01 X2.9796 Y-2.8719
G01 X2.9814 Y-2.8902
G01 X2.9813 Y-3.3382
G01 X2.9787 Y-3.3554
G01 X2.9746 Y-3.3679
G01 X2.9708 Y-3.3758
G01 X2.9611 Y-3.3903
G01 X2.9553 Y-3.3968
G01 X2.9454 Y-3.4053
G01 X2.9381 Y-3.4102
G01 X2.9264 Y-3.4161
G01 X2.9097 Y-3.4211
G01 X2.9010 Y-3.4224
G01 X2.8879 Y-3.4228
G01 X2.8792 Y-3.4219
G01 X2.8664 Y-3.4190
G01 X2.8582 Y-3.4161
G01 X2.8465 Y-3.4102
G01 X2.8325 Y-3.3998
G01 X2.8235 Y-3.3903
G01 X2.8183 Y-3.3833
G01 X2.8118 Y-3.3719
G01 X2.8084 Y-3.3638
G01 X2.8042 Y-3.3469
G01 X2.8032 Y-3.3329
G01 X2.8032 Y-2.9334
G01 X2.8022 Y-2.9214
G01 X2.7991 Y-2.9098
G01 X2.7941 Y-2.8988
G01 X2.7012 Y-2.7445
G01 X2.6916 Y-2.7337
G01 X2.6792 Y-2.7247
G01 X2.3518 Y-2.5428
G01 X2.3440 Y-2.5391
G01 X2.3358 Y-2.5363
G01 X2.3273 Y-2.5346
G01 X2.3186 Y-2.5340
G01 X1.9787 Y-2.5342
G01 X1.9627 Y-2.5375
G01 X1.9487 Y-2.5439
G01 X1.9364 Y-2.5533
G01 X1.9260 Y-2.5658
G01 X1.9210 Y-2.5748
G01 X1.9177 Y-2.5837
G01 X1.9156 Y-2.5929
G01 X1.9147 Y-2.6031
G01 X1.9147 Y-3.3329
G01 X1.9129 Y-3.3512
G01 X1.9095 Y-3.3638
G01 X1.9041 Y-3.3758
G01 X1.8996 Y-3.3833
G01 X1.8916 Y-3.3936
G01 X1.8854 Y-3.3998
G01 X1.8751 Y-3.4078
G01 X1.8637 Y-3.4143
G01 X1.8515 Y-3.4190
G01 X1.8387 Y-3.4219
G01 X1.8256 Y-3.4229
G01 X1.8169 Y-3.4224
G01 X1.8040 Y-3.4202
G01 X1.7915 Y-3.4161
G01 X1.7798 Y-3.4102
G01 X1.7691 Y-3.4026
G01 X1.7596 Y-3.3936
G01 X1.7492 Y-3.3796
G01 X1.7417 Y-3.3638
G01 X1.7375 Y-3.3469
G01 X1.7365 Y-3.3329
G01 X1.7365 Y-1.5569
G01 X1.7383 Y-1.5386
G01 X1.7433 Y-1.5219
G01 X1.7516 Y-1.5065
G01 X1.7596 Y-1.4962
G01 X1.7658 Y-1.4900
G01 X1.7761 Y-1.4820
G01 X1.7915 Y-1.4737
G01 X1.8082 Y-1.4687
G01 X1.8212 Y-1.4670
G01 X2.5011 Y-1.4674
G01 X2.5140 Y-1.4696
G01 X2.5274 Y-1.4741
G01 X2.7925 Y-1.5845
G01 X2.8086 Y-1.5931
G01 X2.8189 Y-1.6012
G01 X2.8250 Y-1.6073
G01 X2.8358 Y-1.6220
G01 X2.9682 Y-1.8427
G01 X2.9728 Y-1.8512
G01 X2.9775 Y-1.8634
G01 X2.9804 Y-1.8762
G01 X2.9814 Y-1.8902
G01 X2.9814 Y-2.1106
G01 X2.9809 Y-2.1202
G01 X2.9787 Y-2.1331
G01 X2.9746 Y-2.1456
G01 X2.9708 Y-2.1535
G01 X2.8305 Y-2.3868
G01 X2.8189 Y-2.3997
G01 X2.8049 Y-2.4101
G01 X2.7925 Y-2.4164
G01 X2.7513 Y-2.4335
G01 X2.7388 Y-2.4410
G01 X2.7317 Y-2.4471
G01 X2.7249 Y-2.4548
G01 X2.7193 Y-2.4634
G01 X2.7150 Y-2.4727
G01 X2.7123 Y-2.4818
G01 X2.7110 Y-2.4902
G01 X2.7106 Y-2.4988
G01 X2.7114 Y-2.5073
G01 X2.7131 Y-2.5157
G01 X2.7159 Y-2.5238
G01 X2.7196 Y-2.5315
G01 X2.7243 Y-2.5387
G01 X2.7322 Y-2.5477
G01 X2.7422 Y-2.5557
G01 X2.8015 Y-2.5888
G00 Z2.0000
G00 X4.4462 Y-2.4258
G01 F70.00
G01 Z-0.0600
G01 F60.00
G01 X4.4534 Y-2.4267
G01 X4.4600 Y-2.4302
G01 X4.4647 Y-2.4359
G01 X4.4668 Y-2.4430
G01 X4.4661 Y-2.4504
G01 X4.4626 Y-2.4570
G01 X4.4569 Y-2.4617
G01 X4.4498 Y-2.4638
G01 X3.6667 Y-2.4641
G01 X3.6530 Y-2.4655
G01 X3.6412 Y-2.4678
G01 X3.6297 Y-2.4710
G01 X3.6168 Y-2.4760
G01 X3.6061 Y-2.4813
G01 X3.5944 Y-2.4885
G01 X3.5848 Y-2.4958
G01 X3.5758 Y-2.5038
G01 X3.5665 Y-2.5138
G01 X3.5591 Y-2.5234
G01 X3.5526 Y-2.5335
G01 X3.5470 Y-2.5441
G01 X3.5418 Y-2.5568
G01 X3.5382 Y-2.5683
G01 X3.5356 Y-2.5800
G01 X3.5341 Y-2.5920
G01 X3.5336 Y-2.6040
G01 X3.5335 Y-3.3347
G01 X3.5324 Y-3.3402
G01 X3.5298 Y-3.3451
G01 X3.5258 Y-3.3491
G01 X3.5209 Y-3.3517
G01 X3.5154 Y-3.3528
G01 X3.5099 Y-3.3523
G01 X3.5055 Y-3.3506
G01 X3.5010 Y-3.3473
G01 X3.4966 Y-3.3402
G01 X3.4954 Y-3.3321
G01 X3.4954 Y-1.5577
G01 X3.4966 Y-1.5496
G01 X3.5010 Y-1.5425
G01 X3.5081 Y-1.5381
G01 X3.5162 Y-1.5369
G01 X4.4462 Y-1.5369
G01 X4.4543 Y-1.5381
G01 X4.4607 Y-1.5419
G01 X4.4642 Y-1.5462
G01 X4.4664 Y-1.5514
G01 X4.4669 Y-1.5569
G01 X4.4658 Y-1.5624
G01 X4.4632 Y-1.5673
G01 X4.4592 Y-1.5713
G01 X4.4543 Y-1.5739
G01 X4.4488 Y-1.5750
G01 X3.6736 Y-1.5751
G01 X3.6599 Y-1.5758
G01 X3.6480 Y-1.5774
G01 X3.6362 Y-1.5802
G01 X3.6248 Y-1.5839
G01 X3.6137 Y-1.5885
G01 X3.6031 Y-1.5941
G01 X3.5930 Y-1.6006
G01 X3.5834 Y-1.6080
G01 X3.5746 Y-1.6161
G01 X3.5665 Y-1.6249
G01 X3.5591 Y-1.6345
G01 X3.5526 Y-1.6446
G01 X3.5470 Y-1.6552
G01 X3.5424 Y-1.6663
G01 X3.5387 Y-1.6777
G01 X3.5359 Y-1.6895
G01 X3.5343 Y-1.7014
G01 X3.5336 Y-1.7134
G01 X3.5340 Y-2.2961
G01 X3.5356 Y-2.3098
G01 X3.5391 Y-2.3248
G01 X3.5436 Y-2.3378
G01 X3.5501 Y-2.3518
G01 X3.5581 Y-2.3650
G01 X3.5665 Y-2.3760
G01 X3.5770 Y-2.3872
G01 X3.5874 Y-2.3962
G01 X3.6061 Y-2.4085
G01 X3.6264 Y-2.4176
G01 X3.6463 Y-2.4231
G01 X3.6684 Y-2.4257
G01 X4.4462 Y-2.4258
G00 Z2.0000
G00 X4.4470 Y-2.3558
G01 F70.00
G01 Z-0.0600
G01 F60.00
G01 X4.4610 Y-2.3568
G01 X4.4779 Y-2.3610
G01 X4.4899 Y-2.3664
G01 X4.5044 Y-2.3761
G01 X4.5167 Y-2.3884
G01 X4.5264 Y-2.4029
G01 X4.5318 Y-2.4149
G01 X4.5360 Y-2.4318
G01 X4.5370 Y-2.4449
G01 X4.5352 Y-2.4623
G01 X4.5302 Y-2.4790
G01 X4.5219 Y-2.4944
G01 X4.5109 Y-2.5079
G01 X4.5010 Y-2.5164
G01 X4.4860 Y-2.5254
G01 X4.4695 Y-2.5313
G01 X4.4566 Y-2.5335
G01 X4.4470 Y-2.5340
G01 X3.6719 Y-2.5340
G01 X3.6582 Y-2.5357
G01 X3.6452 Y-2.5400
G01 X3.6333 Y-2.5467
G01 X3.6229 Y-2.5557
G01 X3.6149 Y-2.5658
G01 X3.6089 Y-2.5772
G01 X3.6051 Y-2.5895
G01 X3.6036 Y-2.6023
G01 X3.6036 Y-3.3329
G01 X3.6018 Y-3.3512
G01 X3.5984 Y-3.3638
G01 X3.5950 Y-3.3719
G01 X3.5885 Y-3.3833
G01 X3.5805 Y-3.3936
G01 X3.5710 Y-3.4026
G01 X3.5640 Y-3.4078
G01 X3.5526 Y-3.4143
G01 X3.5404 Y-3.4190
G01 X3.5276 Y-3.4219
G01 X3.5145 Y-3.4229
G01 X3.5058 Y-3.4224
G01 X3.4929 Y-3.4202
G01 X3.4804 Y-3.4161
G01 X3.4687 Y-3.4102
G01 X3.4580 Y-3.4026
G01 X3.4515 Y-3.3968
G01 X3.4405 Y-3.3833
G01 X3.4322 Y-3.3679
G01 X3.4272 Y-3.3512
G01 X3.4254 Y-3.3329
G01 X3.4254 Y-1.5569
G01 X3.4272 Y-1.5386
G01 X3.4322 Y-1.5219
G01 X3.4405 Y-1.5065
G01 X3.4515 Y-1.4930
G01 X3.4650 Y-1.4820
G01 X3.4804 Y-1.4737
G01 X3.4971 Y-1.4687
G01 X3.5154 Y-1.4669
G01 X4.4470 Y-1.4669
G01 X4.4610 Y-1.4679
G01 X4.4779 Y-1.4721
G01 X4.4937 Y-1.4796
G01 X4.5077 Y-1.4900
G01 X4.5139 Y-1.4962
G01 X4.5219 Y-1.5065
G01 X4.5284 Y-1.5179
G01 X4.5331 Y-1.5301
G01 X4.5360 Y-1.5429
G01 X4.5370 Y-1.5560
G01 X4.5360 Y-1.5691
G01 X4.5343 Y-1.5776
G01 X4.5302 Y-1.5901
G01 X4.5243 Y-1.6018
G01 X4.5194 Y-1.6091
G01 X4.5109 Y-1.6190
G01 X4.5044 Y-1.6248
G01 X4.4937 Y-1.6324
G01 X4.4820 Y-1.6383
G01 X4.4695 Y-1.6424
G01 X4.4566 Y-1.6446
G01 X4.4470 Y-1.6451
G01 X3.6684 Y-1.6453
G01 X3.6557 Y-1.6474
G01 X3.6444 Y-1.6514
G01 X3.6333 Y-1.6578
G01 X3.6241 Y-1.6656
G01 X3.6159 Y-1.6755
G01 X3.6099 Y-1.6859
G01 X3.6059 Y-1.6972
G01 X3.6038 Y-1.7099
G01 X3.6037 Y-2.2893
G01 X3.6061 Y-2.3045
G01 X3.6118 Y-2.3188
G01 X3.6206 Y-2.3315
G01 X3.6312 Y-2.3415
G01 X3.6406 Y-2.3476
G01 X3.6508 Y-2.3520
G01 X3.6616 Y-2.3548
G01 X3.6727 Y-2.3558
G01 X4.4470 Y-2.3558
G00 Z2.0000
G00 X5.6298 Y-2.3347
G01 F70.00
G01 Z-0.0600
G01 F60.00
G01 X5.6308 Y-2.3207
G01 X5.6350 Y-2.3038
G01 X5.6425 Y-2.2880
G01 X5.6529 Y-2.2740
G01 X5.6658 Y-2.2623
G01 X5.6808 Y-2.2533
G01 X5.6973 Y-2.2474
G01 X5.7145 Y-2.2448
G01 X5.7276 Y-2.2452
G01 X5.7448 Y-2.2486
G01 X5.7609 Y-2.2553
G01 X5.7754 Y-2.2650
G01 X5.7877 Y-2.2773
G01 X5.7974 Y-2.2918
G01 X5.8041 Y-2.3079
G01 X5.8075 Y-2.3251
G01 X5.8079 Y-3.3382
G01 X5.8062 Y-3.3512
G01 X5.8012 Y-3.3679
G01 X5.7929 Y-3.3833
G01 X5.7819 Y-3.3968
G01 X5.7684 Y-3.4078
G01 X5.7570 Y-3.4143
G01 X5.7448 Y-3.4190
G01 X5.7276 Y-3.4224
G01 X5.7102 Y-3.4224
G01 X5.6930 Y-3.4190
G01 X5.6769 Y-3.4123
G01 X5.6624 Y-3.4026
G01 X5.6501 Y-3.3903
G01 X5.6404 Y-3.3758
G01 X5.6337 Y-3.3597
G01 X5.6303 Y-3.3425
G01 X5.6298 Y-2.3347
G00 Z2.0000
G00 X5.6998 Y-2.3355
G01 F70.00
G01 Z-0.0600
G01 F60.00
G01 X5.7007 Y-2.3283
G01 X5.7042 Y-2.3217
G01 X5.7099 Y-2.3170
G01 X5.7170 Y-2.3149
G01 X5.7244 Y-2.3156
G01 X5.7310 Y-2.3191
G01 X5.7357 Y-2.3248
G01 X5.7378 Y-2.3319
G01 X5.7380 Y-3.3321
G01 X5.7368 Y-3.3402
G01 X5.7330 Y-3.3466
G01 X5.7262 Y-3.3514
G01 X5.7189 Y-3.3528
G01 X5.7108 Y-3.3510
G01 X5.7048 Y-3.3466
G01 X5.7010 Y-3.3402
G01 X5.6998 Y-3.3321
G01 X5.6998 Y-2.3355
G00 Z2.0000
G00 X6.4851 Y-2.3059
G01 F70.00
G01 Z-0.0600
G01 F60.00
G01 X6.7187 Y-2.2476
G01 X6.7281 Y-2.2457
G01 X6.7411 Y-2.2447
G01 X6.7541 Y-2.2457
G01 X6.7635 Y-2.2476
G01 X7.0335 Y-2.3151
G01 X7.0453 Y-2.3196
G01 X7.0564 Y-2.3258
G01 X7.0665 Y-2.3334
G01 X7.0726 Y-2.3393
G01 X7.2082 Y-2.4974
G01 X7.2167 Y-2.5090
G01 X7.2230 Y-2.5209
G01 X7.2273 Y-2.5337
G01 X7.2297 Y-2.5470
G01 X7.2302 Y-2.5569
G01 X7.2301 Y-3.3382
G01 X7.2275 Y-3.3554
G01 X7.2250 Y-3.3638
G01 X7.2196 Y-3.3758
G01 X7.2126 Y-3.3869
G01 X7.2071 Y-3.3936
G01 X7.2009 Y-3.3998
G01 X7.1906 Y-3.4078
G01 X7.1792 Y-3.4143
G01 X7.1711 Y-3.4177
G01 X7.1585 Y-3.4211
G01 X7.1498 Y-3.4224
G01 X7.1367 Y-3.4228
G01 X7.1280 Y-3.4219
G01 X7.1152 Y-3.4190
G01 X7.1070 Y-3.4161
G01 X7.0953 Y-3.4102
G01 X7.0880 Y-3.4053
G01 X7.0781 Y-3.3968
G01 X7.0723 Y-3.3903
G01 X7.0647 Y-3.3796
G01 X7.0606 Y-3.3719
G01 X7.0559 Y-3.3597
G01 X7.0538 Y-3.3512
G01 X7.0520 Y-3.3329
G01 X7.0520 Y-2.6140
G01 X7.0503 Y-2.5996
G01 X7.0457 Y-2.5858
G01 X7.0413 Y-2.5775
G01 X7.0363 Y-2.5706
G01 X6.9726 Y-2.4962
G01 X6.9632 Y-2.4873
G01 X6.9523 Y-2.4803
G01 X6.9370 Y-2.4745
G01 X6.7572 Y-2.4296
G01 X6.7428 Y-2.4278
G01 X6.7334 Y-2.4282
G01 X6.7241 Y-2.4299
G01 X6.5445 Y-2.4747
G01 X6.5307 Y-2.4799
G01 X6.5198 Y-2.4868
G01 X6.5103 Y-2.4956
G01 X6.4465 Y-2.5699
G01 X6.4376 Y-2.5835
G01 X6.4323 Y-2.5979
G01 X6.4302 Y-2.6140
G01 X6.4302 Y-3.3329
G01 X6.4284 Y-3.3512
G01 X6.4250 Y-3.3638
G01 X6.4196 Y-3.3758
G01 X6.4126 Y-3.3869
G01 X6.4041 Y-3.3968
G01 X6.3942 Y-3.4053
G01 X6.3831 Y-3.4123
G01 X6.3711 Y-3.4177
G01 X6.3585 Y-3.4211
G01 X6.3455 Y-3.4228
G01 X6.3324 Y-3.4224
G01 X6.3195 Y-3.4202
G01 X6.3070 Y-3.4161
G01 X6.2953 Y-3.4102
G01 X6.2846 Y-3.4026
G01 X6.2751 Y-3.3936
G01 X6.2671 Y-3.3833
G01 X6.2606 Y-3.3719
G01 X6.2559 Y-3.3597
G01 X6.2530 Y-3.3469
G01 X6.2520 Y-3.3329
G01 X6.2520 Y-2.3347
G01 X6.2538 Y-2.3164
G01 X6.2572 Y-2.3038
G01 X6.2626 Y-2.2918
G01 X6.2696 Y-2.2807
G01 X6.2813 Y-2.2678
G01 X6.2916 Y-2.2598
G01 X6.3070 Y-2.2515
G01 X6.3237 Y-2.2465
G01 X6.3367 Y-2.2448
G01 X6.3455 Y-2.2448
G01 X6.3585 Y-2.2465
G01 X6.3711 Y-2.2499
G01 X6.3831 Y-2.2553
G01 X6.3906 Y-2.2598
G01 X6.4009 Y-2.2678
G01 X6.4071 Y-2.2740
G01 X6.4168 Y-2.2857
G01 X6.4237 Y-2.2921
G01 X6.4321 Y-2.2981
G01 X6.4413 Y-2.3027
G01 X6.4519 Y-2.3061
G01 X6.4629 Y-2.3078
G01 X6.4741 Y-2.3078
G01 X6.4851 Y-2.3059
G00 Z2.0000
G00 X6.5020 Y-2.3739
G01 F70.00
G01 Z-0.0600
G01 F60.00
G01 X6.7348 Y-2.3157
G01 X6.7411 Y-2.3148
G01 X6.7474 Y-2.3157
G01 X7.0108 Y-2.3815
G01 X7.0182 Y-2.3844
G01 X7.0234 Y-2.3893
G01 X7.1567 Y-2.5451
G01 X7.1595 Y-2.5512
G01 X7.1602 Y-2.5578
G01 X7.1602 Y-3.3321
G01 X7.1598 Y-3.3375
G01 X7.1583 Y-3.3419
G01 X7.1558 Y-3.3459
G01 X7.1517 Y-3.3496
G01 X7.1475 Y-3.3517
G01 X7.1420 Y-3.3528
G01 X7.1374 Y-3.3525
G01 X7.1321 Y-3.3506
G01 X7.1283 Y-3.3479
G01 X7.1248 Y-3.3436
G01 X7.1229 Y-3.3393
G01 X7.1221 Y-3.3347
G01 X7.1220 Y-2.6131
G01 X7.1212 Y-2.5995
G01 X7.1194 Y-2.5876
G01 X7.1160 Y-2.5744
G01 X7.1115 Y-2.5615
G01 X7.1032 Y-2.5446
G01 X7.0927 Y-2.5290
G01 X7.0252 Y-2.4501
G01 X7.0168 Y-2.4413
G01 X7.0077 Y-2.4333
G01 X6.9980 Y-2.4262
G01 X6.9876 Y-2.4199
G01 X6.9720 Y-2.4125
G01 X6.9539 Y-2.4066
G01 X6.7734 Y-2.3615
G01 X6.7582 Y-2.3588
G01 X6.7428 Y-2.3578
G01 X6.7274 Y-2.3584
G01 X6.7105 Y-2.3612
G01 X6.5283 Y-2.4066
G01 X6.5103 Y-2.4125
G01 X6.4946 Y-2.4199
G01 X6.4843 Y-2.4261
G01 X6.4746 Y-2.4333
G01 X6.4655 Y-2.4413
G01 X6.4571 Y-2.4500
G01 X6.3896 Y-2.5290
G01 X6.3791 Y-2.5446
G01 X6.3714 Y-2.5599
G01 X6.3667 Y-2.5728
G01 X6.3632 Y-2.5860
G01 X6.3610 Y-2.5995
G01 X6.3602 Y-2.6131
G01 X6.3601 Y-3.3347
G01 X6.3587 Y-3.3411
G01 X6.3558 Y-3.3459
G01 X6.3517 Y-3.3496
G01 X6.3457 Y-3.3523
G01 X6.3402 Y-3.3528
G01 X6.3347 Y-3.3517
G01 X6.3290 Y-3.3485
G01 X6.3253 Y-3.3444
G01 X6.3226 Y-3.3384
G01 X6.3220 Y-3.3321
G01 X6.3220 Y-2.3355
G01 X6.3226 Y-2.3292
G01 X6.3258 Y-2.3225
G01 X6.3313 Y-2.3175
G01 X6.3383 Y-2.3150
G01 X6.3457 Y-2.3153
G01 X6.3501 Y-2.3170
G01 X6.3539 Y-2.3197
G01 X6.3691 Y-2.3370
G01 X6.3847 Y-2.3505
G01 X6.4021 Y-2.3615
G01 X6.4193 Y-2.3692
G01 X6.4390 Y-2.3750
G01 X6.4612 Y-2.3779
G01 X6.4817 Y-2.3774
G01 X6.5020 Y-2.3739
G00 Z2.0000
G00 X3.7639 Y-6.7382
G01 F70.00
G01 Z-0.0600
G01 F60.00
G01 X3.7514 Y-6.7060
G01 X3.7286 Y-6.6548
G01 X3.7042 Y-6.6064
G01 X3.6757 Y-6.5563
G01 X3.6467 Y-6.5104
G01 X3.6145 Y-6.4647
G01 X3.5800 Y-6.4206
G01 X3.5423 Y-6.3770
G01 X3.5049 Y-6.3377
G01 X3.4644 Y-6.2991
G01 X3.4220 Y-6.2626
G01 X3.3779 Y-6.2281
G01 X3.3322 Y-6.1959
G01 X3.2849 Y-6.1660
G01 X3.2362 Y-6.1384
G01 X3.1847 Y-6.1125
G01 X3.1351 Y-6.0906
G01 X3.0829 Y-6.0704
G01 X3.0297 Y-6.0529
G01 X2.9758 Y-6.0380
G01 X2.9212 Y-6.0257
G01 X2.8661 Y-6.0161
G01 X2.8105 Y-6.0093
G01 X2.7547 Y-6.0052
G01 X2.6988 Y-6.0038
G01 X2.6429 Y-6.0052
G01 X2.5871 Y-6.0093
G01 X2.5315 Y-6.0161
G01 X2.4764 Y-6.0257
G01 X2.4218 Y-6.0380
G01 X2.3679 Y-6.0529
G01 X2.3131 Y-6.0710
G01 X2.2625 Y-6.0906
G01 X2.2114 Y-6.1133
G01 X2.1614 Y-6.1384
G01 X2.1127 Y-6.1660
G01 X2.0654 Y-6.1959
G01 X2.0197 Y-6.2281
G01 X1.9756 Y-6.2626
G01 X1.9332 Y-6.2991
G01 X1.8927 Y-6.3377
G01 X1.8541 Y-6.3782
G01 X1.8176 Y-6.4206
G01 X1.7831 Y-6.4647
G01 X1.7509 Y-6.5104
G01 X1.7210 Y-6.5577
G01 X1.6934 Y-6.6064
G01 X1.6683 Y-6.6564
G01 X1.6456 Y-6.7075
G01 X1.6254 Y-6.7597
G01 X1.6079 Y-6.8129
G01 X1.5930 Y-6.8668
G01 X1.5807 Y-6.9214
G01 X1.5711 Y-6.9765
G01 X1.5643 Y-7.0321
G01 X1.5602 Y-7.0879
G01 X1.5588 Y-7.1438
G01 X1.5602 Y-7.1997
G01 X1.5643 Y-7.2555
G01 X1.5711 Y-7.3111
G01 X1.5807 Y-7.3662
G01 X1.5930 Y-7.4208
G01 X1.6079 Y-7.4747
G01 X1.6260 Y-7.5295
G01 X1.6456 Y-7.5801
G01 X1.6668 Y-7.6281
G01 X1.6934 Y-7.6812
G01 X1.7210 Y-7.7299
G01 X1.7491 Y-7.7743
G01 X1.7831 Y-7.8229
G01 X1.8176 Y-7.8670
G01 X1.8518 Y-7.9068
G01 X1.8927 Y-7.9499
G01 X1.9358 Y-7.9908
G01 X1.9756 Y-8.0250
G01 X2.0170 Y-8.0574
G01 X2.0683 Y-8.0935
G01 X2.1127 Y-8.1216
G01 X2.1584 Y-8.1475
G01 X2.2114 Y-8.1743
G01 X2.2657 Y-8.1983
G01 X2.3147 Y-8.2172
G01 X2.3646 Y-8.2337
G01 X2.4218 Y-8.2496
G01 X2.4764 Y-8.2619
G01 X2.5281 Y-8.2709
G01 X2.5888 Y-8.2785
G01 X2.6429 Y-8.2824
G01 X2.6988 Y-8.2838
G01 X2.7547 Y-8.2824
G01 X2.8071 Y-8.2786
G01 X2.8695 Y-8.2709
G01 X2.9212 Y-8.2619
G01 X2.9758 Y-8.2496
G01 X3.0297 Y-8.2347
G01 X3.0796 Y-8.2183
G01 X3.1382 Y-8.1957
G01 X3.1862 Y-8.1743
G01 X3.2362 Y-8.1492
G01 X3.2849 Y-8.1216
G01 X3.3293 Y-8.0935
G01 X3.3779 Y-8.0595
G01 X3.4193 Y-8.0272
G01 X3.4669 Y-7.9861
G01 X3.5049 Y-7.9499
G01 X3.5435 Y-7.9094
G01 X3.5800 Y-7.8670
G01 X3.6124 Y-7.8256
G01 X3.6485 Y-7.7743
G01 X3.6766 Y-7.7299
G01 X3.7042 Y-7.6812
G01 X3.7293 Y-7.6312
G01 X3.7507 Y-7.5832
G01 X3.7753 Y-7.5184
G01 X6.1155 Y-7.4844
G01 X6.1226 Y-7.5024
G01 X6.1439 Y-7.5505
G01 X6.1690 Y-7.6005
G01 X6.1974 Y-7.6507
G01 X6.2283 Y-7.6995
G01 X6.2616 Y-7.7465
G01 X6.2940 Y-7.7879
G01 X6.3283 Y-7.8277
G01 X6.3691 Y-7.8709
G01 X6.4110 Y-7.9106
G01 X6.4548 Y-7.9482
G01 X6.4962 Y-7.9805
G01 X6.5391 Y-8.0107
G01 X6.5893 Y-8.0426
G01 X6.6380 Y-8.0702
G01 X6.6911 Y-8.0968
G01 X6.7391 Y-8.1181
G01 X6.7882 Y-8.1370
G01 X6.8445 Y-8.1558
G01 X6.9018 Y-8.1715
G01 X6.9565 Y-8.1836
G01 X7.0083 Y-8.1926
G01 X7.0604 Y-8.1990
G01 X7.1196 Y-8.2035
G01 X7.1739 Y-8.2049
G01 X9.1756 Y-8.2049
G01 X9.2316 Y-8.2035
G01 X9.2874 Y-8.1994
G01 X9.3429 Y-8.1926
G01 X9.3981 Y-8.1830
G01 X9.4527 Y-8.1707
G01 X9.5067 Y-8.1558
G01 X9.5598 Y-8.1382
G01 X9.6121 Y-8.1181
G01 X9.6601 Y-8.0968
G01 X9.7162 Y-8.0686
G01 X9.7619 Y-8.0426
G01 X9.8121 Y-8.0107
G01 X9.8550 Y-7.9805
G01 X9.8991 Y-7.9460
G01 X9.9415 Y-7.9095
G01 X9.9821 Y-7.8709
G01 X10.0207 Y-7.8303
G01 X10.0572 Y-7.7879
G01 X10.0917 Y-7.7438
G01 X10.1219 Y-7.7009
G01 X10.1538 Y-7.6507
G01 X10.1798 Y-7.6050
G01 X10.2080 Y-7.5489
G01 X10.2293 Y-7.5009
G01 X10.2494 Y-7.4486
G01 X10.2670 Y-7.3955
G01 X10.2819 Y-7.3415
G01 X10.2942 Y-7.2869
G01 X10.3038 Y-7.2317
G01 X10.3106 Y-7.1762
G01 X10.3146 Y-7.1221
G01 X10.3161 Y-7.0644
G01 X10.3147 Y-7.0084
G01 X10.3106 Y-6.9526
G01 X10.3038 Y-6.8971
G01 X10.2942 Y-6.8419
G01 X10.2819 Y-6.7873
G01 X10.2670 Y-6.7333
G01 X10.2494 Y-6.6802
G01 X10.2293 Y-6.6279
G01 X10.2066 Y-6.5768
G01 X10.1814 Y-6.5268
G01 X10.1538 Y-6.4781
G01 X10.1239 Y-6.4308
G01 X10.0917 Y-6.3850
G01 X10.0572 Y-6.3409
G01 X10.0207 Y-6.2985
G01 X9.9821 Y-6.2579
G01 X9.9415 Y-6.2193
G01 X9.8991 Y-6.1828
G01 X9.8550 Y-6.1483
G01 X9.8092 Y-6.1161
G01 X9.7619 Y-6.0862
G01 X9.7132 Y-6.0586
G01 X9.6632 Y-6.0334
G01 X9.6121 Y-6.0107
G01 X9.5598 Y-5.9906
G01 X9.5067 Y-5.9730
G01 X9.4527 Y-5.9581
G01 X9.3981 Y-5.9458
G01 X9.3429 Y-5.9362
G01 X9.2874 Y-5.9294
G01 X9.2333 Y-5.9254
G01 X9.1756 Y-5.9239
G01 X7.1756 Y-5.9239
G01 X7.1162 Y-5.9255
G01 X7.0638 Y-5.9294
G01 X7.0083 Y-5.9362
G01 X6.9531 Y-5.9458
G01 X6.9018 Y-5.9573
G01 X6.8445 Y-5.9730
G01 X6.7882 Y-5.9918
G01 X6.7391 Y-6.0107
G01 X6.6911 Y-6.0320
G01 X6.6380 Y-6.0586
G01 X6.5863 Y-6.0880
G01 X6.5420 Y-6.1161
G01 X6.4990 Y-6.1463
G01 X6.4508 Y-6.1839
G01 X6.4097 Y-6.2193
G01 X6.3716 Y-6.2555
G01 X6.3305 Y-6.2985
G01 X6.2918 Y-6.3436
G01 X6.2595 Y-6.3850
G01 X6.2283 Y-6.4293
G01 X6.1956 Y-6.4810
G01 X6.1698 Y-6.5268
G01 X6.1453 Y-6.5752
G01 X6.1213 Y-6.6295
G01 X6.1024 Y-6.6786
G01 X6.0937 Y-6.7044
G01 X3.7639 Y-6.7382
G00 Z2.0000
G00 X3.7147 Y-6.8089
G01 F70.00
G01 Z-0.0600
G01 F60.00
G01 X3.7060 Y-6.7825
G01 X3.6870 Y-6.7335
G01 X3.6661 Y-6.6863
G01 X3.6420 Y-6.6387
G01 X3.6166 Y-6.5937
G01 X3.5885 Y-6.5493
G01 X3.5582 Y-6.5064
G01 X3.5254 Y-6.4643
G01 X3.4916 Y-6.4252
G01 X3.4554 Y-6.3872
G01 X3.4174 Y-6.3510
G01 X3.3776 Y-6.3167
G01 X3.3362 Y-6.2844
G01 X3.2933 Y-6.2541
G01 X3.2489 Y-6.2260
G01 X3.2024 Y-6.1997
G01 X3.1563 Y-6.1765
G01 X3.1083 Y-6.1552
G01 X3.0593 Y-6.1363
G01 X3.0094 Y-6.1199
G01 X2.9588 Y-6.1059
G01 X2.9075 Y-6.0944
G01 X2.8558 Y-6.0854
G01 X2.8037 Y-6.0790
G01 X2.7513 Y-6.0751
G01 X2.6988 Y-6.0738
G01 X2.6463 Y-6.0751
G01 X2.5939 Y-6.0790
G01 X2.5418 Y-6.0854
G01 X2.4901 Y-6.0944
G01 X2.4388 Y-6.1059
G01 X2.3874 Y-6.1201
G01 X2.3383 Y-6.1363
G01 X2.2893 Y-6.1552
G01 X2.2413 Y-6.1765
G01 X2.1944 Y-6.2001
G01 X2.1487 Y-6.2260
G01 X2.1043 Y-6.2541
G01 X2.0614 Y-6.2844
G01 X2.0200 Y-6.3167
G01 X1.9802 Y-6.3510
G01 X1.9422 Y-6.3872
G01 X1.9060 Y-6.4252
G01 X1.8717 Y-6.4650
G01 X1.8394 Y-6.5064
G01 X1.8091 Y-6.5493
G01 X1.7810 Y-6.5937
G01 X1.7551 Y-6.6394
G01 X1.7315 Y-6.6863
G01 X1.7102 Y-6.7343
G01 X1.6913 Y-6.7833
G01 X1.6749 Y-6.8332
G01 X1.6609 Y-6.8838
G01 X1.6494 Y-6.9351
G01 X1.6404 Y-6.9868
G01 X1.6340 Y-7.0389
G01 X1.6301 Y-7.0913
G01 X1.6288 Y-7.1438
G01 X1.6301 Y-7.1963
G01 X1.6340 Y-7.2487
G01 X1.6404 Y-7.3008
G01 X1.6494 Y-7.3525
G01 X1.6609 Y-7.4038
G01 X1.6751 Y-7.4552
G01 X1.6913 Y-7.5043
G01 X1.7096 Y-7.5517
G01 X1.7315 Y-7.6013
G01 X1.7551 Y-7.6482
G01 X1.7802 Y-7.6924
G01 X1.8091 Y-7.7383
G01 X1.8404 Y-7.7826
G01 X1.8717 Y-7.8226
G01 X1.9060 Y-7.8624
G01 X1.9422 Y-7.9004
G01 X1.9790 Y-7.9354
G01 X2.0200 Y-7.9709
G01 X2.0614 Y-8.0032
G01 X2.1029 Y-8.0325
G01 X2.1487 Y-8.0616
G01 X2.1959 Y-8.0882
G01 X2.2413 Y-8.1111
G01 X2.2893 Y-8.1324
G01 X2.3383 Y-8.1513
G01 X2.3866 Y-8.1672
G01 X2.4388 Y-8.1817
G01 X2.4901 Y-8.1932
G01 X2.5401 Y-8.2019
G01 X2.5948 Y-8.2087
G01 X2.6463 Y-8.2125
G01 X2.6988 Y-8.2138
G01 X2.7513 Y-8.2125
G01 X2.8020 Y-8.2088
G01 X2.8575 Y-8.2019
G01 X2.9075 Y-8.1932
G01 X2.9588 Y-8.1817
G01 X3.0094 Y-8.1677
G01 X3.0576 Y-8.1518
G01 X3.1099 Y-8.1317
G01 X3.1563 Y-8.1111
G01 X3.2032 Y-8.0875
G01 X3.2489 Y-8.0616
G01 X3.2933 Y-8.0335
G01 X3.3362 Y-8.0032
G01 X3.3776 Y-7.9709
G01 X3.4174 Y-7.9366
G01 X3.4542 Y-7.9016
G01 X3.4928 Y-7.8611
G01 X3.5259 Y-7.8226
G01 X3.5582 Y-7.7812
G01 X3.5885 Y-7.7383
G01 X3.6166 Y-7.6939
G01 X3.6425 Y-7.6482
G01 X3.6653 Y-7.6028
G01 X3.6874 Y-7.5533
G01 X3.7057 Y-7.5059
G01 X3.7242 Y-7.4491
G01 X6.1639 Y-7.4137
G01 X6.1863 Y-7.4733
G01 X6.2083 Y-7.5229
G01 X6.2315 Y-7.5690
G01 X6.2565 Y-7.6133
G01 X6.2855 Y-7.6591
G01 X6.3158 Y-7.7021
G01 X6.3492 Y-7.7448
G01 X6.3824 Y-7.7833
G01 X6.4174 Y-7.8201
G01 X6.4567 Y-7.8576
G01 X6.4965 Y-7.8919
G01 X6.5393 Y-7.9252
G01 X6.5809 Y-7.9545
G01 X6.6238 Y-7.9817
G01 X6.6710 Y-8.0085
G01 X6.7195 Y-8.0328
G01 X6.7659 Y-8.0534
G01 X6.8133 Y-8.0717
G01 X6.8649 Y-8.0888
G01 X6.9163 Y-8.1030
G01 X6.9684 Y-8.1146
G01 X7.0185 Y-8.1233
G01 X7.0690 Y-8.1296
G01 X7.1231 Y-8.1336
G01 X7.1747 Y-8.1349
G01 X9.1756 Y-8.1349
G01 X9.2273 Y-8.1336
G01 X9.2805 Y-8.1297
G01 X9.3327 Y-8.1233
G01 X9.3844 Y-8.1143
G01 X9.4340 Y-8.1032
G01 X9.4863 Y-8.0888
G01 X9.5346 Y-8.0729
G01 X9.5868 Y-8.0527
G01 X9.6333 Y-8.0321
G01 X9.6802 Y-8.0085
G01 X9.7259 Y-7.9826
G01 X9.7703 Y-7.9545
G01 X9.8133 Y-7.9242
G01 X9.8547 Y-7.8919
G01 X9.8945 Y-7.8576
G01 X9.9326 Y-7.8214
G01 X9.9688 Y-7.7833
G01 X10.0031 Y-7.7435
G01 X10.0354 Y-7.7021
G01 X10.0657 Y-7.6591
G01 X10.0938 Y-7.6147
G01 X10.1197 Y-7.5690
G01 X10.1433 Y-7.5221
G01 X10.1639 Y-7.4756
G01 X10.1841 Y-7.4234
G01 X10.2000 Y-7.3751
G01 X10.2144 Y-7.3228
G01 X10.2255 Y-7.2732
G01 X10.2345 Y-7.2215
G01 X10.2409 Y-7.1693
G01 X10.2448 Y-7.1169
G01 X10.2461 Y-7.0644
G01 X10.2448 Y-7.0119
G01 X10.2409 Y-6.9595
G01 X10.2345 Y-6.9073
G01 X10.2255 Y-6.8556
G01 X10.2140 Y-6.8043
G01 X10.2000 Y-6.7537
G01 X10.1835 Y-6.7038
G01 X10.1646 Y-6.6547
G01 X10.1433 Y-6.6067
G01 X10.1197 Y-6.5598
G01 X10.0938 Y-6.5141
G01 X10.0657 Y-6.4697
G01 X10.0354 Y-6.4267
G01 X10.0031 Y-6.3853
G01 X9.9688 Y-6.3455
G01 X9.9326 Y-6.3074
G01 X9.8945 Y-6.2712
G01 X9.8547 Y-6.2369
G01 X9.8133 Y-6.2046
G01 X9.7703 Y-6.1743
G01 X9.7259 Y-6.1462
G01 X9.6802 Y-6.1203
G01 X9.6333 Y-6.0967
G01 X9.5853 Y-6.0754
G01 X9.5362 Y-6.0565
G01 X9.4863 Y-6.0400
G01 X9.4357 Y-6.0260
G01 X9.3844 Y-6.0145
G01 X9.3327 Y-6.0055
G01 X9.2805 Y-5.9991
G01 X9.2281 Y-5.9952
G01 X9.1756 Y-5.9939
G01 X7.1747 Y-5.9939
G01 X7.1214 Y-5.9953
G01 X7.0707 Y-5.9991
G01 X7.0202 Y-6.0053
G01 X6.9668 Y-6.0145
G01 X6.9155 Y-6.0260
G01 X6.8632 Y-6.0405
G01 X6.8150 Y-6.0565
G01 X6.7675 Y-6.0747
G01 X6.7179 Y-6.0967
G01 X6.6695 Y-6.1211
G01 X6.6253 Y-6.1462
G01 X6.5823 Y-6.1734
G01 X6.5379 Y-6.2046
G01 X6.4952 Y-6.2380
G01 X6.4567 Y-6.2712
G01 X6.4193 Y-6.3068
G01 X6.3813 Y-6.3468
G01 X6.3481 Y-6.3853
G01 X6.3168 Y-6.4253
G01 X6.2855 Y-6.4697
G01 X6.2570 Y-6.5148
G01 X6.2315 Y-6.5598
G01 X6.2086 Y-6.6052
G01 X6.1869 Y-6.6539
G01 X6.1674 Y-6.7046
G01 X6.1514 Y-6.7528
G01 X6.1456 Y-6.7737
G01 X3.7147 Y-6.8089
G00 Z2.0000
G00 X2.4990 Y-8.4738
G01 F70.00
G01 Z-0.0600
G01 F60.00
G01 X2.5052 Y-8.4594
G01 X2.5109 Y-8.4423
G01 X2.5152 Y-8.4248
G01 X2.5180 Y-8.4069
G01 X2.5191 Y-8.3915
G01 X2.5190 Y-8.3735
G01 X2.5173 Y-8.3555
G01 X2.5145 Y-8.3396
G01 X2.5853 Y-8.3484
G01 X2.6394 Y-8.3523
G01 X2.6988 Y-8.3538
G01 X2.7582 Y-8.3523
G01 X2.8123 Y-8.3484
G01 X2.8831 Y-8.3396
G01 X2.8803 Y-8.3555
G01 X2.8786 Y-8.3735
G01 X2.8785 Y-8.3915
G01 X2.8796 Y-8.4069
G01 X2.8824 Y-8.4248
G01 X2.8867 Y-8.4423
G01 X2.8924 Y-8.4594
G01 X2.8986 Y-8.4738
G01 X2.4990 Y-8.4738
G00 Z2.0000
G00 X1.5388 Y-8.5238
G01 F70.00
G01 Z-0.0600
G01 F60.00
G01 X2.3093 Y-8.5238
G01 X2.3230 Y-8.5231
G01 X2.3416 Y-8.5200
G01 X2.3596 Y-8.5144
G01 X2.3783 Y-8.5056
G01 X2.3940 Y-8.4952
G01 X2.4082 Y-8.4828
G01 X2.4217 Y-8.4672
G01 X2.4319 Y-8.4513
G01 X2.4405 Y-8.4326
G01 X2.4462 Y-8.4128
G01 X2.4490 Y-8.3924
G01 X2.4487 Y-8.3718
G01 X2.4455 Y-8.3515
G01 X2.4392 Y-8.3318
G01 X2.4302 Y-8.3133
G01 X2.4175 Y-8.2950
G01 X2.4033 Y-8.2801
G01 X2.3870 Y-8.2674
G01 X2.3676 Y-8.2565
G01 X2.3548 Y-8.2514
G01 X2.3080 Y-8.2360
G01 X2.2549 Y-8.2155
G01 X2.2029 Y-8.1924
G01 X2.1520 Y-8.1668
G01 X2.1025 Y-8.1387
G01 X2.0544 Y-8.1083
G01 X2.0078 Y-8.0755
G01 X1.9629 Y-8.0405
G01 X1.9198 Y-8.0033
G01 X1.8786 Y-7.9640
G01 X1.8393 Y-7.9228
G01 X1.8021 Y-7.8797
G01 X1.7671 Y-7.8348
G01 X1.7343 Y-7.7882
G01 X1.7039 Y-7.7401
G01 X1.6758 Y-7.6906
G01 X1.6502 Y-7.6397
G01 X1.6271 Y-7.5877
G01 X1.6066 Y-7.5346
G01 X1.5888 Y-7.4805
G01 X1.5736 Y-7.4256
G01 X1.5611 Y-7.3701
G01 X1.5514 Y-7.3140
G01 X1.5444 Y-7.2575
G01 X1.5402 Y-7.2007
G01 X1.5388 Y-7.1438
G01 X1.5402 Y-7.0869
G01 X1.5444 Y-7.0301
G01 X1.5514 Y-6.9736
G01 X1.5611 Y-6.9175
G01 X1.5736 Y-6.8620
G01 X1.5888 Y-6.8071
G01 X1.6066 Y-6.7530
G01 X1.6271 Y-6.6999
G01 X1.6502 Y-6.6479
G01 X1.6758 Y-6.5970
G01 X1.7039 Y-6.5475
G01 X1.7343 Y-6.4994
G01 X1.7671 Y-6.4528
G01 X1.8021 Y-6.4079
G01 X1.8393 Y-6.3648
G01 X1.8786 Y-6.3236
G01 X1.9198 Y-6.2843
G01 X1.9629 Y-6.2471
G01 X2.0078 Y-6.2121
G01 X2.0544 Y-6.1793
G01 X2.1025 Y-6.1489
G01 X2.1520 Y-6.1208
G01 X2.2029 Y-6.0952
G01 X2.2549 Y-6.0721
G01 X2.3080 Y-6.0516
G01 X2.3621 Y-6.0338
G01 X2.4170 Y-6.0186
G01 X2.4725 Y-6.0061
G01 X2.5286 Y-5.9964
G01 X2.5851 Y-5.9894
G01 X2.6419 Y-5.9852
G01 X2.6988 Y-5.9838
G01 X2.7557 Y-5.9852
G01 X2.8125 Y-5.9894
G01 X2.8690 Y-5.9964
G01 X2.9251 Y-6.0061
G01 X2.9806 Y-6.0186
G01 X3.0355 Y-6.0338
G01 X3.0896 Y-6.0516
G01 X3.1427 Y-6.0721
G01 X3.1947 Y-6.0952
G01 X3.2456 Y-6.1208
G01 X3.2951 Y-6.1489
G01 X3.3432 Y-6.1793
G01 X3.3898 Y-6.2121
G01 X3.4347 Y-6.2471
G01 X3.4778 Y-6.2843
G01 X3.5190 Y-6.3236
G01 X3.5583 Y-6.3648
G01 X3.5955 Y-6.4079
G01 X3.6305 Y-6.4528
G01 X3.6633 Y-6.4994
G01 X3.6937 Y-6.5475
G01 X3.7218 Y-6.5970
G01 X3.7464 Y-6.6455
G01 X3.7548 Y-6.6586
G01 X3.7634 Y-6.6693
G01 X3.7743 Y-6.6803
G01 X3.7863 Y-6.6901
G01 X3.7994 Y-6.6984
G01 X3.8117 Y-6.7046
G01 X3.8261 Y-6.7100
G01 X3.8412 Y-6.7139
G01 X3.8565 Y-6.7160
G01 X3.8702 Y-6.7165
G01 X5.9852 Y-6.6858
G01 X6.0006 Y-6.6848
G01 X6.0174 Y-6.6816
G01 X6.0289 Y-6.6782
G01 X6.0401 Y-6.6738
G01 X6.0508 Y-6.6684
G01 X6.0611 Y-6.6622
G01 X6.0708 Y-6.6551
G01 X6.0798 Y-6.6472
G01 X6.0881 Y-6.6385
G01 X6.0957 Y-6.6292
G01 X6.1024 Y-6.6193
G01 X6.1082 Y-6.6088
G01 X6.1264 Y-6.5682
G01 X6.1520 Y-6.5173
G01 X6.1801 Y-6.4677
G01 X6.2106 Y-6.4196
G01 X6.2434 Y-6.3730
G01 X6.2784 Y-6.3281
G01 X6.3156 Y-6.2850
G01 X6.3549 Y-6.2437
G01 X6.3962 Y-6.2044
G01 X6.4393 Y-6.1672
G01 X6.4842 Y-6.1322
G01 X6.5308 Y-6.0994
G01 X6.5789 Y-6.0689
G01 X6.6285 Y-6.0408
G01 X6.6794 Y-6.0152
G01 X6.7315 Y-5.9921
G01 X6.7846 Y-5.9716
G01 X6.8387 Y-5.9538
G01 X6.8936 Y-5.9386
G01 X6.9492 Y-5.9261
G01 X7.0053 Y-5.9164
G01 X7.0618 Y-5.9094
G01 X7.1187 Y-5.9052
G01 X7.1773 Y-5.9037
G01 X9.1739 Y-5.9037
G01 X9.2325 Y-5.9052
G01 X9.2894 Y-5.9094
G01 X9.3459 Y-5.9164
G01 X9.4020 Y-5.9261
G01 X9.4576 Y-5.9386
G01 X9.5125 Y-5.9538
G01 X9.5666 Y-5.9716
G01 X9.6197 Y-5.9921
G01 X9.6718 Y-6.0152
G01 X9.7227 Y-6.0408
G01 X9.7723 Y-6.0689
G01 X9.8204 Y-6.0994
G01 X9.8670 Y-6.1322
G01 X9.9119 Y-6.1672
G01 X9.9550 Y-6.2044
G01 X9.9963 Y-6.2437
G01 X10.0356 Y-6.2850
G01 X10.0728 Y-6.3281
G01 X10.1078 Y-6.3730
G01 X10.1406 Y-6.4196
G01 X10.1711 Y-6.4677
G01 X10.1992 Y-6.5173
G01 X10.2248 Y-6.5682
G01 X10.2479 Y-6.6203
G01 X10.2684 Y-6.6734
G01 X10.2862 Y-6.7275
G01 X10.3014 Y-6.7824
G01 X10.3139 Y-6.8380
G01 X10.3236 Y-6.8941
G01 X10.3306 Y-6.9506
G01 X10.3348 Y-7.0075
G01 X10.3362 Y-7.0644
G01 X10.3348 Y-7.1213
G01 X10.3306 Y-7.1782
G01 X10.3236 Y-7.2347
G01 X10.3139 Y-7.2908
G01 X10.3014 Y-7.3464
G01 X10.2862 Y-7.4013
G01 X10.2684 Y-7.4554
G01 X10.2479 Y-7.5085
G01 X10.2248 Y-7.5606
G01 X10.1992 Y-7.6115
G01 X10.1711 Y-7.6611
G01 X10.1406 Y-7.7092
G01 X10.1078 Y-7.7558
G01 X10.0728 Y-7.8007
G01 X10.0356 Y-7.8438
G01 X9.9963 Y-7.8851
G01 X9.9550 Y-7.9244
G01 X9.9119 Y-7.9616
G01 X9.8670 Y-7.9966
G01 X9.8204 Y-8.0294
G01 X9.7723 Y-8.0599
G01 X9.7227 Y-8.0880
G01 X9.6718 Y-8.1136
G01 X9.6197 Y-8.1367
G01 X9.5666 Y-8.1572
G01 X9.5125 Y-8.1750
G01 X9.4576 Y-8.1902
G01 X9.4020 Y-8.2027
G01 X9.3459 Y-8.2124
G01 X9.2894 Y-8.2194
G01 X9.2325 Y-8.2236
G01 X9.1739 Y-8.2251
G01 X7.1773 Y-8.2251
G01 X7.1187 Y-8.2236
G01 X7.0618 Y-8.2194
G01 X7.0053 Y-8.2124
G01 X6.9492 Y-8.2027
G01 X6.8936 Y-8.1902
G01 X6.8387 Y-8.1750
G01 X6.7846 Y-8.1572
G01 X6.7315 Y-8.1367
G01 X6.6794 Y-8.1136
G01 X6.6285 Y-8.0880
G01 X6.5789 Y-8.0599
G01 X6.5308 Y-8.0294
G01 X6.4842 Y-7.9966
G01 X6.4393 Y-7.9616
G01 X6.3962 Y-7.9244
G01 X6.3549 Y-7.8851
G01 X6.3156 Y-7.8438
G01 X6.2784 Y-7.8007
G01 X6.2434 Y-7.7558
G01 X6.2106 Y-7.7092
G01 X6.1801 Y-7.6611
G01 X6.1520 Y-7.6115
G01 X6.1345 Y-7.5771
G01 X6.1281 Y-7.5669
G01 X6.1209 Y-7.5572
G01 X6.1128 Y-7.5483
G01 X6.1041 Y-7.5400
G01 X6.0946 Y-7.5325
G01 X6.0845 Y-7.5259
G01 X6.0645 Y-7.5160
G01 X6.0531 Y-7.5121
G01 X6.0415 Y-7.5091
G01 X6.0261 Y-7.5067
G01 X6.0107 Y-7.5061
G01 X3.8786 Y-7.5371
G01 X3.8649 Y-7.5383
G01 X3.8514 Y-7.5408
G01 X3.8367 Y-7.5452
G01 X3.8240 Y-7.5505
G01 X3.8105 Y-7.5578
G01 X3.7992 Y-7.5656
G01 X3.7887 Y-7.5745
G01 X3.7780 Y-7.5856
G01 X3.7686 Y-7.5978
G01 X3.7614 Y-7.6095
G01 X3.7474 Y-7.6397
G01 X3.7218 Y-7.6906
G01 X3.6937 Y-7.7401
G01 X3.6633 Y-7.7882
G01 X3.6305 Y-7.8348
G01 X3.5955 Y-7.8797
G01 X3.5583 Y-7.9228
G01 X3.5190 Y-7.9640
G01 X3.4778 Y-8.0033
G01 X3.4347 Y-8.0405
G01 X3.3898 Y-8.0755
G01 X3.3432 Y-8.1083
G01 X3.2951 Y-8.1387
G01 X3.2456 Y-8.1668
G01 X3.1947 Y-8.1924
G01 X3.1427 Y-8.2155
G01 X3.0896 Y-8.2360
G01 X3.0364 Y-8.2538
G01 X3.0208 Y-8.2612
G01 X3.0063 Y-8.2703
G01 X2.9943 Y-8.2801
G01 X2.9823 Y-8.2924
G01 X2.9729 Y-8.3046
G01 X2.9641 Y-8.3193
G01 X2.9571 Y-8.3350
G01 X2.9525 Y-8.3498
G01 X2.9494 Y-8.3667
G01 X2.9484 Y-8.3821
G01 X2.9487 Y-8.3941
G01 X2.9501 Y-8.4060
G01 X2.9525 Y-8.4178
G01 X2.9565 Y-8.4310
G01 X2.9618 Y-8.4437
G01 X2.9674 Y-8.4543
G01 X2.9739 Y-8.4644
G01 X2.9812 Y-8.4739
G01 X2.9906 Y-8.4840
G01 X2.9995 Y-8.4920
G01 X3.0091 Y-8.4992
G01 X3.0193 Y-8.5056
G01 X3.0300 Y-8.5111
G01 X3.0428 Y-8.5162
G01 X3.0543 Y-8.5196
G01 X3.0661 Y-8.5220
G01 X3.0883 Y-8.5238
G01 X3.8588 Y-8.5238
G01 X3.8588 Y-9.2104
G01 X3.8388 Y-9.2104
G01 X3.8388 Y-8.6821
G01 X3.8377 Y-8.6667
G01 X3.8350 Y-8.6515
G01 X3.8317 Y-8.6399
G01 X3.8275 Y-8.6286
G01 X3.8171 Y-8.6089
G01 X3.8102 Y-8.5990
G01 X3.8025 Y-8.5898
G01 X3.7941 Y-8.5812
G01 X3.7849 Y-8.5734
G01 X3.7663 Y-8.5612
G01 X3.7555 Y-8.5558
G01 X3.7443 Y-8.5514
G01 X3.7227 Y-8.5459
G01 X3.7108 Y-8.5443
G01 X3.6988 Y-8.5438
G01 X1.6988 Y-8.5438
G01 X1.6783 Y-8.5453
G01 X1.6582 Y-8.5498
G01 X1.6405 Y-8.5565
G01 X1.6239 Y-8.5655
G01 X1.6087 Y-8.5767
G01 X1.5951 Y-8.5898
G01 X1.5834 Y-8.6046
G01 X1.5737 Y-8.6209
G01 X1.5664 Y-8.6383
G01 X1.5612 Y-8.6582
G01 X1.5595 Y-8.6701
G01 X1.5588 Y-8.6838
G01 X1.5588 Y-9.2104
G01 X1.5388 Y-9.2104
G01 X1.5388 Y-8.5238
G00 Z2.0000
G00 X1.4688 Y-8.4538
G01 F70.00
G01 Z-0.0600
G01 F60.00
G01 X2.3127 Y-8.4537
G01 X2.3229 Y-8.4525
G01 X2.3320 Y-8.4500
G01 X2.3407 Y-8.4463
G01 X2.3496 Y-8.4410
G01 X2.3575 Y-8.4345
G01 X2.3644 Y-8.4269
G01 X2.3697 Y-8.4190
G01 X2.3742 Y-8.4098
G01 X2.3777 Y-8.3983
G01 X2.3792 Y-8.3864
G01 X2.3787 Y-8.3752
G01 X2.3762 Y-8.3635
G01 X2.3718 Y-8.3523
G01 X2.3655 Y-8.3421
G01 X2.3581 Y-8.3337
G01 X2.3489 Y-8.3261
G01 X2.3344 Y-8.3185
G01 X2.2844 Y-8.3019
G01 X2.2281 Y-8.2802
G01 X2.1729 Y-8.2557
G01 X2.1190 Y-8.2285
G01 X2.0665 Y-8.1988
G01 X2.0155 Y-8.1665
G01 X1.9661 Y-8.1317
G01 X1.9185 Y-8.0946
G01 X1.8728 Y-8.0552
G01 X1.8291 Y-8.0135
G01 X1.7874 Y-7.9698
G01 X1.7480 Y-7.9241
G01 X1.7109 Y-7.8765
G01 X1.6761 Y-7.8271
G01 X1.6438 Y-7.7761
G01 X1.6141 Y-7.7236
G01 X1.5869 Y-7.6697
G01 X1.5624 Y-7.6145
G01 X1.5407 Y-7.5582
G01 X1.5218 Y-7.5008
G01 X1.5057 Y-7.4427
G01 X1.4925 Y-7.3838
G01 X1.4821 Y-7.3243
G01 X1.4747 Y-7.2644
G01 X1.4703 Y-7.2042
G01 X1.4688 Y-7.1438
G01 X1.4703 Y-7.0834
G01 X1.4747 Y-7.0232
G01 X1.4821 Y-6.9633
G01 X1.4925 Y-6.9038
G01 X1.5057 Y-6.8449
G01 X1.5218 Y-6.7868
G01 X1.5407 Y-6.7294
G01 X1.5624 Y-6.6731
G01 X1.5869 Y-6.6179
G01 X1.6141 Y-6.5640
G01 X1.6438 Y-6.5115
G01 X1.6761 Y-6.4605
G01 X1.7109 Y-6.4111
G01 X1.7480 Y-6.3635
G01 X1.7874 Y-6.3178
G01 X1.8291 Y-6.2741
G01 X1.8728 Y-6.2324
G01 X1.9185 Y-6.1930
G01 X1.9661 Y-6.1559
G01 X2.0155 Y-6.1211
G01 X2.0665 Y-6.0888
G01 X2.1190 Y-6.0591
G01 X2.1729 Y-6.0319
G01 X2.2281 Y-6.0074
G01 X2.2844 Y-5.9857
G01 X2.3418 Y-5.9668
G01 X2.3999 Y-5.9507
G01 X2.4588 Y-5.9375
G01 X2.5183 Y-5.9271
G01 X2.5782 Y-5.9197
G01 X2.6384 Y-5.9153
G01 X2.6988 Y-5.9138
G01 X2.7592 Y-5.9153
G01 X2.8194 Y-5.9197
G01 X2.8793 Y-5.9271
G01 X2.9388 Y-5.9375
G01 X2.9977 Y-5.9507
G01 X3.0558 Y-5.9668
G01 X3.1132 Y-5.9857
G01 X3.1695 Y-6.0074
G01 X3.2247 Y-6.0319
G01 X3.2786 Y-6.0591
G01 X3.3311 Y-6.0888
G01 X3.3821 Y-6.1211
G01 X3.4315 Y-6.1559
G01 X3.4791 Y-6.1930
G01 X3.5248 Y-6.2324
G01 X3.5685 Y-6.2741
G01 X3.6102 Y-6.3178
G01 X3.6496 Y-6.3635
G01 X3.6867 Y-6.4111
G01 X3.7215 Y-6.4605
G01 X3.7538 Y-6.5115
G01 X3.7835 Y-6.5640
G01 X3.8069 Y-6.6103
G01 X3.8136 Y-6.6203
G01 X3.8245 Y-6.6312
G01 X3.8384 Y-6.6398
G01 X3.8530 Y-6.6448
G01 X3.8692 Y-6.6465
G01 X5.9842 Y-6.6158
G01 X6.0003 Y-6.6137
G01 X6.0124 Y-6.6095
G01 X6.0235 Y-6.6030
G01 X6.0327 Y-6.5953
G01 X6.0409 Y-6.5854
G01 X6.0461 Y-6.5766
G01 X6.0631 Y-6.5382
G01 X6.0903 Y-6.4843
G01 X6.1201 Y-6.4317
G01 X6.1524 Y-6.3807
G01 X6.1871 Y-6.3313
G01 X6.2243 Y-6.2837
G01 X6.2638 Y-6.2380
G01 X6.3054 Y-6.1942
G01 X6.3492 Y-6.1526
G01 X6.3949 Y-6.1131
G01 X6.4425 Y-6.0759
G01 X6.4919 Y-6.0412
G01 X6.5429 Y-6.0089
G01 X6.5955 Y-5.9791
G01 X6.6494 Y-5.9519
G01 X6.7047 Y-5.9274
G01 X6.7610 Y-5.9057
G01 X6.8184 Y-5.8868
G01 X6.8766 Y-5.8707
G01 X6.9355 Y-5.8574
G01 X6.9950 Y-5.8471
G01 X7.0550 Y-5.8397
G01 X7.1152 Y-5.8353
G01 X7.1765 Y-5.8337
G01 X9.1747 Y-5.8337
G01 X9.2360 Y-5.8353
G01 X9.2962 Y-5.8397
G01 X9.3562 Y-5.8471
G01 X9.4157 Y-5.8574
G01 X9.4746 Y-5.8707
G01 X9.5328 Y-5.8868
G01 X9.5902 Y-5.9057
G01 X9.6465 Y-5.9274
G01 X9.7018 Y-5.9519
G01 X9.7557 Y-5.9791
G01 X9.8083 Y-6.0089
G01 X9.8593 Y-6.0412
G01 X9.9087 Y-6.0759
G01 X9.9563 Y-6.1131
G01 X10.0020 Y-6.1526
G01 X10.0458 Y-6.1942
G01 X10.0874 Y-6.2380
G01 X10.1269 Y-6.2837
G01 X10.1641 Y-6.3313
G01 X10.1988 Y-6.3807
G01 X10.2311 Y-6.4317
G01 X10.2609 Y-6.4843
G01 X10.2881 Y-6.5382
G01 X10.3126 Y-6.5935
G01 X10.3343 Y-6.6498
G01 X10.3532 Y-6.7072
G01 X10.3693 Y-6.7654
G01 X10.3826 Y-6.8243
G01 X10.3929 Y-6.8838
G01 X10.4003 Y-6.9438
G01 X10.4047 Y-7.0040
G01 X10.4062 Y-7.0644
G01 X10.4047 Y-7.1248
G01 X10.4003 Y-7.1850
G01 X10.3929 Y-7.2450
G01 X10.3826 Y-7.3045
G01 X10.3693 Y-7.3634
G01 X10.3532 Y-7.4216
G01 X10.3343 Y-7.4790
G01 X10.3126 Y-7.5353
G01 X10.2881 Y-7.5906
G01 X10.2609 Y-7.6445
G01 X10.2311 Y-7.6971
G01 X10.1988 Y-7.7481
G01 X10.1641 Y-7.7975
G01 X10.1269 Y-7.8451
G01 X10.0874 Y-7.8908
G01 X10.0458 Y-7.9346
G01 X10.0020 Y-7.9762
G01 X9.9563 Y-8.0157
G01 X9.9087 Y-8.0529
G01 X9.8593 Y-8.0876
G01 X9.8083 Y-8.1199
G01 X9.7557 Y-8.1497
G01 X9.7018 Y-8.1769
G01 X9.6465 Y-8.2014
G01 X9.5902 Y-8.2231
G01 X9.5328 Y-8.2420
G01 X9.4746 Y-8.2581
G01 X9.4157 Y-8.2714
G01 X9.3562 Y-8.2817
G01 X9.2962 Y-8.2891
G01 X9.2360 Y-8.2935
G01 X9.1747 Y-8.2951
G01 X7.1765 Y-8.2951
G01 X7.1152 Y-8.2935
G01 X7.0550 Y-8.2891
G01 X6.9950 Y-8.2817
G01 X6.9355 Y-8.2714
G01 X6.8766 Y-8.2581
G01 X6.8184 Y-8.2420
G01 X6.7610 Y-8.2231
G01 X6.7047 Y-8.2014
G01 X6.6494 Y-8.1769
G01 X6.5955 Y-8.1497
G01 X6.5429 Y-8.1199
G01 X6.4919 Y-8.0876
G01 X6.4425 Y-8.0529
G01 X6.3949 Y-8.0157
G01 X6.3492 Y-7.9762
G01 X6.3054 Y-7.9346
G01 X6.2638 Y-7.8908
G01 X6.2243 Y-7.8451
G01 X6.1871 Y-7.7975
G01 X6.1524 Y-7.7481
G01 X6.1201 Y-7.6971
G01 X6.0903 Y-7.6445
G01 X6.0740 Y-7.6123
G01 X6.0679 Y-7.6030
G01 X6.0584 Y-7.5930
G01 X6.0471 Y-7.5851
G01 X6.0346 Y-7.5796
G01 X6.0211 Y-7.5766
G01 X6.0117 Y-7.5761
G01 X3.8830 Y-7.6070
G01 X3.8711 Y-7.6082
G01 X3.8587 Y-7.6117
G01 X3.8487 Y-7.6165
G01 X3.8402 Y-7.6223
G01 X3.8321 Y-7.6300
G01 X3.8253 Y-7.6388
G01 X3.8208 Y-7.6470
G01 X3.8107 Y-7.6697
G01 X3.7835 Y-7.7236
G01 X3.7538 Y-7.7761
G01 X3.7215 Y-7.8271
G01 X3.6867 Y-7.8765
G01 X3.6496 Y-7.9241
G01 X3.6102 Y-7.9698
G01 X3.5685 Y-8.0135
G01 X3.5248 Y-8.0552
G01 X3.4791 Y-8.0946
G01 X3.4315 Y-8.1317
G01 X3.3821 Y-8.1665
G01 X3.3311 Y-8.1988
G01 X3.2786 Y-8.2285
G01 X3.2247 Y-8.2557
G01 X3.1695 Y-8.2802
G01 X3.1132 Y-8.3019
G01 X3.0640 Y-8.3182
G01 X3.0502 Y-8.3251
G01 X3.0426 Y-8.3308
G01 X3.0365 Y-8.3368
G01 X3.0306 Y-8.3442
G01 X3.0262 Y-8.3516
G01 X3.0227 Y-8.3594
G01 X3.0200 Y-8.3685
G01 X3.0187 Y-8.3769
G01 X3.0184 Y-8.3864
G01 X3.0200 Y-8.3991
G01 X3.0237 Y-8.4106
G01 X3.0297 Y-8.4220
G01 X3.0376 Y-8.4321
G01 X3.0473 Y-8.4405
G01 X3.0584 Y-8.4471
G01 X3.0705 Y-8.4515
G01 X3.0832 Y-8.4536
G01 X3.9288 Y-8.4538
G01 X3.9288 Y-9.2804
G01 X3.7688 Y-9.2804
G01 X3.7684 Y-8.6761
G01 X3.7658 Y-8.6635
G01 X3.7613 Y-8.6523
G01 X3.7545 Y-8.6414
G01 X3.7458 Y-8.6319
G01 X3.7355 Y-8.6242
G01 X3.7240 Y-8.6185
G01 X3.7116 Y-8.6150
G01 X3.6988 Y-8.6138
G01 X1.6988 Y-8.6138
G01 X1.6885 Y-8.6146
G01 X1.6785 Y-8.6168
G01 X1.6689 Y-8.6205
G01 X1.6599 Y-8.6256
G01 X1.6518 Y-8.6319
G01 X1.6441 Y-8.6401
G01 X1.6383 Y-8.6486
G01 X1.6335 Y-8.6586
G01 X1.6305 Y-8.6685
G01 X1.6290 Y-8.6787
G01 X1.6288 Y-9.2804
G01 X1.4688 Y-9.2804
G01 X1.4688 Y-8.4538
G00 Z2.0000
G00 X1.4688 Y-10.0871
G01 F70.00
G01 Z-0.0600
G01 F60.00
G01 X1.6288 Y-10.0871
G01 X1.6288 Y-10.6864
G01 X1.6307 Y-10.7000
G01 X1.6348 Y-10.7122
G01 X1.6411 Y-10.7234
G01 X1.6493 Y-10.7333
G01 X1.6592 Y-10.7415
G01 X1.6712 Y-10.7481
G01 X1.6835 Y-10.7521
G01 X1.6962 Y-10.7538
G01 X2.2954 Y-10.7538
G01 X2.2954 Y-10.9138
G01 X1.4688 Y-10.9138
G01 X1.4688 Y-10.0871
G00 Z2.0000
G00 X1.5388 Y-10.1571
G01 F70.00
G01 Z-0.0600
G01 F60.00
G01 X1.5588 Y-10.1571
G01 X1.5588 Y-10.6838
G01 X1.5595 Y-10.6975
G01 X1.5612 Y-10.7094
G01 X1.5639 Y-10.7211
G01 X1.5676 Y-10.7326
G01 X1.5722 Y-10.7437
G01 X1.5778 Y-10.7543
G01 X1.5843 Y-10.7644
G01 X1.5917 Y-10.7739
G01 X1.5998 Y-10.7828
G01 X1.6087 Y-10.7909
G01 X1.6182 Y-10.7983
G01 X1.6283 Y-10.8048
G01 X1.6389 Y-10.8104
G01 X1.6500 Y-10.8150
G01 X1.6615 Y-10.8187
G01 X1.6732 Y-10.8214
G01 X1.6851 Y-10.8231
G01 X1.6988 Y-10.8238
G01 X2.2254 Y-10.8238
G01 X2.2254 Y-10.8438
G01 X1.5388 Y-10.8438
G01 X1.5388 Y-10.1571
G00 Z2.0000
G00 X3.1021 Y-10.9138
G01 F70.00
G01 Z-0.0600
G01 F60.00
G01 X3.1021 Y-10.7538
G01 X3.7014 Y-10.7538
G01 X3.7141 Y-10.7521
G01 X3.7272 Y-10.7478
G01 X3.7384 Y-10.7415
G01 X3.7483 Y-10.7333
G01 X3.7570 Y-10.7227
G01 X3.7631 Y-10.7114
G01 X3.7671 Y-10.6991
G01 X3.7688 Y-10.6864
G01 X3.7688 Y-10.0871
G01 X3.9288 Y-10.0871
G01 X3.9288 Y-10.9138
G01 X3.1021 Y-10.9138
G00 Z2.0000
G00 X3.1721 Y-10.8438
G01 F70.00
G01 Z-0.0600
G01 F60.00
G01 X3.1721 Y-10.8238
G01 X3.6988 Y-10.8238
G01 X3.7125 Y-10.8231
G01 X3.7244 Y-10.8214
G01 X3.7361 Y-10.8187
G01 X3.7476 Y-10.8150
G01 X3.7587 Y-10.8104
G01 X3.7693 Y-10.8048
G01 X3.7794 Y-10.7983
G01 X3.7889 Y-10.7909
G01 X3.7978 Y-10.7828
G01 X3.8059 Y-10.7739
G01 X3.8133 Y-10.7644
G01 X3.8198 Y-10.7543
G01 X3.8254 Y-10.7437
G01 X3.8300 Y-10.7326
G01 X3.8337 Y-10.7211
G01 X3.8364 Y-10.7094
G01 X3.8381 Y-10.6975
G01 X3.8388 Y-10.6838
G01 X3.8388 Y-10.1571
G01 X3.8588 Y-10.1571
G01 X3.8588 Y-10.8438
G01 X3.1721 Y-10.8438
G00 Z2.0000
G00 X6.0132 Y-11.7410
G01 F70.00
G01 Z-0.0600
G01 F60.00
G01 X6.0386 Y-11.6735
G01 X6.0631 Y-11.6182
G01 X6.0903 Y-11.5643
G01 X6.1201 Y-11.5117
G01 X6.1524 Y-11.4607
G01 X6.1871 Y-11.4113
G01 X6.2243 Y-11.3637
G01 X6.2638 Y-11.3180
G01 X6.3054 Y-11.2742
G01 X6.3492 Y-11.2326
G01 X6.3949 Y-11.1931
G01 X6.4425 Y-11.1559
G01 X6.4919 Y-11.1212
G01 X6.5429 Y-11.0889
G01 X6.5955 Y-11.0591
G01 X6.6494 Y-11.0319
G01 X6.7047 Y-11.0074
G01 X6.7610 Y-10.9857
G01 X6.8184 Y-10.9668
G01 X6.8766 Y-10.9507
G01 X6.9355 Y-10.9374
G01 X6.9950 Y-10.9271
G01 X7.0550 Y-10.9197
G01 X7.1152 Y-10.9153
G01 X7.1765 Y-10.9137
G01 X7.7723 Y-10.9137
G01 X7.7723 Y-11.0739
G01 X7.1747 Y-11.0739
G01 X7.1231 Y-11.0752
G01 X7.0707 Y-11.0791
G01 X7.0185 Y-11.0855
G01 X6.9684 Y-11.0942
G01 X6.9138 Y-11.1064
G01 X6.8649 Y-11.1200
G01 X6.8150 Y-11.1365
G01 X6.7659 Y-11.1554
G01 X6.7179 Y-11.1767
G01 X6.6710 Y-11.2003
G01 X6.6253 Y-11.2262
G01 X6.5809 Y-11.2543
G01 X6.5379 Y-11.2846
G01 X6.4965 Y-11.3169
G01 X6.4567 Y-11.3512
G01 X6.4186 Y-11.3874
G01 X6.3836 Y-11.4242
G01 X6.3481 Y-11.4653
G01 X6.3158 Y-11.5067
G01 X6.2855 Y-11.5497
G01 X6.2583 Y-11.5926
G01 X6.2315 Y-11.6398
G01 X6.2086 Y-11.6852
G01 X6.1841 Y-11.7410
G01 X6.0132 Y-11.7410
G00 Z2.0000
G00 X6.1163 Y-11.6710
G01 F70.00
G01 Z-0.0600
G01 F60.00
G01 X6.1264 Y-11.6482
G01 X6.1520 Y-11.5973
G01 X6.1801 Y-11.5477
G01 X6.2106 Y-11.4996
G01 X6.2434 Y-11.4530
G01 X6.2784 Y-11.4081
G01 X6.3156 Y-11.3650
G01 X6.3549 Y-11.3237
G01 X6.3962 Y-11.2844
G01 X6.4393 Y-11.2472
G01 X6.4842 Y-11.2122
G01 X6.5308 Y-11.1794
G01 X6.5789 Y-11.1489
G01 X6.6285 Y-11.1208
G01 X6.6794 Y-11.0952
G01 X6.7315 Y-11.0721
G01 X6.7846 Y-11.0516
G01 X6.8387 Y-11.0338
G01 X6.8936 Y-11.0186
G01 X6.9492 Y-11.0061
G01 X7.0053 Y-10.9964
G01 X7.0618 Y-10.9894
G01 X7.1187 Y-10.9852
G01 X7.1773 Y-10.9837
G01 X7.7023 Y-10.9837
G01 X7.7023 Y-11.0039
G01 X7.1739 Y-11.0039
G01 X7.1196 Y-11.0053
G01 X7.0621 Y-11.0096
G01 X7.0083 Y-11.0162
G01 X6.9565 Y-11.0252
G01 X6.8985 Y-11.0381
G01 X6.8445 Y-11.0530
G01 X6.7946 Y-11.0695
G01 X6.7376 Y-11.0914
G01 X6.6880 Y-11.1134
G01 X6.6380 Y-11.1386
G01 X6.5893 Y-11.1662
G01 X6.5449 Y-11.1942
G01 X6.4935 Y-11.2304
G01 X6.4521 Y-11.2628
G01 X6.4084 Y-11.3005
G01 X6.3691 Y-11.3379
G01 X6.3305 Y-11.3785
G01 X6.2940 Y-11.4209
G01 X6.2585 Y-11.4664
G01 X6.2273 Y-11.5108
G01 X6.1965 Y-11.5595
G01 X6.1690 Y-11.6083
G01 X6.1453 Y-11.6552
G01 X6.1382 Y-11.6710
G01 X6.1163 Y-11.6710
G00 Z2.0000
G00 X6.0132 Y-12.5477
G01 F70.00
G01 Z-0.0600
G01 F60.00
G01 X6.1841 Y-12.5477
G01 X6.2086 Y-12.6036
G01 X6.2315 Y-12.6490
G01 X6.2583 Y-12.6962
G01 X6.2855 Y-12.7391
G01 X6.3158 Y-12.7821
G01 X6.3481 Y-12.8235
G01 X6.3836 Y-12.8646
G01 X6.4186 Y-12.9014
G01 X6.4567 Y-12.9376
G01 X6.4965 Y-12.9719
G01 X6.5379 Y-13.0042
G01 X6.5809 Y-13.0345
G01 X6.6253 Y-13.0626
G01 X6.6710 Y-13.0885
G01 X6.7179 Y-13.1121
G01 X6.7659 Y-13.1334
G01 X6.8150 Y-13.1523
G01 X6.8649 Y-13.1688
G01 X6.9138 Y-13.1824
G01 X6.9684 Y-13.1946
G01 X7.0185 Y-13.2033
G01 X7.0707 Y-13.2097
G01 X7.1231 Y-13.2136
G01 X7.1747 Y-13.2149
G01 X7.7723 Y-13.2149
G01 X7.7723 Y-13.3751
G01 X7.1765 Y-13.3751
G01 X7.1152 Y-13.3735
G01 X7.0550 Y-13.3691
G01 X6.9950 Y-13.3617
G01 X6.9355 Y-13.3514
G01 X6.8766 Y-13.3381
G01 X6.8184 Y-13.3220
G01 X6.7610 Y-13.3031
G01 X6.7047 Y-13.2814
G01 X6.6494 Y-13.2569
G01 X6.5955 Y-13.2297
G01 X6.5429 Y-13.1999
G01 X6.4919 Y-13.1676
G01 X6.4425 Y-13.1329
G01 X6.3949 Y-13.0957
G01 X6.3492 Y-13.0562
G01 X6.3054 Y-13.0146
G01 X6.2638 Y-12.9708
G01 X6.2243 Y-12.9251
G01 X6.1871 Y-12.8775
G01 X6.1524 Y-12.8281
G01 X6.1201 Y-12.7771
G01 X6.0903 Y-12.7245
G01 X6.0631 Y-12.6706
G01 X6.0386 Y-12.6153
G01 X6.0132 Y-12.5477
G00 Z2.0000
G00 X6.1163 Y-12.6177
G01 F70.00
G01 Z-0.0600
G01 F60.00
G01 X6.1382 Y-12.6177
G01 X6.1453 Y-12.6336
G01 X6.1690 Y-12.6805
G01 X6.1965 Y-12.7293
G01 X6.2273 Y-12.7780
G01 X6.2585 Y-12.8224
G01 X6.2940 Y-12.8679
G01 X6.3305 Y-12.9103
G01 X6.3691 Y-12.9509
G01 X6.4084 Y-12.9883
G01 X6.4521 Y-13.0260
G01 X6.4935 Y-13.0584
G01 X6.5449 Y-13.0946
G01 X6.5893 Y-13.1226
G01 X6.6380 Y-13.1502
G01 X6.6880 Y-13.1754
G01 X6.7376 Y-13.1974
G01 X6.7946 Y-13.2193
G01 X6.8445 Y-13.2358
G01 X6.8985 Y-13.2507
G01 X6.9565 Y-13.2636
G01 X7.0083 Y-13.2726
G01 X7.0621 Y-13.2792
G01 X7.1196 Y-13.2835
G01 X7.1739 Y-13.2849
G01 X7.7023 Y-13.2849
G01 X7.7023 Y-13.3051
G01 X7.1773 Y-13.3051
G01 X7.1187 Y-13.3036
G01 X7.0618 Y-13.2994
G01 X7.0053 Y-13.2924
G01 X6.9492 Y-13.2827
G01 X6.8936 Y-13.2702
G01 X6.8387 Y-13.2550
G01 X6.7846 Y-13.2372
G01 X6.7315 Y-13.2167
G01 X6.6794 Y-13.1936
G01 X6.6285 Y-13.1680
G01 X6.5789 Y-13.1399
G01 X6.5308 Y-13.1094
G01 X6.4842 Y-13.0766
G01 X6.4393 Y-13.0416
G01 X6.3962 Y-13.0044
G01 X6.3549 Y-12.9651
G01 X6.3156 Y-12.9238
G01 X6.2784 Y-12.8807
G01 X6.2434 Y-12.8358
G01 X6.2106 Y-12.7892
G01 X6.1801 Y-12.7411
G01 X6.1520 Y-12.6915
G01 X6.1264 Y-12.6406
G01 X6.1163 Y-12.6177
G00 Z2.0000
G00 X8.5790 Y-13.3751
G01 F70.00
G01 Z-0.0600
G01 F60.00
G01 X8.5790 Y-13.2149
G01 X9.1765 Y-13.2149
G01 X9.2281 Y-13.2136
G01 X9.2805 Y-13.2097
G01 X9.3327 Y-13.2033
G01 X9.3828 Y-13.1946
G01 X9.4374 Y-13.1824
G01 X9.4863 Y-13.1688
G01 X9.5362 Y-13.1523
G01 X9.5853 Y-13.1334
G01 X9.6333 Y-13.1121
G01 X9.6802 Y-13.0885
G01 X9.7259 Y-13.0626
G01 X9.7703 Y-13.0345
G01 X9.8133 Y-13.0042
G01 X9.8547 Y-12.9719
G01 X9.8945 Y-12.9376
G01 X9.9326 Y-12.9014
G01 X9.9676 Y-12.8646
G01 X10.0031 Y-12.8235
G01 X10.0354 Y-12.7821
G01 X10.0657 Y-12.7391
G01 X10.0929 Y-12.6962
G01 X10.1197 Y-12.6490
G01 X10.1426 Y-12.6036
G01 X10.1671 Y-12.5477
G01 X10.3380 Y-12.5477
G01 X10.3126 Y-12.6153
G01 X10.2881 Y-12.6706
G01 X10.2609 Y-12.7245
G01 X10.2311 Y-12.7771
G01 X10.1988 Y-12.8281
G01 X10.1641 Y-12.8775
G01 X10.1269 Y-12.9251
G01 X10.0874 Y-12.9708
G01 X10.0458 Y-13.0146
G01 X10.0020 Y-13.0562
G01 X9.9563 Y-13.0957
G01 X9.9087 Y-13.1329
G01 X9.8593 Y-13.1676
G01 X9.8083 Y-13.1999
G01 X9.7557 Y-13.2297
G01 X9.7018 Y-13.2569
G01 X9.6465 Y-13.2814
G01 X9.5902 Y-13.3031
G01 X9.5328 Y-13.3220
G01 X9.4746 Y-13.3381
G01 X9.4157 Y-13.3514
G01 X9.3562 Y-13.3617
G01 X9.2962 Y-13.3691
G01 X9.2360 Y-13.3735
G01 X9.1747 Y-13.3751
G01 X8.5790 Y-13.3751
G00 Z2.0000
G00 X8.6490 Y-13.3051
G01 F70.00
G01 Z-0.0600
G01 F60.00
G01 X8.6490 Y-13.2849
G01 X9.1773 Y-13.2849
G01 X9.2316 Y-13.2835
G01 X9.2891 Y-13.2792
G01 X9.3429 Y-13.2726
G01 X9.3947 Y-13.2636
G01 X9.4527 Y-13.2507
G01 X9.5067 Y-13.2358
G01 X9.5566 Y-13.2193
G01 X9.6136 Y-13.1974
G01 X9.6632 Y-13.1754
G01 X9.7132 Y-13.1502
G01 X9.7619 Y-13.1226
G01 X9.8063 Y-13.0946
G01 X9.8577 Y-13.0584
G01 X9.8991 Y-13.0260
G01 X9.9428 Y-12.9883
G01 X9.9821 Y-12.9509
G01 X10.0207 Y-12.9103
G01 X10.0572 Y-12.8679
G01 X10.0927 Y-12.8224
G01 X10.1239 Y-12.7780
G01 X10.1547 Y-12.7293
G01 X10.1822 Y-12.6805
G01 X10.2059 Y-12.6336
G01 X10.2130 Y-12.6177
G01 X10.2349 Y-12.6177
G01 X10.2248 Y-12.6406
G01 X10.1992 Y-12.6915
G01 X10.1711 Y-12.7411
G01 X10.1406 Y-12.7892
G01 X10.1078 Y-12.8358
G01 X10.0728 Y-12.8807
G01 X10.0356 Y-12.9238
G01 X9.9963 Y-12.9651
G01 X9.9550 Y-13.0044
G01 X9.9119 Y-13.0416
G01 X9.8670 Y-13.0766
G01 X9.8204 Y-13.1094
G01 X9.7723 Y-13.1399
G01 X9.7227 Y-13.1680
G01 X9.6718 Y-13.1936
G01 X9.6197 Y-13.2167
G01 X9.5666 Y-13.2372
G01 X9.5125 Y-13.2550
G01 X9.4576 Y-13.2702
G01 X9.4020 Y-13.2827
G01 X9.3459 Y-13.2924
G01 X9.2894 Y-13.2994
G01 X9.2325 Y-13.3036
G01 X9.1739 Y-13.3051
G01 X8.6490 Y-13.3051
G00 Z2.0000
G00 X9.1739 Y-10.9837
G01 F70.00
G01 Z-0.0600
G01 F60.00
G01 X9.2325 Y-10.9852
G01 X9.2894 Y-10.9894
G01 X9.3459 Y-10.9964
G01 X9.4020 Y-11.0061
G01 X9.4576 Y-11.0186
G01 X9.5125 Y-11.0338
G01 X9.5666 Y-11.0516
G01 X9.6197 Y-11.0721
G01 X9.6718 Y-11.0952
G01 X9.7227 Y-11.1208
G01 X9.7723 Y-11.1489
G01 X9.8204 Y-11.1794
G01 X9.8670 Y-11.2122
G01 X9.9119 Y-11.2472
G01 X9.9550 Y-11.2844
G01 X9.9963 Y-11.3237
G01 X10.0356 Y-11.3650
G01 X10.0728 Y-11.4081
G01 X10.1078 Y-11.4530
G01 X10.1406 Y-11.4996
G01 X10.1711 Y-11.5477
G01 X10.1992 Y-11.5973
G01 X10.2248 Y-11.6482
G01 X10.2349 Y-11.6710
G01 X10.2130 Y-11.6710
G01 X10.2059 Y-11.6552
G01 X10.1822 Y-11.6083
G01 X10.1547 Y-11.5595
G01 X10.1239 Y-11.5108
G01 X10.0927 Y-11.4664
G01 X10.0572 Y-11.4209
G01 X10.0207 Y-11.3785
G01 X9.9821 Y-11.3379
G01 X9.9428 Y-11.3005
G01 X9.8991 Y-11.2628
G01 X9.8577 Y-11.2304
G01 X9.8063 Y-11.1942
G01 X9.7619 Y-11.1662
G01 X9.7132 Y-11.1386
G01 X9.6632 Y-11.1134
G01 X9.6121 Y-11.0907
G01 X9.5566 Y-11.0695
G01 X9.5067 Y-11.0530
G01 X9.4527 Y-11.0381
G01 X9.3981 Y-11.0258
G01 X9.3463 Y-11.0168
G01 X9.2857 Y-11.0092
G01 X9.2316 Y-11.0053
G01 X9.1773 Y-11.0039
G01 X8.6490 Y-11.0039
G01 X8.6490 Y-10.9837
G01 X9.1739 Y-10.9837
G00 Z2.0000
G00 X9.1747 Y-10.9137
G01 F70.00
G01 Z-0.0600
G01 F60.00
G01 X9.2360 Y-10.9153
G01 X9.2962 Y-10.9197
G01 X9.3562 Y-10.9271
G01 X9.4157 Y-10.9374
G01 X9.4746 Y-10.9507
G01 X9.5328 Y-10.9668
G01 X9.5902 Y-10.9857
G01 X9.6465 Y-11.0074
G01 X9.7018 Y-11.0319
G01 X9.7557 Y-11.0591
G01 X9.8083 Y-11.0889
G01 X9.8593 Y-11.1212
G01 X9.9087 Y-11.1559
G01 X9.9563 Y-11.1931
G01 X10.0020 Y-11.2326
G01 X10.0458 Y-11.2742
G01 X10.0874 Y-11.3180
G01 X10.1269 Y-11.3637
G01 X10.1641 Y-11.4113
G01 X10.1988 Y-11.4607
G01 X10.2311 Y-11.5117
G01 X10.2609 Y-11.5643
G01 X10.2881 Y-11.6182
G01 X10.3126 Y-11.6735
G01 X10.3380 Y-11.7410
G01 X10.1671 Y-11.7410
G01 X10.1433 Y-11.6867
G01 X10.1197 Y-11.6398
G01 X10.0938 Y-11.5941
G01 X10.0657 Y-11.5497
G01 X10.0354 Y-11.5067
G01 X10.0031 Y-11.4653
G01 X9.9688 Y-11.4255
G01 X9.9313 Y-11.3862
G01 X9.8945 Y-11.3512
G01 X9.8547 Y-11.3169
G01 X9.8133 Y-11.2846
G01 X9.7689 Y-11.2534
G01 X9.7259 Y-11.2262
G01 X9.6787 Y-11.1995
G01 X9.6333 Y-11.1767
G01 X9.5868 Y-11.1561
G01 X9.5379 Y-11.1371
G01 X9.4847 Y-11.1195
G01 X9.4357 Y-11.1060
G01 X9.3844 Y-11.0945
G01 X9.3310 Y-11.0853
G01 X9.2805 Y-11.0791
G01 X9.2290 Y-11.0752
G01 X9.1756 Y-11.0739
G01 X8.5790 Y-11.0739
G01 X8.5790 Y-10.9137
G01 X9.1747 Y-10.9137
G00 Z2.0000
G00 X14.7172 Y-10.8121
G01 F70.00
G01 Z-0.0600
G01 F60.00
G01 X14.7388 Y-10.8136
G01 X14.7956 Y-10.8149
G01 X16.7956 Y-10.8149
G01 X16.8524 Y-10.8136
G01 X16.8740 Y-10.8121
G01 X16.8696 Y-10.8284
G01 X16.8668 Y-10.8436
G01 X16.8651 Y-10.8590
G01 X16.8645 Y-10.8744
G01 X16.8651 Y-10.8898
G01 X16.8668 Y-10.9052
G01 X16.8696 Y-10.9204
G01 X16.8740 Y-10.9367
G01 X16.8524 Y-10.9352
G01 X16.7956 Y-10.9339
G01 X14.7956 Y-10.9339
G01 X14.7388 Y-10.9352
G01 X14.7172 Y-10.9367
G01 X14.7216 Y-10.9204
G01 X14.7244 Y-10.9052
G01 X14.7261 Y-10.8898
G01 X14.7267 Y-10.8744
G01 X14.7261 Y-10.8590
G01 X14.7244 Y-10.8436
G01 X14.7216 Y-10.8284
G01 X14.7172 Y-10.8121
G00 Z2.0000
G00 X16.7956 Y-11.0039
G01 F70.00
G01 Z-0.0600
G01 F60.00
G01 X14.7956 Y-11.0039
G01 X14.7379 Y-11.0054
G01 X14.6804 Y-11.0098
G01 X14.6283 Y-11.0162
G01 X14.5765 Y-11.0252
G01 X14.5185 Y-11.0381
G01 X14.4645 Y-11.0530
G01 X14.4114 Y-11.0706
G01 X14.3560 Y-11.0921
G01 X14.3080 Y-11.1134
G01 X14.2610 Y-11.1370
G01 X14.2107 Y-11.1653
G01 X14.1620 Y-11.1961
G01 X14.1162 Y-11.2283
G01 X14.0721 Y-11.2628
G01 X14.0297 Y-11.2993
G01 X13.9891 Y-11.3379
G01 X13.9505 Y-11.3785
G01 X13.9140 Y-11.4209
G01 X13.8795 Y-11.4650
G01 X13.8473 Y-11.5108
G01 X13.8174 Y-11.5581
G01 X13.7898 Y-11.6068
G01 X13.7646 Y-11.6568
G01 X13.7419 Y-11.7079
G01 X13.7218 Y-11.7602
G01 X13.7042 Y-11.8133
G01 X13.6893 Y-11.8673
G01 X13.6770 Y-11.9219
G01 X13.6674 Y-11.9771
G01 X13.6606 Y-12.0326
G01 X13.6565 Y-12.0884
G01 X13.6551 Y-12.1444
G01 X13.6565 Y-12.2004
G01 X13.6606 Y-12.2562
G01 X13.6674 Y-12.3117
G01 X13.6770 Y-12.3669
G01 X13.6893 Y-12.4215
G01 X13.7042 Y-12.4755
G01 X13.7218 Y-12.5286
G01 X13.7419 Y-12.5809
G01 X13.7646 Y-12.6320
G01 X13.7898 Y-12.6820
G01 X13.8165 Y-12.7293
G01 X13.8473 Y-12.7780
G01 X13.8795 Y-12.8238
G01 X13.9140 Y-12.8679
G01 X13.9529 Y-12.9128
G01 X13.9891 Y-12.9509
G01 X14.0323 Y-12.9917
G01 X14.0748 Y-13.0282
G01 X14.1162 Y-13.0605
G01 X14.1591 Y-13.0907
G01 X14.2093 Y-13.1226
G01 X14.2580 Y-13.1502
G01 X14.3080 Y-13.1754
G01 X14.3591 Y-13.1981
G01 X14.4114 Y-13.2182
G01 X14.4645 Y-13.2358
G01 X14.5185 Y-13.2507
G01 X14.5748 Y-13.2633
G01 X14.6283 Y-13.2726
G01 X14.6838 Y-13.2794
G01 X14.7396 Y-13.2835
G01 X14.7939 Y-13.2849
G01 X16.7990 Y-13.2849
G01 X16.8516 Y-13.2835
G01 X16.9040 Y-13.2797
G01 X16.9629 Y-13.2726
G01 X17.0181 Y-13.2630
G01 X17.0694 Y-13.2515
G01 X17.1267 Y-13.2358
G01 X17.1830 Y-13.2170
G01 X17.2321 Y-13.1981
G01 X17.2832 Y-13.1754
G01 X17.3332 Y-13.1502
G01 X17.3790 Y-13.1244
G01 X17.4321 Y-13.0907
G01 X17.4750 Y-13.0605
G01 X17.5164 Y-13.0282
G01 X17.5615 Y-12.9895
G01 X17.6021 Y-12.9509
G01 X17.6383 Y-12.9128
G01 X17.6794 Y-12.8652
G01 X17.7117 Y-12.8238
G01 X17.7419 Y-12.7809
G01 X17.7756 Y-12.7278
G01 X17.8014 Y-12.6820
G01 X17.8266 Y-12.6320
G01 X17.8493 Y-12.5809
G01 X17.8672 Y-12.5345
G01 X22.2756 Y-12.5345
G01 X22.2756 Y-13.1444
G01 X22.2767 Y-13.1615
G01 X22.2807 Y-13.1817
G01 X22.2869 Y-13.1996
G01 X22.2964 Y-13.2178
G01 X22.3074 Y-13.2332
G01 X22.3203 Y-13.2470
G01 X22.3364 Y-13.2598
G01 X22.3527 Y-13.2695
G01 X22.3701 Y-13.2768
G01 X22.3816 Y-13.2802
G01 X22.3934 Y-13.2826
G01 X22.4156 Y-13.2844
G01 X24.4173 Y-13.2844
G01 X24.4293 Y-13.2837
G01 X24.4412 Y-13.2820
G01 X24.4529 Y-13.2793
G01 X24.4644 Y-13.2756
G01 X24.4755 Y-13.2710
G01 X24.4861 Y-13.2654
G01 X24.4962 Y-13.2589
G01 X24.5057 Y-13.2515
G01 X24.5146 Y-13.2434
G01 X24.5227 Y-13.2345
G01 X24.5301 Y-13.2250
G01 X24.5366 Y-13.2149
G01 X24.5422 Y-13.2043
G01 X24.5468 Y-13.1932
G01 X24.5505 Y-13.1817
G01 X24.5532 Y-13.1700
G01 X24.5551 Y-13.1564
G01 X24.5556 Y-13.1444
G01 X24.5556 Y-12.5345
G01 X28.9640 Y-12.5345
G01 X28.9819 Y-12.5809
G01 X29.0032 Y-12.6289
G01 X29.0282 Y-12.6790
G01 X29.0574 Y-12.7307
G01 X29.0873 Y-12.7780
G01 X29.1195 Y-12.8238
G01 X29.1562 Y-12.8706
G01 X29.1905 Y-12.9103
G01 X29.2267 Y-12.9484
G01 X29.2697 Y-12.9895
G01 X29.3148 Y-13.0282
G01 X29.3562 Y-13.0605
G01 X29.3991 Y-13.0907
G01 X29.4493 Y-13.1226
G01 X29.4980 Y-13.1502
G01 X29.5511 Y-13.1768
G01 X29.5991 Y-13.1981
G01 X29.6482 Y-13.2170
G01 X29.7045 Y-13.2358
G01 X29.7602 Y-13.2511
G01 X29.8165 Y-13.2636
G01 X29.8683 Y-13.2726
G01 X29.9204 Y-13.2790
G01 X29.9796 Y-13.2835
G01 X30.0339 Y-13.2849
G01 X32.0356 Y-13.2849
G01 X32.0916 Y-13.2835
G01 X32.1491 Y-13.2792
G01 X32.2029 Y-13.2726
G01 X32.2547 Y-13.2636
G01 X32.3127 Y-13.2507
G01 X32.3699 Y-13.2348
G01 X32.4198 Y-13.2182
G01 X32.4689 Y-13.1994
G01 X32.5263 Y-13.1739
G01 X32.5732 Y-13.1502
G01 X32.6190 Y-13.1244
G01 X32.6692 Y-13.0927
G01 X32.7177 Y-13.0584
G01 X32.7591 Y-13.0260
G01 X32.7989 Y-12.9917
G01 X32.8421 Y-12.9509
G01 X32.8807 Y-12.9103
G01 X32.9150 Y-12.8706
G01 X32.9517 Y-12.8238
G01 X32.9839 Y-12.7780
G01 X33.0120 Y-12.7337
G01 X33.0414 Y-12.6820
G01 X33.0680 Y-12.6289
G01 X33.0893 Y-12.5809
G01 X33.1072 Y-12.5345
G01 X34.3885 Y-12.5341
G01 X34.4111 Y-12.5323
G01 X34.4455 Y-12.5270
G01 X34.4675 Y-12.5220
G01 X34.4976 Y-12.5128
G01 X34.5187 Y-12.5048
G01 X34.5393 Y-12.4956
G01 X34.5670 Y-12.4807
G01 X34.5862 Y-12.4688
G01 X34.6169 Y-12.4460
G01 X34.6453 Y-12.4203
G01 X36.0148 Y-11.0506
G01 X36.5172 Y-11.0502
G01 X36.5308 Y-11.0485
G01 X36.5426 Y-11.0460
G01 X36.5557 Y-11.0418
G01 X36.5668 Y-11.0372
G01 X36.5774 Y-11.0316
G01 X36.5889 Y-11.0241
G01 X36.5996 Y-11.0155
G01 X36.6083 Y-11.0071
G01 X36.6162 Y-10.9981
G01 X36.6243 Y-10.9869
G01 X36.6304 Y-10.9766
G01 X36.6356 Y-10.9658
G01 X36.6398 Y-10.9545
G01 X36.6431 Y-10.9429
G01 X36.6456 Y-10.9294
G01 X36.6467 Y-10.9175
G01 X36.6468 Y-10.3054
G01 X36.6456 Y-10.2918
G01 X36.6435 Y-10.2799
G01 X36.6404 Y-10.2683
G01 X36.6356 Y-10.2554
G01 X36.6304 Y-10.2446
G01 X36.6243 Y-10.2343
G01 X36.6173 Y-10.2245
G01 X36.6083 Y-10.2141
G01 X36.5996 Y-10.2057
G01 X36.5889 Y-10.1971
G01 X36.5789 Y-10.1905
G01 X36.5668 Y-10.1840
G01 X36.5557 Y-10.1794
G01 X36.5426 Y-10.1752
G01 X36.5308 Y-10.1727
G01 X36.5189 Y-10.1711
G01 X36.5069 Y-10.1706
G01 X35.4052 Y-10.1706
G01 X35.3864 Y-10.1721
G01 X35.3679 Y-10.1761
G01 X35.3502 Y-10.1826
G01 X35.3349 Y-10.1905
G01 X35.3221 Y-10.1992
G01 X35.3104 Y-10.2092
G01 X35.2998 Y-10.2205
G01 X35.2895 Y-10.2343
G01 X35.2818 Y-10.2477
G01 X35.2757 Y-10.2618
G01 X35.2711 Y-10.2766
G01 X35.2682 Y-10.2918
G01 X35.2669 Y-10.3106
G01 X35.2669 Y-10.6951
G01 X34.2078 Y-11.7543
G01 X33.1072 Y-11.7543
G01 X33.0893 Y-11.7079
G01 X33.0666 Y-11.6568
G01 X33.0414 Y-11.6068
G01 X33.0156 Y-11.5610
G01 X32.9819 Y-11.5079
G01 X32.9517 Y-11.4650
G01 X32.9194 Y-11.4236
G01 X32.8783 Y-11.3760
G01 X32.8421 Y-11.3379
G01 X32.8015 Y-11.2993
G01 X32.7564 Y-11.2606
G01 X32.7150 Y-11.2283
G01 X32.6721 Y-11.1981
G01 X32.6190 Y-11.1644
G01 X32.5732 Y-11.1386
G01 X32.5232 Y-11.1134
G01 X32.4721 Y-11.0907
G01 X32.4230 Y-11.0718
G01 X32.3667 Y-11.0530
G01 X32.3127 Y-11.0381
G01 X32.2615 Y-11.0265
G01 X32.2029 Y-11.0162
G01 X32.1474 Y-11.0094
G01 X32.0950 Y-11.0055
G01 X32.0356 Y-11.0039
G01 X30.0339 Y-11.0039
G01 X29.9762 Y-11.0055
G01 X29.9238 Y-11.0094
G01 X29.8717 Y-11.0158
G01 X29.8131 Y-11.0258
G01 X29.7585 Y-11.0381
G01 X29.7013 Y-11.0540
G01 X29.6514 Y-11.0706
G01 X29.6023 Y-11.0894
G01 X29.5480 Y-11.1134
G01 X29.4980 Y-11.1386
G01 X29.4463 Y-11.1680
G01 X29.4020 Y-11.1961
G01 X29.3590 Y-11.2263
G01 X29.3121 Y-11.2628
G01 X29.2697 Y-11.2993
G01 X29.2291 Y-11.3379
G01 X29.1883 Y-11.3811
G01 X29.1540 Y-11.4209
G01 X29.1216 Y-11.4623
G01 X29.0873 Y-11.5108
G01 X29.0574 Y-11.5581
G01 X29.0282 Y-11.6098
G01 X29.0032 Y-11.6599
G01 X28.9819 Y-11.7079
G01 X28.9640 Y-11.7543
G01 X24.5556 Y-11.7543
G01 X24.5556 Y-11.1444
G01 X24.5551 Y-11.1324
G01 X24.5532 Y-11.1188
G01 X24.5505 Y-11.1071
G01 X24.5468 Y-11.0956
G01 X24.5422 Y-11.0845
G01 X24.5366 Y-11.0739
G01 X24.5301 Y-11.0638
G01 X24.5227 Y-11.0543
G01 X24.5134 Y-11.0442
G01 X24.5044 Y-11.0362
G01 X24.4948 Y-11.0290
G01 X24.4846 Y-11.0226
G01 X24.4739 Y-11.0171
G01 X24.4628 Y-11.0126
G01 X24.4513 Y-11.0090
G01 X24.4395 Y-11.0065
G01 X24.4276 Y-11.0049
G01 X24.4156 Y-11.0044
G01 X22.4156 Y-11.0044
G01 X22.3934 Y-11.0062
G01 X22.3816 Y-11.0086
G01 X22.3701 Y-11.0120
G01 X22.3511 Y-11.0201
G01 X22.3350 Y-11.0299
G01 X22.3203 Y-11.0418
G01 X22.3063 Y-11.0569
G01 X22.2955 Y-11.0724
G01 X22.2863 Y-11.0908
G01 X22.2802 Y-11.1087
G01 X22.2767 Y-11.1273
G01 X22.2756 Y-11.1444
G01 X22.2756 Y-11.7543
G01 X17.8672 Y-11.7543
G01 X17.8493 Y-11.7079
G01 X17.8266 Y-11.6568
G01 X17.8014 Y-11.6068
G01 X17.7756 Y-11.5610
G01 X17.7419 Y-11.5079
G01 X17.7117 Y-11.4650
G01 X17.6794 Y-11.4236
G01 X17.6383 Y-11.3760
G01 X17.6021 Y-11.3379
G01 X17.5615 Y-11.2993
G01 X17.5164 Y-11.2606
G01 X17.4750 Y-11.2283
G01 X17.4321 Y-11.1981
G01 X17.3790 Y-11.1644
G01 X17.3332 Y-11.1386
G01 X17.2832 Y-11.1134
G01 X17.2289 Y-11.0894
G01 X17.1798 Y-11.0706
G01 X17.1267 Y-11.0530
G01 X17.0694 Y-11.0373
G01 X17.0181 Y-11.0258
G01 X16.9629 Y-11.0162
G01 X16.9074 Y-11.0094
G01 X16.8550 Y-11.0055
G01 X16.7956 Y-11.0039
G00 Z2.0000
G00 X16.7956 Y-11.0739
G01 F70.00
G01 Z-0.0600
G01 F60.00
G01 X14.7956 Y-11.0739
G01 X14.7431 Y-11.0752
G01 X14.6907 Y-11.0791
G01 X14.6385 Y-11.0855
G01 X14.5868 Y-11.0945
G01 X14.5338 Y-11.1064
G01 X14.4849 Y-11.1200
G01 X14.4366 Y-11.1359
G01 X14.3875 Y-11.1547
G01 X14.3379 Y-11.1767
G01 X14.2910 Y-11.2003
G01 X14.2453 Y-11.2262
G01 X14.2009 Y-11.2543
G01 X14.1579 Y-11.2846
G01 X14.1165 Y-11.3169
G01 X14.0767 Y-11.3512
G01 X14.0386 Y-11.3874
G01 X14.0024 Y-11.4255
G01 X13.9681 Y-11.4653
G01 X13.9358 Y-11.5067
G01 X13.9055 Y-11.5497
G01 X13.8774 Y-11.5941
G01 X13.8515 Y-11.6398
G01 X13.8279 Y-11.6867
G01 X13.8066 Y-11.7347
G01 X13.7877 Y-11.7838
G01 X13.7712 Y-11.8337
G01 X13.7572 Y-11.8843
G01 X13.7457 Y-11.9356
G01 X13.7367 Y-11.9873
G01 X13.7303 Y-12.0395
G01 X13.7264 Y-12.0919
G01 X13.7251 Y-12.1444
G01 X13.7264 Y-12.1969
G01 X13.7303 Y-12.2493
G01 X13.7367 Y-12.3015
G01 X13.7457 Y-12.3532
G01 X13.7572 Y-12.4045
G01 X13.7712 Y-12.4551
G01 X13.7877 Y-12.5050
G01 X13.8066 Y-12.5541
G01 X13.8279 Y-12.6021
G01 X13.8515 Y-12.6490
G01 X13.8774 Y-12.6947
G01 X13.9065 Y-12.7406
G01 X13.9358 Y-12.7821
G01 X13.9670 Y-12.8222
G01 X14.0013 Y-12.8620
G01 X14.0386 Y-12.9014
G01 X14.0767 Y-12.9376
G01 X14.1165 Y-12.9719
G01 X14.1579 Y-13.0042
G01 X14.2009 Y-13.0345
G01 X14.2467 Y-13.0635
G01 X14.2925 Y-13.0893
G01 X14.3379 Y-13.1121
G01 X14.3844 Y-13.1327
G01 X14.4350 Y-13.1523
G01 X14.4849 Y-13.1688
G01 X14.5355 Y-13.1828
G01 X14.5876 Y-13.1945
G01 X14.6385 Y-13.2033
G01 X14.6907 Y-13.2097
G01 X14.7431 Y-13.2136
G01 X14.7947 Y-13.2149
G01 X16.7973 Y-13.2149
G01 X16.8481 Y-13.2136
G01 X16.8988 Y-13.2099
G01 X16.9544 Y-13.2030
G01 X17.0044 Y-13.1943
G01 X17.0557 Y-13.1828
G01 X17.1063 Y-13.1688
G01 X17.1546 Y-13.1529
G01 X17.2068 Y-13.1327
G01 X17.2533 Y-13.1121
G01 X17.3002 Y-13.0885
G01 X17.3474 Y-13.0617
G01 X17.3903 Y-13.0345
G01 X17.4333 Y-13.0042
G01 X17.4747 Y-12.9719
G01 X17.5132 Y-12.9387
G01 X17.5526 Y-12.9014
G01 X17.5888 Y-12.8633
G01 X17.6220 Y-12.8248
G01 X17.6564 Y-12.7807
G01 X17.6857 Y-12.7391
G01 X17.7129 Y-12.6962
G01 X17.7405 Y-12.6475
G01 X17.7633 Y-12.6021
G01 X17.7846 Y-12.5541
G01 X17.8035 Y-12.5050
G01 X17.8169 Y-12.4645
G01 X22.3456 Y-12.4645
G01 X22.3457 Y-13.1487
G01 X22.3471 Y-13.1589
G01 X22.3500 Y-13.1688
G01 X22.3543 Y-13.1782
G01 X22.3599 Y-13.1868
G01 X22.3667 Y-13.1945
G01 X22.3746 Y-13.2011
G01 X22.3834 Y-13.2065
G01 X22.3920 Y-13.2103
G01 X22.4036 Y-13.2134
G01 X22.4156 Y-13.2144
G01 X24.4165 Y-13.2144
G01 X24.4293 Y-13.2131
G01 X24.4416 Y-13.2094
G01 X24.4530 Y-13.2035
G01 X24.4632 Y-13.1957
G01 X24.4718 Y-13.1861
G01 X24.4785 Y-13.1751
G01 X24.4831 Y-13.1631
G01 X24.4853 Y-13.1504
G01 X24.4856 Y-12.4645
G01 X29.0143 Y-12.4645
G01 X29.0277 Y-12.5050
G01 X29.0459 Y-12.5525
G01 X29.0679 Y-12.6021
G01 X29.0923 Y-12.6505
G01 X29.1174 Y-12.6947
G01 X29.1446 Y-12.7377
G01 X29.1758 Y-12.7821
G01 X29.2092 Y-12.8248
G01 X29.2424 Y-12.8633
G01 X29.2774 Y-12.9001
G01 X29.3154 Y-12.9364
G01 X29.3565 Y-12.9719
G01 X29.3993 Y-13.0052
G01 X29.4409 Y-13.0345
G01 X29.4838 Y-13.0617
G01 X29.5310 Y-13.0885
G01 X29.5795 Y-13.1128
G01 X29.6259 Y-13.1334
G01 X29.6733 Y-13.1517
G01 X29.7249 Y-13.1688
G01 X29.7763 Y-13.1830
G01 X29.8284 Y-13.1946
G01 X29.8785 Y-13.2033
G01 X29.9290 Y-13.2096
G01 X29.9831 Y-13.2136
G01 X30.0347 Y-13.2149
G01 X32.0356 Y-13.2149
G01 X32.0881 Y-13.2136
G01 X32.1405 Y-13.2097
G01 X32.1944 Y-13.2030
G01 X32.2444 Y-13.1943
G01 X32.2957 Y-13.1828
G01 X32.3463 Y-13.1688
G01 X32.3946 Y-13.1529
G01 X32.4453 Y-13.1334
G01 X32.4933 Y-13.1121
G01 X32.5387 Y-13.0893
G01 X32.5859 Y-13.0626
G01 X32.6318 Y-13.0335
G01 X32.6733 Y-13.0042
G01 X32.7147 Y-12.9719
G01 X32.7558 Y-12.9364
G01 X32.7926 Y-12.9014
G01 X32.8288 Y-12.8633
G01 X32.8642 Y-12.8222
G01 X32.8954 Y-12.7821
G01 X32.9257 Y-12.7391
G01 X32.9547 Y-12.6933
G01 X32.9797 Y-12.6490
G01 X33.0033 Y-12.6021
G01 X33.0253 Y-12.5525
G01 X33.0435 Y-12.5050
G01 X33.0569 Y-12.4645
G01 X34.3843 Y-12.4642
G01 X34.4025 Y-12.4628
G01 X34.4302 Y-12.4587
G01 X34.4640 Y-12.4502
G01 X34.4903 Y-12.4408
G01 X34.5063 Y-12.4338
G01 X34.5218 Y-12.4259
G01 X34.5465 Y-12.4110
G01 X34.5725 Y-12.3919
G01 X34.5958 Y-12.3708
G01 X35.9858 Y-10.9806
G01 X36.5095 Y-10.9806
G01 X36.5231 Y-10.9787
G01 X36.5353 Y-10.9746
G01 X36.5472 Y-10.9678
G01 X36.5570 Y-10.9595
G01 X36.5656 Y-10.9488
G01 X36.5716 Y-10.9374
G01 X36.5754 Y-10.9251
G01 X36.5769 Y-10.9123
G01 X36.5769 Y-10.3080
G01 X36.5752 Y-10.2953
G01 X36.5709 Y-10.2822
G01 X36.5646 Y-10.2710
G01 X36.5564 Y-10.2611
G01 X36.5465 Y-10.2529
G01 X36.5353 Y-10.2466
G01 X36.5231 Y-10.2425
G01 X36.5103 Y-10.2407
G01 X35.4060 Y-10.2406
G01 X35.3958 Y-10.2415
G01 X35.3866 Y-10.2436
G01 X35.3778 Y-10.2470
G01 X35.3687 Y-10.2519
G01 X35.3562 Y-10.2623
G01 X35.3464 Y-10.2754
G01 X35.3399 Y-10.2903
G01 X35.3370 Y-10.3063
G01 X35.3369 Y-10.7241
G01 X34.2368 Y-11.8243
G01 X33.0569 Y-11.8243
G01 X33.0435 Y-11.7838
G01 X33.0246 Y-11.7347
G01 X33.0033 Y-11.6867
G01 X32.9805 Y-11.6413
G01 X32.9529 Y-11.5926
G01 X32.9257 Y-11.5497
G01 X32.8964 Y-11.5081
G01 X32.8620 Y-11.4640
G01 X32.8288 Y-11.4255
G01 X32.7926 Y-11.3874
G01 X32.7532 Y-11.3501
G01 X32.7147 Y-11.3169
G01 X32.6733 Y-11.2846
G01 X32.6303 Y-11.2543
G01 X32.5874 Y-11.2271
G01 X32.5387 Y-11.1995
G01 X32.4933 Y-11.1767
G01 X32.4453 Y-11.1554
G01 X32.3962 Y-11.1365
G01 X32.3480 Y-11.1205
G01 X32.2940 Y-11.1056
G01 X32.2444 Y-11.0945
G01 X32.1927 Y-11.0855
G01 X32.1405 Y-11.0791
G01 X32.0898 Y-11.0753
G01 X32.0356 Y-11.0739
G01 X30.0347 Y-11.0739
G01 X29.9814 Y-11.0753
G01 X29.9307 Y-11.0791
G01 X29.8802 Y-11.0853
G01 X29.8268 Y-11.0945
G01 X29.7755 Y-11.1060
G01 X29.7232 Y-11.1205
G01 X29.6750 Y-11.1365
G01 X29.6275 Y-11.1547
G01 X29.5779 Y-11.1767
G01 X29.5310 Y-11.2003
G01 X29.4838 Y-11.2271
G01 X29.4409 Y-11.2543
G01 X29.3993 Y-11.2836
G01 X29.3565 Y-11.3169
G01 X29.3154 Y-11.3524
G01 X29.2786 Y-11.3874
G01 X29.2436 Y-11.4242
G01 X29.2092 Y-11.4640
G01 X29.1758 Y-11.5067
G01 X29.1446 Y-11.5511
G01 X29.1174 Y-11.5941
G01 X29.0923 Y-11.6383
G01 X29.0679 Y-11.6867
G01 X29.0459 Y-11.7363
G01 X29.0277 Y-11.7838
G01 X29.0143 Y-11.8243
G01 X24.4856 Y-11.8243
G01 X24.4853 Y-11.1375
G01 X24.4828 Y-11.1249
G01 X24.4781 Y-11.1129
G01 X24.4713 Y-11.1020
G01 X24.4626 Y-11.0925
G01 X24.4523 Y-11.0848
G01 X24.4408 Y-11.0791
G01 X24.4284 Y-11.0756
G01 X24.4156 Y-11.0744
G01 X22.4156 Y-11.0744
G01 X22.4036 Y-11.0754
G01 X22.3920 Y-11.0785
G01 X22.3826 Y-11.0827
G01 X22.3739 Y-11.0882
G01 X22.3667 Y-11.0943
G01 X22.3599 Y-11.1020
G01 X22.3543 Y-11.1106
G01 X22.3500 Y-11.1200
G01 X22.3471 Y-11.1299
G01 X22.3457 Y-11.1401
G01 X22.3456 Y-11.8243
G01 X17.8169 Y-11.8243
G01 X17.8035 Y-11.7838
G01 X17.7846 Y-11.7347
G01 X17.7633 Y-11.6867
G01 X17.7405 Y-11.6413
G01 X17.7129 Y-11.5926
G01 X17.6857 Y-11.5497
G01 X17.6564 Y-11.5081
G01 X17.6220 Y-11.4640
G01 X17.5888 Y-11.4255
G01 X17.5526 Y-11.3874
G01 X17.5132 Y-11.3501
G01 X17.4747 Y-11.3169
G01 X17.4333 Y-11.2846
G01 X17.3903 Y-11.2543
G01 X17.3474 Y-11.2271
G01 X17.2987 Y-11.1995
G01 X17.2533 Y-11.1767
G01 X17.2053 Y-11.1554
G01 X17.1562 Y-11.1365
G01 X17.1080 Y-11.1205
G01 X17.0540 Y-11.1056
G01 X17.0044 Y-11.0945
G01 X16.9527 Y-11.0855
G01 X16.9005 Y-11.0791
G01 X16.8498 Y-11.0753
G01 X16.7956 Y-11.0739
G00 Z2.0000
G00 X17.0439 Y-11.0110
G01 F70.00
G01 Z-0.0600
G01 F60.00
G01 X17.0776 Y-11.0186
G01 X17.1325 Y-11.0338
G01 X17.1866 Y-11.0516
G01 X17.2397 Y-11.0721
G01 X17.2918 Y-11.0952
G01 X17.3427 Y-11.1208
G01 X17.3923 Y-11.1489
G01 X17.4404 Y-11.1794
G01 X17.4870 Y-11.2122
G01 X17.5319 Y-11.2472
G01 X17.5750 Y-11.2844
G01 X17.6163 Y-11.3237
G01 X17.6556 Y-11.3650
G01 X17.6928 Y-11.4081
G01 X17.7278 Y-11.4530
G01 X17.7606 Y-11.4996
G01 X17.7911 Y-11.5477
G01 X17.8192 Y-11.5973
G01 X17.8521 Y-11.6631
G01 X17.8595 Y-11.6747
G01 X17.8691 Y-11.6869
G01 X17.8787 Y-11.6967
G01 X17.8892 Y-11.7055
G01 X17.9005 Y-11.7133
G01 X17.9125 Y-11.7199
G01 X17.9252 Y-11.7254
G01 X17.9383 Y-11.7295
G01 X17.9517 Y-11.7323
G01 X17.9654 Y-11.7339
G01 X22.1156 Y-11.7341
G01 X22.1276 Y-11.7336
G01 X22.1395 Y-11.7321
G01 X22.1595 Y-11.7271
G01 X22.1801 Y-11.7184
G01 X22.1976 Y-11.7076
G01 X22.2146 Y-11.6931
G01 X22.2291 Y-11.6761
G01 X22.2407 Y-11.6571
G01 X22.2485 Y-11.6380
G01 X22.2538 Y-11.6164
G01 X22.2556 Y-11.5941
G01 X22.2556 Y-10.9844
G01 X24.5756 Y-10.9844
G01 X24.5756 Y-11.5941
G01 X24.5774 Y-11.6164
G01 X24.5798 Y-11.6281
G01 X24.5832 Y-11.6397
G01 X24.5921 Y-11.6601
G01 X24.6042 Y-11.6789
G01 X24.6191 Y-11.6955
G01 X24.6364 Y-11.7096
G01 X24.6466 Y-11.7159
G01 X24.6573 Y-11.7214
G01 X24.6783 Y-11.7291
G01 X24.7002 Y-11.7333
G01 X24.7156 Y-11.7341
G01 X28.8572 Y-11.7341
G01 X28.8727 Y-11.7333
G01 X28.8862 Y-11.7311
G01 X28.9076 Y-11.7247
G01 X28.9277 Y-11.7151
G01 X28.9461 Y-11.7023
G01 X28.9550 Y-11.6943
G01 X28.9633 Y-11.6856
G01 X28.9717 Y-11.6747
G01 X28.9799 Y-11.6616
G01 X29.0120 Y-11.5973
G01 X29.0401 Y-11.5477
G01 X29.0706 Y-11.4996
G01 X29.1034 Y-11.4530
G01 X29.1384 Y-11.4081
G01 X29.1756 Y-11.3650
G01 X29.2149 Y-11.3237
G01 X29.2562 Y-11.2844
G01 X29.2993 Y-11.2472
G01 X29.3442 Y-11.2122
G01 X29.3908 Y-11.1794
G01 X29.4389 Y-11.1489
G01 X29.4885 Y-11.1208
G01 X29.5394 Y-11.0952
G01 X29.5915 Y-11.0721
G01 X29.6446 Y-11.0516
G01 X29.6987 Y-11.0338
G01 X29.7536 Y-11.0186
G01 X29.7973 Y-11.0084
G01 X29.8118 Y-11.0031
G01 X29.8257 Y-10.9962
G01 X29.8373 Y-10.9889
G01 X29.8481 Y-10.9804
G01 X29.8581 Y-10.9709
G01 X29.8660 Y-10.9619
G01 X29.8740 Y-10.9507
G01 X29.8809 Y-10.9389
G01 X29.8866 Y-10.9264
G01 X29.8911 Y-10.9134
G01 X29.8956 Y-10.8915
G01 X29.8966 Y-10.8710
G01 X29.8946 Y-10.8505
G01 X29.8896 Y-10.8305
G01 X29.8817 Y-10.8115
G01 X29.8711 Y-10.7938
G01 X29.8581 Y-10.7779
G01 X29.8428 Y-10.7640
G01 X29.8330 Y-10.7570
G01 X29.8227 Y-10.7509
G01 X29.8022 Y-10.7420
G01 X29.7890 Y-10.7382
G01 X29.7536 Y-10.7302
G01 X29.6987 Y-10.7150
G01 X29.6446 Y-10.6972
G01 X29.5915 Y-10.6767
G01 X29.5394 Y-10.6536
G01 X29.4885 Y-10.6280
G01 X29.4389 Y-10.5999
G01 X29.3908 Y-10.5694
G01 X29.3442 Y-10.5366
G01 X29.2993 Y-10.5016
G01 X29.2562 Y-10.4644
G01 X29.2149 Y-10.4251
G01 X29.1756 Y-10.3838
G01 X29.1384 Y-10.3407
G01 X29.1034 Y-10.2958
G01 X29.0706 Y-10.2492
G01 X29.0401 Y-10.2011
G01 X29.0120 Y-10.1515
G01 X28.9864 Y-10.1006
G01 X28.9633 Y-10.0485
G01 X28.9428 Y-9.9954
G01 X28.9250 Y-9.9413
G01 X28.9098 Y-9.8864
G01 X28.8973 Y-9.8308
G01 X28.8876 Y-9.7747
G01 X28.8806 Y-9.7182
G01 X28.8764 Y-9.6613
G01 X28.8750 Y-9.6044
G01 X28.8764 Y-9.5475
G01 X28.8806 Y-9.4906
G01 X28.8876 Y-9.4341
G01 X28.8973 Y-9.3780
G01 X28.9098 Y-9.3224
G01 X28.9250 Y-9.2675
G01 X28.9428 Y-9.2134
G01 X28.9633 Y-9.1603
G01 X28.9864 Y-9.1082
G01 X29.0120 Y-9.0573
G01 X29.0401 Y-9.0077
G01 X29.0706 Y-8.9596
G01 X29.1034 Y-8.9130
G01 X29.1384 Y-8.8681
G01 X29.1756 Y-8.8250
G01 X29.2149 Y-8.7837
G01 X29.2562 Y-8.7444
G01 X29.2993 Y-8.7072
G01 X29.3442 Y-8.6722
G01 X29.3908 Y-8.6394
G01 X29.4389 Y-8.6089
G01 X29.4885 Y-8.5808
G01 X29.5394 Y-8.5552
G01 X29.5915 Y-8.5321
G01 X29.6446 Y-8.5116
G01 X29.6987 Y-8.4938
G01 X29.7536 Y-8.4786
G01 X29.7890 Y-8.4706
G01 X29.8022 Y-8.4668
G01 X29.8211 Y-8.4587
G01 X29.8401 Y-8.4468
G01 X29.8544 Y-8.4346
G01 X29.8681 Y-8.4192
G01 X29.8785 Y-8.4034
G01 X29.8873 Y-8.3848
G01 X29.8933 Y-8.3651
G01 X29.8961 Y-8.3464
G01 X29.8964 Y-8.3258
G01 X29.8936 Y-8.3054
G01 X29.8896 Y-8.2905
G01 X29.8846 Y-8.2777
G01 X29.8776 Y-8.2639
G01 X29.8701 Y-8.2524
G01 X29.8604 Y-8.2404
G01 X29.8507 Y-8.2307
G01 X29.8401 Y-8.2220
G01 X29.8272 Y-8.2134
G01 X29.8118 Y-8.2057
G01 X29.7973 Y-8.2004
G01 X29.7536 Y-8.1902
G01 X29.6987 Y-8.1750
G01 X29.6446 Y-8.1572
G01 X29.5915 Y-8.1367
G01 X29.5394 Y-8.1136
G01 X29.4885 Y-8.0880
G01 X29.4389 Y-8.0599
G01 X29.3908 Y-8.0294
G01 X29.3442 Y-7.9966
G01 X29.2993 Y-7.9616
G01 X29.2562 Y-7.9244
G01 X29.2149 Y-7.8851
G01 X29.1756 Y-7.8438
G01 X29.1384 Y-7.8007
G01 X29.1034 Y-7.7558
G01 X29.0706 Y-7.7092
G01 X29.0401 Y-7.6611
G01 X29.0120 Y-7.6115
G01 X28.9791 Y-7.5457
G01 X28.9717 Y-7.5341
G01 X28.9621 Y-7.5219
G01 X28.9525 Y-7.5121
G01 X28.9420 Y-7.5033
G01 X28.9307 Y-7.4955
G01 X28.9187 Y-7.4889
G01 X28.9060 Y-7.4834
G01 X28.8929 Y-7.4793
G01 X28.8795 Y-7.4765
G01 X28.8675 Y-7.4751
G01 X24.5932 Y-7.4747
G01 X24.5744 Y-7.4759
G01 X24.5626 Y-7.4781
G01 X24.5510 Y-7.4812
G01 X24.5397 Y-7.4853
G01 X24.5288 Y-7.4904
G01 X24.5183 Y-7.4964
G01 X24.5085 Y-7.5033
G01 X24.4992 Y-7.5109
G01 X24.4907 Y-7.5194
G01 X24.4808 Y-7.5313
G01 X24.4723 Y-7.5442
G01 X24.4386 Y-7.6112
G01 X24.4105 Y-7.6607
G01 X24.3801 Y-7.7088
G01 X24.3473 Y-7.7554
G01 X24.3123 Y-7.8003
G01 X24.2751 Y-7.8434
G01 X24.2358 Y-7.8846
G01 X24.1946 Y-7.9239
G01 X24.1515 Y-7.9611
G01 X24.1066 Y-7.9961
G01 X24.0600 Y-8.0289
G01 X24.0119 Y-8.0593
G01 X23.9624 Y-8.0874
G01 X23.9115 Y-8.1130
G01 X23.8595 Y-8.1361
G01 X23.8064 Y-8.1566
G01 X23.7523 Y-8.1744
G01 X23.6974 Y-8.1896
G01 X23.6419 Y-8.2021
G01 X23.5858 Y-8.2118
G01 X23.5293 Y-8.2188
G01 X23.4725 Y-8.2230
G01 X23.4156 Y-8.2244
G01 X23.3587 Y-8.2230
G01 X23.3019 Y-8.2188
G01 X23.2454 Y-8.2118
G01 X23.1893 Y-8.2021
G01 X23.1338 Y-8.1896
G01 X23.0789 Y-8.1744
G01 X23.0248 Y-8.1566
G01 X22.9717 Y-8.1361
G01 X22.9197 Y-8.1130
G01 X22.8688 Y-8.0874
G01 X22.8193 Y-8.0593
G01 X22.7712 Y-8.0289
G01 X22.7246 Y-7.9961
G01 X22.6797 Y-7.9611
G01 X22.6366 Y-7.9239
G01 X22.5954 Y-7.8846
G01 X22.5561 Y-7.8434
G01 X22.5189 Y-7.8003
G01 X22.4839 Y-7.7554
G01 X22.4511 Y-7.7088
G01 X22.4207 Y-7.6607
G01 X22.3926 Y-7.6112
G01 X22.3589 Y-7.5442
G01 X22.3504 Y-7.5313
G01 X22.3405 Y-7.5194
G01 X22.3320 Y-7.5109
G01 X22.3227 Y-7.5033
G01 X22.3129 Y-7.4964
G01 X22.3024 Y-7.4904
G01 X22.2915 Y-7.4853
G01 X22.2802 Y-7.4812
G01 X22.2686 Y-7.4781
G01 X22.2568 Y-7.4759
G01 X22.2380 Y-7.4747
G01 X17.9740 Y-7.4747
G01 X17.9585 Y-7.4755
G01 X17.9450 Y-7.4777
G01 X17.9236 Y-7.4841
G01 X17.9035 Y-7.4937
G01 X17.8851 Y-7.5065
G01 X17.8762 Y-7.5145
G01 X17.8679 Y-7.5232
G01 X17.8585 Y-7.5355
G01 X17.8513 Y-7.5472
G01 X17.8192 Y-7.6115
G01 X17.7911 Y-7.6611
G01 X17.7606 Y-7.7092
G01 X17.7278 Y-7.7558
G01 X17.6928 Y-7.8007
G01 X17.6556 Y-7.8438
G01 X17.6163 Y-7.8851
G01 X17.5750 Y-7.9244
G01 X17.5319 Y-7.9616
G01 X17.4870 Y-7.9966
G01 X17.4404 Y-8.0294
G01 X17.3923 Y-8.0599
G01 X17.3427 Y-8.0880
G01 X17.2918 Y-8.1136
G01 X17.2397 Y-8.1367
G01 X17.1866 Y-8.1572
G01 X17.1325 Y-8.1750
G01 X17.0776 Y-8.1902
G01 X17.0339 Y-8.2004
G01 X17.0194 Y-8.2057
G01 X17.0055 Y-8.2126
G01 X16.9939 Y-8.2199
G01 X16.9831 Y-8.2284
G01 X16.9731 Y-8.2379
G01 X16.9631 Y-8.2496
G01 X16.9554 Y-8.2610
G01 X16.9487 Y-8.2730
G01 X16.9433 Y-8.2856
G01 X16.9387 Y-8.3004
G01 X16.9352 Y-8.3207
G01 X16.9347 Y-8.3413
G01 X16.9372 Y-8.3617
G01 X16.9422 Y-8.3799
G01 X16.9503 Y-8.3989
G01 X16.9611 Y-8.4164
G01 X16.9743 Y-8.4322
G01 X16.9898 Y-8.4458
G01 X17.0085 Y-8.4579
G01 X17.0290 Y-8.4668
G01 X17.0422 Y-8.4706
G01 X17.0776 Y-8.4786
G01 X17.1325 Y-8.4938
G01 X17.1866 Y-8.5116
G01 X17.2397 Y-8.5321
G01 X17.2918 Y-8.5552
G01 X17.3427 Y-8.5808
G01 X17.3923 Y-8.6089
G01 X17.4404 Y-8.6394
G01 X17.4870 Y-8.6722
G01 X17.5319 Y-8.7072
G01 X17.5750 Y-8.7444
G01 X17.6163 Y-8.7837
G01 X17.6556 Y-8.8250
G01 X17.6928 Y-8.8681
G01 X17.7278 Y-8.9130
G01 X17.7606 Y-8.9596
G01 X17.7911 Y-9.0077
G01 X17.8192 Y-9.0573
G01 X17.8448 Y-9.1082
G01 X17.8679 Y-9.1603
G01 X17.8884 Y-9.2134
G01 X17.9062 Y-9.2675
G01 X17.9214 Y-9.3224
G01 X17.9339 Y-9.3780
G01 X17.9436 Y-9.4341
G01 X17.9506 Y-9.4906
G01 X17.9548 Y-9.5475
G01 X17.9562 Y-9.6044
G01 X17.9548 Y-9.6613
G01 X17.9506 Y-9.7182
G01 X17.9436 Y-9.7747
G01 X17.9339 Y-9.8308
G01 X17.9214 Y-9.8864
G01 X17.9062 Y-9.9413
G01 X17.8884 Y-9.9954
G01 X17.8679 Y-10.0485
G01 X17.8448 Y-10.1006
G01 X17.8192 Y-10.1515
G01 X17.7911 Y-10.2011
G01 X17.7606 Y-10.2492
G01 X17.7278 Y-10.2958
G01 X17.6928 Y-10.3407
G01 X17.6556 Y-10.3838
G01 X17.6163 Y-10.4251
G01 X17.5750 Y-10.4644
G01 X17.5319 Y-10.5016
G01 X17.4870 Y-10.5366
G01 X17.4404 Y-10.5694
G01 X17.3923 Y-10.5999
G01 X17.3427 Y-10.6280
G01 X17.2918 Y-10.6536
G01 X17.2397 Y-10.6767
G01 X17.1866 Y-10.6972
G01 X17.1325 Y-10.7150
G01 X17.0776 Y-10.7302
G01 X17.0389 Y-10.7390
G01 X17.0242 Y-10.7438
G01 X17.0101 Y-10.7501
G01 X16.9953 Y-10.7590
G01 X16.9831 Y-10.7684
G01 X16.9720 Y-10.7791
G01 X16.9601 Y-10.7938
G01 X16.9511 Y-10.8084
G01 X16.9433 Y-10.8256
G01 X16.9383 Y-10.8421
G01 X16.9352 Y-10.8607
G01 X16.9346 Y-10.8778
G01 X16.9363 Y-10.8966
G01 X16.9406 Y-10.9150
G01 X16.9473 Y-10.9327
G01 X16.9554 Y-10.9478
G01 X16.9663 Y-10.9632
G01 X16.9793 Y-10.9770
G01 X16.9925 Y-10.9879
G01 X17.0085 Y-10.9979
G01 X17.0258 Y-11.0056
G01 X17.0439 Y-11.0110
G00 Z2.0000
G00 X17.0592 Y-10.9427
G01 F70.00
G01 Z-0.0600
G01 F60.00
G01 X17.0946 Y-10.9507
G01 X17.1528 Y-10.9668
G01 X17.2102 Y-10.9857
G01 X17.2665 Y-11.0074
G01 X17.3218 Y-11.0319
G01 X17.3757 Y-11.0591
G01 X17.4283 Y-11.0889
G01 X17.4793 Y-11.1212
G01 X17.5287 Y-11.1559
G01 X17.5763 Y-11.1931
G01 X17.6220 Y-11.2326
G01 X17.6658 Y-11.2742
G01 X17.7074 Y-11.3180
G01 X17.7469 Y-11.3637
G01 X17.7841 Y-11.4113
G01 X17.8188 Y-11.4607
G01 X17.8511 Y-11.5117
G01 X17.8809 Y-11.5643
G01 X17.9126 Y-11.6279
G01 X17.9204 Y-11.6392
G01 X17.9302 Y-11.6488
G01 X17.9425 Y-11.6567
G01 X17.9553 Y-11.6616
G01 X17.9697 Y-11.6640
G01 X22.1156 Y-11.6641
G01 X22.1276 Y-11.6631
G01 X22.1392 Y-11.6600
G01 X22.1494 Y-11.6554
G01 X22.1587 Y-11.6493
G01 X22.1675 Y-11.6411
G01 X22.1743 Y-11.6323
G01 X22.1799 Y-11.6217
G01 X22.1837 Y-11.6103
G01 X22.1854 Y-11.5993
G01 X22.1856 Y-10.9144
G01 X24.6456 Y-10.9144
G01 X24.6459 Y-11.6001
G01 X24.6479 Y-11.6120
G01 X24.6520 Y-11.6233
G01 X24.6579 Y-11.6337
G01 X24.6655 Y-11.6430
G01 X24.6746 Y-11.6509
G01 X24.6849 Y-11.6570
G01 X24.6961 Y-11.6614
G01 X24.7079 Y-11.6637
G01 X28.8572 Y-11.6641
G01 X28.8717 Y-11.6626
G01 X28.8840 Y-11.6588
G01 X28.8954 Y-11.6528
G01 X28.9061 Y-11.6442
G01 X28.9145 Y-11.6344
G01 X28.9198 Y-11.6256
G01 X28.9503 Y-11.5643
G01 X28.9801 Y-11.5117
G01 X29.0124 Y-11.4607
G01 X29.0471 Y-11.4113
G01 X29.0843 Y-11.3637
G01 X29.1238 Y-11.3180
G01 X29.1654 Y-11.2742
G01 X29.2092 Y-11.2326
G01 X29.2549 Y-11.1931
G01 X29.3025 Y-11.1559
G01 X29.3519 Y-11.1212
G01 X29.4029 Y-11.0889
G01 X29.4555 Y-11.0591
G01 X29.5094 Y-11.0319
G01 X29.5647 Y-11.0074
G01 X29.6210 Y-10.9857
G01 X29.6784 Y-10.9668
G01 X29.7366 Y-10.9507
G01 X29.7745 Y-10.9421
G01 X29.7850 Y-10.9384
G01 X29.7977 Y-10.9311
G01 X29.8091 Y-10.9208
G01 X29.8180 Y-10.9082
G01 X29.8239 Y-10.8939
G01 X29.8261 Y-10.8830
G01 X29.8266 Y-10.8710
G01 X29.8250 Y-10.8591
G01 X29.8217 Y-10.8484
G01 X29.8163 Y-10.8377
G01 X29.8097 Y-10.8287
G01 X29.8011 Y-10.8203
G01 X29.7912 Y-10.8135
G01 X29.7834 Y-10.8097
G01 X29.7753 Y-10.8069
G01 X29.7366 Y-10.7981
G01 X29.6784 Y-10.7820
G01 X29.6210 Y-10.7631
G01 X29.5647 Y-10.7414
G01 X29.5094 Y-10.7169
G01 X29.4555 Y-10.6897
G01 X29.4029 Y-10.6599
G01 X29.3519 Y-10.6276
G01 X29.3025 Y-10.5929
G01 X29.2549 Y-10.5557
G01 X29.2092 Y-10.5162
G01 X29.1654 Y-10.4746
G01 X29.1238 Y-10.4308
G01 X29.0843 Y-10.3851
G01 X29.0471 Y-10.3375
G01 X29.0124 Y-10.2881
G01 X28.9801 Y-10.2371
G01 X28.9503 Y-10.1845
G01 X28.9231 Y-10.1306
G01 X28.8986 Y-10.0753
G01 X28.8769 Y-10.0190
G01 X28.8580 Y-9.9616
G01 X28.8419 Y-9.9034
G01 X28.8286 Y-9.8445
G01 X28.8183 Y-9.7850
G01 X28.8109 Y-9.7250
G01 X28.8065 Y-9.6648
G01 X28.8050 Y-9.6044
G01 X28.8065 Y-9.5440
G01 X28.8109 Y-9.4838
G01 X28.8183 Y-9.4238
G01 X28.8286 Y-9.3643
G01 X28.8419 Y-9.3054
G01 X28.8580 Y-9.2472
G01 X28.8769 Y-9.1898
G01 X28.8986 Y-9.1335
G01 X28.9231 Y-9.0782
G01 X28.9503 Y-9.0243
G01 X28.9801 Y-8.9717
G01 X29.0124 Y-8.9207
G01 X29.0471 Y-8.8713
G01 X29.0843 Y-8.8237
G01 X29.1238 Y-8.7780
G01 X29.1654 Y-8.7342
G01 X29.2092 Y-8.6926
G01 X29.2549 Y-8.6531
G01 X29.3025 Y-8.6159
G01 X29.3519 Y-8.5812
G01 X29.4029 Y-8.5489
G01 X29.4555 Y-8.5191
G01 X29.5094 Y-8.4919
G01 X29.5647 Y-8.4674
G01 X29.6210 Y-8.4457
G01 X29.6784 Y-8.4268
G01 X29.7366 Y-8.4107
G01 X29.7753 Y-8.4019
G01 X29.7904 Y-8.3957
G01 X29.7997 Y-8.3896
G01 X29.8079 Y-8.3820
G01 X29.8149 Y-8.3733
G01 X29.8203 Y-8.3636
G01 X29.8241 Y-8.3531
G01 X29.8262 Y-8.3421
G01 X29.8266 Y-8.3310
G01 X29.8251 Y-8.3199
G01 X29.8207 Y-8.3060
G01 X29.8129 Y-8.2927
G01 X29.8024 Y-8.2814
G01 X29.7897 Y-8.2727
G01 X29.7753 Y-8.2669
G01 X29.7366 Y-8.2581
G01 X29.6784 Y-8.2420
G01 X29.6210 Y-8.2231
G01 X29.5647 Y-8.2014
G01 X29.5094 Y-8.1769
G01 X29.4555 Y-8.1497
G01 X29.4029 Y-8.1199
G01 X29.3519 Y-8.0876
G01 X29.3025 Y-8.0529
G01 X29.2549 Y-8.0157
G01 X29.2092 Y-7.9762
G01 X29.1654 Y-7.9346
G01 X29.1238 Y-7.8908
G01 X29.0843 Y-7.8451
G01 X29.0471 Y-7.7975
G01 X29.0124 Y-7.7481
G01 X28.9801 Y-7.6971
G01 X28.9503 Y-7.6445
G01 X28.9186 Y-7.5809
G01 X28.9108 Y-7.5696
G01 X28.9003 Y-7.5595
G01 X28.8887 Y-7.5521
G01 X28.8751 Y-7.5470
G01 X28.8615 Y-7.5448
G01 X24.5932 Y-7.5447
G01 X24.5838 Y-7.5453
G01 X24.5705 Y-7.5485
G01 X24.5573 Y-7.5546
G01 X24.5462 Y-7.5628
G01 X24.5370 Y-7.5730
G01 X24.5311 Y-7.5824
G01 X24.5003 Y-7.6442
G01 X24.4706 Y-7.6967
G01 X24.4383 Y-7.7477
G01 X24.4035 Y-7.7971
G01 X24.3664 Y-7.8447
G01 X24.3270 Y-7.8904
G01 X24.2853 Y-7.9341
G01 X24.2416 Y-7.9758
G01 X24.1959 Y-8.0152
G01 X24.1483 Y-8.0523
G01 X24.0989 Y-8.0871
G01 X24.0479 Y-8.1194
G01 X23.9954 Y-8.1491
G01 X23.9415 Y-8.1763
G01 X23.8863 Y-8.2008
G01 X23.8300 Y-8.2225
G01 X23.7726 Y-8.2414
G01 X23.7145 Y-8.2575
G01 X23.6556 Y-8.2707
G01 X23.5961 Y-8.2811
G01 X23.5362 Y-8.2885
G01 X23.4760 Y-8.2929
G01 X23.4156 Y-8.2944
G01 X23.3552 Y-8.2929
G01 X23.2950 Y-8.2885
G01 X23.2351 Y-8.2811
G01 X23.1756 Y-8.2707
G01 X23.1167 Y-8.2575
G01 X23.0586 Y-8.2414
G01 X23.0012 Y-8.2225
G01 X22.9449 Y-8.2008
G01 X22.8897 Y-8.1763
G01 X22.8358 Y-8.1491
G01 X22.7833 Y-8.1194
G01 X22.7323 Y-8.0871
G01 X22.6829 Y-8.0523
G01 X22.6353 Y-8.0152
G01 X22.5896 Y-7.9758
G01 X22.5459 Y-7.9341
G01 X22.5042 Y-7.8904
G01 X22.4648 Y-7.8447
G01 X22.4277 Y-7.7971
G01 X22.3929 Y-7.7477
G01 X22.3606 Y-7.6967
G01 X22.3309 Y-7.6442
G01 X22.3001 Y-7.5824
G01 X22.2942 Y-7.5730
G01 X22.2850 Y-7.5628
G01 X22.2732 Y-7.5542
G01 X22.2607 Y-7.5485
G01 X22.2474 Y-7.5453
G01 X22.2380 Y-7.5447
G01 X17.9740 Y-7.5447
G01 X17.9595 Y-7.5462
G01 X17.9472 Y-7.5500
G01 X17.9358 Y-7.5560
G01 X17.9251 Y-7.5646
G01 X17.9167 Y-7.5744
G01 X17.9114 Y-7.5832
G01 X17.8809 Y-7.6445
G01 X17.8511 Y-7.6971
G01 X17.8188 Y-7.7481
G01 X17.7841 Y-7.7975
G01 X17.7469 Y-7.8451
G01 X17.7074 Y-7.8908
G01 X17.6658 Y-7.9346
G01 X17.6220 Y-7.9762
G01 X17.5763 Y-8.0157
G01 X17.5287 Y-8.0529
G01 X17.4793 Y-8.0876
G01 X17.4283 Y-8.1199
G01 X17.3757 Y-8.1497
G01 X17.3218 Y-8.1769
G01 X17.2665 Y-8.2014
G01 X17.2102 Y-8.2231
G01 X17.1528 Y-8.2420
G01 X17.0946 Y-8.2581
G01 X17.0567 Y-8.2667
G01 X17.0454 Y-8.2708
G01 X17.0322 Y-8.2787
G01 X17.0210 Y-8.2893
G01 X17.0124 Y-8.3022
G01 X17.0069 Y-8.3166
G01 X17.0049 Y-8.3275
G01 X17.0047 Y-8.3387
G01 X17.0062 Y-8.3497
G01 X17.0099 Y-8.3612
G01 X17.0154 Y-8.3718
G01 X17.0221 Y-8.3808
G01 X17.0308 Y-8.3891
G01 X17.0400 Y-8.3953
G01 X17.0478 Y-8.3991
G01 X17.0559 Y-8.4019
G01 X17.0946 Y-8.4107
G01 X17.1528 Y-8.4268
G01 X17.2102 Y-8.4457
G01 X17.2665 Y-8.4674
G01 X17.3218 Y-8.4919
G01 X17.3757 Y-8.5191
G01 X17.4283 Y-8.5489
G01 X17.4793 Y-8.5812
G01 X17.5287 Y-8.6159
G01 X17.5763 Y-8.6531
G01 X17.6220 Y-8.6926
G01 X17.6658 Y-8.7342
G01 X17.7074 Y-8.7780
G01 X17.7469 Y-8.8237
G01 X17.7841 Y-8.8713
G01 X17.8188 Y-8.9207
G01 X17.8511 Y-8.9717
G01 X17.8809 Y-9.0243
G01 X17.9081 Y-9.0782
G01 X17.9326 Y-9.1335
G01 X17.9543 Y-9.1898
G01 X17.9732 Y-9.2472
G01 X17.9893 Y-9.3054
G01 X18.0026 Y-9.3643
G01 X18.0129 Y-9.4238
G01 X18.0203 Y-9.4838
G01 X18.0247 Y-9.5440
G01 X18.0262 Y-9.6044
G01 X18.0247 Y-9.6648
G01 X18.0203 Y-9.7250
G01 X18.0129 Y-9.7850
G01 X18.0026 Y-9.8445
G01 X17.9893 Y-9.9034
G01 X17.9732 Y-9.9616
G01 X17.9543 Y-10.0190
G01 X17.9326 Y-10.0753
G01 X17.9081 Y-10.1306
G01 X17.8809 Y-10.1845
G01 X17.8511 Y-10.2371
G01 X17.8188 Y-10.2881
G01 X17.7841 Y-10.3375
G01 X17.7469 Y-10.3851
G01 X17.7074 Y-10.4308
G01 X17.6658 Y-10.4746
G01 X17.6220 Y-10.5162
G01 X17.5763 Y-10.5557
G01 X17.5287 Y-10.5929
G01 X17.4793 Y-10.6276
G01 X17.4283 Y-10.6599
G01 X17.3757 Y-10.6897
G01 X17.3218 Y-10.7169
G01 X17.2665 Y-10.7414
G01 X17.2102 Y-10.7631
G01 X17.1528 Y-10.7820
G01 X17.0946 Y-10.7981
G01 X17.0526 Y-10.8079
G01 X17.0408 Y-10.8131
G01 X17.0295 Y-10.8208
G01 X17.0227 Y-10.8274
G01 X17.0168 Y-10.8348
G01 X17.0120 Y-10.8429
G01 X17.0081 Y-10.8524
G01 X17.0057 Y-10.8616
G01 X17.0046 Y-10.8710
G01 X17.0048 Y-10.8804
G01 X17.0064 Y-10.8906
G01 X17.0095 Y-10.9004
G01 X17.0136 Y-10.9089
G01 X17.0188 Y-10.9168
G01 X17.0250 Y-10.9239
G01 X17.0322 Y-10.9301
G01 X17.0408 Y-10.9357
G01 X17.0494 Y-10.9397
G01 X17.0592 Y-10.9427
G00 Z2.0000
G00 X16.7956 Y-8.5339
G01 F70.00
G01 Z-0.0600
G01 F60.00
G01 X14.7956 Y-8.5339
G01 X14.7431 Y-8.5352
G01 X14.6907 Y-8.5391
G01 X14.6385 Y-8.5455
G01 X14.5868 Y-8.5545
G01 X14.5338 Y-8.5664
G01 X14.4849 Y-8.5800
G01 X14.4366 Y-8.5959
G01 X14.3875 Y-8.6147
G01 X14.3379 Y-8.6367
G01 X14.2910 Y-8.6603
G01 X14.2453 Y-8.6862
G01 X14.2009 Y-8.7143
G01 X14.1579 Y-8.7446
G01 X14.1165 Y-8.7769
G01 X14.0767 Y-8.8112
G01 X14.0386 Y-8.8474
G01 X14.0024 Y-8.8855
G01 X13.9681 Y-8.9253
G01 X13.9358 Y-8.9667
G01 X13.9055 Y-9.0097
G01 X13.8774 Y-9.0541
G01 X13.8515 Y-9.0998
G01 X13.8279 Y-9.1467
G01 X13.8066 Y-9.1947
G01 X13.7877 Y-9.2438
G01 X13.7712 Y-9.2937
G01 X13.7572 Y-9.3443
G01 X13.7457 Y-9.3956
G01 X13.7367 Y-9.4473
G01 X13.7303 Y-9.4995
G01 X13.7264 Y-9.5519
G01 X13.7251 Y-9.6044
G01 X13.7264 Y-9.6569
G01 X13.7303 Y-9.7093
G01 X13.7367 Y-9.7615
G01 X13.7457 Y-9.8132
G01 X13.7572 Y-9.8645
G01 X13.7712 Y-9.9151
G01 X13.7877 Y-9.9650
G01 X13.8066 Y-10.0141
G01 X13.8279 Y-10.0621
G01 X13.8515 Y-10.1090
G01 X13.8774 Y-10.1547
G01 X13.9065 Y-10.2006
G01 X13.9358 Y-10.2421
G01 X13.9670 Y-10.2822
G01 X14.0024 Y-10.3233
G01 X14.0386 Y-10.3614
G01 X14.0780 Y-10.3987
G01 X14.1178 Y-10.4330
G01 X14.1579 Y-10.4642
G01 X14.1994 Y-10.4935
G01 X14.2453 Y-10.5226
G01 X14.2910 Y-10.5485
G01 X14.3379 Y-10.5721
G01 X14.3875 Y-10.5941
G01 X14.4366 Y-10.6129
G01 X14.4849 Y-10.6288
G01 X14.5338 Y-10.6424
G01 X14.5868 Y-10.6543
G01 X14.6402 Y-10.6635
G01 X14.6907 Y-10.6697
G01 X14.7414 Y-10.6735
G01 X14.7956 Y-10.6749
G01 X16.7956 Y-10.6749
G01 X16.8481 Y-10.6736
G01 X16.9005 Y-10.6697
G01 X16.9527 Y-10.6633
G01 X17.0044 Y-10.6543
G01 X17.0574 Y-10.6424
G01 X17.1080 Y-10.6283
G01 X17.1562 Y-10.6123
G01 X17.2037 Y-10.5941
G01 X17.2533 Y-10.5721
G01 X17.3002 Y-10.5485
G01 X17.3459 Y-10.5226
G01 X17.3889 Y-10.4954
G01 X17.4347 Y-10.4632
G01 X17.4747 Y-10.4319
G01 X17.5145 Y-10.3976
G01 X17.5526 Y-10.3614
G01 X17.5888 Y-10.3233
G01 X17.6231 Y-10.2835
G01 X17.6544 Y-10.2435
G01 X17.6866 Y-10.1977
G01 X17.7138 Y-10.1547
G01 X17.7397 Y-10.1090
G01 X17.7633 Y-10.0621
G01 X17.7839 Y-10.0156
G01 X17.8041 Y-9.9634
G01 X17.8200 Y-9.9151
G01 X17.8340 Y-9.8645
G01 X17.8455 Y-9.8132
G01 X17.8542 Y-9.7632
G01 X17.8611 Y-9.7076
G01 X17.8648 Y-9.6569
G01 X17.8661 Y-9.6044
G01 X17.8648 Y-9.5519
G01 X17.8611 Y-9.5012
G01 X17.8542 Y-9.4456
G01 X17.8455 Y-9.3956
G01 X17.8340 Y-9.3443
G01 X17.8200 Y-9.2937
G01 X17.8041 Y-9.2454
G01 X17.7839 Y-9.1932
G01 X17.7633 Y-9.1467
G01 X17.7397 Y-9.0998
G01 X17.7138 Y-9.0541
G01 X17.6857 Y-9.0097
G01 X17.6554 Y-8.9667
G01 X17.6242 Y-8.9266
G01 X17.5876 Y-8.8842
G01 X17.5526 Y-8.8474
G01 X17.5145 Y-8.8112
G01 X17.4747 Y-8.7769
G01 X17.4347 Y-8.7456
G01 X17.3889 Y-8.7134
G01 X17.3459 Y-8.6862
G01 X17.3002 Y-8.6603
G01 X17.2533 Y-8.6367
G01 X17.2068 Y-8.6161
G01 X17.1546 Y-8.5959
G01 X17.1063 Y-8.5800
G01 X17.0557 Y-8.5660
G01 X17.0044 Y-8.5545
G01 X16.9544 Y-8.5458
G01 X16.8988 Y-8.5389
G01 X16.8481 Y-8.5352
G01 X16.7956 Y-8.5339
G00 Z2.0000
G00 X16.7956 Y-8.4639
G01 F70.00
G01 Z-0.0600
G01 F60.00
G01 X14.7956 Y-8.4639
G01 X14.7379 Y-8.4654
G01 X14.6804 Y-8.4698
G01 X14.6283 Y-8.4762
G01 X14.5765 Y-8.4852
G01 X14.5185 Y-8.4981
G01 X14.4645 Y-8.5130
G01 X14.4114 Y-8.5306
G01 X14.3560 Y-8.5521
G01 X14.3080 Y-8.5734
G01 X14.2610 Y-8.5970
G01 X14.2107 Y-8.6253
G01 X14.1620 Y-8.6561
G01 X14.1162 Y-8.6883
G01 X14.0721 Y-8.7228
G01 X14.0297 Y-8.7593
G01 X13.9891 Y-8.7979
G01 X13.9505 Y-8.8385
G01 X13.9140 Y-8.8809
G01 X13.8795 Y-8.9250
G01 X13.8473 Y-8.9708
G01 X13.8174 Y-9.0181
G01 X13.7898 Y-9.0668
G01 X13.7646 Y-9.1168
G01 X13.7419 Y-9.1679
G01 X13.7218 Y-9.2202
G01 X13.7042 Y-9.2733
G01 X13.6893 Y-9.3273
G01 X13.6770 Y-9.3819
G01 X13.6674 Y-9.4371
G01 X13.6606 Y-9.4926
G01 X13.6565 Y-9.5484
G01 X13.6551 Y-9.6044
G01 X13.6565 Y-9.6604
G01 X13.6606 Y-9.7162
G01 X13.6674 Y-9.7717
G01 X13.6770 Y-9.8269
G01 X13.6893 Y-9.8815
G01 X13.7042 Y-9.9355
G01 X13.7218 Y-9.9886
G01 X13.7419 Y-10.0409
G01 X13.7646 Y-10.0920
G01 X13.7898 Y-10.1420
G01 X13.8165 Y-10.1893
G01 X13.8473 Y-10.2380
G01 X13.8816 Y-10.2865
G01 X13.9162 Y-10.3306
G01 X13.9505 Y-10.3703
G01 X13.9867 Y-10.4084
G01 X14.0297 Y-10.4495
G01 X14.0721 Y-10.4860
G01 X14.1162 Y-10.5205
G01 X14.1649 Y-10.5546
G01 X14.2093 Y-10.5826
G01 X14.2550 Y-10.6086
G01 X14.3049 Y-10.6339
G01 X14.3591 Y-10.6581
G01 X14.4114 Y-10.6782
G01 X14.4645 Y-10.6958
G01 X14.5218 Y-10.7115
G01 X14.5731 Y-10.7230
G01 X14.6249 Y-10.7320
G01 X14.6821 Y-10.7392
G01 X14.7396 Y-10.7435
G01 X14.7956 Y-10.7449
G01 X16.7956 Y-10.7449
G01 X16.8533 Y-10.7434
G01 X16.9108 Y-10.7390
G01 X16.9629 Y-10.7326
G01 X17.0147 Y-10.7236
G01 X17.0727 Y-10.7107
G01 X17.1267 Y-10.6958
G01 X17.1798 Y-10.6782
G01 X17.2352 Y-10.6567
G01 X17.2832 Y-10.6354
G01 X17.3302 Y-10.6118
G01 X17.3805 Y-10.5835
G01 X17.4321 Y-10.5507
G01 X17.4750 Y-10.5205
G01 X17.5191 Y-10.4860
G01 X17.5615 Y-10.4495
G01 X17.5996 Y-10.4133
G01 X17.6429 Y-10.3677
G01 X17.6772 Y-10.3279
G01 X17.7117 Y-10.2838
G01 X17.7439 Y-10.2380
G01 X17.7720 Y-10.1937
G01 X17.8030 Y-10.1390
G01 X17.8266 Y-10.0920
G01 X17.8493 Y-10.0409
G01 X17.8694 Y-9.9886
G01 X17.8860 Y-9.9387
G01 X17.9027 Y-9.8782
G01 X17.9142 Y-9.8269
G01 X17.9238 Y-9.7717
G01 X17.9306 Y-9.7162
G01 X17.9345 Y-9.6638
G01 X17.9361 Y-9.6010
G01 X17.9347 Y-9.5484
G01 X17.9306 Y-9.4926
G01 X17.9238 Y-9.4371
G01 X17.9148 Y-9.3853
G01 X17.9010 Y-9.3240
G01 X17.8870 Y-9.2733
G01 X17.8694 Y-9.2202
G01 X17.8493 Y-9.1679
G01 X17.8280 Y-9.1199
G01 X17.7998 Y-9.0638
G01 X17.7738 Y-9.0181
G01 X17.7439 Y-8.9708
G01 X17.7117 Y-8.9250
G01 X17.6794 Y-8.8836
G01 X17.6383 Y-8.8360
G01 X17.6021 Y-8.7979
G01 X17.5615 Y-8.7593
G01 X17.5191 Y-8.7228
G01 X17.4777 Y-8.6904
G01 X17.4263 Y-8.6542
G01 X17.3819 Y-8.6262
G01 X17.3332 Y-8.5986
G01 X17.2832 Y-8.5734
G01 X17.2352 Y-8.5521
G01 X17.1766 Y-8.5295
G01 X17.1267 Y-8.5130
G01 X17.0727 Y-8.4981
G01 X17.0181 Y-8.4858
G01 X16.9663 Y-8.4768
G01 X16.9040 Y-8.4691
G01 X16.8516 Y-8.4653
G01 X16.7956 Y-8.4639
G00 Z2.0000
G00 X14.7172 Y-8.2721
G01 F70.00
G01 Z-0.0600
G01 F60.00
G01 X14.7388 Y-8.2736
G01 X14.7956 Y-8.2749
G01 X16.7956 Y-8.2749
G01 X16.8524 Y-8.2736
G01 X16.8740 Y-8.2721
G01 X16.8696 Y-8.2884
G01 X16.8668 Y-8.3036
G01 X16.8651 Y-8.3190
G01 X16.8645 Y-8.3344
G01 X16.8651 Y-8.3498
G01 X16.8668 Y-8.3652
G01 X16.8696 Y-8.3804
G01 X16.8740 Y-8.3967
G01 X16.8524 Y-8.3952
G01 X16.7956 Y-8.3939
G01 X14.7956 Y-8.3939
G01 X14.7388 Y-8.3952
G01 X14.7172 Y-8.3967
G01 X14.7216 Y-8.3804
G01 X14.7244 Y-8.3652
G01 X14.7261 Y-8.3498
G01 X14.7267 Y-8.3344
G01 X14.7261 Y-8.3190
G01 X14.7244 Y-8.3036
G01 X14.7216 Y-8.2884
G01 X14.7172 Y-8.2721
G00 Z2.0000
G00 X16.7956 Y-5.9939
G01 F70.00
G01 Z-0.0600
G01 F60.00
G01 X14.7956 Y-5.9939
G01 X14.7431 Y-5.9952
G01 X14.6907 Y-5.9991
G01 X14.6368 Y-6.0058
G01 X14.5851 Y-6.0148
G01 X14.5355 Y-6.0260
G01 X14.4865 Y-6.0395
G01 X14.4350 Y-6.0565
G01 X14.3859 Y-6.0754
G01 X14.3379 Y-6.0967
G01 X14.2910 Y-6.1203
G01 X14.2453 Y-6.1462
G01 X14.2009 Y-6.1743
G01 X14.1579 Y-6.2046
G01 X14.1165 Y-6.2369
G01 X14.0767 Y-6.2712
G01 X14.0386 Y-6.3074
G01 X14.0024 Y-6.3455
G01 X13.9681 Y-6.3853
G01 X13.9358 Y-6.4267
G01 X13.9055 Y-6.4697
G01 X13.8774 Y-6.5141
G01 X13.8515 Y-6.5598
G01 X13.8279 Y-6.6067
G01 X13.8066 Y-6.6547
G01 X13.7877 Y-6.7038
G01 X13.7712 Y-6.7537
G01 X13.7572 Y-6.8043
G01 X13.7457 Y-6.8556
G01 X13.7367 Y-6.9073
G01 X13.7303 Y-6.9595
G01 X13.7264 Y-7.0119
G01 X13.7251 Y-7.0644
G01 X13.7264 Y-7.1169
G01 X13.7303 Y-7.1693
G01 X13.7367 Y-7.2215
G01 X13.7457 Y-7.2732
G01 X13.7572 Y-7.3245
G01 X13.7712 Y-7.3751
G01 X13.7877 Y-7.4250
G01 X13.8066 Y-7.4741
G01 X13.8279 Y-7.5221
G01 X13.8515 Y-7.5690
G01 X13.8774 Y-7.6147
G01 X13.9065 Y-7.6606
G01 X13.9368 Y-7.7035
G01 X13.9681 Y-7.7435
G01 X14.0013 Y-7.7820
G01 X14.0386 Y-7.8214
G01 X14.0767 Y-7.8576
G01 X14.1165 Y-7.8919
G01 X14.1579 Y-7.9242
G01 X14.2009 Y-7.9545
G01 X14.2467 Y-7.9835
G01 X14.2910 Y-8.0085
G01 X14.3364 Y-8.0314
G01 X14.3844 Y-8.0527
G01 X14.4350 Y-8.0723
G01 X14.4849 Y-8.0888
G01 X14.5355 Y-8.1028
G01 X14.5876 Y-8.1145
G01 X14.6385 Y-8.1233
G01 X14.6907 Y-8.1297
G01 X14.7431 Y-8.1336
G01 X14.7947 Y-8.1349
G01 X16.7973 Y-8.1349
G01 X16.8481 Y-8.1336
G01 X16.8988 Y-8.1299
G01 X16.9544 Y-8.1230
G01 X17.0044 Y-8.1143
G01 X17.0557 Y-8.1028
G01 X17.1063 Y-8.0888
G01 X17.1546 Y-8.0729
G01 X17.2068 Y-8.0527
G01 X17.2533 Y-8.0321
G01 X17.3002 Y-8.0085
G01 X17.3474 Y-7.9817
G01 X17.3903 Y-7.9545
G01 X17.4333 Y-7.9242
G01 X17.4760 Y-7.8908
G01 X17.5145 Y-7.8576
G01 X17.5526 Y-7.8214
G01 X17.5888 Y-7.7833
G01 X17.6220 Y-7.7448
G01 X17.6564 Y-7.7007
G01 X17.6857 Y-7.6591
G01 X17.7129 Y-7.6162
G01 X17.7405 Y-7.5675
G01 X17.7633 Y-7.5221
G01 X17.7846 Y-7.4741
G01 X17.8035 Y-7.4250
G01 X17.8169 Y-7.3845
G01 X22.3948 Y-7.3845
G01 X22.4081 Y-7.4249
G01 X22.4270 Y-7.4739
G01 X22.4483 Y-7.5219
G01 X22.4712 Y-7.5673
G01 X22.4987 Y-7.6160
G01 X22.5259 Y-7.6589
G01 X22.5552 Y-7.7004
G01 X22.5896 Y-7.7445
G01 X22.6228 Y-7.7830
G01 X22.6590 Y-7.8210
G01 X22.6983 Y-7.8584
G01 X22.7368 Y-7.8915
G01 X22.7782 Y-7.9238
G01 X22.8211 Y-7.9541
G01 X22.8640 Y-7.9813
G01 X22.9127 Y-8.0088
G01 X22.9581 Y-8.0317
G01 X23.0061 Y-8.0530
G01 X23.0551 Y-8.0719
G01 X23.1034 Y-8.0878
G01 X23.1573 Y-8.1027
G01 X23.2069 Y-8.1138
G01 X23.2586 Y-8.1228
G01 X23.3107 Y-8.1292
G01 X23.3614 Y-8.1330
G01 X23.4165 Y-8.1344
G01 X23.4681 Y-8.1331
G01 X23.5188 Y-8.1294
G01 X23.5743 Y-8.1225
G01 X23.6243 Y-8.1138
G01 X23.6756 Y-8.1023
G01 X23.7262 Y-8.0883
G01 X23.7744 Y-8.0724
G01 X23.8267 Y-8.0523
G01 X23.8731 Y-8.0317
G01 X23.9200 Y-8.0081
G01 X23.9672 Y-7.9813
G01 X24.0101 Y-7.9541
G01 X24.0530 Y-7.9238
G01 X24.0957 Y-7.8904
G01 X24.1342 Y-7.8572
G01 X24.1722 Y-7.8210
G01 X24.2084 Y-7.7830
G01 X24.2416 Y-7.7445
G01 X24.2760 Y-7.7004
G01 X24.3053 Y-7.6589
G01 X24.3325 Y-7.6160
G01 X24.3600 Y-7.5673
G01 X24.3829 Y-7.5219
G01 X24.4042 Y-7.4739
G01 X24.4231 Y-7.4249
G01 X24.4364 Y-7.3845
G01 X29.0143 Y-7.3845
G01 X29.0277 Y-7.4250
G01 X29.0459 Y-7.4725
G01 X29.0679 Y-7.5221
G01 X29.0923 Y-7.5705
G01 X29.1174 Y-7.6147
G01 X29.1446 Y-7.6577
G01 X29.1758 Y-7.7021
G01 X29.2092 Y-7.7448
G01 X29.2424 Y-7.7833
G01 X29.2774 Y-7.8201
G01 X29.3154 Y-7.8564
G01 X29.3565 Y-7.8919
G01 X29.3993 Y-7.9252
G01 X29.4409 Y-7.9545
G01 X29.4838 Y-7.9817
G01 X29.5310 Y-8.0085
G01 X29.5779 Y-8.0321
G01 X29.6275 Y-8.0541
G01 X29.6750 Y-8.0723
G01 X29.7232 Y-8.0883
G01 X29.7755 Y-8.1028
G01 X29.8268 Y-8.1143
G01 X29.8802 Y-8.1235
G01 X29.9307 Y-8.1297
G01 X29.9814 Y-8.1335
G01 X30.0347 Y-8.1349
G01 X32.0365 Y-8.1349
G01 X32.0881 Y-8.1336
G01 X32.1388 Y-8.1299
G01 X32.1944 Y-8.1230
G01 X32.2444 Y-8.1143
G01 X32.2957 Y-8.1028
G01 X32.3463 Y-8.0888
G01 X32.3946 Y-8.0729
G01 X32.4468 Y-8.0527
G01 X32.4933 Y-8.0321
G01 X32.5402 Y-8.0085
G01 X32.5859 Y-7.9826
G01 X32.6289 Y-7.9554
G01 X32.6733 Y-7.9242
G01 X32.7160 Y-7.8908
G01 X32.7545 Y-7.8576
G01 X32.7926 Y-7.8214
G01 X32.8288 Y-7.7833
G01 X32.8620 Y-7.7448
G01 X32.8964 Y-7.7007
G01 X32.9257 Y-7.6591
G01 X32.9529 Y-7.6162
G01 X32.9805 Y-7.5675
G01 X33.0033 Y-7.5221
G01 X33.0246 Y-7.4741
G01 X33.0435 Y-7.4250
G01 X33.0569 Y-7.3845
G01 X34.0780 Y-7.3845
G01 X35.3369 Y-8.6433
G01 X35.3370 Y-9.1149
G01 X35.3399 Y-9.1309
G01 X35.3460 Y-9.1451
G01 X35.3550 Y-9.1576
G01 X35.3666 Y-9.1678
G01 X35.3754 Y-9.1731
G01 X35.3849 Y-9.1771
G01 X35.3958 Y-9.1797
G01 X35.4060 Y-9.1806
G01 X36.5095 Y-9.1806
G01 X36.5214 Y-9.1791
G01 X36.5329 Y-9.1756
G01 X36.5436 Y-9.1702
G01 X36.5533 Y-9.1630
G01 X36.5616 Y-9.1543
G01 X36.5682 Y-9.1444
G01 X36.5731 Y-9.1334
G01 X36.5760 Y-9.1217
G01 X36.5769 Y-9.1106
G01 X36.5769 Y-7.9136
G01 X36.5746 Y-7.8975
G01 X36.5686 Y-7.8823
G01 X36.5593 Y-7.8689
G01 X36.5472 Y-7.8581
G01 X36.5384 Y-7.8528
G01 X36.5289 Y-7.8488
G01 X36.5180 Y-7.8462
G01 X36.5078 Y-7.8453
G01 X35.4443 Y-7.8453
G01 X34.4363 Y-6.8374
G01 X34.4150 Y-6.8180
G01 X34.4013 Y-6.8073
G01 X34.3870 Y-6.7973
G01 X34.3630 Y-6.7829
G01 X34.3331 Y-6.7686
G01 X34.3019 Y-6.7576
G01 X34.2747 Y-6.7508
G01 X34.2593 Y-6.7480
G01 X34.2246 Y-6.7446
G01 X33.0569 Y-6.7443
G01 X33.0435 Y-6.7038
G01 X33.0253 Y-6.6563
G01 X33.0033 Y-6.6067
G01 X32.9789 Y-6.5583
G01 X32.9538 Y-6.5141
G01 X32.9257 Y-6.4697
G01 X32.8954 Y-6.4267
G01 X32.8642 Y-6.3866
G01 X32.8288 Y-6.3455
G01 X32.7913 Y-6.3062
G01 X32.7545 Y-6.2712
G01 X32.7160 Y-6.2380
G01 X32.6719 Y-6.2036
G01 X32.6303 Y-6.1743
G01 X32.5874 Y-6.1471
G01 X32.5402 Y-6.1203
G01 X32.4917 Y-6.0960
G01 X32.4453 Y-6.0754
G01 X32.3979 Y-6.0571
G01 X32.3463 Y-6.0400
G01 X32.2940 Y-6.0256
G01 X32.2444 Y-6.0145
G01 X32.1935 Y-6.0056
G01 X32.1388 Y-5.9989
G01 X32.0881 Y-5.9952
G01 X32.0356 Y-5.9939
G01 X30.0347 Y-5.9939
G01 X29.9831 Y-5.9952
G01 X29.9290 Y-5.9992
G01 X29.8785 Y-6.0055
G01 X29.8284 Y-6.0142
G01 X29.7763 Y-6.0258
G01 X29.7249 Y-6.0400
G01 X29.6733 Y-6.0571
G01 X29.6259 Y-6.0754
G01 X29.5795 Y-6.0960
G01 X29.5310 Y-6.1203
G01 X29.4838 Y-6.1471
G01 X29.4409 Y-6.1743
G01 X29.3993 Y-6.2036
G01 X29.3565 Y-6.2369
G01 X29.3154 Y-6.2724
G01 X29.2774 Y-6.3087
G01 X29.2424 Y-6.3455
G01 X29.2092 Y-6.3840
G01 X29.1758 Y-6.4267
G01 X29.1446 Y-6.4711
G01 X29.1174 Y-6.5141
G01 X29.0923 Y-6.5583
G01 X29.0679 Y-6.6067
G01 X29.0459 Y-6.6563
G01 X29.0277 Y-6.7038
G01 X29.0143 Y-6.7443
