(G-CODE GENERATED BY FLATCAM v8.993 - www.flatcam.org - Version Date: 2020/06/05)

(Name: _Ф2_низ.gbr_iso_combined_cnc)
(Type: G-code from Geometry)
(Units: MM)

(Created on Sunday, 27 September 2020 at 16:02)

(This preprocessor is the default preprocessor used by FlatCAM.)
(It is made to work with MACH3 compatible motion controllers.)

(TOOL DIAMETER: 0.14 mm)
(Feedrate_XY: 120.0 mm/min)
(Feedrate_Z: 60.0 mm/min)
(Feedrate rapids 1500.0 mm/min)

(Z_Cut: -0.0746 mm)
(Z_Move: 2.0 mm)
(Z Start: None mm)
(Z End: 25.0 mm)
(Steps per circle: 128)
(Preprocessor Geometry: default)

(X range:    1.4294 ...   38.4906  mm)
(Y range:   -8.6900 ...   -1.2293  mm)

(Spindle Speed: None RPM)
G21
G90
G94



G01 F120.00
G00 Z2.0000

M03
G00 X1.5300 Y-4.8300
G01 F60.00
G01 Z-0.0746
G01 F120.00
G01 X2.2900 Y-4.8300
G01 X2.2900 Y-4.9900
G01 X1.7566 Y-4.9901
G01 X1.7413 Y-4.9925
G01 X1.7278 Y-4.9979
G01 X1.7149 Y-5.0064
G01 X1.7048 Y-5.0169
G01 X1.6987 Y-5.0262
G01 X1.6941 Y-5.0364
G01 X1.6912 Y-5.0472
G01 X1.6900 Y-5.0583
G01 X1.6900 Y-5.5900
G01 X1.5300 Y-5.5900
G01 X1.5300 Y-4.8300
G00 Z2.0000
G00 X1.6000 Y-4.9000
G01 F60.00
G01 Z-0.0746
G01 F120.00
G01 X2.2200 Y-4.9000
G01 X2.2200 Y-4.9200
G01 X1.7600 Y-4.9200
G01 X1.7446 Y-4.9209
G01 X1.7327 Y-4.9227
G01 X1.7210 Y-4.9255
G01 X1.7096 Y-4.9294
G01 X1.6986 Y-4.9342
G01 X1.6880 Y-4.9399
G01 X1.6780 Y-4.9465
G01 X1.6686 Y-4.9540
G01 X1.6598 Y-4.9622
G01 X1.6507 Y-4.9725
G01 X1.6436 Y-4.9822
G01 X1.6374 Y-4.9925
G01 X1.6320 Y-5.0033
G01 X1.6276 Y-5.0145
G01 X1.6242 Y-5.0260
G01 X1.6218 Y-5.0378
G01 X1.6204 Y-5.0497
G01 X1.6200 Y-5.5200
G01 X1.6000 Y-5.5200
G01 X1.6000 Y-4.9000
G00 Z2.0000
G00 X1.5300 Y-6.3300
G01 F60.00
G01 Z-0.0746
G01 F120.00
G01 X1.6900 Y-6.3300
G01 X1.6900 Y-6.8626
G01 X1.6917 Y-6.8753
G01 X1.6957 Y-6.8876
G01 X1.7023 Y-6.8996
G01 X1.7105 Y-6.9095
G01 X1.7211 Y-6.9182
G01 X1.7324 Y-6.9243
G01 X1.7447 Y-6.9283
G01 X1.7574 Y-6.9300
G01 X2.2900 Y-6.9300
G01 X2.2900 Y-7.0900
G01 X1.5300 Y-7.0900
G01 X1.5300 Y-6.3300
G00 Z2.0000
G00 X1.6000 Y-6.4000
G01 F60.00
G01 Z-0.0746
G01 F120.00
G01 X1.6200 Y-6.4000
G01 X1.6200 Y-6.8600
G01 X1.6209 Y-6.8754
G01 X1.6227 Y-6.8873
G01 X1.6255 Y-6.8990
G01 X1.6294 Y-6.9104
G01 X1.6342 Y-6.9214
G01 X1.6399 Y-6.9320
G01 X1.6465 Y-6.9420
G01 X1.6610 Y-6.9590
G01 X1.6780 Y-6.9735
G01 X1.6880 Y-6.9801
G01 X1.6986 Y-6.9858
G01 X1.7096 Y-6.9906
G01 X1.7210 Y-6.9945
G01 X1.7327 Y-6.9973
G01 X1.7446 Y-6.9991
G01 X1.7600 Y-7.0000
G01 X2.2200 Y-7.0000
G01 X2.2200 Y-7.0200
G01 X1.6000 Y-7.0200
G01 X1.6000 Y-6.4000
G00 Z2.0000
G00 X3.0300 Y-7.0900
G01 F60.00
G01 Z-0.0746
G01 F120.00
G01 X3.0300 Y-6.9300
G01 X3.5626 Y-6.9300
G01 X3.5753 Y-6.9283
G01 X3.5884 Y-6.9240
G01 X3.5996 Y-6.9177
G01 X3.6095 Y-6.9095
G01 X3.6182 Y-6.8989
G01 X3.6243 Y-6.8876
G01 X3.6283 Y-6.8753
G01 X3.6300 Y-6.8626
G01 X3.6300 Y-6.3300
G01 X3.7900 Y-6.3300
G01 X3.7900 Y-7.0900
G01 X3.0300 Y-7.0900
G00 Z2.0000
G00 X3.1000 Y-7.0200
G01 F60.00
G01 Z-0.0746
G01 F120.00
G01 X3.1000 Y-7.0000
G01 X3.5600 Y-7.0000
G01 X3.5754 Y-6.9991
G01 X3.5873 Y-6.9973
G01 X3.5990 Y-6.9945
G01 X3.6104 Y-6.9906
G01 X3.6214 Y-6.9858
G01 X3.6320 Y-6.9801
G01 X3.6420 Y-6.9735
G01 X3.6590 Y-6.9590
G01 X3.6671 Y-6.9501
G01 X3.6745 Y-6.9406
G01 X3.6810 Y-6.9305
G01 X3.6866 Y-6.9199
G01 X3.6945 Y-6.8990
G01 X3.6973 Y-6.8873
G01 X3.6991 Y-6.8754
G01 X3.7000 Y-6.8600
G01 X3.7000 Y-6.4000
G01 X3.7200 Y-6.4000
G01 X3.7200 Y-7.0200
G01 X3.1000 Y-7.0200
G00 Z2.0000
G00 X3.7900 Y-5.5900
G01 F60.00
G01 Z-0.0746
G01 F120.00
G01 X3.6300 Y-5.5900
G01 X3.6300 Y-5.0574
G01 X3.6283 Y-5.0447
G01 X3.6243 Y-5.0324
G01 X3.6177 Y-5.0204
G01 X3.6095 Y-5.0105
G01 X3.5989 Y-5.0018
G01 X3.5876 Y-4.9957
G01 X3.5753 Y-4.9917
G01 X3.5626 Y-4.9900
G01 X3.0300 Y-4.9900
G01 X3.0300 Y-4.8300
G01 X3.7900 Y-4.8300
G01 X3.7900 Y-5.5900
G00 Z2.0000
G00 X3.7200 Y-5.5200
G01 F60.00
G01 Z-0.0746
G01 F120.00
G01 X3.7000 Y-5.5200
G01 X3.7000 Y-5.0600
G01 X3.6991 Y-5.0446
G01 X3.6949 Y-5.0227
G01 X3.6912 Y-5.0112
G01 X3.6866 Y-5.0001
G01 X3.6810 Y-4.9895
G01 X3.6745 Y-4.9794
G01 X3.6671 Y-4.9699
G01 X3.6590 Y-4.9610
G01 X3.6501 Y-4.9529
G01 X3.6406 Y-4.9455
G01 X3.6305 Y-4.9390
G01 X3.6199 Y-4.9334
G01 X3.5990 Y-4.9255
G01 X3.5873 Y-4.9227
G01 X3.5754 Y-4.9209
G01 X3.5600 Y-4.9200
G01 X3.1000 Y-4.9200
G01 X3.1000 Y-4.9000
G01 X3.7200 Y-4.9000
G01 X3.7200 Y-5.5200
G00 Z2.0000
G00 X4.0924 Y-3.6005
G01 F60.00
G01 Z-0.0746
G01 F120.00
G01 X7.0699 Y-3.6005
G01 X7.0699 Y-6.3889
G01 X7.0237 Y-6.4068
G01 X6.9726 Y-6.4295
G01 X6.9226 Y-6.4546
G01 X6.8739 Y-6.4822
G01 X6.8266 Y-6.5121
G01 X6.7809 Y-6.5443
G01 X6.7368 Y-6.5788
G01 X6.6970 Y-6.6130
G01 X6.6515 Y-6.6564
G01 X6.6153 Y-6.6944
G01 X6.5766 Y-6.7395
G01 X6.5443 Y-6.7809
G01 X6.5121 Y-6.8266
G01 X6.4822 Y-6.8739
G01 X6.4546 Y-6.9226
G01 X6.4295 Y-6.9726
G01 X6.4068 Y-7.0237
G01 X6.3866 Y-7.0759
G01 X6.3701 Y-7.1258
G01 X6.3542 Y-7.1830
G01 X6.3426 Y-7.2342
G01 X6.3319 Y-7.2961
G01 X6.3255 Y-7.3483
G01 X6.3214 Y-7.4041
G01 X6.3200 Y-7.4600
G01 X6.3214 Y-7.5159
G01 X6.3255 Y-7.5717
G01 X6.3323 Y-7.6273
G01 X6.3419 Y-7.6824
G01 X6.3542 Y-7.7370
G01 X6.3701 Y-7.7942
G01 X6.3866 Y-7.8441
G01 X6.4055 Y-7.8931
G01 X6.4295 Y-7.9474
G01 X6.4563 Y-8.0004
G01 X6.4822 Y-8.0461
G01 X6.5103 Y-8.0905
G01 X6.5443 Y-8.1391
G01 X6.5810 Y-8.1858
G01 X6.6153 Y-8.2256
G01 X6.6515 Y-8.2636
G01 X6.6944 Y-8.3047
G01 X6.7395 Y-8.3434
G01 X6.7809 Y-8.3757
G01 X6.8238 Y-8.4059
G01 X6.8739 Y-8.4378
G01 X6.9257 Y-8.4670
G01 X6.9726 Y-8.4905
G01 X7.0206 Y-8.5119
G01 X7.0759 Y-8.5334
G01 X7.1291 Y-8.5509
G01 X7.1863 Y-8.5666
G01 X7.2376 Y-8.5781
G01 X7.2893 Y-8.5871
G01 X7.3483 Y-8.5945
G01 X7.4041 Y-8.5986
G01 X7.4634 Y-8.6000
G01 X7.5159 Y-8.5986
G01 X7.5683 Y-8.5948
G01 X7.6273 Y-8.5877
G01 X7.6858 Y-8.5774
G01 X7.7370 Y-8.5658
G01 X7.7876 Y-8.5519
G01 X7.8441 Y-8.5334
G01 X7.8994 Y-8.5119
G01 X7.9474 Y-8.4905
G01 X7.9943 Y-8.4670
G01 X8.0461 Y-8.4378
G01 X8.0962 Y-8.4059
G01 X8.1391 Y-8.3757
G01 X8.1805 Y-8.3434
G01 X8.2243 Y-8.3058
G01 X8.2661 Y-8.2661
G01 X8.3070 Y-8.2230
G01 X8.3434 Y-8.1805
G01 X8.3757 Y-8.1391
G01 X8.4059 Y-8.0962
G01 X8.4378 Y-8.0461
G01 X8.4654 Y-7.9974
G01 X8.4905 Y-7.9474
G01 X8.5145 Y-7.8931
G01 X8.5345 Y-7.8408
G01 X8.5509 Y-7.7909
G01 X8.5650 Y-7.7403
G01 X8.5781 Y-7.6824
G01 X8.5877 Y-7.6273
G01 X8.5945 Y-7.5717
G01 X8.5988 Y-7.5125
G01 X8.6000 Y-7.4566
G01 X8.5986 Y-7.4041
G01 X8.5948 Y-7.3517
G01 X8.5871 Y-7.2893
G01 X8.5781 Y-7.2376
G01 X8.5666 Y-7.1863
G01 X8.5509 Y-7.1291
G01 X8.5322 Y-7.0727
G01 X8.5132 Y-7.0237
G01 X8.4920 Y-6.9757
G01 X8.4654 Y-6.9226
G01 X8.4378 Y-6.8739
G01 X8.4097 Y-6.8295
G01 X8.3736 Y-6.7782
G01 X8.3412 Y-6.7368
G01 X8.3070 Y-6.6970
G01 X8.2661 Y-6.6539
G01 X8.2256 Y-6.6153
G01 X8.1858 Y-6.5810
G01 X8.1391 Y-6.5443
G01 X8.0905 Y-6.5103
G01 X8.0461 Y-6.4822
G01 X7.9974 Y-6.4546
G01 X7.9443 Y-6.4280
G01 X7.8963 Y-6.4068
G01 X7.8501 Y-6.3889
G01 X7.8501 Y-3.5316
G01 X7.8965 Y-3.5137
G01 X7.9445 Y-3.4924
G01 X7.9946 Y-3.4674
G01 X8.0463 Y-3.4382
G01 X8.0936 Y-3.4083
G01 X8.1394 Y-3.3761
G01 X8.1862 Y-3.3394
G01 X8.2259 Y-3.3051
G01 X8.2640 Y-3.2689
G01 X8.3051 Y-3.2259
G01 X8.3438 Y-3.1808
G01 X8.3761 Y-3.1394
G01 X8.4063 Y-3.0965
G01 X8.4382 Y-3.0463
G01 X8.4658 Y-2.9976
G01 X8.4910 Y-2.9476
G01 X8.5150 Y-2.8933
G01 X8.5338 Y-2.8442
G01 X8.5504 Y-2.7943
G01 X8.5663 Y-2.7371
G01 X8.5792 Y-2.6791
G01 X8.5882 Y-2.6273
G01 X8.5946 Y-2.5752
G01 X8.5991 Y-2.5160
G01 X8.6005 Y-2.4600
G01 X8.5991 Y-2.4040
G01 X8.5946 Y-2.3448
G01 X8.5882 Y-2.2927
G01 X8.5792 Y-2.2409
G01 X8.5663 Y-2.1829
G01 X8.5514 Y-2.1289
G01 X8.5326 Y-2.0726
G01 X8.5137 Y-2.0235
G01 X8.4924 Y-1.9755
G01 X8.4658 Y-1.9224
G01 X8.4382 Y-1.8737
G01 X8.4063 Y-1.8235
G01 X8.3761 Y-1.7806
G01 X8.3438 Y-1.7392
G01 X8.3062 Y-1.6954
G01 X8.2665 Y-1.6535
G01 X8.2259 Y-1.6149
G01 X8.1835 Y-1.5784
G01 X8.1394 Y-1.5439
G01 X8.0936 Y-1.5117
G01 X8.0463 Y-1.4818
G01 X7.9976 Y-1.4542
G01 X7.9476 Y-1.4290
G01 X7.8965 Y-1.4063
G01 X7.8442 Y-1.3862
G01 X7.7911 Y-1.3686
G01 X7.7371 Y-1.3537
G01 X7.6825 Y-1.3414
G01 X7.6273 Y-1.3318
G01 X7.5718 Y-1.3250
G01 X7.5194 Y-1.3211
G01 X7.4600 Y-1.3195
G01 X3.6183 Y-1.3195
G01 X3.5640 Y-1.3209
G01 X3.5048 Y-1.3254
G01 X3.4527 Y-1.3318
G01 X3.4009 Y-1.3408
G01 X3.3462 Y-1.3529
G01 X3.2889 Y-1.3686
G01 X3.2358 Y-1.3862
G01 X3.1835 Y-1.4063
G01 X3.1293 Y-1.4305
G01 X3.0794 Y-1.4558
G01 X3.0337 Y-1.4818
G01 X2.9893 Y-1.5098
G01 X2.9406 Y-1.5439
G01 X2.8952 Y-1.5795
G01 X2.8541 Y-1.6149
G01 X2.8135 Y-1.6535
G01 X1.8511 Y-2.6160
G01 X1.8149 Y-2.6541
G01 X1.7806 Y-2.6938
G01 X1.7419 Y-2.7434
G01 X1.7117 Y-2.7864
G01 X1.6818 Y-2.8337
G01 X1.6542 Y-2.8824
G01 X1.6305 Y-2.9293
G01 X1.6050 Y-2.9867
G01 X1.5862 Y-3.0358
G01 X1.5686 Y-3.0889
G01 X1.5537 Y-3.1429
G01 X1.5421 Y-3.1941
G01 X1.5316 Y-3.2544
G01 X1.5250 Y-3.3082
G01 X1.5209 Y-3.3640
G01 X1.5195 Y-3.4200
G01 X1.5209 Y-3.4760
G01 X1.5250 Y-3.5318
G01 X1.5318 Y-3.5873
G01 X1.5414 Y-3.6425
G01 X1.5537 Y-3.6971
G01 X1.5686 Y-3.7511
G01 X1.5862 Y-3.8042
G01 X1.6063 Y-3.8565
G01 X1.6290 Y-3.9076
G01 X1.6542 Y-3.9576
G01 X1.6818 Y-4.0063
G01 X1.7117 Y-4.0536
G01 X1.7439 Y-4.0994
G01 X1.7784 Y-4.1435
G01 X1.8149 Y-4.1859
G01 X1.8535 Y-4.2265
G01 X1.8941 Y-4.2651
G01 X1.9365 Y-4.3016
G01 X1.9806 Y-4.3361
G01 X2.0264 Y-4.3683
G01 X2.0737 Y-4.3982
G01 X2.1224 Y-4.4258
G01 X2.1724 Y-4.4510
G01 X2.2235 Y-4.4737
G01 X2.2758 Y-4.4938
G01 X2.3289 Y-4.5114
G01 X2.3829 Y-4.5263
G01 X2.4375 Y-4.5386
G01 X2.4944 Y-4.5484
G01 X2.5482 Y-4.5550
G01 X2.6040 Y-4.5591
G01 X2.6600 Y-4.5605
G01 X2.7125 Y-4.5593
G01 X2.7752 Y-4.5546
G01 X2.8273 Y-4.5482
G01 X2.8825 Y-4.5386
G01 X2.9371 Y-4.5263
G01 X2.9878 Y-4.5123
G01 X3.0474 Y-4.4926
G01 X3.0965 Y-4.4737
G01 X3.1476 Y-4.4510
G01 X3.1976 Y-4.4258
G01 X3.2463 Y-4.3982
G01 X3.2936 Y-4.3683
G01 X3.3394 Y-4.3361
G01 X3.3835 Y-4.3016
G01 X3.4284 Y-4.2627
G01 X3.4665 Y-4.2265
G01 X4.0924 Y-3.6005
G00 Z2.0000
G00 X4.0634 Y-3.5305
G01 F60.00
G01 Z-0.0746
G01 F120.00
G01 X7.1399 Y-3.5305
G01 X7.1399 Y-6.4392
G01 X7.0995 Y-6.4525
G01 X7.0505 Y-6.4714
G01 X7.0025 Y-6.4927
G01 X6.9556 Y-6.5163
G01 X6.9099 Y-6.5422
G01 X6.8655 Y-6.5703
G01 X6.8226 Y-6.6006
G01 X6.7825 Y-6.6318
G01 X6.7402 Y-6.6684
G01 X6.7034 Y-6.7034
G01 X6.6660 Y-6.7427
G01 X6.6329 Y-6.7812
G01 X6.6006 Y-6.8226
G01 X6.5703 Y-6.8655
G01 X6.5422 Y-6.9099
G01 X6.5163 Y-6.9556
G01 X6.4927 Y-7.0025
G01 X6.4714 Y-7.0505
G01 X6.4525 Y-7.0995
G01 X6.4361 Y-7.1494
G01 X6.4221 Y-7.2000
G01 X6.4106 Y-7.2513
G01 X6.4019 Y-7.3013
G01 X6.3950 Y-7.3568
G01 X6.3913 Y-7.4075
G01 X6.3900 Y-7.4617
G01 X6.3913 Y-7.5125
G01 X6.3952 Y-7.5649
G01 X6.4016 Y-7.6170
G01 X6.4109 Y-7.6704
G01 X6.4221 Y-7.7200
G01 X6.4356 Y-7.7690
G01 X6.4525 Y-7.8205
G01 X6.4721 Y-7.8711
G01 X6.4927 Y-7.9175
G01 X6.5156 Y-7.9629
G01 X6.5422 Y-8.0101
G01 X6.5713 Y-8.0559
G01 X6.6016 Y-8.0988
G01 X6.6329 Y-8.1388
G01 X6.6660 Y-8.1773
G01 X6.7034 Y-8.2166
G01 X6.7427 Y-8.2540
G01 X6.7812 Y-8.2871
G01 X6.8212 Y-8.3184
G01 X6.8655 Y-8.3497
G01 X6.9114 Y-8.3786
G01 X6.9556 Y-8.4037
G01 X7.0010 Y-8.4265
G01 X7.0505 Y-8.4486
G01 X7.1012 Y-8.4680
G01 X7.1494 Y-8.4839
G01 X7.1983 Y-8.4975
G01 X7.2513 Y-8.5094
G01 X7.3047 Y-8.5186
G01 X7.3551 Y-8.5248
G01 X7.4058 Y-8.5286
G01 X7.4600 Y-8.5300
G01 X7.5142 Y-8.5286
G01 X7.5649 Y-8.5248
G01 X7.6153 Y-8.5186
G01 X7.6687 Y-8.5094
G01 X7.7217 Y-8.4975
G01 X7.7706 Y-8.4839
G01 X7.8188 Y-8.4680
G01 X7.8695 Y-8.4486
G01 X7.9190 Y-8.4265
G01 X7.9644 Y-8.4037
G01 X8.0086 Y-8.3786
G01 X8.0545 Y-8.3497
G01 X8.0988 Y-8.3184
G01 X8.1388 Y-8.2871
G01 X8.1773 Y-8.2540
G01 X8.2166 Y-8.2166
G01 X8.2540 Y-8.1773
G01 X8.2882 Y-8.1375
G01 X8.3194 Y-8.0974
G01 X8.3487 Y-8.0559
G01 X8.3778 Y-8.0101
G01 X8.4037 Y-7.9644
G01 X8.4273 Y-7.9175
G01 X8.4492 Y-7.8679
G01 X8.4680 Y-7.8188
G01 X8.4839 Y-7.7706
G01 X8.4975 Y-7.7217
G01 X8.5094 Y-7.6687
G01 X8.5184 Y-7.6170
G01 X8.5248 Y-7.5649
G01 X8.5288 Y-7.5108
G01 X8.5300 Y-7.4600
G01 X8.5288 Y-7.4092
G01 X8.5249 Y-7.3560
G01 X8.5181 Y-7.3013
G01 X8.5094 Y-7.2513
G01 X8.4979 Y-7.2000
G01 X8.4839 Y-7.1494
G01 X8.4680 Y-7.1012
G01 X8.4486 Y-7.0505
G01 X8.4265 Y-7.0010
G01 X8.4037 Y-6.9556
G01 X8.3778 Y-6.9099
G01 X8.3487 Y-6.8641
G01 X8.3194 Y-6.8226
G01 X8.2871 Y-6.7812
G01 X8.2516 Y-6.7402
G01 X8.2166 Y-6.7034
G01 X8.1786 Y-6.6672
G01 X8.1375 Y-6.6318
G01 X8.0974 Y-6.6006
G01 X8.0545 Y-6.5703
G01 X8.0101 Y-6.5422
G01 X7.9659 Y-6.5172
G01 X7.9175 Y-6.4927
G01 X7.8679 Y-6.4708
G01 X7.8205 Y-6.4525
G01 X7.7801 Y-6.4392
G01 X7.7801 Y-3.4813
G01 X7.8206 Y-3.4679
G01 X7.8681 Y-3.4497
G01 X7.9177 Y-3.4277
G01 X7.9661 Y-3.4033
G01 X8.0103 Y-3.3782
G01 X8.0533 Y-3.3510
G01 X8.0977 Y-3.3198
G01 X8.1404 Y-3.2864
G01 X8.1789 Y-3.2532
G01 X8.2157 Y-3.2182
G01 X8.2520 Y-3.1802
G01 X8.2875 Y-3.1391
G01 X8.3208 Y-3.0963
G01 X8.3501 Y-3.0547
G01 X8.3773 Y-3.0118
G01 X8.4041 Y-2.9646
G01 X8.4277 Y-2.9177
G01 X8.4497 Y-2.8681
G01 X8.4679 Y-2.8206
G01 X8.4839 Y-2.7724
G01 X8.4980 Y-2.7218
G01 X8.5099 Y-2.6688
G01 X8.5191 Y-2.6154
G01 X8.5253 Y-2.5649
G01 X8.5291 Y-2.5142
G01 X8.5305 Y-2.4600
G01 X8.5292 Y-2.4075
G01 X8.5252 Y-2.3534
G01 X8.5189 Y-2.3029
G01 X8.5102 Y-2.2528
G01 X8.4984 Y-2.1999
G01 X8.4844 Y-2.1493
G01 X8.4673 Y-2.0977
G01 X8.4490 Y-2.0503
G01 X8.4284 Y-2.0039
G01 X8.4041 Y-1.9554
G01 X8.3782 Y-1.9097
G01 X8.3491 Y-1.8638
G01 X8.3198 Y-1.8223
G01 X8.2886 Y-1.7822
G01 X8.2543 Y-1.7424
G01 X8.2170 Y-1.7030
G01 X8.1789 Y-1.6668
G01 X8.1391 Y-1.6325
G01 X8.0977 Y-1.6002
G01 X8.0547 Y-1.5699
G01 X8.0103 Y-1.5418
G01 X7.9646 Y-1.5159
G01 X7.9177 Y-1.4923
G01 X7.8697 Y-1.4710
G01 X7.8206 Y-1.4521
G01 X7.7707 Y-1.4356
G01 X7.7201 Y-1.4216
G01 X7.6688 Y-1.4101
G01 X7.6171 Y-1.4011
G01 X7.5649 Y-1.3947
G01 X7.5134 Y-1.3908
G01 X7.4600 Y-1.3895
G01 X3.6191 Y-1.3895
G01 X3.5675 Y-1.3908
G01 X3.5134 Y-1.3948
G01 X3.4629 Y-1.4011
G01 X3.4128 Y-1.4098
G01 X3.3607 Y-1.4214
G01 X3.3093 Y-1.4356
G01 X3.2577 Y-1.4527
G01 X3.2103 Y-1.4710
G01 X3.1639 Y-1.4916
G01 X3.1169 Y-1.5151
G01 X3.0697 Y-1.5418
G01 X3.0253 Y-1.5699
G01 X2.9823 Y-1.6002
G01 X2.9396 Y-1.6336
G01 X2.9011 Y-1.6668
G01 X2.8630 Y-1.7030
G01 X1.9030 Y-2.6630
G01 X1.8674 Y-2.7005
G01 X1.8314 Y-2.7422
G01 X1.8002 Y-2.7823
G01 X1.7699 Y-2.8253
G01 X1.7418 Y-2.8697
G01 X1.7167 Y-2.9139
G01 X1.6916 Y-2.9639
G01 X1.6710 Y-3.0103
G01 X1.6521 Y-3.0594
G01 X1.6356 Y-3.1093
G01 X1.6220 Y-3.1582
G01 X1.6098 Y-3.2128
G01 X1.6011 Y-3.2629
G01 X1.5946 Y-3.3159
G01 X1.5908 Y-3.3675
G01 X1.5895 Y-3.4200
G01 X1.5908 Y-3.4725
G01 X1.5947 Y-3.5249
G01 X1.6011 Y-3.5771
G01 X1.6101 Y-3.6288
G01 X1.6216 Y-3.6801
G01 X1.6356 Y-3.7307
G01 X1.6521 Y-3.7806
G01 X1.6710 Y-3.8297
G01 X1.6923 Y-3.8777
G01 X1.7159 Y-3.9246
G01 X1.7418 Y-3.9703
G01 X1.7699 Y-4.0147
G01 X1.8002 Y-4.0577
G01 X1.8325 Y-4.0991
G01 X1.8668 Y-4.1389
G01 X1.9030 Y-4.1770
G01 X1.9411 Y-4.2132
G01 X1.9809 Y-4.2475
G01 X2.0223 Y-4.2798
G01 X2.0653 Y-4.3101
G01 X2.1097 Y-4.3382
G01 X2.1554 Y-4.3641
G01 X2.2023 Y-4.3877
G01 X2.2503 Y-4.4090
G01 X2.2994 Y-4.4279
G01 X2.3493 Y-4.4444
G01 X2.3999 Y-4.4584
G01 X2.4512 Y-4.4699
G01 X2.5029 Y-4.4789
G01 X2.5559 Y-4.4854
G01 X2.6075 Y-4.4892
G01 X2.6600 Y-4.4905
G01 X2.7125 Y-4.4892
G01 X2.7632 Y-4.4855
G01 X2.8188 Y-4.4786
G01 X2.8688 Y-4.4699
G01 X2.9201 Y-4.4584
G01 X2.9707 Y-4.4444
G01 X3.0190 Y-4.4285
G01 X3.0712 Y-4.4083
G01 X3.1177 Y-4.3877
G01 X3.1646 Y-4.3641
G01 X3.2103 Y-4.3382
G01 X3.2533 Y-4.3110
G01 X3.2977 Y-4.2798
G01 X3.3391 Y-4.2475
G01 X3.3789 Y-4.2132
G01 X3.4157 Y-4.1782
G01 X4.0634 Y-3.5305
G00 Z2.0000
G00 X8.7599 Y-7.3082
G01 F60.00
G01 Z-0.0746
G01 F120.00
G01 X8.7556 Y-7.3440
G01 X8.7516 Y-7.3981
G01 X8.7500 Y-7.4600
G01 X8.7516 Y-7.5219
G01 X8.7556 Y-7.5760
G01 X8.7599 Y-7.6118
G01 X8.7357 Y-7.6073
G01 X8.7100 Y-7.6058
G01 X8.6843 Y-7.6073
G01 X8.6601 Y-7.6118
G01 X8.6644 Y-7.5760
G01 X8.6684 Y-7.5219
G01 X8.6700 Y-7.4600
G01 X8.6684 Y-7.3981
G01 X8.6644 Y-7.3440
G01 X8.6601 Y-7.3082
G01 X8.6843 Y-7.3127
G01 X8.7100 Y-7.3142
G01 X8.7357 Y-7.3127
G01 X8.7599 Y-7.3082
G00 Z2.0000
G00 X8.9933 Y-8.1009
G01 F60.00
G01 Z-0.0746
G01 F120.00
G01 X8.9651 Y-8.0563
G01 X8.9370 Y-8.0068
G01 X8.9114 Y-7.9559
G01 X8.8883 Y-7.9039
G01 X8.8678 Y-7.8508
G01 X8.8500 Y-7.7967
G01 X8.8440 Y-7.7751
G01 X8.8400 Y-7.7638
G01 X8.8310 Y-7.7453
G01 X8.8204 Y-7.7296
G01 X8.8053 Y-7.7132
G01 X8.7892 Y-7.7003
G01 X8.7714 Y-7.6900
G01 X8.7506 Y-7.6818
G01 X8.7305 Y-7.6773
G01 X8.7083 Y-7.6758
G01 X8.6861 Y-7.6778
G01 X8.6661 Y-7.6828
G01 X8.6548 Y-7.6871
G01 X8.6440 Y-7.6923
G01 X8.6337 Y-7.6984
G01 X8.6225 Y-7.7065
G01 X8.6135 Y-7.7144
G01 X8.6040 Y-7.7243
G01 X8.5955 Y-7.7352
G01 X8.5890 Y-7.7453
G01 X8.5827 Y-7.7575
G01 X8.5776 Y-7.7702
G01 X8.5700 Y-7.7967
G01 X8.5522 Y-7.8508
G01 X8.5317 Y-7.9039
G01 X8.5086 Y-7.9559
G01 X8.4830 Y-8.0068
G01 X8.4549 Y-8.0563
G01 X8.4245 Y-8.1044
G01 X8.3917 Y-8.1510
G01 X8.3567 Y-8.1959
G01 X8.3195 Y-8.2390
G01 X8.2802 Y-8.2802
G01 X8.2390 Y-8.3195
G01 X8.1959 Y-8.3567
G01 X8.1510 Y-8.3917
G01 X8.1044 Y-8.4245
G01 X8.0563 Y-8.4549
G01 X8.0068 Y-8.4830
G01 X7.9559 Y-8.5086
G01 X7.9039 Y-8.5317
G01 X7.8508 Y-8.5522
G01 X7.7967 Y-8.5700
G01 X7.7418 Y-8.5852
G01 X7.6863 Y-8.5977
G01 X7.6302 Y-8.6074
G01 X7.5737 Y-8.6144
G01 X7.5169 Y-8.6186
G01 X7.4600 Y-8.6200
G01 X7.4031 Y-8.6186
G01 X7.3463 Y-8.6144
G01 X7.2898 Y-8.6074
G01 X7.2337 Y-8.5977
G01 X7.1782 Y-8.5852
G01 X7.1233 Y-8.5700
G01 X7.0692 Y-8.5522
G01 X7.0161 Y-8.5317
G01 X6.9641 Y-8.5086
G01 X6.9132 Y-8.4830
G01 X6.8637 Y-8.4549
G01 X6.8156 Y-8.4245
G01 X6.7690 Y-8.3917
G01 X6.7241 Y-8.3567
G01 X6.6810 Y-8.3195
G01 X6.6398 Y-8.2802
G01 X6.6005 Y-8.2390
G01 X6.5633 Y-8.1959
G01 X6.5283 Y-8.1510
G01 X6.4955 Y-8.1044
G01 X6.4651 Y-8.0563
G01 X6.4370 Y-8.0068
G01 X6.4114 Y-7.9559
G01 X6.3883 Y-7.9039
G01 X6.3678 Y-7.8508
G01 X6.3500 Y-7.7967
G01 X6.3348 Y-7.7418
G01 X6.3223 Y-7.6863
G01 X6.3126 Y-7.6302
G01 X6.3056 Y-7.5737
G01 X6.3014 Y-7.5169
G01 X6.3000 Y-7.4600
G01 X6.3014 Y-7.4031
G01 X6.3056 Y-7.3463
G01 X6.3126 Y-7.2898
G01 X6.3223 Y-7.2337
G01 X6.3348 Y-7.1782
G01 X6.3500 Y-7.1233
G01 X6.3678 Y-7.0692
G01 X6.3883 Y-7.0161
G01 X6.4114 Y-6.9641
G01 X6.4370 Y-6.9132
G01 X6.4651 Y-6.8637
G01 X6.4955 Y-6.8156
G01 X6.5283 Y-6.7690
G01 X6.5633 Y-6.7241
G01 X6.6005 Y-6.6810
G01 X6.6398 Y-6.6398
G01 X6.6810 Y-6.6005
G01 X6.7241 Y-6.5633
G01 X6.7690 Y-6.5283
G01 X6.8156 Y-6.4955
G01 X6.8637 Y-6.4651
G01 X6.9132 Y-6.4370
G01 X6.9772 Y-6.4050
G01 X6.9889 Y-6.3978
G01 X6.9999 Y-6.3895
G01 X7.0087 Y-6.3814
G01 X7.0179 Y-6.3712
G01 X7.0261 Y-6.3601
G01 X7.0324 Y-6.3499
G01 X7.0384 Y-6.3375
G01 X7.0427 Y-6.3263
G01 X7.0463 Y-6.3130
G01 X7.0485 Y-6.3012
G01 X7.0497 Y-6.2824
G01 X7.0497 Y-3.7572
G01 X7.0482 Y-3.7401
G01 X7.0451 Y-3.7250
G01 X7.0403 Y-3.7103
G01 X7.0340 Y-3.6962
G01 X7.0261 Y-3.6829
G01 X7.0157 Y-3.6692
G01 X7.0050 Y-3.6581
G01 X6.9931 Y-3.6482
G01 X6.9742 Y-3.6364
G01 X6.9536 Y-3.6277
G01 X6.9320 Y-3.6224
G01 X6.9114 Y-3.6207
G01 X4.1587 Y-3.6207
G01 X4.1450 Y-3.6213
G01 X4.1314 Y-3.6233
G01 X4.1116 Y-3.6288
G01 X4.0943 Y-3.6364
G01 X4.0767 Y-3.6472
G01 X4.0622 Y-3.6593
G01 X3.4819 Y-4.2395
G01 X3.4394 Y-4.2800
G01 X3.3963 Y-4.3172
G01 X3.3514 Y-4.3522
G01 X3.3048 Y-4.3850
G01 X3.2567 Y-4.4155
G01 X3.2071 Y-4.4436
G01 X3.1562 Y-4.4692
G01 X3.1041 Y-4.4923
G01 X3.0510 Y-4.5128
G01 X2.9969 Y-4.5306
G01 X2.9420 Y-4.5458
G01 X2.8864 Y-4.5583
G01 X2.8303 Y-4.5680
G01 X2.8145 Y-4.5700
G01 X2.5055 Y-4.5700
G01 X2.4897 Y-4.5680
G01 X2.4336 Y-4.5583
G01 X2.3780 Y-4.5458
G01 X2.3231 Y-4.5306
G01 X2.2690 Y-4.5128
G01 X2.2159 Y-4.4923
G01 X2.1638 Y-4.4692
G01 X2.1129 Y-4.4436
G01 X2.0633 Y-4.4155
G01 X2.0152 Y-4.3850
G01 X1.9686 Y-4.3522
G01 X1.9237 Y-4.3172
G01 X1.8806 Y-4.2800
G01 X1.8393 Y-4.2407
G01 X1.8000 Y-4.1994
G01 X1.7628 Y-4.1563
G01 X1.7278 Y-4.1114
G01 X1.6950 Y-4.0648
G01 X1.6645 Y-4.0167
G01 X1.6364 Y-3.9671
G01 X1.6108 Y-3.9162
G01 X1.5877 Y-3.8641
G01 X1.5672 Y-3.8110
G01 X1.5494 Y-3.7569
G01 X1.5342 Y-3.7020
G01 X1.5217 Y-3.6464
G01 X1.5120 Y-3.5903
G01 X1.5050 Y-3.5338
G01 X1.5008 Y-3.4769
G01 X1.4994 Y-3.4200
G01 X1.5008 Y-3.3631
G01 X1.5050 Y-3.3062
G01 X1.5120 Y-3.2497
G01 X1.5217 Y-3.1936
G01 X1.5342 Y-3.1380
G01 X1.5494 Y-3.0831
G01 X1.5672 Y-3.0290
G01 X1.5877 Y-2.9759
G01 X1.6108 Y-2.9238
G01 X1.6364 Y-2.8729
G01 X1.6645 Y-2.8233
G01 X1.6950 Y-2.7752
G01 X1.7278 Y-2.7286
G01 X1.7628 Y-2.6837
G01 X1.8000 Y-2.6406
G01 X1.8405 Y-2.5981
G01 X2.7981 Y-1.6405
G01 X2.8406 Y-1.6000
G01 X2.8837 Y-1.5628
G01 X2.9286 Y-1.5278
G01 X2.9752 Y-1.4950
G01 X3.0233 Y-1.4645
G01 X3.0729 Y-1.4364
G01 X3.1238 Y-1.4108
G01 X3.1759 Y-1.3877
G01 X3.2290 Y-1.3672
G01 X3.2831 Y-1.3494
G01 X3.3380 Y-1.3342
G01 X3.3936 Y-1.3217
G01 X3.4497 Y-1.3120
G01 X3.5062 Y-1.3050
G01 X3.5631 Y-1.3008
G01 X3.6217 Y-1.2993
G01 X7.4583 Y-1.2993
G01 X7.5169 Y-1.3008
G01 X7.5738 Y-1.3050
G01 X7.6303 Y-1.3120
G01 X7.6864 Y-1.3217
G01 X7.7420 Y-1.3342
G01 X7.7969 Y-1.3494
G01 X7.8510 Y-1.3672
G01 X7.9041 Y-1.3877
G01 X7.9562 Y-1.4108
G01 X8.0071 Y-1.4364
G01 X8.0567 Y-1.4645
G01 X8.1048 Y-1.4950
G01 X8.1514 Y-1.5278
G01 X8.1963 Y-1.5628
G01 X8.2394 Y-1.6000
G01 X8.2807 Y-1.6393
G01 X8.3200 Y-1.6806
G01 X8.3572 Y-1.7237
G01 X8.3922 Y-1.7686
G01 X8.4250 Y-1.8152
G01 X8.4555 Y-1.8633
G01 X8.4836 Y-1.9129
G01 X8.5092 Y-1.9638
G01 X8.5323 Y-2.0159
G01 X8.5528 Y-2.0690
G01 X8.5706 Y-2.1231
G01 X8.5858 Y-2.1780
G01 X8.5983 Y-2.2336
G01 X8.6080 Y-2.2897
G01 X8.6150 Y-2.3462
G01 X8.6192 Y-2.4031
G01 X8.6206 Y-2.4600
G01 X8.6192 Y-2.5169
G01 X8.6150 Y-2.5738
G01 X8.6080 Y-2.6303
G01 X8.5983 Y-2.6864
G01 X8.5858 Y-2.7420
G01 X8.5706 Y-2.7969
G01 X8.5528 Y-2.8510
G01 X8.5323 Y-2.9041
G01 X8.5092 Y-2.9562
G01 X8.4836 Y-3.0071
G01 X8.4555 Y-3.0567
G01 X8.4250 Y-3.1048
G01 X8.3922 Y-3.1514
G01 X8.3572 Y-3.1963
G01 X8.3200 Y-3.2394
G01 X8.2807 Y-3.2807
G01 X8.2394 Y-3.3200
G01 X8.1963 Y-3.3572
G01 X8.1514 Y-3.3922
G01 X8.1048 Y-3.4250
G01 X8.0567 Y-3.4555
G01 X8.0071 Y-3.4836
G01 X7.9428 Y-3.5157
G01 X7.9325 Y-3.5220
G01 X7.9228 Y-3.5291
G01 X7.9137 Y-3.5370
G01 X7.9054 Y-3.5456
G01 X7.8978 Y-3.5550
G01 X7.8911 Y-3.5649
G01 X7.8852 Y-3.5754
G01 X7.8797 Y-3.5880
G01 X7.8758 Y-3.5994
G01 X7.8730 Y-3.6110
G01 X7.8709 Y-3.6246
G01 X7.8703 Y-3.6384
G01 X7.8703 Y-6.2824
G01 X7.8713 Y-6.2995
G01 X7.8733 Y-6.3114
G01 X7.8768 Y-6.3246
G01 X7.8809 Y-6.3359
G01 X7.8860 Y-6.3468
G01 X7.8920 Y-6.3573
G01 X7.8999 Y-6.3685
G01 X7.9077 Y-6.3776
G01 X7.9175 Y-6.3872
G01 X7.9283 Y-6.3958
G01 X7.9413 Y-6.4042
G01 X8.0068 Y-6.4370
G01 X8.0563 Y-6.4651
G01 X8.1044 Y-6.4955
G01 X8.1510 Y-6.5283
G01 X8.1959 Y-6.5633
G01 X8.2390 Y-6.6005
G01 X8.2802 Y-6.6398
G01 X8.3195 Y-6.6810
G01 X8.3567 Y-6.7241
G01 X8.3917 Y-6.7690
G01 X8.4245 Y-6.8156
G01 X8.4549 Y-6.8637
G01 X8.4830 Y-6.9132
G01 X8.5086 Y-6.9641
G01 X8.5317 Y-7.0161
G01 X8.5522 Y-7.0692
G01 X8.5700 Y-7.1233
G01 X8.5782 Y-7.1514
G01 X8.5827 Y-7.1625
G01 X8.5890 Y-7.1747
G01 X8.6007 Y-7.1917
G01 X8.6160 Y-7.2080
G01 X8.6337 Y-7.2216
G01 X8.6517 Y-7.2315
G01 X8.6727 Y-7.2392
G01 X8.6946 Y-7.2434
G01 X8.7066 Y-7.2442
G01 X8.7186 Y-7.2440
G01 X8.7407 Y-7.2408
G01 X8.7620 Y-7.2342
G01 X8.7729 Y-7.2293
G01 X8.7834 Y-7.2234
G01 X8.7934 Y-7.2167
G01 X8.8027 Y-7.2091
G01 X8.8182 Y-7.1930
G01 X8.8301 Y-7.1762
G01 X8.8400 Y-7.1562
G01 X8.8440 Y-7.1449
G01 X8.8500 Y-7.1233
G01 X8.8678 Y-7.0692
G01 X8.8883 Y-7.0161
G01 X8.9114 Y-6.9641
G01 X8.9370 Y-6.9132
G01 X8.9651 Y-6.8637
G01 X8.9933 Y-6.8191
G01 X8.9933 Y-6.8563
G01 X8.9813 Y-6.8754
G01 X8.9538 Y-6.9241
G01 X8.9295 Y-6.9726
G01 X8.9074 Y-7.0222
G01 X8.8855 Y-7.0792
G01 X8.8691 Y-7.1291
G01 X8.8550 Y-7.1797
G01 X8.8419 Y-7.2376
G01 X8.8319 Y-7.2961
G01 X8.8255 Y-7.3483
G01 X8.8216 Y-7.4006
G01 X8.8200 Y-7.4600
G01 X8.8216 Y-7.5194
G01 X8.8255 Y-7.5717
G01 X8.8319 Y-7.6239
G01 X8.8419 Y-7.6824
G01 X8.8550 Y-7.7403
G01 X8.8691 Y-7.7909
G01 X8.8855 Y-7.8408
G01 X8.9074 Y-7.8978
G01 X8.9295 Y-7.9474
G01 X8.9538 Y-7.9959
G01 X8.9813 Y-8.0446
G01 X8.9933 Y-8.0637
G01 X8.9933 Y-8.1009
G00 Z2.0000
G00 X9.0633 Y-8.3014
G01 F60.00
G01 Z-0.0746
G01 F120.00
G01 X9.0486 Y-8.2860
G01 X9.0092 Y-8.2403
G01 X8.9721 Y-8.1927
G01 X8.9373 Y-8.1433
G01 X8.9050 Y-8.0923
G01 X8.8753 Y-8.0398
G01 X8.8481 Y-7.9859
G01 X8.8236 Y-7.9307
G01 X8.8019 Y-7.8744
G01 X8.7830 Y-7.8170
G01 X8.7759 Y-7.7922
G01 X8.7725 Y-7.7843
G01 X8.7682 Y-7.7769
G01 X8.7619 Y-7.7688
G01 X8.7537 Y-7.7611
G01 X8.7452 Y-7.7553
G01 X8.7360 Y-7.7508
G01 X8.7262 Y-7.7477
G01 X8.7160 Y-7.7460
G01 X8.7049 Y-7.7460
G01 X8.6947 Y-7.7475
G01 X8.6808 Y-7.7521
G01 X8.6683 Y-7.7595
G01 X8.6570 Y-7.7700
G01 X8.6487 Y-7.7820
G01 X8.6435 Y-7.7938
G01 X8.6370 Y-7.8170
G01 X8.6181 Y-7.8744
G01 X8.5964 Y-7.9307
G01 X8.5719 Y-7.9859
G01 X8.5447 Y-8.0398
G01 X8.5150 Y-8.0923
G01 X8.4827 Y-8.1433
G01 X8.4479 Y-8.1927
G01 X8.4108 Y-8.2403
G01 X8.3714 Y-8.2860
G01 X8.3297 Y-8.3297
G01 X8.2860 Y-8.3714
G01 X8.2403 Y-8.4108
G01 X8.1927 Y-8.4479
G01 X8.1433 Y-8.4827
G01 X8.0923 Y-8.5150
G01 X8.0398 Y-8.5447
G01 X7.9859 Y-8.5719
G01 X7.9307 Y-8.5964
G01 X7.8744 Y-8.6181
G01 X7.8170 Y-8.6370
G01 X7.7589 Y-8.6531
G01 X7.7000 Y-8.6663
G01 X7.6405 Y-8.6767
G01 X7.5806 Y-8.6841
G01 X7.5204 Y-8.6885
G01 X7.4600 Y-8.6900
G01 X7.3996 Y-8.6885
G01 X7.3394 Y-8.6841
G01 X7.2795 Y-8.6767
G01 X7.2200 Y-8.6663
G01 X7.1611 Y-8.6531
G01 X7.1030 Y-8.6370
G01 X7.0456 Y-8.6181
G01 X6.9893 Y-8.5964
G01 X6.9341 Y-8.5719
G01 X6.8802 Y-8.5447
G01 X6.8277 Y-8.5150
G01 X6.7767 Y-8.4827
G01 X6.7273 Y-8.4479
G01 X6.6797 Y-8.4108
G01 X6.6340 Y-8.3714
G01 X6.5903 Y-8.3297
G01 X6.5486 Y-8.2860
G01 X6.5092 Y-8.2403
G01 X6.4721 Y-8.1927
G01 X6.4373 Y-8.1433
G01 X6.4050 Y-8.0923
G01 X6.3753 Y-8.0398
G01 X6.3481 Y-7.9859
G01 X6.3236 Y-7.9307
G01 X6.3019 Y-7.8744
G01 X6.2830 Y-7.8170
G01 X6.2669 Y-7.7589
G01 X6.2537 Y-7.7000
G01 X6.2433 Y-7.6405
G01 X6.2359 Y-7.5806
G01 X6.2315 Y-7.5204
G01 X6.2300 Y-7.4600
G01 X6.2315 Y-7.3996
G01 X6.2359 Y-7.3394
G01 X6.2433 Y-7.2795
G01 X6.2537 Y-7.2200
G01 X6.2669 Y-7.1611
G01 X6.2830 Y-7.1030
G01 X6.3019 Y-7.0456
G01 X6.3236 Y-6.9893
G01 X6.3481 Y-6.9341
G01 X6.3753 Y-6.8802
G01 X6.4050 Y-6.8277
G01 X6.4373 Y-6.7767
G01 X6.4721 Y-6.7273
G01 X6.5092 Y-6.6797
G01 X6.5486 Y-6.6340
G01 X6.5903 Y-6.5903
G01 X6.6340 Y-6.5486
G01 X6.6797 Y-6.5092
G01 X6.7273 Y-6.4721
G01 X6.7767 Y-6.4373
G01 X6.8277 Y-6.4050
G01 X6.8802 Y-6.3753
G01 X6.9420 Y-6.3445
G01 X6.9535 Y-6.3370
G01 X6.9627 Y-6.3281
G01 X6.9706 Y-6.3169
G01 X6.9759 Y-6.3051
G01 X6.9791 Y-6.2918
G01 X6.9797 Y-6.2824
G01 X6.9797 Y-3.7598
G01 X6.9776 Y-3.7436
G01 X6.9723 Y-3.7292
G01 X6.9633 Y-3.7156
G01 X6.9521 Y-3.7049
G01 X6.9420 Y-3.6985
G01 X6.9317 Y-3.6942
G01 X6.9208 Y-3.6915
G01 X6.9097 Y-3.6907
G01 X4.1587 Y-3.6907
G01 X4.1451 Y-3.6920
G01 X4.1352 Y-3.6947
G01 X4.1257 Y-3.6989
G01 X4.1170 Y-3.7044
G01 X4.1099 Y-3.7105
G01 X3.5308 Y-4.2896
G01 X3.4864 Y-4.3318
G01 X3.4407 Y-4.3713
G01 X3.3931 Y-4.4085
G01 X3.3437 Y-4.4432
G01 X3.2927 Y-4.4755
G01 X3.2401 Y-4.5053
G01 X3.1862 Y-4.5325
G01 X3.1309 Y-4.5570
G01 X3.0746 Y-4.5787
G01 X3.0172 Y-4.5976
G01 X2.9590 Y-4.6137
G01 X2.9001 Y-4.6270
G01 X2.8406 Y-4.6373
G01 X2.8188 Y-4.6400
G01 X2.5012 Y-4.6400
G01 X2.4794 Y-4.6373
G01 X2.4199 Y-4.6270
G01 X2.3610 Y-4.6137
G01 X2.3028 Y-4.5976
G01 X2.2454 Y-4.5787
G01 X2.1891 Y-4.5570
G01 X2.1338 Y-4.5325
G01 X2.0799 Y-4.5053
G01 X2.0273 Y-4.4755
G01 X1.9763 Y-4.4432
G01 X1.9269 Y-4.4085
G01 X1.8793 Y-4.3713
G01 X1.8336 Y-4.3318
G01 X1.7898 Y-4.2902
G01 X1.7482 Y-4.2464
G01 X1.7087 Y-4.2007
G01 X1.6715 Y-4.1531
G01 X1.6368 Y-4.1037
G01 X1.6045 Y-4.0527
G01 X1.5747 Y-4.0001
G01 X1.5475 Y-3.9462
G01 X1.5230 Y-3.8909
G01 X1.5013 Y-3.8346
G01 X1.4824 Y-3.7772
G01 X1.4663 Y-3.7190
G01 X1.4530 Y-3.6601
G01 X1.4427 Y-3.6006
G01 X1.4353 Y-3.5406
G01 X1.4309 Y-3.4804
G01 X1.4294 Y-3.4200
G01 X1.4309 Y-3.3596
G01 X1.4353 Y-3.2994
G01 X1.4427 Y-3.2394
G01 X1.4530 Y-3.1799
G01 X1.4663 Y-3.1210
G01 X1.4824 Y-3.0628
G01 X1.5013 Y-3.0054
G01 X1.5230 Y-2.9491
G01 X1.5475 Y-2.8938
G01 X1.5747 Y-2.8399
G01 X1.6045 Y-2.7873
G01 X1.6368 Y-2.7363
G01 X1.6715 Y-2.6869
G01 X1.7087 Y-2.6393
G01 X1.7482 Y-2.5936
G01 X1.7904 Y-2.5492
G01 X2.7492 Y-1.5904
G01 X2.7936 Y-1.5482
G01 X2.8393 Y-1.5087
G01 X2.8869 Y-1.4715
G01 X2.9363 Y-1.4368
G01 X2.9873 Y-1.4045
G01 X3.0399 Y-1.3747
G01 X3.0938 Y-1.3475
G01 X3.1491 Y-1.3230
G01 X3.2054 Y-1.3013
G01 X3.2628 Y-1.2824
G01 X3.3210 Y-1.2663
G01 X3.3799 Y-1.2530
G01 X3.4394 Y-1.2427
G01 X3.4994 Y-1.2353
G01 X3.5596 Y-1.2309
G01 X3.6209 Y-1.2293
G01 X7.4591 Y-1.2293
G01 X7.5204 Y-1.2309
G01 X7.5806 Y-1.2353
G01 X7.6406 Y-1.2427
G01 X7.7001 Y-1.2530
G01 X7.7590 Y-1.2663
G01 X7.8172 Y-1.2824
G01 X7.8746 Y-1.3013
G01 X7.9309 Y-1.3230
G01 X7.9862 Y-1.3475
G01 X8.0401 Y-1.3747
G01 X8.0927 Y-1.4045
G01 X8.1437 Y-1.4368
G01 X8.1931 Y-1.4715
G01 X8.2407 Y-1.5087
G01 X8.2864 Y-1.5482
G01 X8.3302 Y-1.5898
G01 X8.3718 Y-1.6336
G01 X8.4113 Y-1.6793
G01 X8.4485 Y-1.7269
G01 X8.4832 Y-1.7763
G01 X8.5155 Y-1.8273
G01 X8.5453 Y-1.8799
G01 X8.5725 Y-1.9338
G01 X8.5970 Y-1.9891
G01 X8.6187 Y-2.0454
G01 X8.6376 Y-2.1028
G01 X8.6537 Y-2.1610
G01 X8.6670 Y-2.2199
G01 X8.6773 Y-2.2794
G01 X8.6847 Y-2.3394
G01 X8.6891 Y-2.3996
G01 X8.6906 Y-2.4600
G01 X8.6891 Y-2.5204
G01 X8.6847 Y-2.5806
G01 X8.6773 Y-2.6406
G01 X8.6670 Y-2.7001
G01 X8.6537 Y-2.7590
G01 X8.6376 Y-2.8172
G01 X8.6187 Y-2.8746
G01 X8.5970 Y-2.9309
G01 X8.5725 Y-2.9862
G01 X8.5453 Y-3.0401
G01 X8.5155 Y-3.0927
G01 X8.4832 Y-3.1437
G01 X8.4485 Y-3.1931
G01 X8.4113 Y-3.2407
G01 X8.3718 Y-3.2864
G01 X8.3302 Y-3.3302
G01 X8.2864 Y-3.3718
G01 X8.2407 Y-3.4113
G01 X8.1931 Y-3.4485
G01 X8.1437 Y-3.4832
G01 X8.0927 Y-3.5155
G01 X8.0401 Y-3.5453
G01 X7.9780 Y-3.5762
G01 X7.9686 Y-3.5821
G01 X7.9590 Y-3.5907
G01 X7.9511 Y-3.6009
G01 X7.9453 Y-3.6124
G01 X7.9416 Y-3.6247
G01 X7.9403 Y-3.6384
G01 X7.9403 Y-6.2824
G01 X7.9408 Y-6.2909
G01 X7.9441 Y-6.3051
G01 X7.9498 Y-6.3176
G01 X7.9584 Y-6.3294
G01 X7.9693 Y-6.3391
G01 X7.9780 Y-6.3445
G01 X8.0398 Y-6.3753
G01 X8.0923 Y-6.4050
G01 X8.1433 Y-6.4373
G01 X8.1927 Y-6.4721
G01 X8.2403 Y-6.5092
G01 X8.2860 Y-6.5486
G01 X8.3297 Y-6.5903
G01 X8.3714 Y-6.6340
G01 X8.4108 Y-6.6797
G01 X8.4479 Y-6.7273
G01 X8.4827 Y-6.7767
G01 X8.5150 Y-6.8277
G01 X8.5447 Y-6.8802
G01 X8.5719 Y-6.9341
G01 X8.5964 Y-6.9893
G01 X8.6181 Y-7.0456
G01 X8.6370 Y-7.1030
G01 X8.6435 Y-7.1262
G01 X8.6491 Y-7.1387
G01 X8.6570 Y-7.1500
G01 X8.6669 Y-7.1594
G01 X8.6778 Y-7.1664
G01 X8.6905 Y-7.1715
G01 X8.7006 Y-7.1736
G01 X8.7117 Y-7.1742
G01 X8.7228 Y-7.1730
G01 X8.7336 Y-7.1701
G01 X8.7438 Y-7.1656
G01 X8.7531 Y-7.1594
G01 X8.7613 Y-7.1519
G01 X8.7682 Y-7.1431
G01 X8.7725 Y-7.1357
G01 X8.7759 Y-7.1278
G01 X8.7830 Y-7.1030
G01 X8.8019 Y-7.0456
G01 X8.8236 Y-6.9893
G01 X8.8481 Y-6.9341
G01 X8.8753 Y-6.8802
G01 X8.9050 Y-6.8277
G01 X8.9373 Y-6.7767
G01 X8.9721 Y-6.7273
G01 X9.0092 Y-6.6797
G01 X9.0486 Y-6.6340
G01 X9.0633 Y-6.6186
G01 X9.0633 Y-6.8766
G01 X9.0422 Y-6.9099
G01 X9.0172 Y-6.9541
G01 X8.9927 Y-7.0025
G01 X8.9714 Y-7.0505
G01 X8.9531 Y-7.0979
G01 X8.9361 Y-7.1494
G01 X8.9217 Y-7.2017
G01 X8.9106 Y-7.2513
G01 X8.9016 Y-7.3030
G01 X8.8952 Y-7.3551
G01 X8.8914 Y-7.4058
G01 X8.8900 Y-7.4600
G01 X8.8913 Y-7.5125
G01 X8.8950 Y-7.5632
G01 X8.9016 Y-7.6170
G01 X8.9106 Y-7.6687
G01 X8.9217 Y-7.7183
G01 X8.9361 Y-7.7706
G01 X8.9531 Y-7.8221
G01 X8.9714 Y-7.8695
G01 X8.9927 Y-7.9175
G01 X9.0172 Y-7.9659
G01 X9.0422 Y-8.0101
G01 X9.0633 Y-8.0434
G01 X9.0633 Y-8.3014
G00 Z2.0000
G00 X10.8567 Y-8.3014
G01 F60.00
G01 Z-0.0746
G01 F120.00
G01 X10.8567 Y-8.0434
G01 X10.8778 Y-8.0101
G01 X10.9028 Y-7.9659
G01 X10.9273 Y-7.9175
G01 X10.9486 Y-7.8695
G01 X10.9669 Y-7.8221
G01 X10.9839 Y-7.7706
G01 X10.9983 Y-7.7183
G01 X11.0094 Y-7.6687
G01 X11.0184 Y-7.6170
G01 X11.0250 Y-7.5632
G01 X11.0287 Y-7.5125
G01 X11.0300 Y-7.4600
G01 X11.0286 Y-7.4058
G01 X11.0248 Y-7.3551
G01 X11.0184 Y-7.3030
G01 X11.0094 Y-7.2513
G01 X10.9983 Y-7.2017
G01 X10.9839 Y-7.1494
G01 X10.9669 Y-7.0979
G01 X10.9486 Y-7.0505
G01 X10.9273 Y-7.0025
G01 X10.9028 Y-6.9541
G01 X10.8778 Y-6.9099
G01 X10.8567 Y-6.8766
G01 X10.8567 Y-6.6186
G01 X10.8714 Y-6.6340
G01 X10.9108 Y-6.6797
G01 X10.9479 Y-6.7273
G01 X10.9827 Y-6.7767
G01 X11.0150 Y-6.8277
G01 X11.0447 Y-6.8802
G01 X11.0719 Y-6.9341
G01 X11.0964 Y-6.9893
G01 X11.1181 Y-7.0456
G01 X11.1370 Y-7.1030
G01 X11.1441 Y-7.1278
G01 X11.1475 Y-7.1357
G01 X11.1518 Y-7.1431
G01 X11.1587 Y-7.1519
G01 X11.1663 Y-7.1589
G01 X11.1755 Y-7.1651
G01 X11.1856 Y-7.1698
G01 X11.1963 Y-7.1729
G01 X11.2074 Y-7.1742
G01 X11.2186 Y-7.1737
G01 X11.2295 Y-7.1715
G01 X11.2422 Y-7.1664
G01 X11.2537 Y-7.1589
G01 X11.2636 Y-7.1493
G01 X11.2709 Y-7.1387
G01 X11.2765 Y-7.1262
G01 X11.2830 Y-7.1030
G01 X11.3019 Y-7.0456
G01 X11.3236 Y-6.9893
G01 X11.3481 Y-6.9341
G01 X11.3753 Y-6.8802
G01 X11.4050 Y-6.8277
G01 X11.4373 Y-6.7767
G01 X11.4721 Y-6.7273
G01 X11.5092 Y-6.6797
G01 X11.5486 Y-6.6340
G01 X11.5903 Y-6.5903
G01 X11.6340 Y-6.5486
G01 X11.6797 Y-6.5092
G01 X11.7273 Y-6.4721
G01 X11.7767 Y-6.4373
G01 X11.8277 Y-6.4050
G01 X11.8802 Y-6.3753
G01 X11.9420 Y-6.3445
G01 X11.9507 Y-6.3391
G01 X11.9616 Y-6.3294
G01 X11.9702 Y-6.3176
G01 X11.9762 Y-6.3043
G01 X11.9793 Y-6.2901
G01 X11.9797 Y-3.6384
G01 X11.9784 Y-3.6247
G01 X11.9747 Y-3.6124
G01 X11.9689 Y-3.6009
G01 X11.9610 Y-3.5907
G01 X11.9514 Y-3.5821
G01 X11.9420 Y-3.5762
G01 X11.8799 Y-3.5453
G01 X11.8273 Y-3.5155
G01 X11.7763 Y-3.4832
G01 X11.7269 Y-3.4485
G01 X11.6793 Y-3.4113
G01 X11.6336 Y-3.3718
G01 X11.5898 Y-3.3302
G01 X11.5482 Y-3.2864
G01 X11.5087 Y-3.2407
G01 X11.4715 Y-3.1931
G01 X11.4368 Y-3.1437
G01 X11.4045 Y-3.0927
G01 X11.3747 Y-3.0401
G01 X11.3475 Y-2.9862
G01 X11.3230 Y-2.9309
G01 X11.3013 Y-2.8746
G01 X11.2824 Y-2.8172
G01 X11.2663 Y-2.7590
G01 X11.2530 Y-2.7001
G01 X11.2427 Y-2.6406
G01 X11.2353 Y-2.5806
G01 X11.2309 Y-2.5204
G01 X11.2294 Y-2.4600
G01 X11.2309 Y-2.3996
G01 X11.2353 Y-2.3394
G01 X11.2427 Y-2.2794
G01 X11.2530 Y-2.2199
G01 X11.2663 Y-2.1610
G01 X11.2824 Y-2.1028
G01 X11.3013 Y-2.0454
G01 X11.3230 Y-1.9891
G01 X11.3475 Y-1.9338
G01 X11.3747 Y-1.8799
G01 X11.4045 Y-1.8273
G01 X11.4368 Y-1.7763
G01 X11.4715 Y-1.7269
G01 X11.5087 Y-1.6793
G01 X11.5482 Y-1.6336
G01 X11.5898 Y-1.5898
G01 X11.6336 Y-1.5482
G01 X11.6793 Y-1.5087
G01 X11.7269 Y-1.4715
G01 X11.7763 Y-1.4368
G01 X11.8273 Y-1.4045
G01 X11.8799 Y-1.3747
G01 X11.9338 Y-1.3475
G01 X11.9891 Y-1.3230
G01 X12.0454 Y-1.3013
G01 X12.1028 Y-1.2824
G01 X12.1610 Y-1.2663
G01 X12.2199 Y-1.2530
G01 X12.2794 Y-1.2427
G01 X12.3394 Y-1.2353
G01 X12.3996 Y-1.2309
G01 X12.4609 Y-1.2293
G01 X17.4591 Y-1.2293
G01 X17.5204 Y-1.2309
G01 X17.5806 Y-1.2353
G01 X17.6406 Y-1.2427
G01 X17.7001 Y-1.2530
G01 X17.7590 Y-1.2663
G01 X17.8172 Y-1.2824
G01 X17.8746 Y-1.3013
G01 X17.9309 Y-1.3230
G01 X17.9862 Y-1.3475
G01 X18.0401 Y-1.3747
G01 X18.0927 Y-1.4045
G01 X18.1437 Y-1.4368
G01 X18.1931 Y-1.4715
G01 X18.2407 Y-1.5087
G01 X18.2864 Y-1.5482
G01 X18.3302 Y-1.5898
G01 X18.3718 Y-1.6336
G01 X18.4113 Y-1.6793
G01 X18.4485 Y-1.7269
G01 X18.4832 Y-1.7763
G01 X18.5155 Y-1.8273
G01 X18.5453 Y-1.8799
G01 X18.5725 Y-1.9338
G01 X18.5970 Y-1.9891
G01 X18.6187 Y-2.0454
G01 X18.6376 Y-2.1028
G01 X18.6537 Y-2.1610
G01 X18.6670 Y-2.2199
G01 X18.6773 Y-2.2794
G01 X18.6847 Y-2.3394
G01 X18.6891 Y-2.3996
G01 X18.6906 Y-2.4600
G01 X18.6891 Y-2.5204
G01 X18.6847 Y-2.5806
G01 X18.6773 Y-2.6406
G01 X18.6670 Y-2.7001
G01 X18.6537 Y-2.7590
G01 X18.6376 Y-2.8172
G01 X18.6187 Y-2.8746
G01 X18.5970 Y-2.9309
G01 X18.5725 Y-2.9862
G01 X18.5453 Y-3.0401
G01 X18.5155 Y-3.0927
G01 X18.4832 Y-3.1437
G01 X18.4485 Y-3.1931
G01 X18.4113 Y-3.2407
G01 X18.3718 Y-3.2864
G01 X18.3302 Y-3.3302
G01 X18.2864 Y-3.3718
G01 X18.2407 Y-3.4113
G01 X18.1931 Y-3.4485
G01 X18.1437 Y-3.4832
G01 X18.0927 Y-3.5155
G01 X18.0401 Y-3.5453
G01 X17.9780 Y-3.5762
G01 X17.9693 Y-3.5816
G01 X17.9590 Y-3.5907
G01 X17.9511 Y-3.6009
G01 X17.9453 Y-3.6124
G01 X17.9416 Y-3.6247
G01 X17.9403 Y-3.6384
G01 X17.9406 Y-6.2892
G01 X17.9435 Y-6.3035
G01 X17.9494 Y-6.3169
G01 X17.9578 Y-6.3287
G01 X17.9686 Y-6.3386
G01 X17.9780 Y-6.3445
G01 X18.0398 Y-6.3753
G01 X18.0923 Y-6.4050
G01 X18.1433 Y-6.4373
G01 X18.1927 Y-6.4721
G01 X18.2403 Y-6.5092
G01 X18.2860 Y-6.5486
G01 X18.3297 Y-6.5903
G01 X18.3714 Y-6.6340
G01 X18.4108 Y-6.6797
G01 X18.4479 Y-6.7273
G01 X18.4827 Y-6.7767
G01 X18.5150 Y-6.8277
G01 X18.5447 Y-6.8802
G01 X18.5719 Y-6.9341
G01 X18.5964 Y-6.9893
G01 X18.6181 Y-7.0456
G01 X18.6370 Y-7.1030
G01 X18.6435 Y-7.1262
G01 X18.6491 Y-7.1387
G01 X18.6564 Y-7.1493
G01 X18.6663 Y-7.1589
G01 X18.6778 Y-7.1664
G01 X18.6905 Y-7.1715
G01 X18.7006 Y-7.1736
G01 X18.7117 Y-7.1742
G01 X18.7228 Y-7.1730
G01 X18.7336 Y-7.1701
G01 X18.7438 Y-7.1656
G01 X18.7531 Y-7.1594
G01 X18.7613 Y-7.1519
G01 X18.7682 Y-7.1431
G01 X18.7725 Y-7.1357
G01 X18.7759 Y-7.1278
G01 X18.7830 Y-7.1030
G01 X18.8019 Y-7.0456
G01 X18.8236 Y-6.9893
G01 X18.8481 Y-6.9341
G01 X18.8753 Y-6.8802
G01 X18.9050 Y-6.8277
G01 X18.9373 Y-6.7767
G01 X18.9721 Y-6.7273
G01 X19.0092 Y-6.6797
G01 X19.0486 Y-6.6340
G01 X19.0633 Y-6.6186
G01 X19.0633 Y-6.8766
G01 X19.0422 Y-6.9099
G01 X19.0172 Y-6.9541
G01 X18.9927 Y-7.0025
G01 X18.9708 Y-7.0521
G01 X18.9525 Y-7.0995
G01 X18.9361 Y-7.1494
G01 X18.9217 Y-7.2017
G01 X18.9106 Y-7.2513
G01 X18.9016 Y-7.3030
G01 X18.8952 Y-7.3551
G01 X18.8914 Y-7.4058
G01 X18.8900 Y-7.4600
G01 X18.8913 Y-7.5125
G01 X18.8950 Y-7.5632
G01 X18.9016 Y-7.6170
G01 X18.9109 Y-7.6704
G01 X18.9221 Y-7.7200
G01 X18.9361 Y-7.7706
G01 X18.9525 Y-7.8205
G01 X18.9708 Y-7.8679
G01 X18.9927 Y-7.9175
G01 X19.0172 Y-7.9659
G01 X19.0422 Y-8.0101
G01 X19.0633 Y-8.0434
G01 X19.0633 Y-8.3014
G01 X19.0486 Y-8.2860
G01 X19.0092 Y-8.2403
G01 X18.9721 Y-8.1927
G01 X18.9373 Y-8.1433
G01 X18.9050 Y-8.0923
G01 X18.8753 Y-8.0398
G01 X18.8481 Y-7.9859
G01 X18.8236 Y-7.9307
G01 X18.8019 Y-7.8744
G01 X18.7830 Y-7.8170
G01 X18.7759 Y-7.7922
G01 X18.7725 Y-7.7843
G01 X18.7682 Y-7.7769
G01 X18.7613 Y-7.7681
G01 X18.7537 Y-7.7611
G01 X18.7452 Y-7.7553
G01 X18.7360 Y-7.7508
G01 X18.7262 Y-7.7477
G01 X18.7160 Y-7.7460
G01 X18.7057 Y-7.7459
G01 X18.6947 Y-7.7475
G01 X18.6808 Y-7.7521
G01 X18.6683 Y-7.7595
G01 X18.6576 Y-7.7694
G01 X18.6487 Y-7.7820
G01 X18.6435 Y-7.7938
G01 X18.6370 Y-7.8170
G01 X18.6181 Y-7.8744
G01 X18.5964 Y-7.9307
G01 X18.5719 Y-7.9859
G01 X18.5447 Y-8.0398
G01 X18.5150 Y-8.0923
G01 X18.4827 Y-8.1433
G01 X18.4479 Y-8.1927
G01 X18.4108 Y-8.2403
G01 X18.3714 Y-8.2860
G01 X18.3297 Y-8.3297
G01 X18.2860 Y-8.3714
G01 X18.2403 Y-8.4108
G01 X18.1927 Y-8.4479
G01 X18.1433 Y-8.4827
G01 X18.0923 Y-8.5150
G01 X18.0398 Y-8.5447
G01 X17.9859 Y-8.5719
G01 X17.9307 Y-8.5964
G01 X17.8744 Y-8.6181
G01 X17.8170 Y-8.6370
G01 X17.7589 Y-8.6531
G01 X17.7000 Y-8.6663
G01 X17.6405 Y-8.6767
G01 X17.5806 Y-8.6841
G01 X17.5204 Y-8.6885
G01 X17.4600 Y-8.6900
G01 X17.3996 Y-8.6885
G01 X17.3394 Y-8.6841
G01 X17.2795 Y-8.6767
G01 X17.2200 Y-8.6663
G01 X17.1611 Y-8.6531
G01 X17.1030 Y-8.6370
G01 X17.0456 Y-8.6181
G01 X16.9893 Y-8.5964
G01 X16.9341 Y-8.5719
G01 X16.8802 Y-8.5447
G01 X16.8277 Y-8.5150
G01 X16.7767 Y-8.4827
G01 X16.7273 Y-8.4479
G01 X16.6797 Y-8.4108
G01 X16.6340 Y-8.3714
G01 X16.5903 Y-8.3297
G01 X16.5486 Y-8.2860
G01 X16.5092 Y-8.2403
G01 X16.4721 Y-8.1927
G01 X16.4373 Y-8.1433
G01 X16.4050 Y-8.0923
G01 X16.3753 Y-8.0398
G01 X16.3481 Y-7.9859
G01 X16.3236 Y-7.9307
G01 X16.3019 Y-7.8744
G01 X16.2830 Y-7.8170
G01 X16.2669 Y-7.7589
G01 X16.2537 Y-7.7000
G01 X16.2433 Y-7.6405
G01 X16.2359 Y-7.5806
G01 X16.2315 Y-7.5204
G01 X16.2300 Y-7.4600
G01 X16.2315 Y-7.3996
G01 X16.2359 Y-7.3394
G01 X16.2433 Y-7.2795
G01 X16.2537 Y-7.2200
G01 X16.2669 Y-7.1611
G01 X16.2830 Y-7.1030
G01 X16.3019 Y-7.0456
G01 X16.3236 Y-6.9893
G01 X16.3481 Y-6.9341
G01 X16.3753 Y-6.8802
G01 X16.4050 Y-6.8277
G01 X16.4373 Y-6.7767
G01 X16.4721 Y-6.7273
G01 X16.5092 Y-6.6797
G01 X16.5486 Y-6.6340
G01 X16.5903 Y-6.5903
G01 X16.6340 Y-6.5486
G01 X16.6797 Y-6.5092
G01 X16.7273 Y-6.4721
G01 X16.7767 Y-6.4373
G01 X16.8277 Y-6.4050
G01 X16.8802 Y-6.3753
G01 X16.9420 Y-6.3445
G01 X16.9535 Y-6.3370
G01 X16.9627 Y-6.3281
G01 X16.9706 Y-6.3169
G01 X16.9759 Y-6.3051
G01 X16.9791 Y-6.2918
G01 X16.9797 Y-6.2824
G01 X16.9797 Y-3.7598
G01 X16.9776 Y-3.7436
G01 X16.9723 Y-3.7292
G01 X16.9633 Y-3.7156
G01 X16.9521 Y-3.7049
G01 X16.9427 Y-3.6989
G01 X16.9317 Y-3.6942
G01 X16.9208 Y-3.6915
G01 X16.9097 Y-3.6907
G01 X13.0103 Y-3.6907
G01 X12.9966 Y-3.6920
G01 X12.9835 Y-3.6960
G01 X12.9721 Y-3.7020
G01 X12.9614 Y-3.7105
G01 X12.9526 Y-3.7210
G01 X12.9463 Y-3.7323
G01 X12.9420 Y-3.7453
G01 X12.9403 Y-3.7589
G01 X12.9403 Y-6.2824
G01 X12.9409 Y-6.2918
G01 X12.9438 Y-6.3043
G01 X12.9494 Y-6.3169
G01 X12.9567 Y-6.3274
G01 X12.9665 Y-6.3370
G01 X12.9780 Y-6.3445
G01 X13.0398 Y-6.3753
G01 X13.0923 Y-6.4050
G01 X13.1433 Y-6.4373
G01 X13.1927 Y-6.4721
G01 X13.2403 Y-6.5092
G01 X13.2860 Y-6.5486
G01 X13.3297 Y-6.5903
G01 X13.3714 Y-6.6340
G01 X13.4108 Y-6.6797
G01 X13.4479 Y-6.7273
G01 X13.4827 Y-6.7767
G01 X13.5150 Y-6.8277
G01 X13.5447 Y-6.8802
G01 X13.5719 Y-6.9341
G01 X13.5964 Y-6.9893
G01 X13.6181 Y-7.0456
G01 X13.6370 Y-7.1030
G01 X13.6531 Y-7.1611
G01 X13.6663 Y-7.2200
G01 X13.6767 Y-7.2795
G01 X13.6841 Y-7.3394
G01 X13.6885 Y-7.3996
G01 X13.6900 Y-7.4600
G01 X13.6885 Y-7.5204
G01 X13.6841 Y-7.5806
G01 X13.6767 Y-7.6405
G01 X13.6663 Y-7.7000
G01 X13.6531 Y-7.7589
G01 X13.6370 Y-7.8170
G01 X13.6181 Y-7.8744
G01 X13.5964 Y-7.9307
G01 X13.5719 Y-7.9859
G01 X13.5447 Y-8.0398
G01 X13.5150 Y-8.0923
G01 X13.4827 Y-8.1433
G01 X13.4479 Y-8.1927
G01 X13.4108 Y-8.2403
G01 X13.3714 Y-8.2860
G01 X13.3297 Y-8.3297
G01 X13.2860 Y-8.3714
G01 X13.2403 Y-8.4108
G01 X13.1927 Y-8.4479
G01 X13.1433 Y-8.4827
G01 X13.0923 Y-8.5150
G01 X13.0398 Y-8.5447
G01 X12.9859 Y-8.5719
G01 X12.9307 Y-8.5964
G01 X12.8744 Y-8.6181
G01 X12.8170 Y-8.6370
G01 X12.7589 Y-8.6531
G01 X12.7000 Y-8.6663
G01 X12.6405 Y-8.6767
G01 X12.5806 Y-8.6841
G01 X12.5204 Y-8.6885
G01 X12.4600 Y-8.6900
G01 X12.3996 Y-8.6885
G01 X12.3394 Y-8.6841
G01 X12.2795 Y-8.6767
G01 X12.2200 Y-8.6663
G01 X12.1611 Y-8.6531
G01 X12.1030 Y-8.6370
G01 X12.0456 Y-8.6181
G01 X11.9893 Y-8.5964
G01 X11.9341 Y-8.5719
G01 X11.8802 Y-8.5447
G01 X11.8277 Y-8.5150
G01 X11.7767 Y-8.4827
G01 X11.7273 Y-8.4479
G01 X11.6797 Y-8.4108
G01 X11.6340 Y-8.3714
G01 X11.5903 Y-8.3297
G01 X11.5486 Y-8.2860
G01 X11.5092 Y-8.2403
G01 X11.4721 Y-8.1927
G01 X11.4373 Y-8.1433
G01 X11.4050 Y-8.0923
G01 X11.3753 Y-8.0398
G01 X11.3481 Y-7.9859
G01 X11.3236 Y-7.9307
G01 X11.3019 Y-7.8744
G01 X11.2830 Y-7.8170
G01 X11.2765 Y-7.7938
G01 X11.2713 Y-7.7820
G01 X11.2630 Y-7.7700
G01 X11.2524 Y-7.7601
G01 X11.2399 Y-7.7525
G01 X11.2253 Y-7.7475
G01 X11.2151 Y-7.7460
G01 X11.2049 Y-7.7460
G01 X11.1947 Y-7.7475
G01 X11.1840 Y-7.7508
G01 X11.1748 Y-7.7553
G01 X11.1656 Y-7.7617
G01 X11.1581 Y-7.7688
G01 X11.1518 Y-7.7769
G01 X11.1475 Y-7.7843
G01 X11.1441 Y-7.7922
G01 X11.1370 Y-7.8170
G01 X11.1181 Y-7.8744
G01 X11.0964 Y-7.9307
G01 X11.0719 Y-7.9859
G01 X11.0447 Y-8.0398
G01 X11.0150 Y-8.0923
G01 X10.9827 Y-8.1433
G01 X10.9479 Y-8.1927
G01 X10.9108 Y-8.2403
G01 X10.8714 Y-8.2860
G01 X10.8567 Y-8.3014
G00 Z2.0000
G00 X11.1601 Y-7.6118
G01 F60.00
G01 Z-0.0746
G01 F120.00
G01 X11.1644 Y-7.5760
G01 X11.1684 Y-7.5219
G01 X11.1700 Y-7.4600
G01 X11.1684 Y-7.3981
G01 X11.1644 Y-7.3440
G01 X11.1601 Y-7.3082
G01 X11.1843 Y-7.3127
G01 X11.2100 Y-7.3142
G01 X11.2357 Y-7.3127
G01 X11.2599 Y-7.3082
G01 X11.2556 Y-7.3440
G01 X11.2516 Y-7.3981
G01 X11.2500 Y-7.4600
G01 X11.2516 Y-7.5219
G01 X11.2556 Y-7.5760
G01 X11.2599 Y-7.6118
G01 X11.2357 Y-7.6073
G01 X11.2100 Y-7.6058
G01 X11.1843 Y-7.6073
G01 X11.1601 Y-7.6118
G00 Z2.0000
G00 X10.9267 Y-6.8563
G01 F60.00
G01 Z-0.0746
G01 F120.00
G01 X10.9267 Y-6.8191
G01 X10.9549 Y-6.8637
G01 X10.9830 Y-6.9132
G01 X11.0086 Y-6.9641
G01 X11.0317 Y-7.0161
G01 X11.0522 Y-7.0692
G01 X11.0807 Y-7.1578
G01 X11.0857 Y-7.1687
G01 X11.0917 Y-7.1791
G01 X11.0996 Y-7.1904
G01 X11.1074 Y-7.1995
G01 X11.1239 Y-7.2146
G01 X11.1425 Y-7.2269
G01 X11.1628 Y-7.2360
G01 X11.1844 Y-7.2419
G01 X11.2066 Y-7.2442
G01 X11.2288 Y-7.2430
G01 X11.2506 Y-7.2382
G01 X11.2714 Y-7.2300
G01 X11.2892 Y-7.2197
G01 X11.3053 Y-7.2068
G01 X11.3193 Y-7.1917
G01 X11.3310 Y-7.1747
G01 X11.3373 Y-7.1625
G01 X11.3418 Y-7.1514
G01 X11.3500 Y-7.1233
G01 X11.3678 Y-7.0692
G01 X11.3883 Y-7.0161
G01 X11.4114 Y-6.9641
G01 X11.4370 Y-6.9132
G01 X11.4651 Y-6.8637
G01 X11.4955 Y-6.8156
G01 X11.5283 Y-6.7690
G01 X11.5633 Y-6.7241
G01 X11.6005 Y-6.6810
G01 X11.6398 Y-6.6398
G01 X11.6810 Y-6.6005
G01 X11.7241 Y-6.5633
G01 X11.7690 Y-6.5283
G01 X11.8156 Y-6.4955
G01 X11.8637 Y-6.4651
G01 X11.9132 Y-6.4370
G01 X11.9772 Y-6.4050
G01 X11.9903 Y-6.3968
G01 X12.0012 Y-6.3884
G01 X12.0099 Y-6.3801
G01 X12.0179 Y-6.3712
G01 X12.0261 Y-6.3601
G01 X12.0324 Y-6.3499
G01 X12.0377 Y-6.3391
G01 X12.0421 Y-6.3279
G01 X12.0455 Y-6.3164
G01 X12.0479 Y-6.3046
G01 X12.0497 Y-6.2824
G01 X12.0497 Y-3.6384
G01 X12.0491 Y-3.6246
G01 X12.0470 Y-3.6110
G01 X12.0442 Y-3.5994
G01 X12.0403 Y-3.5880
G01 X12.0355 Y-3.5769
G01 X12.0298 Y-3.5664
G01 X12.0232 Y-3.5563
G01 X12.0157 Y-3.5469
G01 X12.0075 Y-3.5382
G01 X11.9972 Y-3.5291
G01 X11.9875 Y-3.5220
G01 X11.9772 Y-3.5157
G01 X11.9129 Y-3.4836
G01 X11.8633 Y-3.4555
G01 X11.8152 Y-3.4250
G01 X11.7686 Y-3.3922
G01 X11.7237 Y-3.3572
G01 X11.6806 Y-3.3200
G01 X11.6393 Y-3.2807
G01 X11.6000 Y-3.2394
G01 X11.5628 Y-3.1963
G01 X11.5278 Y-3.1514
G01 X11.4950 Y-3.1048
G01 X11.4645 Y-3.0567
G01 X11.4364 Y-3.0071
G01 X11.4108 Y-2.9562
G01 X11.3877 Y-2.9041
G01 X11.3672 Y-2.8510
G01 X11.3494 Y-2.7969
G01 X11.3342 Y-2.7420
G01 X11.3217 Y-2.6864
G01 X11.3120 Y-2.6303
G01 X11.3050 Y-2.5738
G01 X11.3008 Y-2.5169
G01 X11.2994 Y-2.4600
G01 X11.3008 Y-2.4031
G01 X11.3050 Y-2.3462
G01 X11.3120 Y-2.2897
G01 X11.3217 Y-2.2336
G01 X11.3342 Y-2.1780
G01 X11.3494 Y-2.1231
G01 X11.3672 Y-2.0690
G01 X11.3877 Y-2.0159
G01 X11.4108 Y-1.9638
G01 X11.4364 Y-1.9129
G01 X11.4645 Y-1.8633
G01 X11.4950 Y-1.8152
G01 X11.5278 Y-1.7686
G01 X11.5628 Y-1.7237
G01 X11.6000 Y-1.6806
G01 X11.6393 Y-1.6393
G01 X11.6806 Y-1.6000
G01 X11.7237 Y-1.5628
G01 X11.7686 Y-1.5278
G01 X11.8152 Y-1.4950
G01 X11.8633 Y-1.4645
G01 X11.9129 Y-1.4364
G01 X11.9638 Y-1.4108
G01 X12.0159 Y-1.3877
G01 X12.0690 Y-1.3672
G01 X12.1231 Y-1.3494
G01 X12.1780 Y-1.3342
G01 X12.2336 Y-1.3217
G01 X12.2897 Y-1.3120
G01 X12.3462 Y-1.3050
G01 X12.4031 Y-1.3008
G01 X12.4617 Y-1.2993
G01 X17.4583 Y-1.2993
G01 X17.5169 Y-1.3008
G01 X17.5738 Y-1.3050
G01 X17.6303 Y-1.3120
G01 X17.6864 Y-1.3217
G01 X17.7420 Y-1.3342
G01 X17.7969 Y-1.3494
G01 X17.8510 Y-1.3672
G01 X17.9041 Y-1.3877
G01 X17.9562 Y-1.4108
G01 X18.0071 Y-1.4364
G01 X18.0567 Y-1.4645
G01 X18.1048 Y-1.4950
G01 X18.1514 Y-1.5278
G01 X18.1963 Y-1.5628
G01 X18.2394 Y-1.6000
G01 X18.2807 Y-1.6393
G01 X18.3200 Y-1.6806
G01 X18.3572 Y-1.7237
G01 X18.3922 Y-1.7686
G01 X18.4250 Y-1.8152
G01 X18.4555 Y-1.8633
G01 X18.4836 Y-1.9129
G01 X18.5092 Y-1.9638
G01 X18.5323 Y-2.0159
G01 X18.5528 Y-2.0690
G01 X18.5706 Y-2.1231
G01 X18.5858 Y-2.1780
G01 X18.5983 Y-2.2336
G01 X18.6080 Y-2.2897
G01 X18.6150 Y-2.3462
G01 X18.6192 Y-2.4031
G01 X18.6206 Y-2.4600
G01 X18.6192 Y-2.5169
G01 X18.6150 Y-2.5738
G01 X18.6080 Y-2.6303
G01 X18.5983 Y-2.6864
G01 X18.5858 Y-2.7420
G01 X18.5706 Y-2.7969
G01 X18.5528 Y-2.8510
G01 X18.5323 Y-2.9041
G01 X18.5092 Y-2.9562
G01 X18.4836 Y-3.0071
G01 X18.4555 Y-3.0567
G01 X18.4250 Y-3.1048
G01 X18.3922 Y-3.1514
G01 X18.3572 Y-3.1963
G01 X18.3200 Y-3.2394
G01 X18.2807 Y-3.2807
G01 X18.2394 Y-3.3200
G01 X18.1963 Y-3.3572
G01 X18.1514 Y-3.3922
G01 X18.1048 Y-3.4250
G01 X18.0567 Y-3.4555
G01 X18.0071 Y-3.4836
G01 X17.9413 Y-3.5165
G01 X17.9297 Y-3.5239
G01 X17.9175 Y-3.5335
G01 X17.9077 Y-3.5431
G01 X17.8999 Y-3.5522
G01 X17.8929 Y-3.5620
G01 X17.8868 Y-3.5724
G01 X17.8816 Y-3.5832
G01 X17.8768 Y-3.5961
G01 X17.8733 Y-3.6094
G01 X17.8713 Y-3.6212
G01 X17.8703 Y-3.6384
G01 X17.8703 Y-6.2824
G01 X17.8708 Y-6.2944
G01 X17.8726 Y-6.3080
G01 X17.8753 Y-6.3197
G01 X17.8797 Y-6.3327
G01 X17.8852 Y-6.3453
G01 X17.8920 Y-6.3573
G01 X17.8989 Y-6.3671
G01 X17.9077 Y-6.3776
G01 X17.9175 Y-6.3872
G01 X17.9297 Y-6.3968
G01 X17.9413 Y-6.4042
G01 X18.0068 Y-6.4370
G01 X18.0563 Y-6.4651
G01 X18.1044 Y-6.4955
G01 X18.1510 Y-6.5283
G01 X18.1959 Y-6.5633
G01 X18.2390 Y-6.6005
G01 X18.2802 Y-6.6398
G01 X18.3195 Y-6.6810
G01 X18.3567 Y-6.7241
G01 X18.3917 Y-6.7690
G01 X18.4245 Y-6.8156
G01 X18.4549 Y-6.8637
G01 X18.4830 Y-6.9132
G01 X18.5086 Y-6.9641
G01 X18.5317 Y-7.0161
G01 X18.5522 Y-7.0692
G01 X18.5700 Y-7.1233
G01 X18.5782 Y-7.1514
G01 X18.5834 Y-7.1641
G01 X18.5890 Y-7.1747
G01 X18.6007 Y-7.1917
G01 X18.6147 Y-7.2068
G01 X18.6308 Y-7.2197
G01 X18.6501 Y-7.2308
G01 X18.6612 Y-7.2355
G01 X18.6727 Y-7.2392
G01 X18.6946 Y-7.2434
G01 X18.7066 Y-7.2442
G01 X18.7186 Y-7.2440
G01 X18.7407 Y-7.2408
G01 X18.7620 Y-7.2342
G01 X18.7729 Y-7.2293
G01 X18.7834 Y-7.2234
G01 X18.8014 Y-7.2102
G01 X18.8171 Y-7.1944
G01 X18.8301 Y-7.1762
G01 X18.8393 Y-7.1578
G01 X18.8678 Y-7.0692
G01 X18.8883 Y-7.0161
G01 X18.9114 Y-6.9641
G01 X18.9370 Y-6.9132
G01 X18.9651 Y-6.8637
G01 X18.9933 Y-6.8191
G01 X18.9933 Y-6.8563
G01 X18.9813 Y-6.8754
G01 X18.9538 Y-6.9241
G01 X18.9295 Y-6.9726
G01 X18.9074 Y-7.0222
G01 X18.8855 Y-7.0792
G01 X18.8691 Y-7.1291
G01 X18.8550 Y-7.1797
G01 X18.8419 Y-7.2376
G01 X18.8319 Y-7.2961
G01 X18.8255 Y-7.3483
G01 X18.8216 Y-7.4006
G01 X18.8200 Y-7.4600
G01 X18.8216 Y-7.5194
G01 X18.8255 Y-7.5717
G01 X18.8319 Y-7.6239
G01 X18.8419 Y-7.6824
G01 X18.8550 Y-7.7403
G01 X18.8691 Y-7.7909
G01 X18.8855 Y-7.8408
G01 X18.9074 Y-7.8978
G01 X18.9295 Y-7.9474
G01 X18.9538 Y-7.9959
G01 X18.9813 Y-8.0446
G01 X18.9933 Y-8.0637
G01 X18.9933 Y-8.1009
G01 X18.9651 Y-8.0563
G01 X18.9370 Y-8.0068
G01 X18.9114 Y-7.9559
G01 X18.8883 Y-7.9039
G01 X18.8678 Y-7.8508
G01 X18.8500 Y-7.7967
G01 X18.8440 Y-7.7751
G01 X18.8400 Y-7.7638
G01 X18.8318 Y-7.7468
G01 X18.8204 Y-7.7296
G01 X18.8053 Y-7.7132
G01 X18.7892 Y-7.7003
G01 X18.7714 Y-7.6900
G01 X18.7506 Y-7.6818
G01 X18.7288 Y-7.6770
G01 X18.7083 Y-7.6758
G01 X18.6861 Y-7.6778
G01 X18.6661 Y-7.6828
G01 X18.6533 Y-7.6878
G01 X18.6425 Y-7.6931
G01 X18.6322 Y-7.6994
G01 X18.6212 Y-7.7075
G01 X18.6110 Y-7.7168
G01 X18.6029 Y-7.7256
G01 X18.5955 Y-7.7352
G01 X18.5890 Y-7.7453
G01 X18.5827 Y-7.7575
G01 X18.5776 Y-7.7702
G01 X18.5700 Y-7.7967
G01 X18.5522 Y-7.8508
G01 X18.5317 Y-7.9039
G01 X18.5086 Y-7.9559
G01 X18.4830 Y-8.0068
G01 X18.4549 Y-8.0563
G01 X18.4245 Y-8.1044
G01 X18.3917 Y-8.1510
G01 X18.3567 Y-8.1959
G01 X18.3195 Y-8.2390
G01 X18.2802 Y-8.2802
G01 X18.2390 Y-8.3195
G01 X18.1959 Y-8.3567
G01 X18.1510 Y-8.3917
G01 X18.1044 Y-8.4245
G01 X18.0563 Y-8.4549
G01 X18.0068 Y-8.4830
G01 X17.9559 Y-8.5086
G01 X17.9039 Y-8.5317
G01 X17.8508 Y-8.5522
G01 X17.7967 Y-8.5700
G01 X17.7418 Y-8.5852
G01 X17.6863 Y-8.5977
G01 X17.6302 Y-8.6074
G01 X17.5737 Y-8.6144
G01 X17.5169 Y-8.6186
G01 X17.4600 Y-8.6200
G01 X17.4031 Y-8.6186
G01 X17.3463 Y-8.6144
G01 X17.2898 Y-8.6074
G01 X17.2337 Y-8.5977
G01 X17.1782 Y-8.5852
G01 X17.1233 Y-8.5700
G01 X17.0692 Y-8.5522
G01 X17.0161 Y-8.5317
G01 X16.9641 Y-8.5086
G01 X16.9132 Y-8.4830
G01 X16.8637 Y-8.4549
G01 X16.8156 Y-8.4245
G01 X16.7690 Y-8.3917
G01 X16.7241 Y-8.3567
G01 X16.6810 Y-8.3195
G01 X16.6398 Y-8.2802
G01 X16.6005 Y-8.2390
G01 X16.5633 Y-8.1959
G01 X16.5283 Y-8.1510
G01 X16.4955 Y-8.1044
G01 X16.4651 Y-8.0563
G01 X16.4370 Y-8.0068
G01 X16.4114 Y-7.9559
G01 X16.3883 Y-7.9039
G01 X16.3678 Y-7.8508
G01 X16.3500 Y-7.7967
G01 X16.3348 Y-7.7418
G01 X16.3223 Y-7.6863
G01 X16.3126 Y-7.6302
G01 X16.3056 Y-7.5737
G01 X16.3014 Y-7.5169
G01 X16.3000 Y-7.4600
G01 X16.3014 Y-7.4031
G01 X16.3056 Y-7.3463
G01 X16.3126 Y-7.2898
G01 X16.3223 Y-7.2337
G01 X16.3348 Y-7.1782
G01 X16.3500 Y-7.1233
G01 X16.3678 Y-7.0692
G01 X16.3883 Y-7.0161
G01 X16.4114 Y-6.9641
G01 X16.4370 Y-6.9132
G01 X16.4651 Y-6.8637
G01 X16.4955 Y-6.8156
G01 X16.5283 Y-6.7690
G01 X16.5633 Y-6.7241
G01 X16.6005 Y-6.6810
G01 X16.6398 Y-6.6398
G01 X16.6810 Y-6.6005
G01 X16.7241 Y-6.5633
G01 X16.7690 Y-6.5283
G01 X16.8156 Y-6.4955
G01 X16.8637 Y-6.4651
G01 X16.9132 Y-6.4370
G01 X16.9772 Y-6.4050
G01 X16.9889 Y-6.3978
G01 X16.9999 Y-6.3895
G01 X17.0099 Y-6.3801
G01 X17.0179 Y-6.3712
G01 X17.0252 Y-6.3616
G01 X17.0324 Y-6.3499
G01 X17.0377 Y-6.3391
G01 X17.0427 Y-6.3263
G01 X17.0463 Y-6.3130
G01 X17.0487 Y-6.2995
G01 X17.0497 Y-6.2824
G01 X17.0496 Y-3.7538
G01 X17.0485 Y-3.7418
G01 X17.0463 Y-3.7300
G01 X17.0432 Y-3.7184
G01 X17.0391 Y-3.7071
G01 X17.0340 Y-3.6962
G01 X17.0280 Y-3.6858
G01 X17.0211 Y-3.6759
G01 X17.0135 Y-3.6666
G01 X17.0050 Y-3.6581
G01 X16.9959 Y-3.6503
G01 X16.9861 Y-3.6433
G01 X16.9757 Y-3.6372
G01 X16.9649 Y-3.6320
G01 X16.9536 Y-3.6277
G01 X16.9421 Y-3.6244
G01 X16.9303 Y-3.6222
G01 X16.9097 Y-3.6207
G01 X13.0086 Y-3.6207
G01 X12.9931 Y-3.6217
G01 X12.9779 Y-3.6244
G01 X12.9631 Y-3.6288
G01 X12.9489 Y-3.6348
G01 X12.9354 Y-3.6424
G01 X12.9228 Y-3.6513
G01 X12.9113 Y-3.6617
G01 X12.9010 Y-3.6732
G01 X12.8885 Y-3.6916
G01 X12.8830 Y-3.7024
G01 X12.8785 Y-3.7135
G01 X12.8749 Y-3.7250
G01 X12.8723 Y-3.7367
G01 X12.8703 Y-3.7589
G01 X12.8703 Y-6.2824
G01 X12.8708 Y-6.2944
G01 X12.8726 Y-6.3080
G01 X12.8753 Y-6.3197
G01 X12.8797 Y-6.3327
G01 X12.8845 Y-6.3438
G01 X12.8902 Y-6.3543
G01 X12.8968 Y-6.3644
G01 X12.9043 Y-6.3738
G01 X12.9125 Y-6.3826
G01 X12.9228 Y-6.3917
G01 X12.9325 Y-6.3988
G01 X12.9428 Y-6.4050
G01 X13.0068 Y-6.4370
G01 X13.0563 Y-6.4651
G01 X13.1044 Y-6.4955
G01 X13.1510 Y-6.5283
G01 X13.1959 Y-6.5633
G01 X13.2390 Y-6.6005
G01 X13.2802 Y-6.6398
G01 X13.3195 Y-6.6810
G01 X13.3567 Y-6.7241
G01 X13.3917 Y-6.7690
G01 X13.4245 Y-6.8156
G01 X13.4549 Y-6.8637
G01 X13.4830 Y-6.9132
G01 X13.5086 Y-6.9641
G01 X13.5317 Y-7.0161
G01 X13.5522 Y-7.0692
G01 X13.5700 Y-7.1233
G01 X13.5852 Y-7.1782
G01 X13.5977 Y-7.2337
G01 X13.6074 Y-7.2898
G01 X13.6144 Y-7.3463
G01 X13.6186 Y-7.4031
G01 X13.6200 Y-7.4600
G01 X13.6186 Y-7.5169
G01 X13.6144 Y-7.5737
G01 X13.6074 Y-7.6302
G01 X13.5977 Y-7.6863
G01 X13.5852 Y-7.7418
G01 X13.5700 Y-7.7967
G01 X13.5522 Y-7.8508
G01 X13.5317 Y-7.9039
G01 X13.5086 Y-7.9559
G01 X13.4830 Y-8.0068
G01 X13.4549 Y-8.0563
G01 X13.4245 Y-8.1044
G01 X13.3917 Y-8.1510
G01 X13.3567 Y-8.1959
G01 X13.3195 Y-8.2390
G01 X13.2802 Y-8.2802
G01 X13.2390 Y-8.3195
G01 X13.1959 Y-8.3567
G01 X13.1510 Y-8.3917
G01 X13.1044 Y-8.4245
G01 X13.0563 Y-8.4549
G01 X13.0068 Y-8.4830
G01 X12.9559 Y-8.5086
G01 X12.9039 Y-8.5317
G01 X12.8508 Y-8.5522
G01 X12.7967 Y-8.5700
G01 X12.7418 Y-8.5852
G01 X12.6863 Y-8.5977
G01 X12.6302 Y-8.6074
G01 X12.5737 Y-8.6144
G01 X12.5169 Y-8.6186
G01 X12.4600 Y-8.6200
G01 X12.4031 Y-8.6186
G01 X12.3463 Y-8.6144
G01 X12.2898 Y-8.6074
G01 X12.2337 Y-8.5977
G01 X12.1782 Y-8.5852
G01 X12.1233 Y-8.5700
G01 X12.0692 Y-8.5522
G01 X12.0161 Y-8.5317
G01 X11.9641 Y-8.5086
G01 X11.9132 Y-8.4830
G01 X11.8637 Y-8.4549
G01 X11.8156 Y-8.4245
G01 X11.7690 Y-8.3917
G01 X11.7241 Y-8.3567
G01 X11.6810 Y-8.3195
G01 X11.6398 Y-8.2802
G01 X11.6005 Y-8.2390
G01 X11.5633 Y-8.1959
G01 X11.5283 Y-8.1510
G01 X11.4955 Y-8.1044
G01 X11.4651 Y-8.0563
G01 X11.4370 Y-8.0068
G01 X11.4114 Y-7.9559
G01 X11.3883 Y-7.9039
G01 X11.3678 Y-7.8508
G01 X11.3500 Y-7.7967
G01 X11.3412 Y-7.7670
G01 X11.3351 Y-7.7528
G01 X11.3274 Y-7.7394
G01 X11.3193 Y-7.7283
G01 X11.3102 Y-7.7180
G01 X11.3001 Y-7.7086
G01 X11.2878 Y-7.6994
G01 X11.2760 Y-7.6923
G01 X11.2620 Y-7.6858
G01 X11.2490 Y-7.6813
G01 X11.2356 Y-7.6781
G01 X11.2169 Y-7.6759
G01 X11.1963 Y-7.6764
G01 X11.1777 Y-7.6796
G01 X11.1580 Y-7.6858
G01 X11.1410 Y-7.6940
G01 X11.1239 Y-7.7054
G01 X11.1086 Y-7.7192
G01 X11.0965 Y-7.7338
G01 X11.0874 Y-7.7483
G01 X11.0800 Y-7.7638
G01 X11.0760 Y-7.7751
G01 X11.0700 Y-7.7967
G01 X11.0522 Y-7.8508
G01 X11.0317 Y-7.9039
G01 X11.0086 Y-7.9559
G01 X10.9830 Y-8.0068
G01 X10.9549 Y-8.0563
G01 X10.9267 Y-8.1009
G01 X10.9267 Y-8.0637
G01 X10.9387 Y-8.0446
G01 X10.9662 Y-7.9959
G01 X10.9905 Y-7.9474
G01 X11.0126 Y-7.8978
G01 X11.0345 Y-7.8408
G01 X11.0509 Y-7.7909
G01 X11.0650 Y-7.7403
G01 X11.0781 Y-7.6824
G01 X11.0881 Y-7.6239
G01 X11.0945 Y-7.5717
G01 X11.0984 Y-7.5194
G01 X11.1000 Y-7.4600
G01 X11.0984 Y-7.4006
G01 X11.0945 Y-7.3483
G01 X11.0877 Y-7.2927
G01 X11.0774 Y-7.2342
G01 X11.0658 Y-7.1830
G01 X11.0514 Y-7.1307
G01 X11.0322 Y-7.0727
G01 X11.0132 Y-7.0237
G01 X10.9913 Y-6.9741
G01 X10.9646 Y-6.9211
G01 X10.9387 Y-6.8754
G01 X10.9267 Y-6.8563
G00 Z2.0000
G00 X12.0699 Y-6.3889
G01 F60.00
G01 Z-0.0746
G01 F120.00
G01 X12.0237 Y-6.4068
G01 X11.9726 Y-6.4295
G01 X11.9226 Y-6.4546
G01 X11.8739 Y-6.4822
G01 X11.8266 Y-6.5121
G01 X11.7809 Y-6.5443
G01 X11.7368 Y-6.5788
G01 X11.6944 Y-6.6153
G01 X11.6539 Y-6.6539
G01 X11.6153 Y-6.6944
G01 X11.5788 Y-6.7368
G01 X11.5443 Y-6.7809
G01 X11.5121 Y-6.8266
G01 X11.4822 Y-6.8739
G01 X11.4546 Y-6.9226
G01 X11.4295 Y-6.9726
G01 X11.4068 Y-7.0237
G01 X11.3866 Y-7.0759
G01 X11.3691 Y-7.1291
G01 X11.3542 Y-7.1830
G01 X11.3419 Y-7.2376
G01 X11.3323 Y-7.2927
G01 X11.3255 Y-7.3483
G01 X11.3214 Y-7.4041
G01 X11.3200 Y-7.4600
G01 X11.3214 Y-7.5159
G01 X11.3255 Y-7.5717
G01 X11.3323 Y-7.6273
G01 X11.3419 Y-7.6824
G01 X11.3542 Y-7.7370
G01 X11.3691 Y-7.7909
G01 X11.3866 Y-7.8441
G01 X11.4068 Y-7.8963
G01 X11.4295 Y-7.9474
G01 X11.4546 Y-7.9974
G01 X11.4822 Y-8.0461
G01 X11.5121 Y-8.0934
G01 X11.5443 Y-8.1391
G01 X11.5788 Y-8.1832
G01 X11.6153 Y-8.2256
G01 X11.6539 Y-8.2661
G01 X11.6944 Y-8.3047
G01 X11.7368 Y-8.3412
G01 X11.7809 Y-8.3757
G01 X11.8266 Y-8.4079
G01 X11.8739 Y-8.4378
G01 X11.9226 Y-8.4654
G01 X11.9726 Y-8.4905
G01 X12.0237 Y-8.5132
G01 X12.0759 Y-8.5334
G01 X12.1291 Y-8.5509
G01 X12.1830 Y-8.5658
G01 X12.2376 Y-8.5781
G01 X12.2927 Y-8.5877
G01 X12.3483 Y-8.5945
G01 X12.4041 Y-8.5986
G01 X12.4600 Y-8.6000
G01 X12.5159 Y-8.5986
G01 X12.5717 Y-8.5945
G01 X12.6273 Y-8.5877
G01 X12.6824 Y-8.5781
G01 X12.7370 Y-8.5658
G01 X12.7909 Y-8.5509
G01 X12.8441 Y-8.5334
G01 X12.8994 Y-8.5119
G01 X12.9474 Y-8.4905
G01 X12.9974 Y-8.4654
G01 X13.0490 Y-8.4360
G01 X13.0934 Y-8.4079
G01 X13.1391 Y-8.3757
G01 X13.1858 Y-8.3390
G01 X13.2256 Y-8.3047
G01 X13.2661 Y-8.2661
G01 X13.3047 Y-8.2256
G01 X13.3390 Y-8.1858
G01 X13.3777 Y-8.1363
G01 X13.4079 Y-8.0934
G01 X13.4378 Y-8.0461
G01 X13.4654 Y-7.9974
G01 X13.4890 Y-7.9505
G01 X13.5145 Y-7.8931
G01 X13.5334 Y-7.8441
G01 X13.5499 Y-7.7942
G01 X13.5666 Y-7.7337
G01 X13.5781 Y-7.6824
G01 X13.5877 Y-7.6273
G01 X13.5948 Y-7.5683
G01 X13.5986 Y-7.5159
G01 X13.6000 Y-7.4600
G01 X13.5984 Y-7.4006
G01 X13.5945 Y-7.3483
G01 X13.5877 Y-7.2927
G01 X13.5781 Y-7.2376
G01 X13.5666 Y-7.1863
G01 X13.5509 Y-7.1291
G01 X13.5322 Y-7.0727
G01 X13.5132 Y-7.0237
G01 X13.4905 Y-6.9726
G01 X13.4654 Y-6.9226
G01 X13.4395 Y-6.8769
G01 X13.4059 Y-6.8238
G01 X13.3757 Y-6.7809
G01 X13.3434 Y-6.7395
G01 X13.3047 Y-6.6944
G01 X13.2661 Y-6.6539
G01 X13.2281 Y-6.6177
G01 X13.1805 Y-6.5766
G01 X13.1391 Y-6.5443
G01 X13.0962 Y-6.5141
G01 X13.0431 Y-6.4805
G01 X12.9974 Y-6.4546
G01 X12.9474 Y-6.4295
G01 X12.8963 Y-6.4068
G01 X12.8501 Y-6.3889
G01 X12.8501 Y-3.6005
G01 X17.0699 Y-3.6005
G01 X17.0699 Y-6.3889
G01 X17.0237 Y-6.4068
G01 X16.9726 Y-6.4295
G01 X16.9226 Y-6.4546
G01 X16.8739 Y-6.4822
G01 X16.8266 Y-6.5121
G01 X16.7809 Y-6.5443
G01 X16.7368 Y-6.5788
G01 X16.6970 Y-6.6130
G01 X16.6515 Y-6.6564
G01 X16.6153 Y-6.6944
G01 X16.5766 Y-6.7395
G01 X16.5443 Y-6.7809
G01 X16.5121 Y-6.8266
G01 X16.4822 Y-6.8739
G01 X16.4563 Y-6.9196
G01 X16.4295 Y-6.9726
G01 X16.4081 Y-7.0206
G01 X16.3855 Y-7.0792
G01 X16.3691 Y-7.1291
G01 X16.3542 Y-7.1830
G01 X16.3419 Y-7.2376
G01 X16.3323 Y-7.2927
G01 X16.3255 Y-7.3483
G01 X16.3214 Y-7.4041
G01 X16.3200 Y-7.4600
G01 X16.3212 Y-7.5125
G01 X16.3255 Y-7.5717
G01 X16.3319 Y-7.6239
G01 X16.3426 Y-7.6858
G01 X16.3542 Y-7.7370
G01 X16.3681 Y-7.7876
G01 X16.3855 Y-7.8408
G01 X16.4068 Y-7.8963
G01 X16.4295 Y-7.9474
G01 X16.4563 Y-8.0004
G01 X16.4822 Y-8.0461
G01 X16.5103 Y-8.0905
G01 X16.5443 Y-8.1391
G01 X16.5810 Y-8.1858
G01 X16.6153 Y-8.2256
G01 X16.6515 Y-8.2636
G01 X16.6944 Y-8.3047
G01 X16.7395 Y-8.3434
G01 X16.7809 Y-8.3757
G01 X16.8238 Y-8.4059
G01 X16.8739 Y-8.4378
G01 X16.9257 Y-8.4670
G01 X16.9726 Y-8.4905
G01 X17.0206 Y-8.5119
G01 X17.0727 Y-8.5322
G01 X17.1291 Y-8.5509
G01 X17.1863 Y-8.5666
G01 X17.2376 Y-8.5781
G01 X17.2893 Y-8.5871
G01 X17.3483 Y-8.5945
G01 X17.4041 Y-8.5986
G01 X17.4634 Y-8.6000
G01 X17.5159 Y-8.5986
G01 X17.5683 Y-8.5948
G01 X17.6273 Y-8.5877
G01 X17.6858 Y-8.5774
G01 X17.7370 Y-8.5658
G01 X17.7876 Y-8.5519
G01 X17.8441 Y-8.5334
G01 X17.8963 Y-8.5132
G01 X17.9474 Y-8.4905
G01 X18.0004 Y-8.4637
G01 X18.0461 Y-8.4378
G01 X18.0905 Y-8.4097
G01 X18.1377 Y-8.3767
G01 X18.1832 Y-8.3412
G01 X18.2281 Y-8.3023
G01 X18.2661 Y-8.2661
G01 X18.3023 Y-8.2281
G01 X18.3412 Y-8.1832
G01 X18.3757 Y-8.1391
G01 X18.4097 Y-8.0905
G01 X18.4378 Y-8.0461
G01 X18.4637 Y-8.0004
G01 X18.4905 Y-7.9474
G01 X18.5132 Y-7.8963
G01 X18.5345 Y-7.8408
G01 X18.5509 Y-7.7909
G01 X18.5650 Y-7.7403
G01 X18.5781 Y-7.6824
G01 X18.5881 Y-7.6239
G01 X18.5945 Y-7.5717
G01 X18.5984 Y-7.5194
G01 X18.6000 Y-7.4600
G01 X18.5985 Y-7.4023
G01 X18.5945 Y-7.3483
G01 X18.5881 Y-7.2961
G01 X18.5781 Y-7.2376
G01 X18.5650 Y-7.1797
G01 X18.5509 Y-7.1291
G01 X18.5334 Y-7.0759
G01 X18.5132 Y-7.0237
G01 X18.4920 Y-6.9757
G01 X18.4654 Y-6.9226
G01 X18.4378 Y-6.8739
G01 X18.4097 Y-6.8295
G01 X18.3757 Y-6.7809
G01 X18.3390 Y-6.7342
G01 X18.3047 Y-6.6944
G01 X18.2661 Y-6.6539
G01 X18.2230 Y-6.6130
G01 X18.1832 Y-6.5788
G01 X18.1391 Y-6.5443
G01 X18.0934 Y-6.5121
G01 X18.0490 Y-6.4840
G01 X17.9974 Y-6.4546
G01 X17.9443 Y-6.4280
G01 X17.8963 Y-6.4068
G01 X17.8501 Y-6.3889
G01 X17.8501 Y-3.5316
G01 X17.8965 Y-3.5137
G01 X17.9445 Y-3.4924
G01 X17.9946 Y-3.4674
G01 X18.0463 Y-3.4382
G01 X18.0936 Y-3.4083
G01 X18.1394 Y-3.3761
G01 X18.1862 Y-3.3394
G01 X18.2284 Y-3.3027
G01 X18.2665 Y-3.2665
G01 X18.3027 Y-3.2284
G01 X18.3416 Y-3.1835
G01 X18.3761 Y-3.1394
G01 X18.4083 Y-3.0936
G01 X18.4400 Y-3.0434
G01 X18.4658 Y-2.9976
G01 X18.4895 Y-2.9507
G01 X18.5123 Y-2.8996
G01 X18.5338 Y-2.8442
G01 X18.5514 Y-2.7911
G01 X18.5663 Y-2.7371
G01 X18.5792 Y-2.6791
G01 X18.5882 Y-2.6273
G01 X18.5946 Y-2.5752
G01 X18.5989 Y-2.5194
G01 X18.6005 Y-2.4600
G01 X18.5991 Y-2.4040
G01 X18.5950 Y-2.3482
G01 X18.5876 Y-2.2893
G01 X18.5779 Y-2.2341
G01 X18.5663 Y-2.1829
G01 X18.5523 Y-2.1322
G01 X18.5338 Y-2.0758
G01 X18.5137 Y-2.0235
G01 X18.4910 Y-1.9724
G01 X18.4642 Y-1.9194
G01 X18.4382 Y-1.8737
G01 X18.4102 Y-1.8293
G01 X18.3771 Y-1.7820
G01 X18.3416 Y-1.7365
G01 X18.3051 Y-1.6941
G01 X18.2665 Y-1.6535
G01 X18.2233 Y-1.6127
G01 X18.1835 Y-1.5784
G01 X18.1421 Y-1.5460
G01 X18.0965 Y-1.5137
G01 X18.0463 Y-1.4818
G01 X17.9976 Y-1.4542
G01 X17.9476 Y-1.4290
G01 X17.8933 Y-1.4050
G01 X17.8410 Y-1.3851
G01 X17.7911 Y-1.3686
G01 X17.7404 Y-1.3546
G01 X17.6825 Y-1.3414
G01 X17.6273 Y-1.3318
G01 X17.5718 Y-1.3250
G01 X17.5142 Y-1.3208
G01 X17.4600 Y-1.3195
G01 X12.4600 Y-1.3195
G01 X12.4058 Y-1.3208
G01 X12.3448 Y-1.3254
G01 X12.2927 Y-1.3318
G01 X12.2375 Y-1.3414
G01 X12.1829 Y-1.3537
G01 X12.1322 Y-1.3677
G01 X12.0758 Y-1.3862
G01 X12.0235 Y-1.4063
G01 X11.9755 Y-1.4276
G01 X11.9224 Y-1.4542
G01 X11.8707 Y-1.4836
G01 X11.8264 Y-1.5117
G01 X11.7820 Y-1.5429
G01 X11.7365 Y-1.5784
G01 X11.6916 Y-1.6173
G01 X11.6535 Y-1.6535
G01 X11.6173 Y-1.6916
G01 X11.5784 Y-1.7365
G01 X11.5439 Y-1.7806
G01 X11.5098 Y-1.8293
G01 X11.4818 Y-1.8737
G01 X11.4558 Y-1.9194
G01 X11.4290 Y-1.9724
G01 X11.4050 Y-2.0267
G01 X11.3862 Y-2.0758
G01 X11.3696 Y-2.1257
G01 X11.3537 Y-2.1829
G01 X11.3414 Y-2.2375
G01 X11.3314 Y-2.2961
G01 X11.3250 Y-2.3482
G01 X11.3211 Y-2.4006
G01 X11.3195 Y-2.4600
G01 X11.3210 Y-2.5177
G01 X11.3250 Y-2.5718
G01 X11.3314 Y-2.6239
G01 X11.3414 Y-2.6825
G01 X11.3537 Y-2.7371
G01 X11.3677 Y-2.7878
G01 X11.3862 Y-2.8442
G01 X11.4063 Y-2.8965
G01 X11.4276 Y-2.9445
G01 X11.4542 Y-2.9976
G01 X11.4836 Y-3.0493
G01 X11.5117 Y-3.0936
G01 X11.5439 Y-3.1394
G01 X11.5784 Y-3.1835
G01 X11.6127 Y-3.2233
G01 X11.6535 Y-3.2665
G01 X11.6941 Y-3.3051
G01 X11.7338 Y-3.3394
G01 X11.7806 Y-3.3761
G01 X11.8293 Y-3.4102
G01 X11.8737 Y-3.4382
G01 X11.9224 Y-3.4658
G01 X11.9755 Y-3.4924
G01 X12.0235 Y-3.5137
G01 X12.0699 Y-3.5316
G01 X12.0699 Y-6.3889
G00 Z2.0000
G00 X12.1399 Y-6.4392
G01 F60.00
G01 Z-0.0746
G01 F120.00
G01 X12.0995 Y-6.4525
G01 X12.0505 Y-6.4714
G01 X12.0025 Y-6.4927
G01 X11.9556 Y-6.5163
G01 X11.9099 Y-6.5422
G01 X11.8655 Y-6.5703
G01 X11.8226 Y-6.6006
G01 X11.7812 Y-6.6329
G01 X11.7414 Y-6.6672
G01 X11.7034 Y-6.7034
G01 X11.6672 Y-6.7414
G01 X11.6329 Y-6.7812
G01 X11.6006 Y-6.8226
G01 X11.5703 Y-6.8655
G01 X11.5422 Y-6.9099
G01 X11.5163 Y-6.9556
G01 X11.4927 Y-7.0025
G01 X11.4714 Y-7.0505
G01 X11.4525 Y-7.0995
G01 X11.4361 Y-7.1494
G01 X11.4221 Y-7.2000
G01 X11.4106 Y-7.2513
G01 X11.4016 Y-7.3030
G01 X11.3952 Y-7.3551
G01 X11.3913 Y-7.4075
G01 X11.3900 Y-7.4600
G01 X11.3913 Y-7.5125
G01 X11.3952 Y-7.5649
G01 X11.4016 Y-7.6170
G01 X11.4106 Y-7.6687
G01 X11.4221 Y-7.7200
G01 X11.4361 Y-7.7706
G01 X11.4525 Y-7.8205
G01 X11.4714 Y-7.8695
G01 X11.4927 Y-7.9175
G01 X11.5163 Y-7.9644
G01 X11.5422 Y-8.0101
G01 X11.5703 Y-8.0545
G01 X11.6006 Y-8.0974
G01 X11.6329 Y-8.1388
G01 X11.6672 Y-8.1786
G01 X11.7034 Y-8.2166
G01 X11.7414 Y-8.2528
G01 X11.7812 Y-8.2871
G01 X11.8226 Y-8.3194
G01 X11.8655 Y-8.3497
G01 X11.9099 Y-8.3778
G01 X11.9556 Y-8.4037
G01 X12.0025 Y-8.4273
G01 X12.0505 Y-8.4486
G01 X12.0995 Y-8.4675
G01 X12.1494 Y-8.4839
G01 X12.2000 Y-8.4979
G01 X12.2513 Y-8.5094
G01 X12.3030 Y-8.5184
G01 X12.3551 Y-8.5248
G01 X12.4075 Y-8.5287
G01 X12.4600 Y-8.5300
G01 X12.5125 Y-8.5287
G01 X12.5649 Y-8.5248
G01 X12.6170 Y-8.5184
G01 X12.6687 Y-8.5094
G01 X12.7200 Y-8.4979
G01 X12.7706 Y-8.4839
G01 X12.8221 Y-8.4669
G01 X12.8695 Y-8.4486
G01 X12.9175 Y-8.4273
G01 X12.9644 Y-8.4037
G01 X13.0086 Y-8.3786
G01 X13.0559 Y-8.3487
G01 X13.0974 Y-8.3194
G01 X13.1388 Y-8.2871
G01 X13.1786 Y-8.2528
G01 X13.2154 Y-8.2178
G01 X13.2540 Y-8.1773
G01 X13.2871 Y-8.1388
G01 X13.3194 Y-8.0974
G01 X13.3506 Y-8.0530
G01 X13.3778 Y-8.0101
G01 X13.4037 Y-7.9644
G01 X13.4273 Y-7.9175
G01 X13.4479 Y-7.8711
G01 X13.4680 Y-7.8188
G01 X13.4839 Y-7.7706
G01 X13.4979 Y-7.7200
G01 X13.5094 Y-7.6687
G01 X13.5181 Y-7.6187
G01 X13.5250 Y-7.5632
G01 X13.5287 Y-7.5125
G01 X13.5300 Y-7.4600
G01 X13.5286 Y-7.4058
G01 X13.5248 Y-7.3551
G01 X13.5184 Y-7.3030
G01 X13.5094 Y-7.2513
G01 X13.4983 Y-7.2017
G01 X13.4834 Y-7.1478
G01 X13.4675 Y-7.0995
G01 X13.4486 Y-7.0505
G01 X13.4273 Y-7.0025
G01 X13.4044 Y-6.9571
G01 X13.3769 Y-6.9084
G01 X13.3497 Y-6.8655
G01 X13.3194 Y-6.8226
G01 X13.2871 Y-6.7812
G01 X13.2540 Y-6.7427
G01 X13.2166 Y-6.7034
G01 X13.1786 Y-6.6672
G01 X13.1401 Y-6.6340
G01 X13.0960 Y-6.5996
G01 X13.0545 Y-6.5703
G01 X13.0116 Y-6.5431
G01 X12.9629 Y-6.5156
G01 X12.9175 Y-6.4927
G01 X12.8695 Y-6.4714
G01 X12.8205 Y-6.4525
G01 X12.7801 Y-6.4392
G01 X12.7801 Y-3.5305
G01 X17.1399 Y-3.5305
G01 X17.1399 Y-6.4392
G01 X17.0995 Y-6.4525
G01 X17.0505 Y-6.4714
G01 X17.0025 Y-6.4927
G01 X16.9556 Y-6.5163
G01 X16.9099 Y-6.5422
G01 X16.8655 Y-6.5703
G01 X16.8226 Y-6.6006
G01 X16.7825 Y-6.6318
G01 X16.7414 Y-6.6672
G01 X16.7046 Y-6.7022
G01 X16.6660 Y-6.7427
G01 X16.6329 Y-6.7812
G01 X16.6006 Y-6.8226
G01 X16.5703 Y-6.8655
G01 X16.5422 Y-6.9099
G01 X16.5163 Y-6.9556
G01 X16.4927 Y-7.0025
G01 X16.4714 Y-7.0505
G01 X16.4525 Y-7.0995
G01 X16.4361 Y-7.1494
G01 X16.4221 Y-7.2000
G01 X16.4106 Y-7.2513
G01 X16.4019 Y-7.3013
G01 X16.3952 Y-7.3551
G01 X16.3914 Y-7.4058
G01 X16.3900 Y-7.4617
G01 X16.3913 Y-7.5125
G01 X16.3952 Y-7.5649
G01 X16.4016 Y-7.6170
G01 X16.4106 Y-7.6687
G01 X16.4221 Y-7.7200
G01 X16.4366 Y-7.7722
G01 X16.4525 Y-7.8205
G01 X16.4708 Y-7.8679
G01 X16.4927 Y-7.9175
G01 X16.5172 Y-7.9659
G01 X16.5422 Y-8.0101
G01 X16.5694 Y-8.0530
G01 X16.6006 Y-8.0974
G01 X16.6329 Y-8.1388
G01 X16.6684 Y-8.1798
G01 X16.7034 Y-8.2166
G01 X16.7402 Y-8.2516
G01 X16.7812 Y-8.2871
G01 X16.8226 Y-8.3194
G01 X16.8670 Y-8.3506
G01 X16.9099 Y-8.3778
G01 X16.9541 Y-8.4028
G01 X17.0025 Y-8.4273
G01 X17.0521 Y-8.4492
G01 X17.0995 Y-8.4675
G01 X17.1478 Y-8.4834
G01 X17.1983 Y-8.4975
G01 X17.2513 Y-8.5094
G01 X17.3047 Y-8.5186
G01 X17.3551 Y-8.5248
G01 X17.4058 Y-8.5286
G01 X17.4600 Y-8.5300
G01 X17.5142 Y-8.5286
G01 X17.5649 Y-8.5248
G01 X17.6153 Y-8.5186
G01 X17.6687 Y-8.5094
G01 X17.7217 Y-8.4975
G01 X17.7706 Y-8.4839
G01 X17.8188 Y-8.4680
G01 X17.8695 Y-8.4486
G01 X17.9175 Y-8.4273
G01 X17.9659 Y-8.4028
G01 X18.0101 Y-8.3778
G01 X18.0530 Y-8.3506
G01 X18.0974 Y-8.3194
G01 X18.1388 Y-8.2871
G01 X18.1798 Y-8.2516
G01 X18.2166 Y-8.2166
G01 X18.2516 Y-8.1798
G01 X18.2871 Y-8.1388
G01 X18.3194 Y-8.0974
G01 X18.3506 Y-8.0530
G01 X18.3778 Y-8.0101
G01 X18.4028 Y-7.9659
G01 X18.4273 Y-7.9175
G01 X18.4486 Y-7.8695
G01 X18.4680 Y-7.8188
G01 X18.4839 Y-7.7706
G01 X18.4975 Y-7.7217
G01 X18.5094 Y-7.6687
G01 X18.5186 Y-7.6153
G01 X18.5248 Y-7.5649
G01 X18.5286 Y-7.5142
G01 X18.5300 Y-7.4600
G01 X18.5287 Y-7.4066
G01 X18.5248 Y-7.3551
G01 X18.5186 Y-7.3047
G01 X18.5094 Y-7.2513
G01 X18.4975 Y-7.1983
G01 X18.4839 Y-7.1494
G01 X18.4675 Y-7.0995
G01 X18.4486 Y-7.0505
G01 X18.4280 Y-7.0041
G01 X18.4037 Y-6.9556
G01 X18.3778 Y-6.9099
G01 X18.3506 Y-6.8670
G01 X18.3184 Y-6.8212
G01 X18.2871 Y-6.7812
G01 X18.2540 Y-6.7427
G01 X18.2166 Y-6.7034
G01 X18.1786 Y-6.6672
G01 X18.1401 Y-6.6340
G01 X18.0960 Y-6.5996
G01 X18.0545 Y-6.5703
G01 X18.0116 Y-6.5431
G01 X17.9629 Y-6.5156
G01 X17.9175 Y-6.4927
G01 X17.8695 Y-6.4714
G01 X17.8205 Y-6.4525
G01 X17.7801 Y-6.4392
G01 X17.7801 Y-3.4813
G01 X17.8206 Y-3.4679
G01 X17.8681 Y-3.4497
G01 X17.9161 Y-3.4284
G01 X17.9646 Y-3.4041
G01 X18.0103 Y-3.3782
G01 X18.0547 Y-3.3501
G01 X18.0991 Y-3.3188
G01 X18.1391 Y-3.2875
G01 X18.1776 Y-3.2543
G01 X18.2170 Y-3.2170
G01 X18.2532 Y-3.1789
G01 X18.2886 Y-3.1378
G01 X18.3198 Y-3.0977
G01 X18.3491 Y-3.0562
G01 X18.3782 Y-3.0103
G01 X18.4041 Y-2.9646
G01 X18.4284 Y-2.9161
G01 X18.4497 Y-2.8681
G01 X18.4679 Y-2.8206
G01 X18.4839 Y-2.7724
G01 X18.4984 Y-2.7201
G01 X18.5102 Y-2.6672
G01 X18.5189 Y-2.6171
G01 X18.5252 Y-2.5666
G01 X18.5291 Y-2.5142
G01 X18.5305 Y-2.4600
G01 X18.5292 Y-2.4075
G01 X18.5253 Y-2.3551
G01 X18.5186 Y-2.3012
G01 X18.5099 Y-2.2512
G01 X18.4988 Y-2.2016
G01 X18.4849 Y-2.1509
G01 X18.4679 Y-2.0994
G01 X18.4490 Y-2.0503
G01 X18.4277 Y-2.0023
G01 X18.4033 Y-1.9539
G01 X18.3782 Y-1.9097
G01 X18.3510 Y-1.8667
G01 X18.3198 Y-1.8223
G01 X18.2875 Y-1.7809
G01 X18.2520 Y-1.7398
G01 X18.2170 Y-1.7030
G01 X18.1802 Y-1.6680
G01 X18.1404 Y-1.6336
G01 X18.0977 Y-1.6002
G01 X18.0547 Y-1.5699
G01 X18.0103 Y-1.5418
G01 X17.9646 Y-1.5159
G01 X17.9177 Y-1.4923
G01 X17.8681 Y-1.4703
G01 X17.8190 Y-1.4515
G01 X17.7707 Y-1.4356
G01 X17.7218 Y-1.4220
G01 X17.6688 Y-1.4101
G01 X17.6171 Y-1.4011
G01 X17.5649 Y-1.3947
G01 X17.5117 Y-1.3908
G01 X17.4600 Y-1.3895
G01 X12.4600 Y-1.3895
G01 X12.4083 Y-1.3908
G01 X12.3534 Y-1.3948
G01 X12.3029 Y-1.4011
G01 X12.2512 Y-1.4101
G01 X12.1982 Y-1.4220
G01 X12.1493 Y-1.4356
G01 X12.0994 Y-1.4521
G01 X12.0503 Y-1.4710
G01 X12.0039 Y-1.4916
G01 X11.9554 Y-1.5159
G01 X11.9082 Y-1.5427
G01 X11.8653 Y-1.5699
G01 X11.8223 Y-1.6002
G01 X11.7809 Y-1.6325
G01 X11.7398 Y-1.6680
G01 X11.7030 Y-1.7030
G01 X11.6680 Y-1.7398
G01 X11.6325 Y-1.7809
G01 X11.6002 Y-1.8223
G01 X11.5690 Y-1.8667
G01 X11.5418 Y-1.9097
G01 X11.5167 Y-1.9539
G01 X11.4923 Y-2.0023
G01 X11.4703 Y-2.0519
G01 X11.4521 Y-2.0994
G01 X11.4361 Y-2.1476
G01 X11.4216 Y-2.1999
G01 X11.4101 Y-2.2512
G01 X11.4009 Y-2.3046
G01 X11.3947 Y-2.3551
G01 X11.3909 Y-2.4058
G01 X11.3895 Y-2.4600
G01 X11.3908 Y-2.5134
G01 X11.3947 Y-2.5649
G01 X11.4009 Y-2.6154
G01 X11.4101 Y-2.6688
G01 X11.4216 Y-2.7201
G01 X11.4351 Y-2.7691
G01 X11.4521 Y-2.8206
G01 X11.4710 Y-2.8697
G01 X11.4916 Y-2.9161
G01 X11.5159 Y-2.9646
G01 X11.5418 Y-3.0103
G01 X11.5690 Y-3.0533
G01 X11.6012 Y-3.0991
G01 X11.6325 Y-3.1391
G01 X11.6657 Y-3.1776
G01 X11.7030 Y-3.2170
G01 X11.7411 Y-3.2532
G01 X11.7796 Y-3.2864
G01 X11.8237 Y-3.3208
G01 X11.8653 Y-3.3501
G01 X11.9082 Y-3.3773
G01 X11.9569 Y-3.4049
G01 X12.0023 Y-3.4277
G01 X12.0503 Y-3.4490
G01 X12.0994 Y-3.4679
G01 X12.1399 Y-3.4813
G01 X12.1399 Y-6.4392
G00 Z2.0000
G00 X18.6601 Y-7.6118
G01 F60.00
G01 Z-0.0746
G01 F120.00
G01 X18.6644 Y-7.5760
G01 X18.6684 Y-7.5219
G01 X18.6700 Y-7.4600
G01 X18.6684 Y-7.3981
G01 X18.6644 Y-7.3440
G01 X18.6601 Y-7.3082
G01 X18.6843 Y-7.3127
G01 X18.7100 Y-7.3142
G01 X18.7357 Y-7.3127
G01 X18.7599 Y-7.3082
G01 X18.7556 Y-7.3440
G01 X18.7516 Y-7.3981
G01 X18.7500 Y-7.4600
G01 X18.7516 Y-7.5219
G01 X18.7556 Y-7.5760
G01 X18.7599 Y-7.6118
G01 X18.7357 Y-7.6073
G01 X18.7100 Y-7.6058
G01 X18.6843 Y-7.6073
G01 X18.6601 Y-7.6118
G00 Z2.0000
G00 X20.8567 Y-8.3014
G01 F60.00
G01 Z-0.0746
G01 F120.00
G01 X20.8567 Y-8.0434
G01 X20.8778 Y-8.0101
G01 X20.9028 Y-7.9659
G01 X20.9273 Y-7.9175
G01 X20.9492 Y-7.8679
G01 X20.9675 Y-7.8205
G01 X20.9839 Y-7.7706
G01 X20.9983 Y-7.7183
G01 X21.0094 Y-7.6687
G01 X21.0184 Y-7.6170
G01 X21.0250 Y-7.5632
G01 X21.0287 Y-7.5125
G01 X21.0300 Y-7.4600
G01 X21.0286 Y-7.4058
G01 X21.0248 Y-7.3551
G01 X21.0184 Y-7.3030
G01 X21.0091 Y-7.2496
G01 X20.9979 Y-7.2000
G01 X20.9839 Y-7.1494
G01 X20.9675 Y-7.0995
G01 X20.9492 Y-7.0521
G01 X20.9273 Y-7.0025
G01 X20.9028 Y-6.9541
G01 X20.8778 Y-6.9099
G01 X20.8567 Y-6.8766
G01 X20.8567 Y-6.6186
G01 X20.8714 Y-6.6340
G01 X20.9108 Y-6.6797
G01 X20.9479 Y-6.7273
G01 X20.9827 Y-6.7767
G01 X21.0150 Y-6.8277
G01 X21.0447 Y-6.8802
G01 X21.0719 Y-6.9341
G01 X21.0964 Y-6.9893
G01 X21.1181 Y-7.0456
G01 X21.1370 Y-7.1030
G01 X21.1441 Y-7.1278
G01 X21.1475 Y-7.1357
G01 X21.1518 Y-7.1431
G01 X21.1587 Y-7.1519
G01 X21.1663 Y-7.1589
G01 X21.1755 Y-7.1651
G01 X21.1856 Y-7.1698
G01 X21.1963 Y-7.1729
G01 X21.2074 Y-7.1742
G01 X21.2186 Y-7.1737
G01 X21.2295 Y-7.1715
G01 X21.2422 Y-7.1664
G01 X21.2531 Y-7.1594
G01 X21.2630 Y-7.1500
G01 X21.2709 Y-7.1387
G01 X21.2765 Y-7.1262
G01 X21.2830 Y-7.1030
G01 X21.3019 Y-7.0456
G01 X21.3236 Y-6.9893
G01 X21.3481 Y-6.9341
G01 X21.3753 Y-6.8802
G01 X21.4050 Y-6.8277
G01 X21.4373 Y-6.7767
G01 X21.4721 Y-6.7273
G01 X21.5092 Y-6.6797
G01 X21.5486 Y-6.6340
G01 X21.5903 Y-6.5903
G01 X21.6340 Y-6.5486
G01 X21.6797 Y-6.5092
G01 X21.7273 Y-6.4721
G01 X21.7767 Y-6.4373
G01 X21.8277 Y-6.4050
G01 X21.8802 Y-6.3753
G01 X21.9420 Y-6.3445
G01 X21.9507 Y-6.3391
G01 X21.9616 Y-6.3294
G01 X21.9702 Y-6.3176
G01 X21.9762 Y-6.3043
G01 X21.9793 Y-6.2901
G01 X21.9797 Y-3.6384
G01 X21.9784 Y-3.6247
G01 X21.9747 Y-3.6124
G01 X21.9689 Y-3.6009
G01 X21.9610 Y-3.5907
G01 X21.9514 Y-3.5821
G01 X21.9420 Y-3.5762
G01 X21.8799 Y-3.5453
G01 X21.8273 Y-3.5155
G01 X21.7763 Y-3.4832
G01 X21.7269 Y-3.4485
G01 X21.6793 Y-3.4113
G01 X21.6336 Y-3.3718
G01 X21.5898 Y-3.3302
G01 X21.5482 Y-3.2864
G01 X21.5087 Y-3.2407
G01 X21.4715 Y-3.1931
G01 X21.4368 Y-3.1437
G01 X21.4045 Y-3.0927
G01 X21.3747 Y-3.0401
G01 X21.3475 Y-2.9862
G01 X21.3230 Y-2.9309
G01 X21.3013 Y-2.8746
G01 X21.2824 Y-2.8172
G01 X21.2663 Y-2.7590
G01 X21.2530 Y-2.7001
G01 X21.2427 Y-2.6406
G01 X21.2353 Y-2.5806
G01 X21.2309 Y-2.5204
G01 X21.2294 Y-2.4600
G01 X21.2309 Y-2.3996
G01 X21.2353 Y-2.3394
G01 X21.2427 Y-2.2794
G01 X21.2530 Y-2.2199
G01 X21.2663 Y-2.1610
G01 X21.2824 Y-2.1028
G01 X21.3013 Y-2.0454
G01 X21.3230 Y-1.9891
G01 X21.3475 Y-1.9338
G01 X21.3747 Y-1.8799
G01 X21.4045 Y-1.8273
G01 X21.4368 Y-1.7763
G01 X21.4715 Y-1.7269
G01 X21.5087 Y-1.6793
G01 X21.5482 Y-1.6336
G01 X21.5898 Y-1.5898
G01 X21.6336 Y-1.5482
G01 X21.6793 Y-1.5087
G01 X21.7269 Y-1.4715
G01 X21.7763 Y-1.4368
G01 X21.8273 Y-1.4045
G01 X21.8799 Y-1.3747
G01 X21.9338 Y-1.3475
G01 X21.9891 Y-1.3230
G01 X22.0454 Y-1.3013
G01 X22.1028 Y-1.2824
G01 X22.1610 Y-1.2663
G01 X22.2199 Y-1.2530
G01 X22.2794 Y-1.2427
G01 X22.3394 Y-1.2353
G01 X22.3996 Y-1.2309
G01 X22.4609 Y-1.2293
G01 X27.4591 Y-1.2293
G01 X27.5204 Y-1.2309
G01 X27.5806 Y-1.2353
G01 X27.6406 Y-1.2427
G01 X27.7001 Y-1.2530
G01 X27.7590 Y-1.2663
G01 X27.8172 Y-1.2824
G01 X27.8746 Y-1.3013
G01 X27.9309 Y-1.3230
G01 X27.9862 Y-1.3475
G01 X28.0401 Y-1.3747
G01 X28.0927 Y-1.4045
G01 X28.1437 Y-1.4368
G01 X28.1931 Y-1.4715
G01 X28.2407 Y-1.5087
G01 X28.2864 Y-1.5482
G01 X28.3302 Y-1.5898
G01 X28.3718 Y-1.6336
G01 X28.4113 Y-1.6793
G01 X28.4485 Y-1.7269
G01 X28.4832 Y-1.7763
G01 X28.5155 Y-1.8273
G01 X28.5453 Y-1.8799
G01 X28.5725 Y-1.9338
G01 X28.5970 Y-1.9891
G01 X28.6187 Y-2.0454
G01 X28.6376 Y-2.1028
G01 X28.6537 Y-2.1610
G01 X28.6670 Y-2.2199
G01 X28.6773 Y-2.2794
G01 X28.6847 Y-2.3394
G01 X28.6891 Y-2.3996
G01 X28.6906 Y-2.4600
G01 X28.6891 Y-2.5204
G01 X28.6847 Y-2.5806
G01 X28.6773 Y-2.6406
G01 X28.6670 Y-2.7001
G01 X28.6537 Y-2.7590
G01 X28.6376 Y-2.8172
G01 X28.6187 Y-2.8746
G01 X28.5970 Y-2.9309
G01 X28.5725 Y-2.9862
G01 X28.5453 Y-3.0401
G01 X28.5155 Y-3.0927
G01 X28.4832 Y-3.1437
G01 X28.4485 Y-3.1931
G01 X28.4113 Y-3.2407
G01 X28.3718 Y-3.2864
G01 X28.3302 Y-3.3302
G01 X28.2864 Y-3.3718
G01 X28.2407 Y-3.4113
G01 X28.1931 Y-3.4485
G01 X28.1437 Y-3.4832
G01 X28.0927 Y-3.5155
G01 X28.0401 Y-3.5453
G01 X27.9780 Y-3.5762
G01 X27.9693 Y-3.5816
G01 X27.9590 Y-3.5907
G01 X27.9511 Y-3.6009
G01 X27.9453 Y-3.6124
G01 X27.9416 Y-3.6247
G01 X27.9403 Y-3.6384
G01 X27.9406 Y-6.2892
G01 X27.9435 Y-6.3035
G01 X27.9494 Y-6.3169
G01 X27.9578 Y-6.3287
G01 X27.9686 Y-6.3386
G01 X27.9780 Y-6.3445
G01 X28.0398 Y-6.3753
G01 X28.0923 Y-6.4050
G01 X28.1433 Y-6.4373
G01 X28.1927 Y-6.4721
G01 X28.2403 Y-6.5092
G01 X28.2860 Y-6.5486
G01 X28.3297 Y-6.5903
G01 X28.3714 Y-6.6340
G01 X28.4108 Y-6.6797
G01 X28.4479 Y-6.7273
G01 X28.4827 Y-6.7767
G01 X28.5150 Y-6.8277
G01 X28.5447 Y-6.8802
G01 X28.5719 Y-6.9341
G01 X28.5964 Y-6.9893
G01 X28.6181 Y-7.0456
G01 X28.6370 Y-7.1030
G01 X28.6435 Y-7.1262
G01 X28.6491 Y-7.1387
G01 X28.6564 Y-7.1493
G01 X28.6663 Y-7.1589
G01 X28.6778 Y-7.1664
G01 X28.6905 Y-7.1715
G01 X28.7006 Y-7.1736
G01 X28.7117 Y-7.1742
G01 X28.7228 Y-7.1730
G01 X28.7336 Y-7.1701
G01 X28.7438 Y-7.1656
G01 X28.7531 Y-7.1594
G01 X28.7613 Y-7.1519
G01 X28.7682 Y-7.1431
G01 X28.7725 Y-7.1357
G01 X28.7759 Y-7.1278
G01 X28.7830 Y-7.1030
G01 X28.8019 Y-7.0456
G01 X28.8236 Y-6.9893
G01 X28.8481 Y-6.9341
G01 X28.8753 Y-6.8802
G01 X28.9050 Y-6.8277
G01 X28.9373 Y-6.7767
G01 X28.9721 Y-6.7273
G01 X29.0092 Y-6.6797
G01 X29.0486 Y-6.6340
G01 X29.0633 Y-6.6186
G01 X29.0633 Y-6.8766
G01 X29.0422 Y-6.9099
G01 X29.0172 Y-6.9541
G01 X28.9927 Y-7.0025
G01 X28.9708 Y-7.0521
G01 X28.9525 Y-7.0995
G01 X28.9361 Y-7.1494
G01 X28.9217 Y-7.2017
G01 X28.9106 Y-7.2513
G01 X28.9016 Y-7.3030
G01 X28.8952 Y-7.3551
G01 X28.8914 Y-7.4058
G01 X28.8900 Y-7.4600
G01 X28.8913 Y-7.5125
G01 X28.8950 Y-7.5632
G01 X28.9016 Y-7.6170
G01 X28.9109 Y-7.6704
G01 X28.9221 Y-7.7200
G01 X28.9361 Y-7.7706
G01 X28.9525 Y-7.8205
G01 X28.9708 Y-7.8679
G01 X28.9927 Y-7.9175
G01 X29.0172 Y-7.9659
G01 X29.0422 Y-8.0101
G01 X29.0633 Y-8.0434
G01 X29.0633 Y-8.3014
G01 X29.0486 Y-8.2860
G01 X29.0092 Y-8.2403
G01 X28.9721 Y-8.1927
G01 X28.9373 Y-8.1433
G01 X28.9050 Y-8.0923
G01 X28.8753 Y-8.0398
G01 X28.8481 Y-7.9859
G01 X28.8236 Y-7.9307
G01 X28.8019 Y-7.8744
G01 X28.7830 Y-7.8170
G01 X28.7759 Y-7.7922
G01 X28.7725 Y-7.7843
G01 X28.7682 Y-7.7769
G01 X28.7613 Y-7.7681
G01 X28.7537 Y-7.7611
G01 X28.7452 Y-7.7553
G01 X28.7360 Y-7.7508
G01 X28.7262 Y-7.7477
G01 X28.7160 Y-7.7460
G01 X28.7057 Y-7.7459
G01 X28.6947 Y-7.7475
G01 X28.6808 Y-7.7521
G01 X28.6683 Y-7.7595
G01 X28.6576 Y-7.7694
G01 X28.6487 Y-7.7820
G01 X28.6435 Y-7.7938
G01 X28.6370 Y-7.8170
G01 X28.6181 Y-7.8744
G01 X28.5964 Y-7.9307
G01 X28.5719 Y-7.9859
G01 X28.5447 Y-8.0398
G01 X28.5150 Y-8.0923
G01 X28.4827 Y-8.1433
G01 X28.4479 Y-8.1927
G01 X28.4108 Y-8.2403
G01 X28.3714 Y-8.2860
G01 X28.3297 Y-8.3297
G01 X28.2860 Y-8.3714
G01 X28.2403 Y-8.4108
G01 X28.1927 Y-8.4479
G01 X28.1433 Y-8.4827
G01 X28.0923 Y-8.5150
G01 X28.0398 Y-8.5447
G01 X27.9859 Y-8.5719
G01 X27.9307 Y-8.5964
G01 X27.8744 Y-8.6181
G01 X27.8170 Y-8.6370
G01 X27.7589 Y-8.6531
G01 X27.7000 Y-8.6663
G01 X27.6405 Y-8.6767
G01 X27.5806 Y-8.6841
G01 X27.5204 Y-8.6885
G01 X27.4600 Y-8.6900
G01 X27.3996 Y-8.6885
G01 X27.3394 Y-8.6841
G01 X27.2795 Y-8.6767
G01 X27.2200 Y-8.6663
G01 X27.1611 Y-8.6531
G01 X27.1030 Y-8.6370
G01 X27.0456 Y-8.6181
G01 X26.9893 Y-8.5964
G01 X26.9341 Y-8.5719
G01 X26.8802 Y-8.5447
G01 X26.8277 Y-8.5150
G01 X26.7767 Y-8.4827
G01 X26.7273 Y-8.4479
G01 X26.6797 Y-8.4108
G01 X26.6340 Y-8.3714
G01 X26.5903 Y-8.3297
G01 X26.5486 Y-8.2860
G01 X26.5092 Y-8.2403
G01 X26.4721 Y-8.1927
G01 X26.4373 Y-8.1433
G01 X26.4050 Y-8.0923
G01 X26.3753 Y-8.0398
G01 X26.3481 Y-7.9859
G01 X26.3236 Y-7.9307
G01 X26.3019 Y-7.8744
G01 X26.2830 Y-7.8170
G01 X26.2669 Y-7.7589
G01 X26.2537 Y-7.7000
G01 X26.2433 Y-7.6405
G01 X26.2359 Y-7.5806
G01 X26.2315 Y-7.5204
G01 X26.2300 Y-7.4600
G01 X26.2315 Y-7.3996
G01 X26.2359 Y-7.3394
G01 X26.2433 Y-7.2795
G01 X26.2537 Y-7.2200
G01 X26.2669 Y-7.1611
G01 X26.2830 Y-7.1030
G01 X26.3019 Y-7.0456
G01 X26.3236 Y-6.9893
G01 X26.3481 Y-6.9341
G01 X26.3753 Y-6.8802
G01 X26.4050 Y-6.8277
G01 X26.4373 Y-6.7767
G01 X26.4721 Y-6.7273
G01 X26.5092 Y-6.6797
G01 X26.5486 Y-6.6340
G01 X26.5903 Y-6.5903
G01 X26.6340 Y-6.5486
G01 X26.6797 Y-6.5092
G01 X26.7273 Y-6.4721
G01 X26.7767 Y-6.4373
G01 X26.8277 Y-6.4050
G01 X26.8802 Y-6.3753
G01 X26.9420 Y-6.3445
G01 X26.9535 Y-6.3370
G01 X26.9627 Y-6.3281
G01 X26.9706 Y-6.3169
G01 X26.9759 Y-6.3051
G01 X26.9791 Y-6.2918
G01 X26.9797 Y-6.2824
G01 X26.9797 Y-3.7598
G01 X26.9776 Y-3.7436
G01 X26.9723 Y-3.7292
G01 X26.9633 Y-3.7156
G01 X26.9521 Y-3.7049
G01 X26.9427 Y-3.6989
G01 X26.9317 Y-3.6942
G01 X26.9208 Y-3.6915
G01 X26.9097 Y-3.6907
G01 X23.0103 Y-3.6907
G01 X22.9966 Y-3.6920
G01 X22.9835 Y-3.6960
G01 X22.9721 Y-3.7020
G01 X22.9614 Y-3.7105
G01 X22.9526 Y-3.7210
G01 X22.9459 Y-3.7331
G01 X22.9418 Y-3.7462
G01 X22.9403 Y-3.7589
G01 X22.9403 Y-6.2824
G01 X22.9409 Y-6.2918
G01 X22.9441 Y-6.3051
G01 X22.9494 Y-6.3169
G01 X22.9567 Y-6.3274
G01 X22.9665 Y-6.3370
G01 X22.9780 Y-6.3445
G01 X23.0398 Y-6.3753
G01 X23.0923 Y-6.4050
G01 X23.1433 Y-6.4373
G01 X23.1927 Y-6.4721
G01 X23.2403 Y-6.5092
G01 X23.2860 Y-6.5486
G01 X23.3297 Y-6.5903
G01 X23.3714 Y-6.6340
G01 X23.4108 Y-6.6797
G01 X23.4479 Y-6.7273
G01 X23.4827 Y-6.7767
G01 X23.5150 Y-6.8277
G01 X23.5447 Y-6.8802
G01 X23.5719 Y-6.9341
G01 X23.5964 Y-6.9893
G01 X23.6181 Y-7.0456
G01 X23.6370 Y-7.1030
G01 X23.6531 Y-7.1611
G01 X23.6663 Y-7.2200
G01 X23.6767 Y-7.2795
G01 X23.6841 Y-7.3394
G01 X23.6885 Y-7.3996
G01 X23.6900 Y-7.4600
G01 X23.6885 Y-7.5204
G01 X23.6841 Y-7.5806
G01 X23.6767 Y-7.6405
G01 X23.6663 Y-7.7000
G01 X23.6531 Y-7.7589
G01 X23.6370 Y-7.8170
G01 X23.6181 Y-7.8744
G01 X23.5964 Y-7.9307
G01 X23.5719 Y-7.9859
G01 X23.5447 Y-8.0398
G01 X23.5150 Y-8.0923
G01 X23.4827 Y-8.1433
G01 X23.4479 Y-8.1927
G01 X23.4108 Y-8.2403
G01 X23.3714 Y-8.2860
G01 X23.3297 Y-8.3297
G01 X23.2860 Y-8.3714
G01 X23.2403 Y-8.4108
G01 X23.1927 Y-8.4479
G01 X23.1433 Y-8.4827
G01 X23.0923 Y-8.5150
G01 X23.0398 Y-8.5447
G01 X22.9859 Y-8.5719
G01 X22.9307 Y-8.5964
G01 X22.8744 Y-8.6181
G01 X22.8170 Y-8.6370
G01 X22.7589 Y-8.6531
G01 X22.7000 Y-8.6663
G01 X22.6405 Y-8.6767
G01 X22.5806 Y-8.6841
G01 X22.5204 Y-8.6885
G01 X22.4600 Y-8.6900
G01 X22.3996 Y-8.6885
G01 X22.3394 Y-8.6841
G01 X22.2795 Y-8.6767
G01 X22.2200 Y-8.6663
G01 X22.1611 Y-8.6531
G01 X22.1030 Y-8.6370
G01 X22.0456 Y-8.6181
G01 X21.9893 Y-8.5964
G01 X21.9341 Y-8.5719
G01 X21.8802 Y-8.5447
G01 X21.8277 Y-8.5150
G01 X21.7767 Y-8.4827
G01 X21.7273 Y-8.4479
G01 X21.6797 Y-8.4108
G01 X21.6340 Y-8.3714
G01 X21.5903 Y-8.3297
G01 X21.5486 Y-8.2860
G01 X21.5092 Y-8.2403
G01 X21.4721 Y-8.1927
G01 X21.4373 Y-8.1433
G01 X21.4050 Y-8.0923
G01 X21.3753 Y-8.0398
G01 X21.3481 Y-7.9859
G01 X21.3236 Y-7.9307
G01 X21.3019 Y-7.8744
G01 X21.2830 Y-7.8170
G01 X21.2765 Y-7.7938
G01 X21.2713 Y-7.7820
G01 X21.2630 Y-7.7700
G01 X21.2517 Y-7.7595
G01 X21.2392 Y-7.7521
G01 X21.2253 Y-7.7475
G01 X21.2151 Y-7.7460
G01 X21.2040 Y-7.7460
G01 X21.1938 Y-7.7477
G01 X21.1840 Y-7.7508
G01 X21.1740 Y-7.7557
G01 X21.1656 Y-7.7617
G01 X21.1581 Y-7.7688
G01 X21.1518 Y-7.7769
G01 X21.1475 Y-7.7843
G01 X21.1441 Y-7.7922
G01 X21.1370 Y-7.8170
G01 X21.1181 Y-7.8744
G01 X21.0964 Y-7.9307
G01 X21.0719 Y-7.9859
G01 X21.0447 Y-8.0398
G01 X21.0150 Y-8.0923
G01 X20.9827 Y-8.1433
G01 X20.9479 Y-8.1927
G01 X20.9108 Y-8.2403
G01 X20.8714 Y-8.2860
G01 X20.8567 Y-8.3014
G00 Z2.0000
G00 X20.9267 Y-8.1009
G01 F60.00
G01 Z-0.0746
G01 F120.00
G01 X20.9267 Y-8.0637
G01 X20.9387 Y-8.0446
G01 X20.9662 Y-7.9959
G01 X20.9905 Y-7.9474
G01 X21.0126 Y-7.8978
G01 X21.0345 Y-7.8408
G01 X21.0509 Y-7.7909
G01 X21.0650 Y-7.7403
G01 X21.0781 Y-7.6824
G01 X21.0881 Y-7.6239
G01 X21.0945 Y-7.5717
G01 X21.0984 Y-7.5194
G01 X21.1000 Y-7.4600
G01 X21.0984 Y-7.4006
G01 X21.0945 Y-7.3483
G01 X21.0881 Y-7.2961
G01 X21.0781 Y-7.2376
G01 X21.0650 Y-7.1797
G01 X21.0509 Y-7.1291
G01 X21.0345 Y-7.0792
G01 X21.0126 Y-7.0222
G01 X20.9905 Y-6.9726
G01 X20.9662 Y-6.9241
G01 X20.9387 Y-6.8754
G01 X20.9267 Y-6.8563
G01 X20.9267 Y-6.8191
G01 X20.9549 Y-6.8637
G01 X20.9830 Y-6.9132
G01 X21.0086 Y-6.9641
G01 X21.0317 Y-7.0161
G01 X21.0522 Y-7.0692
G01 X21.0700 Y-7.1233
G01 X21.0760 Y-7.1449
G01 X21.0800 Y-7.1562
G01 X21.0890 Y-7.1747
G01 X21.1018 Y-7.1930
G01 X21.1173 Y-7.2091
G01 X21.1351 Y-7.2225
G01 X21.1548 Y-7.2329
G01 X21.1661 Y-7.2372
G01 X21.1777 Y-7.2404
G01 X21.1895 Y-7.2427
G01 X21.2014 Y-7.2440
G01 X21.2237 Y-7.2436
G01 X21.2457 Y-7.2396
G01 X21.2572 Y-7.2360
G01 X21.2683 Y-7.2315
G01 X21.2863 Y-7.2216
G01 X21.3040 Y-7.2080
G01 X21.3182 Y-7.1930
G01 X21.3310 Y-7.1747
G01 X21.3373 Y-7.1625
G01 X21.3418 Y-7.1514
G01 X21.3500 Y-7.1233
G01 X21.3678 Y-7.0692
G01 X21.3883 Y-7.0161
G01 X21.4114 Y-6.9641
G01 X21.4370 Y-6.9132
G01 X21.4651 Y-6.8637
G01 X21.4955 Y-6.8156
G01 X21.5283 Y-6.7690
G01 X21.5633 Y-6.7241
G01 X21.6005 Y-6.6810
G01 X21.6398 Y-6.6398
G01 X21.6810 Y-6.6005
G01 X21.7241 Y-6.5633
G01 X21.7690 Y-6.5283
G01 X21.8156 Y-6.4955
G01 X21.8637 Y-6.4651
G01 X21.9132 Y-6.4370
G01 X21.9787 Y-6.4042
G01 X21.9903 Y-6.3968
G01 X22.0025 Y-6.3872
G01 X22.0123 Y-6.3776
G01 X22.0201 Y-6.3685
G01 X22.0271 Y-6.3587
G01 X22.0340 Y-6.3468
G01 X22.0391 Y-6.3359
G01 X22.0437 Y-6.3230
G01 X22.0467 Y-6.3114
G01 X22.0489 Y-6.2978
G01 X22.0497 Y-6.2824
G01 X22.0497 Y-3.6384
G01 X22.0491 Y-3.6246
G01 X22.0470 Y-3.6110
G01 X22.0410 Y-3.5896
G01 X22.0315 Y-3.5694
G01 X22.0252 Y-3.5592
G01 X22.0179 Y-3.5495
G01 X22.0025 Y-3.5335
G01 X21.9903 Y-3.5239
G01 X21.9787 Y-3.5165
G01 X21.9129 Y-3.4836
G01 X21.8633 Y-3.4555
G01 X21.8152 Y-3.4250
G01 X21.7686 Y-3.3922
G01 X21.7237 Y-3.3572
G01 X21.6806 Y-3.3200
G01 X21.6393 Y-3.2807
G01 X21.6000 Y-3.2394
G01 X21.5628 Y-3.1963
G01 X21.5278 Y-3.1514
G01 X21.4950 Y-3.1048
G01 X21.4645 Y-3.0567
G01 X21.4364 Y-3.0071
G01 X21.4108 Y-2.9562
G01 X21.3877 Y-2.9041
G01 X21.3672 Y-2.8510
G01 X21.3494 Y-2.7969
G01 X21.3342 Y-2.7420
G01 X21.3217 Y-2.6864
G01 X21.3120 Y-2.6303
G01 X21.3050 Y-2.5738
G01 X21.3008 Y-2.5169
G01 X21.2994 Y-2.4600
G01 X21.3008 Y-2.4031
G01 X21.3050 Y-2.3462
G01 X21.3120 Y-2.2897
G01 X21.3217 Y-2.2336
G01 X21.3342 Y-2.1780
G01 X21.3494 Y-2.1231
G01 X21.3672 Y-2.0690
G01 X21.3877 Y-2.0159
G01 X21.4108 Y-1.9638
G01 X21.4364 Y-1.9129
G01 X21.4645 Y-1.8633
G01 X21.4950 Y-1.8152
G01 X21.5278 Y-1.7686
G01 X21.5628 Y-1.7237
G01 X21.6000 Y-1.6806
G01 X21.6393 Y-1.6393
G01 X21.6806 Y-1.6000
G01 X21.7237 Y-1.5628
G01 X21.7686 Y-1.5278
G01 X21.8152 Y-1.4950
G01 X21.8633 Y-1.4645
G01 X21.9129 Y-1.4364
G01 X21.9638 Y-1.4108
G01 X22.0159 Y-1.3877
G01 X22.0690 Y-1.3672
G01 X22.1231 Y-1.3494
G01 X22.1780 Y-1.3342
G01 X22.2336 Y-1.3217
G01 X22.2897 Y-1.3120
G01 X22.3462 Y-1.3050
G01 X22.4031 Y-1.3008
G01 X22.4617 Y-1.2993
G01 X27.4583 Y-1.2993
G01 X27.5169 Y-1.3008
G01 X27.5738 Y-1.3050
G01 X27.6303 Y-1.3120
G01 X27.6864 Y-1.3217
G01 X27.7420 Y-1.3342
G01 X27.7969 Y-1.3494
G01 X27.8510 Y-1.3672
G01 X27.9041 Y-1.3877
G01 X27.9562 Y-1.4108
G01 X28.0071 Y-1.4364
G01 X28.0567 Y-1.4645
G01 X28.1048 Y-1.4950
G01 X28.1514 Y-1.5278
G01 X28.1963 Y-1.5628
G01 X28.2394 Y-1.6000
G01 X28.2807 Y-1.6393
G01 X28.3200 Y-1.6806
G01 X28.3572 Y-1.7237
G01 X28.3922 Y-1.7686
G01 X28.4250 Y-1.8152
G01 X28.4555 Y-1.8633
G01 X28.4836 Y-1.9129
G01 X28.5092 Y-1.9638
G01 X28.5323 Y-2.0159
G01 X28.5528 Y-2.0690
G01 X28.5706 Y-2.1231
G01 X28.5858 Y-2.1780
G01 X28.5983 Y-2.2336
G01 X28.6080 Y-2.2897
G01 X28.6150 Y-2.3462
G01 X28.6192 Y-2.4031
G01 X28.6206 Y-2.4600
G01 X28.6192 Y-2.5169
G01 X28.6150 Y-2.5738
G01 X28.6080 Y-2.6303
G01 X28.5983 Y-2.6864
G01 X28.5858 Y-2.7420
G01 X28.5706 Y-2.7969
G01 X28.5528 Y-2.8510
G01 X28.5323 Y-2.9041
G01 X28.5092 Y-2.9562
G01 X28.4836 Y-3.0071
G01 X28.4555 Y-3.0567
G01 X28.4250 Y-3.1048
G01 X28.3922 Y-3.1514
G01 X28.3572 Y-3.1963
G01 X28.3200 Y-3.2394
G01 X28.2807 Y-3.2807
G01 X28.2394 Y-3.3200
G01 X28.1963 Y-3.3572
G01 X28.1514 Y-3.3922
G01 X28.1048 Y-3.4250
G01 X28.0567 Y-3.4555
G01 X28.0071 Y-3.4836
G01 X27.9413 Y-3.5165
G01 X27.9297 Y-3.5239
G01 X27.9175 Y-3.5335
G01 X27.9021 Y-3.5495
G01 X27.8893 Y-3.5679
G01 X27.8837 Y-3.5785
G01 X27.8790 Y-3.5896
G01 X27.8730 Y-3.6110
G01 X27.8709 Y-3.6246
G01 X27.8703 Y-3.6384
G01 X27.8703 Y-6.2824
G01 X27.8711 Y-6.2978
G01 X27.8730 Y-6.3097
G01 X27.8763 Y-6.3230
G01 X27.8809 Y-6.3359
G01 X27.8860 Y-6.3468
G01 X27.8929 Y-6.3587
G01 X27.8999 Y-6.3685
G01 X27.9077 Y-6.3776
G01 X27.9175 Y-6.3872
G01 X27.9297 Y-6.3968
G01 X27.9413 Y-6.4042
G01 X28.0068 Y-6.4370
G01 X28.0563 Y-6.4651
G01 X28.1044 Y-6.4955
G01 X28.1510 Y-6.5283
G01 X28.1959 Y-6.5633
G01 X28.2390 Y-6.6005
G01 X28.2802 Y-6.6398
G01 X28.3195 Y-6.6810
G01 X28.3567 Y-6.7241
G01 X28.3917 Y-6.7690
G01 X28.4245 Y-6.8156
G01 X28.4549 Y-6.8637
G01 X28.4830 Y-6.9132
G01 X28.5086 Y-6.9641
G01 X28.5317 Y-7.0161
G01 X28.5522 Y-7.0692
G01 X28.5700 Y-7.1233
G01 X28.5782 Y-7.1514
G01 X28.5834 Y-7.1641
G01 X28.5890 Y-7.1747
G01 X28.6007 Y-7.1917
G01 X28.6160 Y-7.2080
G01 X28.6337 Y-7.2216
G01 X28.6517 Y-7.2315
G01 X28.6727 Y-7.2392
G01 X28.6946 Y-7.2434
G01 X28.7066 Y-7.2442
G01 X28.7186 Y-7.2440
G01 X28.7407 Y-7.2408
G01 X28.7620 Y-7.2342
G01 X28.7729 Y-7.2293
G01 X28.7834 Y-7.2234
G01 X28.7934 Y-7.2167
G01 X28.8027 Y-7.2091
G01 X28.8182 Y-7.1930
G01 X28.8310 Y-7.1747
G01 X28.8400 Y-7.1562
G01 X28.8440 Y-7.1449
G01 X28.8500 Y-7.1233
G01 X28.8678 Y-7.0692
G01 X28.8883 Y-7.0161
G01 X28.9114 Y-6.9641
G01 X28.9370 Y-6.9132
G01 X28.9651 Y-6.8637
G01 X28.9933 Y-6.8191
G01 X28.9933 Y-6.8563
G01 X28.9813 Y-6.8754
G01 X28.9538 Y-6.9241
G01 X28.9295 Y-6.9726
G01 X28.9074 Y-7.0222
G01 X28.8855 Y-7.0792
G01 X28.8691 Y-7.1291
G01 X28.8550 Y-7.1797
G01 X28.8419 Y-7.2376
G01 X28.8319 Y-7.2961
G01 X28.8255 Y-7.3483
G01 X28.8216 Y-7.4006
G01 X28.8200 Y-7.4600
G01 X28.8216 Y-7.5194
G01 X28.8255 Y-7.5717
G01 X28.8319 Y-7.6239
G01 X28.8419 Y-7.6824
G01 X28.8550 Y-7.7403
G01 X28.8691 Y-7.7909
G01 X28.8855 Y-7.8408
G01 X28.9074 Y-7.8978
G01 X28.9295 Y-7.9474
G01 X28.9538 Y-7.9959
G01 X28.9813 Y-8.0446
G01 X28.9933 Y-8.0637
G01 X28.9933 Y-8.1009
G01 X28.9651 Y-8.0563
G01 X28.9370 Y-8.0068
G01 X28.9114 Y-7.9559
G01 X28.8883 Y-7.9039
G01 X28.8678 Y-7.8508
G01 X28.8500 Y-7.7967
G01 X28.8440 Y-7.7751
G01 X28.8400 Y-7.7638
G01 X28.8318 Y-7.7468
G01 X28.8204 Y-7.7296
G01 X28.8053 Y-7.7132
G01 X28.7892 Y-7.7003
G01 X28.7714 Y-7.6900
G01 X28.7506 Y-7.6818
G01 X28.7288 Y-7.6770
G01 X28.7083 Y-7.6758
G01 X28.6861 Y-7.6778
G01 X28.6661 Y-7.6828
G01 X28.6533 Y-7.6878
G01 X28.6425 Y-7.6931
G01 X28.6322 Y-7.6994
G01 X28.6212 Y-7.7075
G01 X28.6110 Y-7.7168
G01 X28.6029 Y-7.7256
G01 X28.5955 Y-7.7352
G01 X28.5890 Y-7.7453
G01 X28.5827 Y-7.7575
G01 X28.5776 Y-7.7702
G01 X28.5700 Y-7.7967
G01 X28.5522 Y-7.8508
G01 X28.5317 Y-7.9039
G01 X28.5086 Y-7.9559
G01 X28.4830 Y-8.0068
G01 X28.4549 Y-8.0563
G01 X28.4245 Y-8.1044
G01 X28.3917 Y-8.1510
G01 X28.3567 Y-8.1959
G01 X28.3195 Y-8.2390
G01 X28.2802 Y-8.2802
G01 X28.2390 Y-8.3195
G01 X28.1959 Y-8.3567
G01 X28.1510 Y-8.3917
G01 X28.1044 Y-8.4245
G01 X28.0563 Y-8.4549
G01 X28.0068 Y-8.4830
G01 X27.9559 Y-8.5086
G01 X27.9039 Y-8.5317
G01 X27.8508 Y-8.5522
G01 X27.7967 Y-8.5700
G01 X27.7418 Y-8.5852
G01 X27.6863 Y-8.5977
G01 X27.6302 Y-8.6074
G01 X27.5737 Y-8.6144
G01 X27.5169 Y-8.6186
G01 X27.4600 Y-8.6200
G01 X27.4031 Y-8.6186
G01 X27.3463 Y-8.6144
G01 X27.2898 Y-8.6074
G01 X27.2337 Y-8.5977
G01 X27.1782 Y-8.5852
G01 X27.1233 Y-8.5700
G01 X27.0692 Y-8.5522
G01 X27.0161 Y-8.5317
G01 X26.9641 Y-8.5086
G01 X26.9132 Y-8.4830
G01 X26.8637 Y-8.4549
G01 X26.8156 Y-8.4245
G01 X26.7690 Y-8.3917
G01 X26.7241 Y-8.3567
G01 X26.6810 Y-8.3195
G01 X26.6398 Y-8.2802
G01 X26.6005 Y-8.2390
G01 X26.5633 Y-8.1959
G01 X26.5283 Y-8.1510
G01 X26.4955 Y-8.1044
G01 X26.4651 Y-8.0563
G01 X26.4370 Y-8.0068
G01 X26.4114 Y-7.9559
G01 X26.3883 Y-7.9039
G01 X26.3678 Y-7.8508
G01 X26.3500 Y-7.7967
G01 X26.3348 Y-7.7418
G01 X26.3223 Y-7.6863
G01 X26.3126 Y-7.6302
G01 X26.3056 Y-7.5737
G01 X26.3014 Y-7.5169
G01 X26.3000 Y-7.4600
G01 X26.3014 Y-7.4031
G01 X26.3056 Y-7.3463
G01 X26.3126 Y-7.2898
G01 X26.3223 Y-7.2337
G01 X26.3348 Y-7.1782
G01 X26.3500 Y-7.1233
G01 X26.3678 Y-7.0692
G01 X26.3883 Y-7.0161
G01 X26.4114 Y-6.9641
G01 X26.4370 Y-6.9132
G01 X26.4651 Y-6.8637
G01 X26.4955 Y-6.8156
G01 X26.5283 Y-6.7690
G01 X26.5633 Y-6.7241
G01 X26.6005 Y-6.6810
G01 X26.6398 Y-6.6398
G01 X26.6810 Y-6.6005
G01 X26.7241 Y-6.5633
G01 X26.7690 Y-6.5283
G01 X26.8156 Y-6.4955
G01 X26.8637 Y-6.4651
G01 X26.9132 Y-6.4370
G01 X26.9772 Y-6.4050
G01 X26.9889 Y-6.3978
G01 X26.9999 Y-6.3895
G01 X27.0099 Y-6.3801
G01 X27.0179 Y-6.3712
G01 X27.0252 Y-6.3616
G01 X27.0324 Y-6.3499
G01 X27.0377 Y-6.3391
G01 X27.0427 Y-6.3263
G01 X27.0459 Y-6.3147
G01 X27.0485 Y-6.3012
G01 X27.0497 Y-6.2824
G01 X27.0497 Y-3.7572
G01 X27.0482 Y-3.7401
G01 X27.0451 Y-3.7250
G01 X27.0403 Y-3.7103
G01 X27.0340 Y-3.6962
G01 X27.0252 Y-3.6814
G01 X27.0157 Y-3.6692
G01 X27.0050 Y-3.6581
G01 X26.9931 Y-3.6482
G01 X26.9742 Y-3.6364
G01 X26.9536 Y-3.6277
G01 X26.9337 Y-3.6227
G01 X26.9114 Y-3.6207
G01 X23.0103 Y-3.6207
G01 X22.9966 Y-3.6213
G01 X22.9830 Y-3.6233
G01 X22.9696 Y-3.6267
G01 X22.9583 Y-3.6307
G01 X22.9458 Y-3.6364
G01 X22.9339 Y-3.6433
G01 X22.9241 Y-3.6503
G01 X22.9137 Y-3.6593
G01 X22.9043 Y-3.6692
G01 X22.8958 Y-3.6800
G01 X22.8885 Y-3.6916
G01 X22.8830 Y-3.7024
G01 X22.8779 Y-3.7151
G01 X22.8745 Y-3.7266
G01 X22.8718 Y-3.7401
G01 X22.8704 Y-3.7538
G01 X22.8703 Y-6.2824
G01 X22.8711 Y-6.2978
G01 X22.8730 Y-6.3097
G01 X22.8763 Y-6.3230
G01 X22.8809 Y-6.3359
G01 X22.8868 Y-6.3484
G01 X22.8929 Y-6.3587
G01 X22.9010 Y-6.3698
G01 X22.9089 Y-6.3789
G01 X22.9188 Y-6.3884
G01 X22.9311 Y-6.3978
G01 X22.9428 Y-6.4050
G01 X23.0068 Y-6.4370
G01 X23.0563 Y-6.4651
G01 X23.1044 Y-6.4955
G01 X23.1510 Y-6.5283
G01 X23.1959 Y-6.5633
G01 X23.2390 Y-6.6005
G01 X23.2802 Y-6.6398
G01 X23.3195 Y-6.6810
G01 X23.3567 Y-6.7241
G01 X23.3917 Y-6.7690
G01 X23.4245 Y-6.8156
G01 X23.4549 Y-6.8637
G01 X23.4830 Y-6.9132
G01 X23.5086 Y-6.9641
G01 X23.5317 Y-7.0161
G01 X23.5522 Y-7.0692
G01 X23.5700 Y-7.1233
G01 X23.5852 Y-7.1782
G01 X23.5977 Y-7.2337
G01 X23.6074 Y-7.2898
G01 X23.6144 Y-7.3463
G01 X23.6186 Y-7.4031
G01 X23.6200 Y-7.4600
G01 X23.6186 Y-7.5169
G01 X23.6144 Y-7.5737
G01 X23.6074 Y-7.6302
G01 X23.5977 Y-7.6863
G01 X23.5852 Y-7.7418
G01 X23.5700 Y-7.7967
G01 X23.5522 Y-7.8508
G01 X23.5317 Y-7.9039
G01 X23.5086 Y-7.9559
G01 X23.4830 Y-8.0068
G01 X23.4549 Y-8.0563
G01 X23.4245 Y-8.1044
G01 X23.3917 Y-8.1510
G01 X23.3567 Y-8.1959
G01 X23.3195 Y-8.2390
G01 X23.2802 Y-8.2802
G01 X23.2390 Y-8.3195
G01 X23.1959 Y-8.3567
G01 X23.1510 Y-8.3917
G01 X23.1044 Y-8.4245
G01 X23.0563 Y-8.4549
G01 X23.0068 Y-8.4830
G01 X22.9559 Y-8.5086
G01 X22.9039 Y-8.5317
G01 X22.8508 Y-8.5522
G01 X22.7967 Y-8.5700
G01 X22.7418 Y-8.5852
G01 X22.6863 Y-8.5977
G01 X22.6302 Y-8.6074
G01 X22.5737 Y-8.6144
G01 X22.5169 Y-8.6186
G01 X22.4600 Y-8.6200
G01 X22.4031 Y-8.6186
G01 X22.3463 Y-8.6144
G01 X22.2898 Y-8.6074
G01 X22.2337 Y-8.5977
G01 X22.1782 Y-8.5852
G01 X22.1233 Y-8.5700
G01 X22.0692 Y-8.5522
G01 X22.0161 Y-8.5317
G01 X21.9641 Y-8.5086
G01 X21.9132 Y-8.4830
G01 X21.8637 Y-8.4549
G01 X21.8156 Y-8.4245
G01 X21.7690 Y-8.3917
G01 X21.7241 Y-8.3567
G01 X21.6810 Y-8.3195
G01 X21.6398 Y-8.2802
G01 X21.6005 Y-8.2390
G01 X21.5633 Y-8.1959
G01 X21.5283 Y-8.1510
G01 X21.4955 Y-8.1044
G01 X21.4651 Y-8.0563
G01 X21.4370 Y-8.0068
G01 X21.4114 Y-7.9559
G01 X21.3883 Y-7.9039
G01 X21.3678 Y-7.8508
G01 X21.3500 Y-7.7967
G01 X21.3424 Y-7.7702
G01 X21.3373 Y-7.7575
G01 X21.3310 Y-7.7453
G01 X21.3245 Y-7.7352
G01 X21.3171 Y-7.7256
G01 X21.3078 Y-7.7156
G01 X21.2988 Y-7.7075
G01 X21.2878 Y-7.6994
G01 X21.2775 Y-7.6931
G01 X21.2652 Y-7.6871
G01 X21.2539 Y-7.6828
G01 X21.2322 Y-7.6775
G01 X21.2117 Y-7.6758
G01 X21.1895 Y-7.6773
G01 X21.1694 Y-7.6818
G01 X21.1501 Y-7.6892
G01 X21.1308 Y-7.7003
G01 X21.1135 Y-7.7144
G01 X21.0996 Y-7.7296
G01 X21.0882 Y-7.7468
G01 X21.0800 Y-7.7638
G01 X21.0760 Y-7.7751
G01 X21.0700 Y-7.7967
G01 X21.0522 Y-7.8508
G01 X21.0317 Y-7.9039
G01 X21.0086 Y-7.9559
G01 X20.9830 Y-8.0068
G01 X20.9549 Y-8.0563
G01 X20.9267 Y-8.1009
G00 Z2.0000
G00 X21.1601 Y-7.6118
G01 F60.00
G01 Z-0.0746
G01 F120.00
G01 X21.1644 Y-7.5760
G01 X21.1684 Y-7.5219
G01 X21.1700 Y-7.4600
G01 X21.1684 Y-7.3981
G01 X21.1644 Y-7.3440
G01 X21.1601 Y-7.3082
G01 X21.1843 Y-7.3127
G01 X21.2100 Y-7.3142
G01 X21.2357 Y-7.3127
G01 X21.2599 Y-7.3082
G01 X21.2556 Y-7.3440
G01 X21.2516 Y-7.3981
G01 X21.2500 Y-7.4600
G01 X21.2516 Y-7.5219
G01 X21.2556 Y-7.5760
G01 X21.2599 Y-7.6118
G01 X21.2357 Y-7.6073
G01 X21.2100 Y-7.6058
G01 X21.1843 Y-7.6073
G01 X21.1601 Y-7.6118
G00 Z2.0000
G00 X22.0699 Y-6.3889
G01 F60.00
G01 Z-0.0746
G01 F120.00
G01 X22.0237 Y-6.4068
G01 X21.9726 Y-6.4295
G01 X21.9226 Y-6.4546
G01 X21.8739 Y-6.4822
G01 X21.8266 Y-6.5121
G01 X21.7809 Y-6.5443
G01 X21.7368 Y-6.5788
G01 X21.6944 Y-6.6153
G01 X21.6539 Y-6.6539
G01 X21.6153 Y-6.6944
G01 X21.5788 Y-6.7368
G01 X21.5443 Y-6.7809
G01 X21.5121 Y-6.8266
G01 X21.4822 Y-6.8739
G01 X21.4546 Y-6.9226
G01 X21.4295 Y-6.9726
G01 X21.4068 Y-7.0237
G01 X21.3866 Y-7.0759
G01 X21.3691 Y-7.1291
G01 X21.3542 Y-7.1830
G01 X21.3419 Y-7.2376
G01 X21.3323 Y-7.2927
G01 X21.3255 Y-7.3483
G01 X21.3214 Y-7.4041
G01 X21.3200 Y-7.4600
G01 X21.3214 Y-7.5159
G01 X21.3255 Y-7.5717
G01 X21.3323 Y-7.6273
G01 X21.3419 Y-7.6824
G01 X21.3542 Y-7.7370
G01 X21.3691 Y-7.7909
G01 X21.3866 Y-7.8441
G01 X21.4068 Y-7.8963
G01 X21.4295 Y-7.9474
G01 X21.4546 Y-7.9974
G01 X21.4822 Y-8.0461
G01 X21.5121 Y-8.0934
G01 X21.5443 Y-8.1391
G01 X21.5788 Y-8.1832
G01 X21.6153 Y-8.2256
G01 X21.6539 Y-8.2661
G01 X21.6944 Y-8.3047
G01 X21.7368 Y-8.3412
G01 X21.7809 Y-8.3757
G01 X21.8266 Y-8.4079
G01 X21.8739 Y-8.4378
G01 X21.9226 Y-8.4654
G01 X21.9726 Y-8.4905
G01 X22.0237 Y-8.5132
G01 X22.0759 Y-8.5334
G01 X22.1291 Y-8.5509
G01 X22.1830 Y-8.5658
G01 X22.2376 Y-8.5781
G01 X22.2927 Y-8.5877
G01 X22.3483 Y-8.5945
G01 X22.4041 Y-8.5986
G01 X22.4600 Y-8.6000
G01 X22.5159 Y-8.5986
G01 X22.5717 Y-8.5945
G01 X22.6273 Y-8.5877
G01 X22.6824 Y-8.5781
G01 X22.7370 Y-8.5658
G01 X22.7909 Y-8.5509
G01 X22.8441 Y-8.5334
G01 X22.8963 Y-8.5132
G01 X22.9443 Y-8.4920
G01 X22.9974 Y-8.4654
G01 X23.0490 Y-8.4360
G01 X23.0934 Y-8.4079
G01 X23.1391 Y-8.3757
G01 X23.1832 Y-8.3412
G01 X23.2230 Y-8.3070
G01 X23.2661 Y-8.2661
G01 X23.3047 Y-8.2256
G01 X23.3390 Y-8.1858
G01 X23.3777 Y-8.1363
G01 X23.4079 Y-8.0934
G01 X23.4378 Y-8.0461
G01 X23.4654 Y-7.9974
G01 X23.4890 Y-7.9505
G01 X23.5145 Y-7.8931
G01 X23.5334 Y-7.8441
G01 X23.5499 Y-7.7942
G01 X23.5666 Y-7.7337
G01 X23.5781 Y-7.6824
G01 X23.5877 Y-7.6273
G01 X23.5948 Y-7.5683
G01 X23.5986 Y-7.5159
G01 X23.6000 Y-7.4600
G01 X23.5984 Y-7.4006
G01 X23.5945 Y-7.3483
G01 X23.5877 Y-7.2927
G01 X23.5774 Y-7.2342
G01 X23.5658 Y-7.1830
G01 X23.5509 Y-7.1291
G01 X23.5334 Y-7.0759
G01 X23.5145 Y-7.0269
G01 X23.4905 Y-6.9726
G01 X23.4654 Y-6.9226
G01 X23.4395 Y-6.8769
G01 X23.4059 Y-6.8238
G01 X23.3757 Y-6.7809
G01 X23.3434 Y-6.7395
G01 X23.3047 Y-6.6944
G01 X23.2661 Y-6.6539
G01 X23.2281 Y-6.6177
G01 X23.1805 Y-6.5766
G01 X23.1391 Y-6.5443
G01 X23.0962 Y-6.5141
G01 X23.0431 Y-6.4805
G01 X22.9974 Y-6.4546
G01 X22.9474 Y-6.4295
G01 X22.8963 Y-6.4068
G01 X22.8501 Y-6.3889
G01 X22.8501 Y-3.6005
G01 X27.0699 Y-3.6005
G01 X27.0699 Y-6.3889
G01 X27.0237 Y-6.4068
G01 X26.9726 Y-6.4295
G01 X26.9226 Y-6.4546
G01 X26.8739 Y-6.4822
G01 X26.8266 Y-6.5121
G01 X26.7809 Y-6.5443
G01 X26.7368 Y-6.5788
G01 X26.6970 Y-6.6130
G01 X26.6515 Y-6.6564
G01 X26.6153 Y-6.6944
G01 X26.5766 Y-6.7395
G01 X26.5443 Y-6.7809
G01 X26.5121 Y-6.8266
G01 X26.4822 Y-6.8739
G01 X26.4563 Y-6.9196
G01 X26.4295 Y-6.9726
G01 X26.4081 Y-7.0206
G01 X26.3855 Y-7.0792
G01 X26.3691 Y-7.1291
G01 X26.3542 Y-7.1830
G01 X26.3419 Y-7.2376
G01 X26.3323 Y-7.2927
G01 X26.3255 Y-7.3483
G01 X26.3214 Y-7.4041
G01 X26.3200 Y-7.4600
G01 X26.3212 Y-7.5125
G01 X26.3255 Y-7.5717
G01 X26.3319 Y-7.6239
G01 X26.3426 Y-7.6858
G01 X26.3542 Y-7.7370
G01 X26.3681 Y-7.7876
G01 X26.3855 Y-7.8408
G01 X26.4068 Y-7.8963
G01 X26.4295 Y-7.9474
G01 X26.4563 Y-8.0004
G01 X26.4822 Y-8.0461
G01 X26.5103 Y-8.0905
G01 X26.5443 Y-8.1391
G01 X26.5810 Y-8.1858
G01 X26.6153 Y-8.2256
