(G-CODE GENERATED BY FLATCAM v8.993 - www.flatcam.org - Version Date: 2020/06/05)

(Name: _Ф2_низ.gbr_cutout_cnc)
(Type: G-code from Geometry)
(Units: MM)

(Created on Sunday, 27 September 2020 at 16:45)

(This preprocessor is the default preprocessor used by FlatCAM.)
(It is made to work with MACH3 compatible motion controllers.)

(TOOL DIAMETER: 0.8 mm)
(Feedrate_XY: 120.0 mm/min)
(Feedrate_Z: 60.0 mm/min)
(Feedrate rapids 1500.0 mm/min)

(Z_Cut: -1.8 mm)
(DepthPerCut: 0.1 mm <=>18 passes)
(Z_Move: 2.0 mm)
(Z Start: None mm)
(Z End: 25.0 mm)
(Steps per circle: 128)
(Preprocessor Geometry: default)

(X range:   -0.4991 ...   40.4991  mm)
(Y range:  -10.4991 ...    0.4991  mm)

(Spindle Speed: None RPM)
G21
G90
G94



G01 F120.00
G00 Z2.0000

M03
G00 X40.0000 Y-10.4991
G01 F60.00
G01 Z-0.1000
G01 F120.00
G01 X0.0000 Y-10.4991
G01 X-0.0489 Y-10.4967
G01 X-0.0974 Y-10.4895
G01 X-0.1449 Y-10.4776
G01 X-0.1910 Y-10.4611
G01 X-0.2353 Y-10.4402
G01 X-0.2773 Y-10.4150
G01 X-0.3166 Y-10.3858
G01 X-0.3529 Y-10.3529
G01 X-0.3858 Y-10.3166
G01 X-0.4150 Y-10.2773
G01 X-0.4402 Y-10.2353
G01 X-0.4611 Y-10.1910
G01 X-0.4776 Y-10.1449
G01 X-0.4895 Y-10.0974
G01 X-0.4967 Y-10.0489
G01 X-0.4991 Y-10.0000
G01 X-0.4991 Y-0.0000
G01 X-0.4967 Y0.0489
G01 X-0.4895 Y0.0974
G01 X-0.4776 Y0.1449
G01 X-0.4611 Y0.1910
G01 X-0.4402 Y0.2353
G01 X-0.4150 Y0.2773
G01 X-0.3858 Y0.3166
G01 X-0.3529 Y0.3529
G01 X-0.3166 Y0.3858
G01 X-0.2773 Y0.4150
G01 X-0.2353 Y0.4402
G01 X-0.1910 Y0.4611
G01 X-0.1449 Y0.4776
G01 X-0.0974 Y0.4895
G01 X-0.0489 Y0.4967
G01 X0.0000 Y0.4991
G01 X40.0000 Y0.4991
G01 X40.0489 Y0.4967
G01 X40.0974 Y0.4895
G01 X40.1449 Y0.4776
G01 X40.1910 Y0.4611
G01 X40.2353 Y0.4402
G01 X40.2773 Y0.4150
G01 X40.3166 Y0.3858
G01 X40.3529 Y0.3529
G01 X40.3858 Y0.3166
G01 X40.4150 Y0.2773
G01 X40.4402 Y0.2353
G01 X40.4611 Y0.1910
G01 X40.4776 Y0.1449
G01 X40.4895 Y0.0974
G01 X40.4967 Y0.0489
G01 X40.4991 Y-0.0000
G01 X40.4991 Y-10.0000
G01 X40.4967 Y-10.0489
G01 X40.4895 Y-10.0974
G01 X40.4776 Y-10.1449
G01 X40.4611 Y-10.1910
G01 X40.4402 Y-10.2353
G01 X40.4150 Y-10.2773
G01 X40.3858 Y-10.3166
G01 X40.3529 Y-10.3529
G01 X40.3166 Y-10.3858
G01 X40.2773 Y-10.4150
G01 X40.2353 Y-10.4402
G01 X40.1910 Y-10.4611
G01 X40.1449 Y-10.4776
G01 X40.0974 Y-10.4895
G01 X40.0489 Y-10.4967
G01 X40.0000 Y-10.4991
G00 X40.0000 Y-10.4991
G01 F60.00
G01 Z-0.2000
G01 F120.00
G01 X40.0489 Y-10.4967
G01 X40.0974 Y-10.4895
G01 X40.1449 Y-10.4776
G01 X40.1910 Y-10.4611
G01 X40.2353 Y-10.4402
G01 X40.2773 Y-10.4150
G01 X40.3166 Y-10.3858
G01 X40.3529 Y-10.3529
G01 X40.3858 Y-10.3166
G01 X40.4150 Y-10.2773
G01 X40.4402 Y-10.2353
G01 X40.4611 Y-10.1910
G01 X40.4776 Y-10.1449
G01 X40.4895 Y-10.0974
G01 X40.4967 Y-10.0489
G01 X40.4991 Y-10.0000
G01 X40.4991 Y-0.0000
G01 X40.4967 Y0.0489
G01 X40.4895 Y0.0974
G01 X40.4776 Y0.1449
G01 X40.4611 Y0.1910
G01 X40.4402 Y0.2353
G01 X40.4150 Y0.2773
G01 X40.3858 Y0.3166
G01 X40.3529 Y0.3529
G01 X40.3166 Y0.3858
G01 X40.2773 Y0.4150
G01 X40.2353 Y0.4402
G01 X40.1910 Y0.4611
G01 X40.1449 Y0.4776
G01 X40.0974 Y0.4895
G01 X40.0489 Y0.4967
G01 X40.0000 Y0.4991
G01 X0.0000 Y0.4991
G01 X-0.0489 Y0.4967
G01 X-0.0974 Y0.4895
G01 X-0.1449 Y0.4776
G01 X-0.1910 Y0.4611
G01 X-0.2353 Y0.4402
G01 X-0.2773 Y0.4150
G01 X-0.3166 Y0.3858
G01 X-0.3529 Y0.3529
G01 X-0.3858 Y0.3166
G01 X-0.4150 Y0.2773
G01 X-0.4402 Y0.2353
G01 X-0.4611 Y0.1910
G01 X-0.4776 Y0.1449
G01 X-0.4895 Y0.0974
G01 X-0.4967 Y0.0489
G01 X-0.4991 Y-0.0000
G01 X-0.4991 Y-10.0000
G01 X-0.4967 Y-10.0489
G01 X-0.4895 Y-10.0974
G01 X-0.4776 Y-10.1449
G01 X-0.4611 Y-10.1910
G01 X-0.4402 Y-10.2353
G01 X-0.4150 Y-10.2773
G01 X-0.3858 Y-10.3166
G01 X-0.3529 Y-10.3529
G01 X-0.3166 Y-10.3858
G01 X-0.2773 Y-10.4150
G01 X-0.2353 Y-10.4402
G01 X-0.1910 Y-10.4611
G01 X-0.1449 Y-10.4776
G01 X-0.0974 Y-10.4895
G01 X-0.0489 Y-10.4967
G01 X0.0000 Y-10.4991
G01 X40.0000 Y-10.4991
G00 X40.0000 Y-10.4991
G01 F60.00
G01 Z-0.3000
G01 F120.00
G01 X0.0000 Y-10.4991
G01 X-0.0489 Y-10.4967
G01 X-0.0974 Y-10.4895
G01 X-0.1449 Y-10.4776
G01 X-0.1910 Y-10.4611
G01 X-0.2353 Y-10.4402
G01 X-0.2773 Y-10.4150
G01 X-0.3166 Y-10.3858
G01 X-0.3529 Y-10.3529
G01 X-0.3858 Y-10.3166
G01 X-0.4150 Y-10.2773
G01 X-0.4402 Y-10.2353
G01 X-0.4611 Y-10.1910
G01 X-0.4776 Y-10.1449
G01 X-0.4895 Y-10.0974
G01 X-0.4967 Y-10.0489
G01 X-0.4991 Y-10.0000
G01 X-0.4991 Y-0.0000
G01 X-0.4967 Y0.0489
G01 X-0.4895 Y0.0974
G01 X-0.4776 Y0.1449
G01 X-0.4611 Y0.1910
G01 X-0.4402 Y0.2353
G01 X-0.4150 Y0.2773
G01 X-0.3858 Y0.3166
G01 X-0.3529 Y0.3529
G01 X-0.3166 Y0.3858
G01 X-0.2773 Y0.4150
G01 X-0.2353 Y0.4402
G01 X-0.1910 Y0.4611
G01 X-0.1449 Y0.4776
G01 X-0.0974 Y0.4895
G01 X-0.0489 Y0.4967
G01 X0.0000 Y0.4991
G01 X40.0000 Y0.4991
G01 X40.0489 Y0.4967
G01 X40.0974 Y0.4895
G01 X40.1449 Y0.4776
G01 X40.1910 Y0.4611
G01 X40.2353 Y0.4402
G01 X40.2773 Y0.4150
G01 X40.3166 Y0.3858
G01 X40.3529 Y0.3529
G01 X40.3858 Y0.3166
G01 X40.4150 Y0.2773
G01 X40.4402 Y0.2353
G01 X40.4611 Y0.1910
G01 X40.4776 Y0.1449
G01 X40.4895 Y0.0974
G01 X40.4967 Y0.0489
G01 X40.4991 Y-0.0000
G01 X40.4991 Y-10.0000
G01 X40.4967 Y-10.0489
G01 X40.4895 Y-10.0974
G01 X40.4776 Y-10.1449
G01 X40.4611 Y-10.1910
G01 X40.4402 Y-10.2353
G01 X40.4150 Y-10.2773
G01 X40.3858 Y-10.3166
G01 X40.3529 Y-10.3529
G01 X40.3166 Y-10.3858
G01 X40.2773 Y-10.4150
G01 X40.2353 Y-10.4402
G01 X40.1910 Y-10.4611
G01 X40.1449 Y-10.4776
G01 X40.0974 Y-10.4895
G01 X40.0489 Y-10.4967
G01 X40.0000 Y-10.4991
G00 X40.0000 Y-10.4991
G01 F60.00
G01 Z-0.4000
G01 F120.00
G01 X40.0489 Y-10.4967
G01 X40.0974 Y-10.4895
G01 X40.1449 Y-10.4776
G01 X40.1910 Y-10.4611
G01 X40.2353 Y-10.4402
G01 X40.2773 Y-10.4150
G01 X40.3166 Y-10.3858
G01 X40.3529 Y-10.3529
G01 X40.3858 Y-10.3166
G01 X40.4150 Y-10.2773
G01 X40.4402 Y-10.2353
G01 X40.4611 Y-10.1910
G01 X40.4776 Y-10.1449
G01 X40.4895 Y-10.0974
G01 X40.4967 Y-10.0489
G01 X40.4991 Y-10.0000
G01 X40.4991 Y-0.0000
G01 X40.4967 Y0.0489
G01 X40.4895 Y0.0974
G01 X40.4776 Y0.1449
G01 X40.4611 Y0.1910
G01 X40.4402 Y0.2353
G01 X40.4150 Y0.2773
G01 X40.3858 Y0.3166
G01 X40.3529 Y0.3529
G01 X40.3166 Y0.3858
G01 X40.2773 Y0.4150
G01 X40.2353 Y0.4402
G01 X40.1910 Y0.4611
G01 X40.1449 Y0.4776
G01 X40.0974 Y0.4895
G01 X40.0489 Y0.4967
G01 X40.0000 Y0.4991
G01 X0.0000 Y0.4991
G01 X-0.0489 Y0.4967
G01 X-0.0974 Y0.4895
G01 X-0.1449 Y0.4776
G01 X-0.1910 Y0.4611
G01 X-0.2353 Y0.4402
G01 X-0.2773 Y0.4150
G01 X-0.3166 Y0.3858
G01 X-0.3529 Y0.3529
G01 X-0.3858 Y0.3166
G01 X-0.4150 Y0.2773
G01 X-0.4402 Y0.2353
G01 X-0.4611 Y0.1910
G01 X-0.4776 Y0.1449
G01 X-0.4895 Y0.0974
G01 X-0.4967 Y0.0489
G01 X-0.4991 Y-0.0000
G01 X-0.4991 Y-10.0000
G01 X-0.4967 Y-10.0489
G01 X-0.4895 Y-10.0974
G01 X-0.4776 Y-10.1449
G01 X-0.4611 Y-10.1910
G01 X-0.4402 Y-10.2353
G01 X-0.4150 Y-10.2773
G01 X-0.3858 Y-10.3166
G01 X-0.3529 Y-10.3529
G01 X-0.3166 Y-10.3858
G01 X-0.2773 Y-10.4150
G01 X-0.2353 Y-10.4402
G01 X-0.1910 Y-10.4611
G01 X-0.1449 Y-10.4776
G01 X-0.0974 Y-10.4895
G01 X-0.0489 Y-10.4967
G01 X0.0000 Y-10.4991
G01 X40.0000 Y-10.4991
G00 X40.0000 Y-10.4991
G01 F60.00
G01 Z-0.5000
G01 F120.00
G01 X0.0000 Y-10.4991
G01 X-0.0489 Y-10.4967
G01 X-0.0974 Y-10.4895
G01 X-0.1449 Y-10.4776
G01 X-0.1910 Y-10.4611
G01 X-0.2353 Y-10.4402
G01 X-0.2773 Y-10.4150
G01 X-0.3166 Y-10.3858
G01 X-0.3529 Y-10.3529
G01 X-0.3858 Y-10.3166
G01 X-0.4150 Y-10.2773
G01 X-0.4402 Y-10.2353
G01 X-0.4611 Y-10.1910
G01 X-0.4776 Y-10.1449
G01 X-0.4895 Y-10.0974
G01 X-0.4967 Y-10.0489
G01 X-0.4991 Y-10.0000
G01 X-0.4991 Y-0.0000
G01 X-0.4967 Y0.0489
G01 X-0.4895 Y0.0974
G01 X-0.4776 Y0.1449
G01 X-0.4611 Y0.1910
G01 X-0.4402 Y0.2353
G01 X-0.4150 Y0.2773
G01 X-0.3858 Y0.3166
G01 X-0.3529 Y0.3529
G01 X-0.3166 Y0.3858
G01 X-0.2773 Y0.4150
G01 X-0.2353 Y0.4402
G01 X-0.1910 Y0.4611
G01 X-0.1449 Y0.4776
G01 X-0.0974 Y0.4895
G01 X-0.0489 Y0.4967
G01 X0.0000 Y0.4991
G01 X40.0000 Y0.4991
G01 X40.0489 Y0.4967
G01 X40.0974 Y0.4895
G01 X40.1449 Y0.4776
G01 X40.1910 Y0.4611
G01 X40.2353 Y0.4402
G01 X40.2773 Y0.4150
G01 X40.3166 Y0.3858
G01 X40.3529 Y0.3529
G01 X40.3858 Y0.3166
G01 X40.4150 Y0.2773
G01 X40.4402 Y0.2353
G01 X40.4611 Y0.1910
G01 X40.4776 Y0.1449
G01 X40.4895 Y0.0974
G01 X40.4967 Y0.0489
G01 X40.4991 Y-0.0000
G01 X40.4991 Y-10.0000
G01 X40.4967 Y-10.0489
G01 X40.4895 Y-10.0974
G01 X40.4776 Y-10.1449
G01 X40.4611 Y-10.1910
G01 X40.4402 Y-10.2353
G01 X40.4150 Y-10.2773
G01 X40.3858 Y-10.3166
G01 X40.3529 Y-10.3529
G01 X40.3166 Y-10.3858
G01 X40.2773 Y-10.4150
G01 X40.2353 Y-10.4402
G01 X40.1910 Y-10.4611
G01 X40.1449 Y-10.4776
G01 X40.0974 Y-10.4895
G01 X40.0489 Y-10.4967
G01 X40.0000 Y-10.4991
G00 X40.0000 Y-10.4991
G01 F60.00
G01 Z-0.6000
G01 F120.00
G01 X40.0489 Y-10.4967
G01 X40.0974 Y-10.4895
G01 X40.1449 Y-10.4776
G01 X40.1910 Y-10.4611
G01 X40.2353 Y-10.4402
G01 X40.2773 Y-10.4150
G01 X40.3166 Y-10.3858
G01 X40.3529 Y-10.3529
G01 X40.3858 Y-10.3166
G01 X40.4150 Y-10.2773
G01 X40.4402 Y-10.2353
G01 X40.4611 Y-10.1910
G01 X40.4776 Y-10.1449
G01 X40.4895 Y-10.0974
G01 X40.4967 Y-10.0489
G01 X40.4991 Y-10.0000
G01 X40.4991 Y-0.0000
G01 X40.4967 Y0.0489
G01 X40.4895 Y0.0974
G01 X40.4776 Y0.1449
G01 X40.4611 Y0.1910
G01 X40.4402 Y0.2353
G01 X40.4150 Y0.2773
G01 X40.3858 Y0.3166
G01 X40.3529 Y0.3529
G01 X40.3166 Y0.3858
G01 X40.2773 Y0.4150
G01 X40.2353 Y0.4402
G01 X40.1910 Y0.4611
G01 X40.1449 Y0.4776
G01 X40.0974 Y0.4895
G01 X40.0489 Y0.4967
G01 X40.0000 Y0.4991
G01 X0.0000 Y0.4991
G01 X-0.0489 Y0.4967
G01 X-0.0974 Y0.4895
G01 X-0.1449 Y0.4776
G01 X-0.1910 Y0.4611
G01 X-0.2353 Y0.4402
G01 X-0.2773 Y0.4150
G01 X-0.3166 Y0.3858
G01 X-0.3529 Y0.3529
G01 X-0.3858 Y0.3166
G01 X-0.4150 Y0.2773
G01 X-0.4402 Y0.2353
G01 X-0.4611 Y0.1910
G01 X-0.4776 Y0.1449
G01 X-0.4895 Y0.0974
G01 X-0.4967 Y0.0489
G01 X-0.4991 Y-0.0000
G01 X-0.4991 Y-10.0000
G01 X-0.4967 Y-10.0489
G01 X-0.4895 Y-10.0974
G01 X-0.4776 Y-10.1449
G01 X-0.4611 Y-10.1910
G01 X-0.4402 Y-10.2353
G01 X-0.4150 Y-10.2773
G01 X-0.3858 Y-10.3166
G01 X-0.3529 Y-10.3529
G01 X-0.3166 Y-10.3858
G01 X-0.2773 Y-10.4150
G01 X-0.2353 Y-10.4402
G01 X-0.1910 Y-10.4611
G01 X-0.1449 Y-10.4776
G01 X-0.0974 Y-10.4895
G01 X-0.0489 Y-10.4967
G01 X0.0000 Y-10.4991
G01 X40.0000 Y-10.4991
G00 X40.0000 Y-10.4991
G01 F60.00
G01 Z-0.7000
G01 F120.00
G01 X0.0000 Y-10.4991
G01 X-0.0489 Y-10.4967
G01 X-0.0974 Y-10.4895
G01 X-0.1449 Y-10.4776
G01 X-0.1910 Y-10.4611
G01 X-0.2353 Y-10.4402
G01 X-0.2773 Y-10.4150
G01 X-0.3166 Y-10.3858
G01 X-0.3529 Y-10.3529
G01 X-0.3858 Y-10.3166
G01 X-0.4150 Y-10.2773
G01 X-0.4402 Y-10.2353
G01 X-0.4611 Y-10.1910
G01 X-0.4776 Y-10.1449
G01 X-0.4895 Y-10.0974
G01 X-0.4967 Y-10.0489
G01 X-0.4991 Y-10.0000
G01 X-0.4991 Y-0.0000
G01 X-0.4967 Y0.0489
G01 X-0.4895 Y0.0974
G01 X-0.4776 Y0.1449
G01 X-0.4611 Y0.1910
G01 X-0.4402 Y0.2353
G01 X-0.4150 Y0.2773
G01 X-0.3858 Y0.3166
G01 X-0.3529 Y0.3529
G01 X-0.3166 Y0.3858
G01 X-0.2773 Y0.4150
G01 X-0.2353 Y0.4402
G01 X-0.1910 Y0.4611
G01 X-0.1449 Y0.4776
G01 X-0.0974 Y0.4895
G01 X-0.0489 Y0.4967
G01 X0.0000 Y0.4991
G01 X40.0000 Y0.4991
G01 X40.0489 Y0.4967
G01 X40.0974 Y0.4895
G01 X40.1449 Y0.4776
G01 X40.1910 Y0.4611
G01 X40.2353 Y0.4402
G01 X40.2773 Y0.4150
G01 X40.3166 Y0.3858
G01 X40.3529 Y0.3529
G01 X40.3858 Y0.3166
G01 X40.4150 Y0.2773
G01 X40.4402 Y0.2353
G01 X40.4611 Y0.1910
G01 X40.4776 Y0.1449
G01 X40.4895 Y0.0974
G01 X40.4967 Y0.0489
G01 X40.4991 Y-0.0000
G01 X40.4991 Y-10.0000
G01 X40.4967 Y-10.0489
G01 X40.4895 Y-10.0974
G01 X40.4776 Y-10.1449
G01 X40.4611 Y-10.1910
G01 X40.4402 Y-10.2353
G01 X40.4150 Y-10.2773
G01 X40.3858 Y-10.3166
G01 X40.3529 Y-10.3529
G01 X40.3166 Y-10.3858
G01 X40.2773 Y-10.4150
G01 X40.2353 Y-10.4402
G01 X40.1910 Y-10.4611
G01 X40.1449 Y-10.4776
G01 X40.0974 Y-10.4895
G01 X40.0489 Y-10.4967
G01 X40.0000 Y-10.4991
G00 X40.0000 Y-10.4991
G01 F60.00
G01 Z-0.8000
G01 F120.00
G01 X40.0489 Y-10.4967
G01 X40.0974 Y-10.4895
G01 X40.1449 Y-10.4776
G01 X40.1910 Y-10.4611
G01 X40.2353 Y-10.4402
G01 X40.2773 Y-10.4150
G01 X40.3166 Y-10.3858
G01 X40.3529 Y-10.3529
G01 X40.3858 Y-10.3166
G01 X40.4150 Y-10.2773
G01 X40.4402 Y-10.2353
G01 X40.4611 Y-10.1910
G01 X40.4776 Y-10.1449
G01 X40.4895 Y-10.0974
G01 X40.4967 Y-10.0489
G01 X40.4991 Y-10.0000
G01 X40.4991 Y-0.0000
G01 X40.4967 Y0.0489
G01 X40.4895 Y0.0974
G01 X40.4776 Y0.1449
G01 X40.4611 Y0.1910
G01 X40.4402 Y0.2353
G01 X40.4150 Y0.2773
G01 X40.3858 Y0.3166
G01 X40.3529 Y0.3529
G01 X40.3166 Y0.3858
G01 X40.2773 Y0.4150
G01 X40.2353 Y0.4402
G01 X40.1910 Y0.4611
G01 X40.1449 Y0.4776
G01 X40.0974 Y0.4895
G01 X40.0489 Y0.4967
G01 X40.0000 Y0.4991
G01 X0.0000 Y0.4991
G01 X-0.0489 Y0.4967
G01 X-0.0974 Y0.4895
G01 X-0.1449 Y0.4776
G01 X-0.1910 Y0.4611
G01 X-0.2353 Y0.4402
G01 X-0.2773 Y0.4150
G01 X-0.3166 Y0.3858
G01 X-0.3529 Y0.3529
G01 X-0.3858 Y0.3166
G01 X-0.4150 Y0.2773
G01 X-0.4402 Y0.2353
G01 X-0.4611 Y0.1910
G01 X-0.4776 Y0.1449
G01 X-0.4895 Y0.0974
G01 X-0.4967 Y0.0489
G01 X-0.4991 Y-0.0000
G01 X-0.4991 Y-10.0000
G01 X-0.4967 Y-10.0489
G01 X-0.4895 Y-10.0974
G01 X-0.4776 Y-10.1449
G01 X-0.4611 Y-10.1910
G01 X-0.4402 Y-10.2353
G01 X-0.4150 Y-10.2773
G01 X-0.3858 Y-10.3166
G01 X-0.3529 Y-10.3529
G01 X-0.3166 Y-10.3858
G01 X-0.2773 Y-10.4150
G01 X-0.2353 Y-10.4402
G01 X-0.1910 Y-10.4611
G01 X-0.1449 Y-10.4776
G01 X-0.0974 Y-10.4895
G01 X-0.0489 Y-10.4967
G01 X0.0000 Y-10.4991
G01 X40.0000 Y-10.4991
G00 X40.0000 Y-10.4991
G01 F60.00
G01 Z-0.9000
G01 F120.00
G01 X0.0000 Y-10.4991
G01 X-0.0489 Y-10.4967
G01 X-0.0974 Y-10.4895
G01 X-0.1449 Y-10.4776
G01 X-0.1910 Y-10.4611
G01 X-0.2353 Y-10.4402
G01 X-0.2773 Y-10.4150
G01 X-0.3166 Y-10.3858
G01 X-0.3529 Y-10.3529
G01 X-0.3858 Y-10.3166
G01 X-0.4150 Y-10.2773
G01 X-0.4402 Y-10.2353
G01 X-0.4611 Y-10.1910
G01 X-0.4776 Y-10.1449
G01 X-0.4895 Y-10.0974
G01 X-0.4967 Y-10.0489
G01 X-0.4991 Y-10.0000
G01 X-0.4991 Y-0.0000
G01 X-0.4967 Y0.0489
G01 X-0.4895 Y0.0974
G01 X-0.4776 Y0.1449
G01 X-0.4611 Y0.1910
G01 X-0.4402 Y0.2353
G01 X-0.4150 Y0.2773
G01 X-0.3858 Y0.3166
G01 X-0.3529 Y0.3529
G01 X-0.3166 Y0.3858
G01 X-0.2773 Y0.4150
G01 X-0.2353 Y0.4402
G01 X-0.1910 Y0.4611
G01 X-0.1449 Y0.4776
G01 X-0.0974 Y0.4895
G01 X-0.0489 Y0.4967
G01 X0.0000 Y0.4991
G01 X40.0000 Y0.4991
G01 X40.0489 Y0.4967
G01 X40.0974 Y0.4895
G01 X40.1449 Y0.4776
G01 X40.1910 Y0.4611
G01 X40.2353 Y0.4402
G01 X40.2773 Y0.4150
G01 X40.3166 Y0.3858
G01 X40.3529 Y0.3529
G01 X40.3858 Y0.3166
G01 X40.4150 Y0.2773
G01 X40.4402 Y0.2353
G01 X40.4611 Y0.1910
G01 X40.4776 Y0.1449
G01 X40.4895 Y0.0974
G01 X40.4967 Y0.0489
G01 X40.4991 Y-0.0000
G01 X40.4991 Y-10.0000
G01 X40.4967 Y-10.0489
G01 X40.4895 Y-10.0974
G01 X40.4776 Y-10.1449
G01 X40.4611 Y-10.1910
G01 X40.4402 Y-10.2353
G01 X40.4150 Y-10.2773
G01 X40.3858 Y-10.3166
G01 X40.3529 Y-10.3529
G01 X40.3166 Y-10.3858
G01 X40.2773 Y-10.4150
G01 X40.2353 Y-10.4402
G01 X40.1910 Y-10.4611
G01 X40.1449 Y-10.4776
G01 X40.0974 Y-10.4895
G01 X40.0489 Y-10.4967
G01 X40.0000 Y-10.4991
G00 X40.0000 Y-10.4991
G01 F60.00
G01 Z-1.0000
G01 F120.00
G01 X40.0489 Y-10.4967
G01 X40.0974 Y-10.4895
G01 X40.1449 Y-10.4776
G01 X40.1910 Y-10.4611
G01 X40.2353 Y-10.4402
G01 X40.2773 Y-10.4150
G01 X40.3166 Y-10.3858
G01 X40.3529 Y-10.3529
G01 X40.3858 Y-10.3166
G01 X40.4150 Y-10.2773
G01 X40.4402 Y-10.2353
G01 X40.4611 Y-10.1910
G01 X40.4776 Y-10.1449
G01 X40.4895 Y-10.0974
G01 X40.4967 Y-10.0489
G01 X40.4991 Y-10.0000
G01 X40.4991 Y-0.0000
G01 X40.4967 Y0.0489
G01 X40.4895 Y0.0974
G01 X40.4776 Y0.1449
G01 X40.4611 Y0.1910
G01 X40.4402 Y0.2353
G01 X40.4150 Y0.2773
G01 X40.3858 Y0.3166
G01 X40.3529 Y0.3529
G01 X40.3166 Y0.3858
G01 X40.2773 Y0.4150
G01 X40.2353 Y0.4402
G01 X40.1910 Y0.4611
G01 X40.1449 Y0.4776
G01 X40.0974 Y0.4895
G01 X40.0489 Y0.4967
G01 X40.0000 Y0.4991
G01 X0.0000 Y0.4991
G01 X-0.0489 Y0.4967
G01 X-0.0974 Y0.4895
G01 X-0.1449 Y0.4776
G01 X-0.1910 Y0.4611
G01 X-0.2353 Y0.4402
G01 X-0.2773 Y0.4150
G01 X-0.3166 Y0.3858
G01 X-0.3529 Y0.3529
G01 X-0.3858 Y0.3166
G01 X-0.4150 Y0.2773
G01 X-0.4402 Y0.2353
G01 X-0.4611 Y0.1910
G01 X-0.4776 Y0.1449
G01 X-0.4895 Y0.0974
G01 X-0.4967 Y0.0489
G01 X-0.4991 Y-0.0000
G01 X-0.4991 Y-10.0000
G01 X-0.4967 Y-10.0489
G01 X-0.4895 Y-10.0974
G01 X-0.4776 Y-10.1449
G01 X-0.4611 Y-10.1910
G01 X-0.4402 Y-10.2353
G01 X-0.4150 Y-10.2773
G01 X-0.3858 Y-10.3166
G01 X-0.3529 Y-10.3529
G01 X-0.3166 Y-10.3858
G01 X-0.2773 Y-10.4150
G01 X-0.2353 Y-10.4402
G01 X-0.1910 Y-10.4611
G01 X-0.1449 Y-10.4776
G01 X-0.0974 Y-10.4895
G01 X-0.0489 Y-10.4967
G01 X0.0000 Y-10.4991
G01 X40.0000 Y-10.4991
G00 X40.0000 Y-10.4991
G01 F60.00
G01 Z-1.1000
G01 F120.00
G01 X0.0000 Y-10.4991
G01 X-0.0489 Y-10.4967
G01 X-0.0974 Y-10.4895
G01 X-0.1449 Y-10.4776
G01 X-0.1910 Y-10.4611
G01 X-0.2353 Y-10.4402
G01 X-0.2773 Y-10.4150
G01 X-0.3166 Y-10.3858
G01 X-0.3529 Y-10.3529
G01 X-0.3858 Y-10.3166
G01 X-0.4150 Y-10.2773
G01 X-0.4402 Y-10.2353
G01 X-0.4611 Y-10.1910
G01 X-0.4776 Y-10.1449
G01 X-0.4895 Y-10.0974
G01 X-0.4967 Y-10.0489
G01 X-0.4991 Y-10.0000
G01 X-0.4991 Y-0.0000
G01 X-0.4967 Y0.0489
G01 X-0.4895 Y0.0974
G01 X-0.4776 Y0.1449
G01 X-0.4611 Y0.1910
G01 X-0.4402 Y0.2353
G01 X-0.4150 Y0.2773
G01 X-0.3858 Y0.3166
G01 X-0.3529 Y0.3529
G01 X-0.3166 Y0.3858
G01 X-0.2773 Y0.4150
G01 X-0.2353 Y0.4402
G01 X-0.1910 Y0.4611
G01 X-0.1449 Y0.4776
G01 X-0.0974 Y0.4895
G01 X-0.0489 Y0.4967
G01 X0.0000 Y0.4991
G01 X40.0000 Y0.4991
G01 X40.0489 Y0.4967
G01 X40.0974 Y0.4895
G01 X40.1449 Y0.4776
G01 X40.1910 Y0.4611
G01 X40.2353 Y0.4402
G01 X40.2773 Y0.4150
G01 X40.3166 Y0.3858
G01 X40.3529 Y0.3529
G01 X40.3858 Y0.3166
G01 X40.4150 Y0.2773
G01 X40.4402 Y0.2353
G01 X40.4611 Y0.1910
G01 X40.4776 Y0.1449
G01 X40.4895 Y0.0974
G01 X40.4967 Y0.0489
G01 X40.4991 Y-0.0000
G01 X40.4991 Y-10.0000
G01 X40.4967 Y-10.0489
G01 X40.4895 Y-10.0974
G01 X40.4776 Y-10.1449
G01 X40.4611 Y-10.1910
G01 X40.4402 Y-10.2353
G01 X40.4150 Y-10.2773
G01 X40.3858 Y-10.3166
G01 X40.3529 Y-10.3529
G01 X40.3166 Y-10.3858
G01 X40.2773 Y-10.4150
G01 X40.2353 Y-10.4402
G01 X40.1910 Y-10.4611
G01 X40.1449 Y-10.4776
G01 X40.0974 Y-10.4895
G01 X40.0489 Y-10.4967
G01 X40.0000 Y-10.4991
G00 X40.0000 Y-10.4991
G01 F60.00
G01 Z-1.2000
G01 F120.00
G01 X40.0489 Y-10.4967
G01 X40.0974 Y-10.4895
G01 X40.1449 Y-10.4776
G01 X40.1910 Y-10.4611
G01 X40.2353 Y-10.4402
G01 X40.2773 Y-10.4150
G01 X40.3166 Y-10.3858
G01 X40.3529 Y-10.3529
G01 X40.3858 Y-10.3166
G01 X40.4150 Y-10.2773
G01 X40.4402 Y-10.2353
G01 X40.4611 Y-10.1910
G01 X40.4776 Y-10.1449
G01 X40.4895 Y-10.0974
G01 X40.4967 Y-10.0489
G01 X40.4991 Y-10.0000
G01 X40.4991 Y-0.0000
G01 X40.4967 Y0.0489
G01 X40.4895 Y0.0974
G01 X40.4776 Y0.1449
G01 X40.4611 Y0.1910
G01 X40.4402 Y0.2353
G01 X40.4150 Y0.2773
G01 X40.3858 Y0.3166
G01 X40.3529 Y0.3529
G01 X40.3166 Y0.3858
G01 X40.2773 Y0.4150
G01 X40.2353 Y0.4402
G01 X40.1910 Y0.4611
G01 X40.1449 Y0.4776
G01 X40.0974 Y0.4895
G01 X40.0489 Y0.4967
G01 X40.0000 Y0.4991
G01 X0.0000 Y0.4991
G01 X-0.0489 Y0.4967
G01 X-0.0974 Y0.4895
G01 X-0.1449 Y0.4776
G01 X-0.1910 Y0.4611
G01 X-0.2353 Y0.4402
G01 X-0.2773 Y0.4150
G01 X-0.3166 Y0.3858
G01 X-0.3529 Y0.3529
G01 X-0.3858 Y0.3166
G01 X-0.4150 Y0.2773
G01 X-0.4402 Y0.2353
G01 X-0.4611 Y0.1910
G01 X-0.4776 Y0.1449
G01 X-0.4895 Y0.0974
G01 X-0.4967 Y0.0489
G01 X-0.4991 Y-0.0000
G01 X-0.4991 Y-10.0000
G01 X-0.4967 Y-10.0489
G01 X-0.4895 Y-10.0974
G01 X-0.4776 Y-10.1449
G01 X-0.4611 Y-10.1910
G01 X-0.4402 Y-10.2353
G01 X-0.4150 Y-10.2773
G01 X-0.3858 Y-10.3166
G01 X-0.3529 Y-10.3529
G01 X-0.3166 Y-10.3858
G01 X-0.2773 Y-10.4150
G01 X-0.2353 Y-10.4402
G01 X-0.1910 Y-10.4611
G01 X-0.1449 Y-10.4776
G01 X-0.0974 Y-10.4895
G01 X-0.0489 Y-10.4967
G01 X0.0000 Y-10.4991
G01 X40.0000 Y-10.4991
G00 X40.0000 Y-10.4991
G01 F60.00
G01 Z-1.3000
G01 F120.00
G01 X0.0000 Y-10.4991
G01 X-0.0489 Y-10.4967
G01 X-0.0974 Y-10.4895
G01 X-0.1449 Y-10.4776
G01 X-0.1910 Y-10.4611
G01 X-0.2353 Y-10.4402
G01 X-0.2773 Y-10.4150
G01 X-0.3166 Y-10.3858
G01 X-0.3529 Y-10.3529
G01 X-0.3858 Y-10.3166
G01 X-0.4150 Y-10.2773
G01 X-0.4402 Y-10.2353
G01 X-0.4611 Y-10.1910
G01 X-0.4776 Y-10.1449
G01 X-0.4895 Y-10.0974
G01 X-0.4967 Y-10.0489
G01 X-0.4991 Y-10.0000
G01 X-0.4991 Y-0.0000
G01 X-0.4967 Y0.0489
G01 X-0.4895 Y0.0974
G01 X-0.4776 Y0.1449
G01 X-0.4611 Y0.1910
G01 X-0.4402 Y0.2353
G01 X-0.4150 Y0.2773
G01 X-0.3858 Y0.3166
G01 X-0.3529 Y0.3529
G01 X-0.3166 Y0.3858
G01 X-0.2773 Y0.4150
G01 X-0.2353 Y0.4402
G01 X-0.1910 Y0.4611
G01 X-0.1449 Y0.4776
G01 X-0.0974 Y0.4895
G01 X-0.0489 Y0.4967
G01 X0.0000 Y0.4991
G01 X40.0000 Y0.4991
G01 X40.0489 Y0.4967
G01 X40.0974 Y0.4895
G01 X40.1449 Y0.4776
G01 X40.1910 Y0.4611
G01 X40.2353 Y0.4402
G01 X40.2773 Y0.4150
G01 X40.3166 Y0.3858
G01 X40.3529 Y0.3529
G01 X40.3858 Y0.3166
G01 X40.4150 Y0.2773
G01 X40.4402 Y0.2353
G01 X40.4611 Y0.1910
G01 X40.4776 Y0.1449
G01 X40.4895 Y0.0974
G01 X40.4967 Y0.0489
G01 X40.4991 Y-0.0000
G01 X40.4991 Y-10.0000
G01 X40.4967 Y-10.0489
G01 X40.4895 Y-10.0974
G01 X40.4776 Y-10.1449
G01 X40.4611 Y-10.1910
G01 X40.4402 Y-10.2353
G01 X40.4150 Y-10.2773
G01 X40.3858 Y-10.3166
G01 X40.3529 Y-10.3529
G01 X40.3166 Y-10.3858
G01 X40.2773 Y-10.4150
G01 X40.2353 Y-10.4402
G01 X40.1910 Y-10.4611
G01 X40.1449 Y-10.4776
G01 X40.0974 Y-10.4895
G01 X40.0489 Y-10.4967
G01 X40.0000 Y-10.4991
G00 X40.0000 Y-10.4991
G01 F60.00
G01 Z-1.4000
G01 F120.00
G01 X40.0489 Y-10.4967
G01 X40.0974 Y-10.4895
G01 X40.1449 Y-10.4776
G01 X40.1910 Y-10.4611
G01 X40.2353 Y-10.4402
G01 X40.2773 Y-10.4150
G01 X40.3166 Y-10.3858
G01 X40.3529 Y-10.3529
G01 X40.3858 Y-10.3166
G01 X40.4150 Y-10.2773
G01 X40.4402 Y-10.2353
G01 X40.4611 Y-10.1910
G01 X40.4776 Y-10.1449
G01 X40.4895 Y-10.0974
G01 X40.4967 Y-10.0489
G01 X40.4991 Y-10.0000
G01 X40.4991 Y-0.0000
G01 X40.4967 Y0.0489
G01 X40.4895 Y0.0974
G01 X40.4776 Y0.1449
G01 X40.4611 Y0.1910
G01 X40.4402 Y0.2353
G01 X40.4150 Y0.2773
G01 X40.3858 Y0.3166
G01 X40.3529 Y0.3529
G01 X40.3166 Y0.3858
G01 X40.2773 Y0.4150
G01 X40.2353 Y0.4402
G01 X40.1910 Y0.4611
G01 X40.1449 Y0.4776
G01 X40.0974 Y0.4895
G01 X40.0489 Y0.4967
G01 X40.0000 Y0.4991
G01 X0.0000 Y0.4991
G01 X-0.0489 Y0.4967
G01 X-0.0974 Y0.4895
G01 X-0.1449 Y0.4776
G01 X-0.1910 Y0.4611
G01 X-0.2353 Y0.4402
G01 X-0.2773 Y0.4150
G01 X-0.3166 Y0.3858
G01 X-0.3529 Y0.3529
G01 X-0.3858 Y0.3166
G01 X-0.4150 Y0.2773
G01 X-0.4402 Y0.2353
G01 X-0.4611 Y0.1910
G01 X-0.4776 Y0.1449
G01 X-0.4895 Y0.0974
G01 X-0.4967 Y0.0489
G01 X-0.4991 Y-0.0000
G01 X-0.4991 Y-10.0000
G01 X-0.4967 Y-10.0489
G01 X-0.4895 Y-10.0974
G01 X-0.4776 Y-10.1449
G01 X-0.4611 Y-10.1910
G01 X-0.4402 Y-10.2353
G01 X-0.4150 Y-10.2773
G01 X-0.3858 Y-10.3166
G01 X-0.3529 Y-10.3529
G01 X-0.3166 Y-10.3858
G01 X-0.2773 Y-10.4150
G01 X-0.2353 Y-10.4402
G01 X-0.1910 Y-10.4611
G01 X-0.1449 Y-10.4776
G01 X-0.0974 Y-10.4895
G01 X-0.0489 Y-10.4967
G01 X0.0000 Y-10.4991
G01 X40.0000 Y-10.4991
G00 X40.0000 Y-10.4991
G01 F60.00
G01 Z-1.5000
G01 F120.00
G01 X0.0000 Y-10.4991
G01 X-0.0489 Y-10.4967
G01 X-0.0974 Y-10.4895
G01 X-0.1449 Y-10.4776
G01 X-0.1910 Y-10.4611
G01 X-0.2353 Y-10.4402
G01 X-0.2773 Y-10.4150
G01 X-0.3166 Y-10.3858
G01 X-0.3529 Y-10.3529
G01 X-0.3858 Y-10.3166
G01 X-0.4150 Y-10.2773
G01 X-0.4402 Y-10.2353
G01 X-0.4611 Y-10.1910
G01 X-0.4776 Y-10.1449
G01 X-0.4895 Y-10.0974
G01 X-0.4967 Y-10.0489
G01 X-0.4991 Y-10.0000
G01 X-0.4991 Y-0.0000
G01 X-0.4967 Y0.0489
G01 X-0.4895 Y0.0974
G01 X-0.4776 Y0.1449
G01 X-0.4611 Y0.1910
G01 X-0.4402 Y0.2353
G01 X-0.4150 Y0.2773
G01 X-0.3858 Y0.3166
G01 X-0.3529 Y0.3529
G01 X-0.3166 Y0.3858
G01 X-0.2773 Y0.4150
G01 X-0.2353 Y0.4402
G01 X-0.1910 Y0.4611
G01 X-0.1449 Y0.4776
G01 X-0.0974 Y0.4895
G01 X-0.0489 Y0.4967
G01 X0.0000 Y0.4991
G01 X40.0000 Y0.4991
G01 X40.0489 Y0.4967
G01 X40.0974 Y0.4895
G01 X40.1449 Y0.4776
G01 X40.1910 Y0.4611
G01 X40.2353 Y0.4402
G01 X40.2773 Y0.4150
G01 X40.3166 Y0.3858
G01 X40.3529 Y0.3529
G01 X40.3858 Y0.3166
G01 X40.4150 Y0.2773
G01 X40.4402 Y0.2353
G01 X40.4611 Y0.1910
G01 X40.4776 Y0.1449
G01 X40.4895 Y0.0974
G01 X40.4967 Y0.0489
G01 X40.4991 Y-0.0000
G01 X40.4991 Y-10.0000
G01 X40.4967 Y-10.0489
G01 X40.4895 Y-10.0974
G01 X40.4776 Y-10.1449
G01 X40.4611 Y-10.1910
G01 X40.4402 Y-10.2353
G01 X40.4150 Y-10.2773
G01 X40.3858 Y-10.3166
G01 X40.3529 Y-10.3529
G01 X40.3166 Y-10.3858
G01 X40.2773 Y-10.4150
G01 X40.2353 Y-10.4402
G01 X40.1910 Y-10.4611
G01 X40.1449 Y-10.4776
G01 X40.0974 Y-10.4895
G01 X40.0489 Y-10.4967
G01 X40.0000 Y-10.4991
G00 X40.0000 Y-10.4991
G01 F60.00
G01 Z-1.6000
G01 F120.00
G01 X40.0489 Y-10.4967
G01 X40.0974 Y-10.4895
G01 X40.1449 Y-10.4776
G01 X40.1910 Y-10.4611
G01 X40.2353 Y-10.4402
G01 X40.2773 Y-10.4150
G01 X40.3166 Y-10.3858
G01 X40.3529 Y-10.3529
G01 X40.3858 Y-10.3166
G01 X40.4150 Y-10.2773
G01 X40.4402 Y-10.2353
G01 X40.4611 Y-10.1910
G01 X40.4776 Y-10.1449
G01 X40.4895 Y-10.0974
G01 X40.4967 Y-10.0489
G01 X40.4991 Y-10.0000
G01 X40.4991 Y-0.0000
G01 X40.4967 Y0.0489
G01 X40.4895 Y0.0974
G01 X40.4776 Y0.1449
G01 X40.4611 Y0.1910
G01 X40.4402 Y0.2353
G01 X40.4150 Y0.2773
G01 X40.3858 Y0.3166
G01 X40.3529 Y0.3529
G01 X40.3166 Y0.3858
G01 X40.2773 Y0.4150
G01 X40.2353 Y0.4402
G01 X40.1910 Y0.4611
G01 X40.1449 Y0.4776
G01 X40.0974 Y0.4895
G01 X40.0489 Y0.4967
G01 X40.0000 Y0.4991
G01 X0.0000 Y0.4991
G01 X-0.0489 Y0.4967
G01 X-0.0974 Y0.4895
G01 X-0.1449 Y0.4776
G01 X-0.1910 Y0.4611
G01 X-0.2353 Y0.4402
G01 X-0.2773 Y0.4150
G01 X-0.3166 Y0.3858
G01 X-0.3529 Y0.3529
G01 X-0.3858 Y0.3166
G01 X-0.4150 Y0.2773
G01 X-0.4402 Y0.2353
G01 X-0.4611 Y0.1910
G01 X-0.4776 Y0.1449
G01 X-0.4895 Y0.0974
G01 X-0.4967 Y0.0489
G01 X-0.4991 Y-0.0000
G01 X-0.4991 Y-10.0000
G01 X-0.4967 Y-10.0489
G01 X-0.4895 Y-10.0974
G01 X-0.4776 Y-10.1449
G01 X-0.4611 Y-10.1910
G01 X-0.4402 Y-10.2353
G01 X-0.4150 Y-10.2773
G01 X-0.3858 Y-10.3166
G01 X-0.3529 Y-10.3529
G01 X-0.3166 Y-10.3858
G01 X-0.2773 Y-10.4150
G01 X-0.2353 Y-10.4402
G01 X-0.1910 Y-10.4611
G01 X-0.1449 Y-10.4776
G01 X-0.0974 Y-10.4895
G01 X-0.0489 Y-10.4967
G01 X0.0000 Y-10.4991
G01 X40.0000 Y-10.4991
G00 X40.0000 Y-10.4991
G01 F60.00
G01 Z-1.7000
G01 F120.00
G01 X0.0000 Y-10.4991
G01 X-0.0489 Y-10.4967
G01 X-0.0974 Y-10.4895
G01 X-0.1449 Y-10.4776
G01 X-0.1910 Y-10.4611
G01 X-0.2353 Y-10.4402
G01 X-0.2773 Y-10.4150
G01 X-0.3166 Y-10.3858
G01 X-0.3529 Y-10.3529
G01 X-0.3858 Y-10.3166
G01 X-0.4150 Y-10.2773
G01 X-0.4402 Y-10.2353
G01 X-0.4611 Y-10.1910
G01 X-0.4776 Y-10.1449
G01 X-0.4895 Y-10.0974
G01 X-0.4967 Y-10.0489
G01 X-0.4991 Y-10.0000
G01 X-0.4991 Y-0.0000
G01 X-0.4967 Y0.0489
G01 X-0.4895 Y0.0974
G01 X-0.4776 Y0.1449
G01 X-0.4611 Y0.1910
G01 X-0.4402 Y0.2353
G01 X-0.4150 Y0.2773
G01 X-0.3858 Y0.3166
G01 X-0.3529 Y0.3529
G01 X-0.3166 Y0.3858
G01 X-0.2773 Y0.4150
G01 X-0.2353 Y0.4402
G01 X-0.1910 Y0.4611
G01 X-0.1449 Y0.4776
G01 X-0.0974 Y0.4895
G01 X-0.0489 Y0.4967
G01 X0.0000 Y0.4991
G01 X40.0000 Y0.4991
G01 X40.0489 Y0.4967
G01 X40.0974 Y0.4895
G01 X40.1449 Y0.4776
G01 X40.1910 Y0.4611
G01 X40.2353 Y0.4402
G01 X40.2773 Y0.4150
G01 X40.3166 Y0.3858
G01 X40.3529 Y0.3529
G01 X40.3858 Y0.3166
G01 X40.4150 Y0.2773
G01 X40.4402 Y0.2353
G01 X40.4611 Y0.1910
G01 X40.4776 Y0.1449
G01 X40.4895 Y0.0974
G01 X40.4967 Y0.0489
G01 X40.4991 Y-0.0000
G01 X40.4991 Y-10.0000
G01 X40.4967 Y-10.0489
G01 X40.4895 Y-10.0974
G01 X40.4776 Y-10.1449
G01 X40.4611 Y-10.1910
G01 X40.4402 Y-10.2353
G01 X40.4150 Y-10.2773
G01 X40.3858 Y-10.3166
G01 X40.3529 Y-10.3529
G01 X40.3166 Y-10.3858
G01 X40.2773 Y-10.4150
G01 X40.2353 Y-10.4402
G01 X40.1910 Y-10.4611
G01 X40.1449 Y-10.4776
G01 X40.0974 Y-10.4895
G01 X40.0489 Y-10.4967
G01 X40.0000 Y-10.4991
G00 X40.0000 Y-10.4991
G01 F60.00
G01 Z-1.8000
G01 F120.00
G01 X40.0489 Y-10.4967
G01 X40.0974 Y-10.4895
G01 X40.1449 Y-10.4776
G01 X40.1910 Y-10.4611
G01 X40.2353 Y-10.4402
G01 X40.2773 Y-10.4150
G01 X40.3166 Y-10.3858
G01 X40.3529 Y-10.3529
G01 X40.3858 Y-10.3166
G01 X40.4150 Y-10.2773
G01 X40.4402 Y-10.2353
G01 X40.4611 Y-10.1910
G01 X40.4776 Y-10.1449
G01 X40.4895 Y-10.0974
G01 X40.4967 Y-10.0489
G01 X40.4991 Y-10.0000
G01 X40.4991 Y-0.0000
G01 X40.4967 Y0.0489
G01 X40.4895 Y0.0974
G01 X40.4776 Y0.1449
G01 X40.4611 Y0.1910
G01 X40.4402 Y0.2353
G01 X40.4150 Y0.2773
G01 X40.3858 Y0.3166
G01 X40.3529 Y0.3529
G01 X40.3166 Y0.3858
G01 X40.2773 Y0.4150
G01 X40.2353 Y0.4402
G01 X40.1910 Y0.4611
G01 X40.1449 Y0.4776
G01 X40.0974 Y0.4895
G01 X40.0489 Y0.4967
G01 X40.0000 Y0.4991
G01 X0.0000 Y0.4991
G01 X-0.0489 Y0.4967
G01 X-0.0974 Y0.4895
G01 X-0.1449 Y0.4776
G01 X-0.1910 Y0.4611
G01 X-0.2353 Y0.4402
G01 X-0.2773 Y0.4150
G01 X-0.3166 Y0.3858
G01 X-0.3529 Y0.3529
G01 X-0.3858 Y0.3166
G01 X-0.4150 Y0.2773
G01 X-0.4402 Y0.2353
G01 X-0.4611 Y0.1910
G01 X-0.4776 Y0.1449
G01 X-0.4895 Y0.0974
G01 X-0.4967 Y0.0489
G01 X-0.4991 Y-0.0000
G01 X-0.4991 Y-10.0000
G01 X-0.4967 Y-10.0489
G01 X-0.4895 Y-10.0974
G01 X-0.4776 Y-10.1449
G01 X-0.4611 Y-10.1910
G01 X-0.4402 Y-10.2353
G01 X-0.4150 Y-10.2773
G01 X-0.3858 Y-10.3166
G01 X-0.3529 Y-10.3529
G01 X-0.3166 Y-10.3858
G01 X-0.2773 Y-10.4150
G01 X-0.2353 Y-10.4402
G01 X-0.1910 Y-10.4611
G01 X-0.1449 Y-10.4776
G01 X-0.0974 Y-10.4895
G01 X-0.0489 Y-10.4967
G01 X0.0000 Y-10.4991
G01 X40.0000 Y-10.4991
G00 Z2.0000
M05
G00 Z2.0000
G00 Z25.00

