(G-CODE GENERATED BY FLATCAM v8.993 - www.flatcam.org - Version Date: 2020/06/05)

(Name: A1_RF_PA_bottom.drl_cnc)
(Type: G-code from Excellon)
(Units: MM)

(Created on Friday, 27 November 2020 at 12:28)

(This preprocessor is the default preprocessor used by FlatCAM.)
(It is made to work with MACH3 compatible motion controllers.)


(TOOLS DIAMETER: )
(Tool: 1 -> Dia: 0.5)
(Tool: 2 -> Dia: 0.6)
(Tool: 3 -> Dia: 0.8)
(Tool: 4 -> Dia: 3.0)

(FEEDRATE Z: )
(Tool: 1 -> Feedrate: 70.0)
(Tool: 2 -> Feedrate: 70.0)
(Tool: 3 -> Feedrate: 70.0)
(Tool: 4 -> Feedrate: 70.0)

(FEEDRATE RAPIDS: )
(Tool: 1 -> Feedrate Rapids: 1500)
(Tool: 2 -> Feedrate Rapids: 1500)
(Tool: 3 -> Feedrate Rapids: 1500)
(Tool: 4 -> Feedrate Rapids: 1500)

(Z_CUT: )
(Tool: 1 -> Z_Cut: -2.0)
(Tool: 2 -> Z_Cut: -2.0)
(Tool: 3 -> Z_Cut: -2.0)
(Tool: 4 -> Z_Cut: -2.0)

(Tools Offset: )
(Tool: 1 -> Offset Z: -0.0)
(Tool: 2 -> Offset Z: -0.0)
(Tool: 3 -> Offset Z: -0.0)
(Tool: 4 -> Offset Z: -0.0)

(Z_MOVE: )
(Tool: 1 -> Z_Move: 2)
(Tool: 2 -> Z_Move: 2)
(Tool: 3 -> Z_Move: 2)
(Tool: 4 -> Z_Move: 2)

(Z Toolchange: 5.0 mm)
(X,Y Toolchange: 0.00, 0.00 mm)
(Z Start: None mm)
(Z End: 2.0 mm)
(Steps per circle: 128)
(Preprocessor Excellon: default)

(X range:  -73.0000 ...   -1.6000  mm)
(Y range:  -77.9300 ...   -1.7000  mm)

(Spindle Speed: 10000.0 RPM)
G21
G90
G94



G01 F70.00

M5
G00 Z5.0000
T1
G00 X0.0000 Y0.0000                
M6
(MSG, Change to Tool Dia = 0.50 ||| Total drills for tool T1 = 24)
M0
G00 Z5.0000

M03 S10000
G00 X-21.3900 Y-23.4500
G01 Z-2.0000
G01 Z0
G00 Z2.0000
G00 X-7.8200 Y-9.7200
G01 Z-2.0000
G01 Z0
G00 Z2.0000
G00 X-5.2800 Y-9.7200
G01 Z-2.0000
G01 Z0
G00 Z2.0000
G00 X-2.7400 Y-9.7200
G01 Z-2.0000
G01 Z0
G00 Z2.0000
G00 X-2.7400 Y-4.6400
G01 Z-2.0000
G01 Z0
G00 Z2.0000
G00 X-5.2800 Y-4.6400
G01 Z-2.0000
G01 Z0
G00 Z2.0000
G00 X-7.8200 Y-4.6400
G01 Z-2.0000
G01 Z0
G00 Z2.0000
G00 X-21.3900 Y-18.3700
G01 Z-2.0000
G01 Z0
G00 Z2.0000
G00 X-23.9300 Y-18.3700
G01 Z-2.0000
G01 Z0
G00 Z2.0000
G00 X-26.4700 Y-18.3700
G01 Z-2.0000
G01 Z0
G00 Z2.0000
G00 X-65.2000 Y-10.9100
G01 Z-2.0000
G01 Z0
G00 Z2.0000
G00 X-70.2800 Y-10.9100
G01 Z-2.0000
G01 Z0
G00 Z2.0000
G00 X-70.2800 Y-15.9900
G01 Z-2.0000
G01 Z0
G00 Z2.0000
G00 X-65.2000 Y-15.9900
G01 Z-2.0000
G01 Z0
G00 Z2.0000
G00 X-62.8200 Y-34.8800
G01 Z-2.0000
G01 Z0
G00 Z2.0000
G00 X-62.8200 Y-39.9600
G01 Z-2.0000
G01 Z0
G00 Z2.0000
G00 X-62.8600 Y-47.4700
G01 Z-2.0000
G01 Z0
G00 Z2.0000
G00 X-62.8600 Y-52.5500
G01 Z-2.0000
G01 Z0
G00 Z2.0000
G00 X-57.7800 Y-52.5500
G01 Z-2.0000
G01 Z0
G00 Z2.0000
G00 X-57.7800 Y-47.4700
G01 Z-2.0000
G01 Z0
G00 Z2.0000
G00 X-57.7400 Y-39.9600
G01 Z-2.0000
G01 Z0
G00 Z2.0000
G00 X-57.7400 Y-34.8800
G01 Z-2.0000
G01 Z0
G00 Z2.0000
G00 X-26.4700 Y-23.4500
G01 Z-2.0000
G01 Z0
G00 Z2.0000
G00 X-23.9300 Y-23.4500
G01 Z-2.0000
G01 Z0
G00 Z2.0000
G01 F70.00

M5
G00 Z5.0000
T2
G00 X0.0000 Y0.0000                
M6
(MSG, Change to Tool Dia = 0.60 ||| Total drills for tool T2 = 52)
M0
G00 Z5.0000

M03 S10000
G00 X-24.4500 Y-50.4900
G01 Z-2.0000
G01 Z0
G00 Z2.0000
G00 X-24.4500 Y-42.3900
G01 Z-2.0000
G01 Z0
G00 Z2.0000
G00 X-35.2400 Y-30.4800
G01 Z-2.0000
G01 Z0
G00 Z2.0000
G00 X-41.9100 Y-36.3500
G01 Z-2.0000
G01 Z0
G00 Z2.0000
G00 X-54.7700 Y-43.6500
G01 Z-2.0000
G01 Z0
G00 Z2.0000
G00 X-55.2400 Y-62.3900
G01 Z-2.0000
G01 Z0
G00 Z2.0000
G00 X-60.6400 Y-60.0800
G01 Z-2.0000
G01 Z0
G00 Z2.0000
G00 X-60.6400 Y-62.2700
G01 Z-2.0000
G01 Z0
G00 Z2.0000
G00 X-60.6400 Y-64.4500
G01 Z-2.0000
G01 Z0
G00 Z2.0000
G00 X-58.1400 Y-72.9500
G01 Z-2.0000
G01 Z0
G00 Z2.0000
G00 X-55.9600 Y-72.9500
G01 Z-2.0000
G01 Z0
G00 Z2.0000
G00 X-55.9600 Y-77.6300
G01 Z-2.0000
G01 Z0
G00 Z2.0000
G00 X-60.3200 Y-77.6300
G01 Z-2.0000
G01 Z0
G00 Z2.0000
G00 X-60.3200 Y-72.9500
G01 Z-2.0000
G01 Z0
G00 Z2.0000
G00 X-65.3200 Y-64.4500
G01 Z-2.0000
G01 Z0
G00 Z2.0000
G00 X-65.3200 Y-60.0800
G01 Z-2.0000
G01 Z0
G00 Z2.0000
G00 X-62.8600 Y-43.8100
G01 Z-2.0000
G01 Z0
G00 Z2.0000
G00 X-72.7000 Y-38.8900
G01 Z-2.0000
G01 Z0
G00 Z2.0000
G00 X-54.7700 Y-28.8900
G01 Z-2.0000
G01 Z0
G00 Z2.0000
G00 X-60.2400 Y-23.6500
G01 Z-2.0000
G01 Z0
G00 Z2.0000
G00 X-57.7400 Y-23.6500
G01 Z-2.0000
G01 Z0
G00 Z2.0000
G00 X-55.2400 Y-23.6500
G01 Z-2.0000
G01 Z0
G00 Z2.0000
G00 X-55.2400 Y-18.8900
G01 Z-2.0000
G01 Z0
G00 Z2.0000
G00 X-51.1200 Y-14.2800
G01 Z-2.0000
G01 Z0
G00 Z2.0000
G00 X-56.0400 Y-14.2800
G01 Z-2.0000
G01 Z0
G00 Z2.0000
G00 X-57.7400 Y-18.8900
G01 Z-2.0000
G01 Z0
G00 Z2.0000
G00 X-60.2400 Y-18.8900
G01 Z-2.0000
G01 Z0
G00 Z2.0000
G00 X-62.5400 Y-15.5600
G01 Z-2.0000
G01 Z0
G00 Z2.0000
G00 X-62.0700 Y-10.9500
G01 Z-2.0000
G01 Z0
G00 Z2.0000
G00 X-70.0000 Y-2.0000
G01 Z-2.0000
G01 Z0
G00 Z2.0000
G00 X-61.4300 Y-6.3500
G01 Z-2.0000
G01 Z0
G00 Z2.0000
G00 X-51.7500 Y-2.8600
G01 Z-2.0000
G01 Z0
G00 Z2.0000
G00 X-44.1300 Y-8.7300
G01 Z-2.0000
G01 Z0
G00 Z2.0000
G00 X-33.1800 Y-3.0100
G01 Z-2.0000
G01 Z0
G00 Z2.0000
G00 X-28.2600 Y-2.3800
G01 Z-2.0000
G01 Z0
G00 Z2.0000
G00 X-22.7000 Y-4.1300
G01 Z-2.0000
G01 Z0
G00 Z2.0000
G00 X-18.8100 Y-3.6500
G01 Z-2.0000
G01 Z0
G00 Z2.0000
G00 X-2.0000 Y-2.0000
G01 Z-2.0000
G01 Z0
G00 Z2.0000
G00 X-2.1800 Y-14.1300
G01 Z-2.0000
G01 Z0
G00 Z2.0000
G00 X-4.7600 Y-14.4400
G01 Z-2.0000
G01 Z0
G00 Z2.0000
G00 X-7.2600 Y-14.1300
G01 Z-2.0000
G01 Z0
G00 Z2.0000
G00 X-14.7600 Y-9.3600
G01 Z-2.0000
G01 Z0
G00 Z2.0000
G00 X-18.8100 Y-8.7300
G01 Z-2.0000
G01 Z0
G00 Z2.0000
G00 X-18.8100 Y-6.1900
G01 Z-2.0000
G01 Z0
G00 Z2.0000
G00 X-28.5700 Y-14.1300
G01 Z-2.0000
G01 Z0
G00 Z2.0000
G00 X-23.9700 Y-25.5600
G01 Z-2.0000
G01 Z0
G00 Z2.0000
G00 X-18.1000 Y-27.7800
G01 Z-2.0000
G01 Z0
G00 Z2.0000
G00 X-15.7100 Y-22.7000
G01 Z-2.0000
G01 Z0
G00 Z2.0000
G00 X-12.8600 Y-27.1400
G01 Z-2.0000
G01 Z0
G00 Z2.0000
G00 X-10.1600 Y-28.2600
G01 Z-2.0000
G01 Z0
G00 Z2.0000
G00 X-6.9800 Y-22.2200
G01 Z-2.0000
G01 Z0
G00 Z2.0000
G00 X-1.9000 Y-29.3700
G01 Z-2.0000
G01 Z0
G00 Z2.0000
G01 F70.00

M5
G00 Z5.0000
T3
G00 X0.0000 Y0.0000                
M6
(MSG, Change to Tool Dia = 0.80 ||| Total drills for tool T3 = 22)
M0
G00 Z5.0000

M03 S10000
G00 X-2.3100 Y-32.4300
G01 Z-2.0000
G01 Z0
G00 Z2.0000
G00 X-4.8500 Y-32.4300
G01 Z-2.0000
G01 Z0
G00 Z2.0000
G00 X-19.6100 Y-32.1500
G01 Z-2.0000
G01 Z0
G00 Z2.0000
G00 X-26.6700 Y-35.7200
G01 Z-2.0000
G01 Z0
G00 Z2.0000
G00 X-26.6700 Y-33.1800
G01 Z-2.0000
G01 Z0
G00 Z2.0000
G00 X-39.5900 Y-31.0200
G01 Z-2.0000
G01 Z0
G00 Z2.0000
G00 X-50.0100 Y-34.9200
G01 Z-2.0000
G01 Z0
G00 Z2.0000
G00 X-52.5500 Y-34.9200
G01 Z-2.0000
G01 Z0
G00 Z2.0000
G00 X-52.5500 Y-37.4600
G01 Z-2.0000
G01 Z0
G00 Z2.0000
G00 X-50.0100 Y-37.4600
G01 Z-2.0000
G01 Z0
G00 Z2.0000
G00 X-48.4600 Y-47.6700
G01 Z-2.0000
G01 Z0
G00 Z2.0000
G00 X-44.9300 Y-44.1300
G01 Z-2.0000
G01 Z0
G00 Z2.0000
G00 X-35.9600 Y-48.1800
G01 Z-2.0000
G01 Z0
G00 Z2.0000
G00 X-53.0200 Y-73.5000
G01 Z-2.0000
G01 Z0
G00 Z2.0000
G00 X-70.7400 Y-54.9900
G01 Z-2.0000
G01 Z0
G00 Z2.0000
G00 X-70.7400 Y-52.4500
G01 Z-2.0000
G01 Z0
G00 Z2.0000
G00 X-70.7400 Y-49.9100
G01 Z-2.0000
G01 Z0
G00 Z2.0000
G00 X-70.7400 Y-30.8600
G01 Z-2.0000
G01 Z0
G00 Z2.0000
G00 X-70.7400 Y-28.3200
G01 Z-2.0000
G01 Z0
G00 Z2.0000
G00 X-70.7400 Y-25.7800
G01 Z-2.0000
G01 Z0
G00 Z2.0000
G00 X-39.5900 Y-15.9800
G01 Z-2.0000
G01 Z0
G00 Z2.0000
G00 X-2.6200 Y-20.8800
G01 Z-2.0000
G01 Z0
G00 Z2.0000
G01 F70.00

M5
G00 Z5.0000
T4
G00 X0.0000 Y0.0000                
M6
(MSG, Change to Tool Dia = 3.00 ||| Total drills for tool T4 = 6)
M0
G00 Z5.0000

M03 S10000
G00 X-15.0800 Y-32.1100
G01 Z-2.0000
G01 Z0
G00 Z2.0000
G00 X-4.9200 Y-27.3400
G01 Z-2.0000
G01 Z0
G00 Z2.0000
G00 X-66.3600 Y-4.4800
G01 Z-2.0000
G01 Z0
G00 Z2.0000
G00 X-66.3600 Y-75.8000
G01 Z-2.0000
G01 Z0
G00 Z2.0000
G00 X-55.0900 Y-69.2500
G01 Z-2.0000
G01 Z0
G00 Z2.0000
G00 X-37.4600 Y-41.9500
G01 Z-2.0000
G01 Z0
G00 Z2.0000
M05
G00 Z2.00

