(G-CODE GENERATED BY FLATCAM v8.993 - www.flatcam.org - Version Date: 2020/06/05)

(Name: A1_RF_PA_Ф2_низ.gbr_iso_combined_cutoff_cnc)
(Type: G-code from Geometry)
(Units: MM)

(Created on Wednesday, 18 November 2020 at 01:42)

(This preprocessor is the default preprocessor used by FlatCAM.)
(It is made to work with MACH3 compatible motion controllers.)

(TOOL DIAMETER: 2.0 mm)
(Feedrate_XY: 120.0 mm/min)
(Feedrate_Z: 70.0 mm/min)
(Feedrate rapids 1500.0 mm/min)

(Z_Cut: -1.8 mm)
(DepthPerCut: 0.10000000000000014 mm <=>18 passes)
(Z_Move: 2.0 mm)
(Z Start: None mm)
(Z End: 25.0 mm)
(Steps per circle: 128)
(Preprocessor Geometry: default)

(X range:  -76.0000 ...    1.0000  mm)
(Y range:  -64.0000 ...    1.0000  mm)

(Spindle Speed: 10000 RPM)
G21
G90
G94



G01 F120.00
G00 Z2.0000

M03 S10000
G00 X-2.0266 Y-5.9953
G01 F70.00
G01 Z-0.1000
G01 F120.00
G01 X-2.0266 Y-0.0000
G01 X-2.0285 Y0.0613
G01 X-2.0314 Y0.0980
G01 X-2.0357 Y0.1346
G01 X-2.0413 Y0.1710
G01 X-2.0509 Y0.2191
G01 X-2.0628 Y0.2667
G01 X-2.0733 Y0.3020
G01 X-2.0893 Y0.3484
G01 X-2.1027 Y0.3827
G01 X-2.1175 Y0.4164
G01 X-2.1390 Y0.4605
G01 X-2.1565 Y0.4929
G01 X-2.1818 Y0.5350
G01 X-2.2020 Y0.5657
G01 X-2.2234 Y0.5957
G01 X-2.2536 Y0.6344
G01 X-2.2775 Y0.6624
G01 X-2.3024 Y0.6895
G01 X-2.3371 Y0.7242
G01 X-2.3642 Y0.7491
G01 X-2.4018 Y0.7807
G01 X-2.4408 Y0.8105
G01 X-2.4711 Y0.8315
G01 X-2.5020 Y0.8514
G01 X-2.5444 Y0.8761
G01 X-2.5770 Y0.8932
G01 X-2.6102 Y0.9092
G01 X-2.6553 Y0.9285
G01 X-2.6897 Y0.9415
G01 X-2.7363 Y0.9569
G01 X-2.7718 Y0.9670
G01 X-2.8195 Y0.9783
G01 X-2.8557 Y0.9853
G01 X-2.8920 Y0.9909
G01 X-2.9408 Y0.9963
G01 X-2.9898 Y0.9993
G01 X-3.0266 Y1.0000
G01 X-75.0000 Y1.0000
G01 X-75.0368 Y0.9993
G01 X-75.0858 Y0.9963
G01 X-75.1224 Y0.9925
G01 X-75.1589 Y0.9873
G01 X-75.2071 Y0.9783
G01 X-75.2430 Y0.9700
G01 X-75.2903 Y0.9569
G01 X-75.3253 Y0.9456
G01 X-75.3599 Y0.9330
G01 X-75.4052 Y0.9142
G01 X-75.4386 Y0.8987
G01 X-75.4714 Y0.8819
G01 X-75.5141 Y0.8577
G01 X-75.5453 Y0.8382
G01 X-75.5758 Y0.8176
G01 X-75.6152 Y0.7883
G01 X-75.6624 Y0.7491
G01 X-75.6984 Y0.7157
G01 X-75.7327 Y0.6806
G01 X-75.7730 Y0.6344
G01 X-75.8105 Y0.5858
G01 X-75.8449 Y0.5350
G01 X-75.8701 Y0.4929
G01 X-75.8987 Y0.4386
G01 X-75.9239 Y0.3827
G01 X-75.9456 Y0.3253
G01 X-75.9604 Y0.2785
G01 X-75.9757 Y0.2191
G01 X-75.9853 Y0.1710
G01 X-75.9939 Y0.1102
G01 X-75.9981 Y0.0613
G01 X-76.0000 Y-0.0000
G01 X-76.0000 Y-63.0000
G01 X-75.9993 Y-63.0368
G01 X-75.9963 Y-63.0858
G01 X-75.9925 Y-63.1224
G01 X-75.9853 Y-63.1710
G01 X-75.9783 Y-63.2071
G01 X-75.9670 Y-63.2549
G01 X-75.9569 Y-63.2903
G01 X-75.9456 Y-63.3253
G01 X-75.9330 Y-63.3599
G01 X-75.9191 Y-63.3940
G01 X-75.8987 Y-63.4386
G01 X-75.8819 Y-63.4714
G01 X-75.8577 Y-63.5141
G01 X-75.8382 Y-63.5453
G01 X-75.8176 Y-63.5758
G01 X-75.7883 Y-63.6152
G01 X-75.7491 Y-63.6624
G01 X-75.7071 Y-63.7071
G01 X-75.6624 Y-63.7491
G01 X-75.6249 Y-63.7807
G01 X-75.5758 Y-63.8176
G01 X-75.5350 Y-63.8449
G01 X-75.4929 Y-63.8701
G01 X-75.4386 Y-63.8987
G01 X-75.3940 Y-63.9191
G01 X-75.3369 Y-63.9415
G01 X-75.2903 Y-63.9569
G01 X-75.2311 Y-63.9729
G01 X-75.1710 Y-63.9853
G01 X-75.1102 Y-63.9939
G01 X-75.0491 Y-63.9988
G01 X-75.0000 Y-64.0000
G01 X-0.0000 Y-64.0000
G01 X0.0368 Y-63.9993
G01 X0.0736 Y-63.9973
G01 X0.1102 Y-63.9939
G01 X0.1589 Y-63.9873
G01 X0.2071 Y-63.9783
G01 X0.2430 Y-63.9700
G01 X0.2903 Y-63.9569
G01 X0.3253 Y-63.9456
G01 X0.3599 Y-63.9330
G01 X0.3940 Y-63.9191
G01 X0.4276 Y-63.9040
G01 X0.4714 Y-63.8819
G01 X0.5141 Y-63.8577
G01 X0.5453 Y-63.8382
G01 X0.5758 Y-63.8176
G01 X0.6152 Y-63.7883
G01 X0.6624 Y-63.7491
G01 X0.6984 Y-63.7157
G01 X0.7327 Y-63.6806
G01 X0.7730 Y-63.6344
G01 X0.8032 Y-63.5957
G01 X0.8382 Y-63.5453
G01 X0.8640 Y-63.5035
G01 X0.8932 Y-63.4496
G01 X0.9191 Y-63.3940
G01 X0.9415 Y-63.3369
G01 X0.9569 Y-63.2903
G01 X0.9729 Y-63.2311
G01 X0.9853 Y-63.1710
G01 X0.9925 Y-63.1224
G01 X0.9973 Y-63.0736
G01 X0.9999 Y-63.0123
G01 X1.0000 Y-6.9953
G01 X0.9988 Y-6.9463
G01 X0.9952 Y-6.8973
G01 X0.9909 Y-6.8607
G01 X0.9853 Y-6.8244
G01 X0.9783 Y-6.7882
G01 X0.9700 Y-6.7523
G01 X0.9604 Y-6.7168
G01 X0.9495 Y-6.6816
G01 X0.9373 Y-6.6469
G01 X0.9239 Y-6.6126
G01 X0.9092 Y-6.5789
G01 X0.8932 Y-6.5457
G01 X0.8761 Y-6.5131
G01 X0.8577 Y-6.4812
G01 X0.8382 Y-6.4500
G01 X0.8176 Y-6.4195
G01 X0.7958 Y-6.3898
G01 X0.7730 Y-6.3609
G01 X0.7491 Y-6.3329
G01 X0.7242 Y-6.3058
G01 X0.6984 Y-6.2796
G01 X0.6716 Y-6.2544
G01 X0.6438 Y-6.2302
G01 X0.6152 Y-6.2070
G01 X0.5758 Y-6.1777
G01 X0.5453 Y-6.1571
G01 X0.5035 Y-6.1314
G01 X0.4714 Y-6.1134
G01 X0.4386 Y-6.0967
G01 X0.4052 Y-6.0811
G01 X0.3713 Y-6.0668
G01 X0.3369 Y-6.0538
G01 X0.3020 Y-6.0420
G01 X0.2667 Y-6.0315
G01 X0.2311 Y-6.0224
G01 X0.1951 Y-6.0145
G01 X0.1589 Y-6.0080
G01 X0.0980 Y-6.0001
G01 X0.0613 Y-5.9972
G01 X0.0245 Y-5.9956
G01 X-2.0266 Y-5.9953
G00 X-2.0266 Y-5.9953
G01 F70.00
G01 Z-0.2000
G01 F120.00
G01 X-2.0266 Y-0.0000
G01 X-2.0285 Y0.0613
G01 X-2.0314 Y0.0980
G01 X-2.0357 Y0.1346
G01 X-2.0413 Y0.1710
G01 X-2.0509 Y0.2191
G01 X-2.0628 Y0.2667
G01 X-2.0733 Y0.3020
G01 X-2.0893 Y0.3484
G01 X-2.1027 Y0.3827
G01 X-2.1175 Y0.4164
G01 X-2.1390 Y0.4605
G01 X-2.1565 Y0.4929
G01 X-2.1818 Y0.5350
G01 X-2.2020 Y0.5657
G01 X-2.2234 Y0.5957
G01 X-2.2536 Y0.6344
G01 X-2.2775 Y0.6624
G01 X-2.3024 Y0.6895
G01 X-2.3371 Y0.7242
G01 X-2.3642 Y0.7491
G01 X-2.4018 Y0.7807
G01 X-2.4408 Y0.8105
G01 X-2.4711 Y0.8315
G01 X-2.5020 Y0.8514
G01 X-2.5444 Y0.8761
G01 X-2.5770 Y0.8932
G01 X-2.6102 Y0.9092
G01 X-2.6553 Y0.9285
G01 X-2.6897 Y0.9415
G01 X-2.7363 Y0.9569
G01 X-2.7718 Y0.9670
G01 X-2.8195 Y0.9783
G01 X-2.8557 Y0.9853
G01 X-2.8920 Y0.9909
G01 X-2.9408 Y0.9963
G01 X-2.9898 Y0.9993
G01 X-3.0266 Y1.0000
G01 X-75.0000 Y1.0000
G01 X-75.0368 Y0.9993
G01 X-75.0858 Y0.9963
G01 X-75.1224 Y0.9925
G01 X-75.1589 Y0.9873
G01 X-75.2071 Y0.9783
G01 X-75.2430 Y0.9700
G01 X-75.2903 Y0.9569
G01 X-75.3253 Y0.9456
G01 X-75.3599 Y0.9330
G01 X-75.4052 Y0.9142
G01 X-75.4386 Y0.8987
G01 X-75.4714 Y0.8819
G01 X-75.5141 Y0.8577
G01 X-75.5453 Y0.8382
G01 X-75.5758 Y0.8176
G01 X-75.6152 Y0.7883
G01 X-75.6624 Y0.7491
G01 X-75.6984 Y0.7157
G01 X-75.7327 Y0.6806
G01 X-75.7730 Y0.6344
G01 X-75.8105 Y0.5858
G01 X-75.8449 Y0.5350
G01 X-75.8701 Y0.4929
G01 X-75.8987 Y0.4386
G01 X-75.9239 Y0.3827
G01 X-75.9456 Y0.3253
G01 X-75.9604 Y0.2785
G01 X-75.9757 Y0.2191
G01 X-75.9853 Y0.1710
G01 X-75.9939 Y0.1102
G01 X-75.9981 Y0.0613
G01 X-76.0000 Y-0.0000
G01 X-76.0000 Y-63.0000
G01 X-75.9993 Y-63.0368
G01 X-75.9963 Y-63.0858
G01 X-75.9925 Y-63.1224
G01 X-75.9853 Y-63.1710
G01 X-75.9783 Y-63.2071
G01 X-75.9670 Y-63.2549
G01 X-75.9569 Y-63.2903
G01 X-75.9456 Y-63.3253
G01 X-75.9330 Y-63.3599
G01 X-75.9191 Y-63.3940
G01 X-75.8987 Y-63.4386
G01 X-75.8819 Y-63.4714
G01 X-75.8577 Y-63.5141
G01 X-75.8382 Y-63.5453
G01 X-75.8176 Y-63.5758
G01 X-75.7883 Y-63.6152
G01 X-75.7491 Y-63.6624
G01 X-75.7071 Y-63.7071
G01 X-75.6624 Y-63.7491
G01 X-75.6249 Y-63.7807
G01 X-75.5758 Y-63.8176
G01 X-75.5350 Y-63.8449
G01 X-75.4929 Y-63.8701
G01 X-75.4386 Y-63.8987
G01 X-75.3940 Y-63.9191
G01 X-75.3369 Y-63.9415
G01 X-75.2903 Y-63.9569
G01 X-75.2311 Y-63.9729
G01 X-75.1710 Y-63.9853
G01 X-75.1102 Y-63.9939
G01 X-75.0491 Y-63.9988
G01 X-75.0000 Y-64.0000
G01 X-0.0000 Y-64.0000
G01 X0.0368 Y-63.9993
G01 X0.0736 Y-63.9973
G01 X0.1102 Y-63.9939
G01 X0.1589 Y-63.9873
G01 X0.2071 Y-63.9783
G01 X0.2430 Y-63.9700
G01 X0.2903 Y-63.9569
G01 X0.3253 Y-63.9456
G01 X0.3599 Y-63.9330
G01 X0.3940 Y-63.9191
G01 X0.4276 Y-63.9040
G01 X0.4714 Y-63.8819
G01 X0.5141 Y-63.8577
G01 X0.5453 Y-63.8382
G01 X0.5758 Y-63.8176
G01 X0.6152 Y-63.7883
G01 X0.6624 Y-63.7491
G01 X0.6984 Y-63.7157
G01 X0.7327 Y-63.6806
G01 X0.7730 Y-63.6344
G01 X0.8032 Y-63.5957
G01 X0.8382 Y-63.5453
G01 X0.8640 Y-63.5035
G01 X0.8932 Y-63.4496
G01 X0.9191 Y-63.3940
G01 X0.9415 Y-63.3369
G01 X0.9569 Y-63.2903
G01 X0.9729 Y-63.2311
G01 X0.9853 Y-63.1710
G01 X0.9925 Y-63.1224
G01 X0.9973 Y-63.0736
G01 X0.9999 Y-63.0123
G01 X1.0000 Y-6.9953
G01 X0.9988 Y-6.9463
G01 X0.9952 Y-6.8973
G01 X0.9909 Y-6.8607
G01 X0.9853 Y-6.8244
G01 X0.9783 Y-6.7882
G01 X0.9700 Y-6.7523
G01 X0.9604 Y-6.7168
G01 X0.9495 Y-6.6816
G01 X0.9373 Y-6.6469
G01 X0.9239 Y-6.6126
G01 X0.9092 Y-6.5789
G01 X0.8932 Y-6.5457
G01 X0.8761 Y-6.5131
G01 X0.8577 Y-6.4812
G01 X0.8382 Y-6.4500
G01 X0.8176 Y-6.4195
G01 X0.7958 Y-6.3898
G01 X0.7730 Y-6.3609
G01 X0.7491 Y-6.3329
G01 X0.7242 Y-6.3058
G01 X0.6984 Y-6.2796
G01 X0.6716 Y-6.2544
G01 X0.6438 Y-6.2302
G01 X0.6152 Y-6.2070
G01 X0.5758 Y-6.1777
G01 X0.5453 Y-6.1571
G01 X0.5035 Y-6.1314
G01 X0.4714 Y-6.1134
G01 X0.4386 Y-6.0967
G01 X0.4052 Y-6.0811
G01 X0.3713 Y-6.0668
G01 X0.3369 Y-6.0538
G01 X0.3020 Y-6.0420
G01 X0.2667 Y-6.0315
G01 X0.2311 Y-6.0224
G01 X0.1951 Y-6.0145
G01 X0.1589 Y-6.0080
G01 X0.0980 Y-6.0001
G01 X0.0613 Y-5.9972
G01 X0.0245 Y-5.9956
G01 X-2.0266 Y-5.9953
G00 X-2.0266 Y-5.9953
G01 F70.00
G01 Z-0.3000
G01 F120.00
G01 X-2.0266 Y-0.0000
G01 X-2.0285 Y0.0613
G01 X-2.0314 Y0.0980
G01 X-2.0357 Y0.1346
G01 X-2.0413 Y0.1710
G01 X-2.0509 Y0.2191
G01 X-2.0628 Y0.2667
G01 X-2.0733 Y0.3020
G01 X-2.0893 Y0.3484
G01 X-2.1027 Y0.3827
G01 X-2.1175 Y0.4164
G01 X-2.1390 Y0.4605
G01 X-2.1565 Y0.4929
G01 X-2.1818 Y0.5350
G01 X-2.2020 Y0.5657
G01 X-2.2234 Y0.5957
G01 X-2.2536 Y0.6344
G01 X-2.2775 Y0.6624
G01 X-2.3024 Y0.6895
G01 X-2.3371 Y0.7242
G01 X-2.3642 Y0.7491
G01 X-2.4018 Y0.7807
G01 X-2.4408 Y0.8105
G01 X-2.4711 Y0.8315
G01 X-2.5020 Y0.8514
G01 X-2.5444 Y0.8761
G01 X-2.5770 Y0.8932
G01 X-2.6102 Y0.9092
G01 X-2.6553 Y0.9285
G01 X-2.6897 Y0.9415
G01 X-2.7363 Y0.9569
G01 X-2.7718 Y0.9670
G01 X-2.8195 Y0.9783
G01 X-2.8557 Y0.9853
G01 X-2.8920 Y0.9909
G01 X-2.9408 Y0.9963
G01 X-2.9898 Y0.9993
G01 X-3.0266 Y1.0000
G01 X-75.0000 Y1.0000
G01 X-75.0368 Y0.9993
G01 X-75.0858 Y0.9963
G01 X-75.1224 Y0.9925
G01 X-75.1589 Y0.9873
G01 X-75.2071 Y0.9783
G01 X-75.2430 Y0.9700
G01 X-75.2903 Y0.9569
G01 X-75.3253 Y0.9456
G01 X-75.3599 Y0.9330
G01 X-75.4052 Y0.9142
G01 X-75.4386 Y0.8987
G01 X-75.4714 Y0.8819
G01 X-75.5141 Y0.8577
G01 X-75.5453 Y0.8382
G01 X-75.5758 Y0.8176
G01 X-75.6152 Y0.7883
G01 X-75.6624 Y0.7491
G01 X-75.6984 Y0.7157
G01 X-75.7327 Y0.6806
G01 X-75.7730 Y0.6344
G01 X-75.8105 Y0.5858
G01 X-75.8449 Y0.5350
G01 X-75.8701 Y0.4929
G01 X-75.8987 Y0.4386
G01 X-75.9239 Y0.3827
G01 X-75.9456 Y0.3253
G01 X-75.9604 Y0.2785
G01 X-75.9757 Y0.2191
G01 X-75.9853 Y0.1710
G01 X-75.9939 Y0.1102
G01 X-75.9981 Y0.0613
G01 X-76.0000 Y-0.0000
G01 X-76.0000 Y-63.0000
G01 X-75.9993 Y-63.0368
G01 X-75.9963 Y-63.0858
G01 X-75.9925 Y-63.1224
G01 X-75.9853 Y-63.1710
G01 X-75.9783 Y-63.2071
G01 X-75.9670 Y-63.2549
G01 X-75.9569 Y-63.2903
G01 X-75.9456 Y-63.3253
G01 X-75.9330 Y-63.3599
G01 X-75.9191 Y-63.3940
G01 X-75.8987 Y-63.4386
G01 X-75.8819 Y-63.4714
G01 X-75.8577 Y-63.5141
G01 X-75.8382 Y-63.5453
G01 X-75.8176 Y-63.5758
G01 X-75.7883 Y-63.6152
G01 X-75.7491 Y-63.6624
G01 X-75.7071 Y-63.7071
G01 X-75.6624 Y-63.7491
G01 X-75.6249 Y-63.7807
G01 X-75.5758 Y-63.8176
G01 X-75.5350 Y-63.8449
G01 X-75.4929 Y-63.8701
G01 X-75.4386 Y-63.8987
G01 X-75.3940 Y-63.9191
G01 X-75.3369 Y-63.9415
G01 X-75.2903 Y-63.9569
G01 X-75.2311 Y-63.9729
G01 X-75.1710 Y-63.9853
G01 X-75.1102 Y-63.9939
G01 X-75.0491 Y-63.9988
G01 X-75.0000 Y-64.0000
G01 X-0.0000 Y-64.0000
G01 X0.0368 Y-63.9993
G01 X0.0736 Y-63.9973
G01 X0.1102 Y-63.9939
G01 X0.1589 Y-63.9873
G01 X0.2071 Y-63.9783
G01 X0.2430 Y-63.9700
G01 X0.2903 Y-63.9569
G01 X0.3253 Y-63.9456
G01 X0.3599 Y-63.9330
G01 X0.3940 Y-63.9191
G01 X0.4276 Y-63.9040
G01 X0.4714 Y-63.8819
G01 X0.5141 Y-63.8577
G01 X0.5453 Y-63.8382
G01 X0.5758 Y-63.8176
G01 X0.6152 Y-63.7883
G01 X0.6624 Y-63.7491
G01 X0.6984 Y-63.7157
G01 X0.7327 Y-63.6806
G01 X0.7730 Y-63.6344
G01 X0.8032 Y-63.5957
G01 X0.8382 Y-63.5453
G01 X0.8640 Y-63.5035
G01 X0.8932 Y-63.4496
G01 X0.9191 Y-63.3940
G01 X0.9415 Y-63.3369
G01 X0.9569 Y-63.2903
G01 X0.9729 Y-63.2311
G01 X0.9853 Y-63.1710
G01 X0.9925 Y-63.1224
G01 X0.9973 Y-63.0736
G01 X0.9999 Y-63.0123
G01 X1.0000 Y-6.9953
G01 X0.9988 Y-6.9463
G01 X0.9952 Y-6.8973
G01 X0.9909 Y-6.8607
G01 X0.9853 Y-6.8244
G01 X0.9783 Y-6.7882
G01 X0.9700 Y-6.7523
G01 X0.9604 Y-6.7168
G01 X0.9495 Y-6.6816
G01 X0.9373 Y-6.6469
G01 X0.9239 Y-6.6126
G01 X0.9092 Y-6.5789
G01 X0.8932 Y-6.5457
G01 X0.8761 Y-6.5131
G01 X0.8577 Y-6.4812
G01 X0.8382 Y-6.4500
G01 X0.8176 Y-6.4195
G01 X0.7958 Y-6.3898
G01 X0.7730 Y-6.3609
G01 X0.7491 Y-6.3329
G01 X0.7242 Y-6.3058
G01 X0.6984 Y-6.2796
G01 X0.6716 Y-6.2544
G01 X0.6438 Y-6.2302
G01 X0.6152 Y-6.2070
G01 X0.5758 Y-6.1777
G01 X0.5453 Y-6.1571
G01 X0.5035 Y-6.1314
G01 X0.4714 Y-6.1134
G01 X0.4386 Y-6.0967
G01 X0.4052 Y-6.0811
G01 X0.3713 Y-6.0668
G01 X0.3369 Y-6.0538
G01 X0.3020 Y-6.0420
G01 X0.2667 Y-6.0315
G01 X0.2311 Y-6.0224
G01 X0.1951 Y-6.0145
G01 X0.1589 Y-6.0080
G01 X0.0980 Y-6.0001
G01 X0.0613 Y-5.9972
G01 X0.0245 Y-5.9956
G01 X-2.0266 Y-5.9953
G00 X-2.0266 Y-5.9953
G01 F70.00
G01 Z-0.4000
G01 F120.00
G01 X-2.0266 Y-0.0000
G01 X-2.0285 Y0.0613
G01 X-2.0314 Y0.0980
G01 X-2.0357 Y0.1346
G01 X-2.0413 Y0.1710
G01 X-2.0509 Y0.2191
G01 X-2.0628 Y0.2667
G01 X-2.0733 Y0.3020
G01 X-2.0893 Y0.3484
G01 X-2.1027 Y0.3827
G01 X-2.1175 Y0.4164
G01 X-2.1390 Y0.4605
G01 X-2.1565 Y0.4929
G01 X-2.1818 Y0.5350
G01 X-2.2020 Y0.5657
G01 X-2.2234 Y0.5957
G01 X-2.2536 Y0.6344
G01 X-2.2775 Y0.6624
G01 X-2.3024 Y0.6895
G01 X-2.3371 Y0.7242
G01 X-2.3642 Y0.7491
G01 X-2.4018 Y0.7807
G01 X-2.4408 Y0.8105
G01 X-2.4711 Y0.8315
G01 X-2.5020 Y0.8514
G01 X-2.5444 Y0.8761
G01 X-2.5770 Y0.8932
G01 X-2.6102 Y0.9092
G01 X-2.6553 Y0.9285
G01 X-2.6897 Y0.9415
G01 X-2.7363 Y0.9569
G01 X-2.7718 Y0.9670
G01 X-2.8195 Y0.9783
G01 X-2.8557 Y0.9853
G01 X-2.8920 Y0.9909
G01 X-2.9408 Y0.9963
G01 X-2.9898 Y0.9993
G01 X-3.0266 Y1.0000
G01 X-75.0000 Y1.0000
G01 X-75.0368 Y0.9993
G01 X-75.0858 Y0.9963
G01 X-75.1224 Y0.9925
G01 X-75.1589 Y0.9873
G01 X-75.2071 Y0.9783
G01 X-75.2430 Y0.9700
G01 X-75.2903 Y0.9569
G01 X-75.3253 Y0.9456
G01 X-75.3599 Y0.9330
G01 X-75.4052 Y0.9142
G01 X-75.4386 Y0.8987
G01 X-75.4714 Y0.8819
G01 X-75.5141 Y0.8577
G01 X-75.5453 Y0.8382
G01 X-75.5758 Y0.8176
G01 X-75.6152 Y0.7883
G01 X-75.6624 Y0.7491
G01 X-75.6984 Y0.7157
G01 X-75.7327 Y0.6806
G01 X-75.7730 Y0.6344
G01 X-75.8105 Y0.5858
G01 X-75.8449 Y0.5350
G01 X-75.8701 Y0.4929
G01 X-75.8987 Y0.4386
G01 X-75.9239 Y0.3827
G01 X-75.9456 Y0.3253
G01 X-75.9604 Y0.2785
G01 X-75.9757 Y0.2191
G01 X-75.9853 Y0.1710
G01 X-75.9939 Y0.1102
G01 X-75.9981 Y0.0613
G01 X-76.0000 Y-0.0000
G01 X-76.0000 Y-63.0000
G01 X-75.9993 Y-63.0368
G01 X-75.9963 Y-63.0858
G01 X-75.9925 Y-63.1224
G01 X-75.9853 Y-63.1710
G01 X-75.9783 Y-63.2071
G01 X-75.9670 Y-63.2549
G01 X-75.9569 Y-63.2903
G01 X-75.9456 Y-63.3253
G01 X-75.9330 Y-63.3599
G01 X-75.9191 Y-63.3940
G01 X-75.8987 Y-63.4386
G01 X-75.8819 Y-63.4714
G01 X-75.8577 Y-63.5141
G01 X-75.8382 Y-63.5453
G01 X-75.8176 Y-63.5758
G01 X-75.7883 Y-63.6152
G01 X-75.7491 Y-63.6624
G01 X-75.7071 Y-63.7071
G01 X-75.6624 Y-63.7491
G01 X-75.6249 Y-63.7807
G01 X-75.5758 Y-63.8176
G01 X-75.5350 Y-63.8449
G01 X-75.4929 Y-63.8701
G01 X-75.4386 Y-63.8987
G01 X-75.3940 Y-63.9191
G01 X-75.3369 Y-63.9415
G01 X-75.2903 Y-63.9569
G01 X-75.2311 Y-63.9729
G01 X-75.1710 Y-63.9853
G01 X-75.1102 Y-63.9939
G01 X-75.0491 Y-63.9988
G01 X-75.0000 Y-64.0000
G01 X-0.0000 Y-64.0000
G01 X0.0368 Y-63.9993
G01 X0.0736 Y-63.9973
G01 X0.1102 Y-63.9939
G01 X0.1589 Y-63.9873
G01 X0.2071 Y-63.9783
G01 X0.2430 Y-63.9700
G01 X0.2903 Y-63.9569
G01 X0.3253 Y-63.9456
G01 X0.3599 Y-63.9330
G01 X0.3940 Y-63.9191
G01 X0.4276 Y-63.9040
G01 X0.4714 Y-63.8819
G01 X0.5141 Y-63.8577
G01 X0.5453 Y-63.8382
G01 X0.5758 Y-63.8176
G01 X0.6152 Y-63.7883
G01 X0.6624 Y-63.7491
G01 X0.6984 Y-63.7157
G01 X0.7327 Y-63.6806
G01 X0.7730 Y-63.6344
G01 X0.8032 Y-63.5957
G01 X0.8382 Y-63.5453
G01 X0.8640 Y-63.5035
G01 X0.8932 Y-63.4496
G01 X0.9191 Y-63.3940
G01 X0.9415 Y-63.3369
G01 X0.9569 Y-63.2903
G01 X0.9729 Y-63.2311
G01 X0.9853 Y-63.1710
G01 X0.9925 Y-63.1224
G01 X0.9973 Y-63.0736
G01 X0.9999 Y-63.0123
G01 X1.0000 Y-6.9953
G01 X0.9988 Y-6.9463
G01 X0.9952 Y-6.8973
G01 X0.9909 Y-6.8607
G01 X0.9853 Y-6.8244
G01 X0.9783 Y-6.7882
G01 X0.9700 Y-6.7523
G01 X0.9604 Y-6.7168
G01 X0.9495 Y-6.6816
G01 X0.9373 Y-6.6469
G01 X0.9239 Y-6.6126
G01 X0.9092 Y-6.5789
G01 X0.8932 Y-6.5457
G01 X0.8761 Y-6.5131
G01 X0.8577 Y-6.4812
G01 X0.8382 Y-6.4500
G01 X0.8176 Y-6.4195
G01 X0.7958 Y-6.3898
G01 X0.7730 Y-6.3609
G01 X0.7491 Y-6.3329
G01 X0.7242 Y-6.3058
G01 X0.6984 Y-6.2796
G01 X0.6716 Y-6.2544
G01 X0.6438 Y-6.2302
G01 X0.6152 Y-6.2070
G01 X0.5758 Y-6.1777
G01 X0.5453 Y-6.1571
G01 X0.5035 Y-6.1314
G01 X0.4714 Y-6.1134
G01 X0.4386 Y-6.0967
G01 X0.4052 Y-6.0811
G01 X0.3713 Y-6.0668
G01 X0.3369 Y-6.0538
G01 X0.3020 Y-6.0420
G01 X0.2667 Y-6.0315
G01 X0.2311 Y-6.0224
G01 X0.1951 Y-6.0145
G01 X0.1589 Y-6.0080
G01 X0.0980 Y-6.0001
G01 X0.0613 Y-5.9972
G01 X0.0245 Y-5.9956
G01 X-2.0266 Y-5.9953
G00 X-2.0266 Y-5.9953
G01 F70.00
G01 Z-0.5000
G01 F120.00
G01 X-2.0266 Y-0.0000
G01 X-2.0285 Y0.0613
G01 X-2.0314 Y0.0980
G01 X-2.0357 Y0.1346
G01 X-2.0413 Y0.1710
G01 X-2.0509 Y0.2191
G01 X-2.0628 Y0.2667
G01 X-2.0733 Y0.3020
G01 X-2.0893 Y0.3484
G01 X-2.1027 Y0.3827
G01 X-2.1175 Y0.4164
G01 X-2.1390 Y0.4605
G01 X-2.1565 Y0.4929
G01 X-2.1818 Y0.5350
G01 X-2.2020 Y0.5657
G01 X-2.2234 Y0.5957
G01 X-2.2536 Y0.6344
G01 X-2.2775 Y0.6624
G01 X-2.3024 Y0.6895
G01 X-2.3371 Y0.7242
G01 X-2.3642 Y0.7491
G01 X-2.4018 Y0.7807
G01 X-2.4408 Y0.8105
G01 X-2.4711 Y0.8315
G01 X-2.5020 Y0.8514
G01 X-2.5444 Y0.8761
G01 X-2.5770 Y0.8932
G01 X-2.6102 Y0.9092
G01 X-2.6553 Y0.9285
G01 X-2.6897 Y0.9415
G01 X-2.7363 Y0.9569
G01 X-2.7718 Y0.9670
G01 X-2.8195 Y0.9783
G01 X-2.8557 Y0.9853
G01 X-2.8920 Y0.9909
G01 X-2.9408 Y0.9963
G01 X-2.9898 Y0.9993
G01 X-3.0266 Y1.0000
G01 X-75.0000 Y1.0000
G01 X-75.0368 Y0.9993
G01 X-75.0858 Y0.9963
G01 X-75.1224 Y0.9925
G01 X-75.1589 Y0.9873
G01 X-75.2071 Y0.9783
G01 X-75.2430 Y0.9700
G01 X-75.2903 Y0.9569
G01 X-75.3253 Y0.9456
G01 X-75.3599 Y0.9330
G01 X-75.4052 Y0.9142
G01 X-75.4386 Y0.8987
G01 X-75.4714 Y0.8819
G01 X-75.5141 Y0.8577
G01 X-75.5453 Y0.8382
G01 X-75.5758 Y0.8176
G01 X-75.6152 Y0.7883
G01 X-75.6624 Y0.7491
G01 X-75.6984 Y0.7157
G01 X-75.7327 Y0.6806
G01 X-75.7730 Y0.6344
G01 X-75.8105 Y0.5858
G01 X-75.8449 Y0.5350
G01 X-75.8701 Y0.4929
G01 X-75.8987 Y0.4386
G01 X-75.9239 Y0.3827
G01 X-75.9456 Y0.3253
G01 X-75.9604 Y0.2785
G01 X-75.9757 Y0.2191
G01 X-75.9853 Y0.1710
G01 X-75.9939 Y0.1102
G01 X-75.9981 Y0.0613
G01 X-76.0000 Y-0.0000
G01 X-76.0000 Y-63.0000
G01 X-75.9993 Y-63.0368
G01 X-75.9963 Y-63.0858
G01 X-75.9925 Y-63.1224
G01 X-75.9853 Y-63.1710
G01 X-75.9783 Y-63.2071
G01 X-75.9670 Y-63.2549
G01 X-75.9569 Y-63.2903
G01 X-75.9456 Y-63.3253
G01 X-75.9330 Y-63.3599
G01 X-75.9191 Y-63.3940
G01 X-75.8987 Y-63.4386
G01 X-75.8819 Y-63.4714
G01 X-75.8577 Y-63.5141
G01 X-75.8382 Y-63.5453
G01 X-75.8176 Y-63.5758
G01 X-75.7883 Y-63.6152
G01 X-75.7491 Y-63.6624
G01 X-75.7071 Y-63.7071
G01 X-75.6624 Y-63.7491
G01 X-75.6249 Y-63.7807
G01 X-75.5758 Y-63.8176
G01 X-75.5350 Y-63.8449
G01 X-75.4929 Y-63.8701
G01 X-75.4386 Y-63.8987
G01 X-75.3940 Y-63.9191
G01 X-75.3369 Y-63.9415
G01 X-75.2903 Y-63.9569
G01 X-75.2311 Y-63.9729
G01 X-75.1710 Y-63.9853
G01 X-75.1102 Y-63.9939
G01 X-75.0491 Y-63.9988
G01 X-75.0000 Y-64.0000
G01 X-0.0000 Y-64.0000
G01 X0.0368 Y-63.9993
G01 X0.0736 Y-63.9973
G01 X0.1102 Y-63.9939
G01 X0.1589 Y-63.9873
G01 X0.2071 Y-63.9783
G01 X0.2430 Y-63.9700
G01 X0.2903 Y-63.9569
G01 X0.3253 Y-63.9456
G01 X0.3599 Y-63.9330
G01 X0.3940 Y-63.9191
G01 X0.4276 Y-63.9040
G01 X0.4714 Y-63.8819
G01 X0.5141 Y-63.8577
G01 X0.5453 Y-63.8382
G01 X0.5758 Y-63.8176
G01 X0.6152 Y-63.7883
G01 X0.6624 Y-63.7491
G01 X0.6984 Y-63.7157
G01 X0.7327 Y-63.6806
G01 X0.7730 Y-63.6344
G01 X0.8032 Y-63.5957
G01 X0.8382 Y-63.5453
G01 X0.8640 Y-63.5035
G01 X0.8932 Y-63.4496
G01 X0.9191 Y-63.3940
G01 X0.9415 Y-63.3369
G01 X0.9569 Y-63.2903
G01 X0.9729 Y-63.2311
G01 X0.9853 Y-63.1710
G01 X0.9925 Y-63.1224
G01 X0.9973 Y-63.0736
G01 X0.9999 Y-63.0123
G01 X1.0000 Y-6.9953
G01 X0.9988 Y-6.9463
G01 X0.9952 Y-6.8973
G01 X0.9909 Y-6.8607
G01 X0.9853 Y-6.8244
G01 X0.9783 Y-6.7882
G01 X0.9700 Y-6.7523
G01 X0.9604 Y-6.7168
G01 X0.9495 Y-6.6816
G01 X0.9373 Y-6.6469
G01 X0.9239 Y-6.6126
G01 X0.9092 Y-6.5789
G01 X0.8932 Y-6.5457
G01 X0.8761 Y-6.5131
G01 X0.8577 Y-6.4812
G01 X0.8382 Y-6.4500
G01 X0.8176 Y-6.4195
G01 X0.7958 Y-6.3898
G01 X0.7730 Y-6.3609
G01 X0.7491 Y-6.3329
G01 X0.7242 Y-6.3058
G01 X0.6984 Y-6.2796
G01 X0.6716 Y-6.2544
G01 X0.6438 Y-6.2302
G01 X0.6152 Y-6.2070
G01 X0.5758 Y-6.1777
G01 X0.5453 Y-6.1571
G01 X0.5035 Y-6.1314
G01 X0.4714 Y-6.1134
G01 X0.4386 Y-6.0967
G01 X0.4052 Y-6.0811
G01 X0.3713 Y-6.0668
G01 X0.3369 Y-6.0538
G01 X0.3020 Y-6.0420
G01 X0.2667 Y-6.0315
G01 X0.2311 Y-6.0224
G01 X0.1951 Y-6.0145
G01 X0.1589 Y-6.0080
G01 X0.0980 Y-6.0001
G01 X0.0613 Y-5.9972
G01 X0.0245 Y-5.9956
G01 X-2.0266 Y-5.9953
G00 X-2.0266 Y-5.9953
G01 F70.00
G01 Z-0.6000
G01 F120.00
G01 X-2.0266 Y-0.0000
G01 X-2.0285 Y0.0613
G01 X-2.0314 Y0.0980
G01 X-2.0357 Y0.1346
G01 X-2.0413 Y0.1710
G01 X-2.0509 Y0.2191
G01 X-2.0628 Y0.2667
G01 X-2.0733 Y0.3020
G01 X-2.0893 Y0.3484
G01 X-2.1027 Y0.3827
G01 X-2.1175 Y0.4164
G01 X-2.1390 Y0.4605
G01 X-2.1565 Y0.4929
G01 X-2.1818 Y0.5350
G01 X-2.2020 Y0.5657
G01 X-2.2234 Y0.5957
G01 X-2.2536 Y0.6344
G01 X-2.2775 Y0.6624
G01 X-2.3024 Y0.6895
G01 X-2.3371 Y0.7242
G01 X-2.3642 Y0.7491
G01 X-2.4018 Y0.7807
G01 X-2.4408 Y0.8105
G01 X-2.4711 Y0.8315
G01 X-2.5020 Y0.8514
G01 X-2.5444 Y0.8761
G01 X-2.5770 Y0.8932
G01 X-2.6102 Y0.9092
G01 X-2.6553 Y0.9285
G01 X-2.6897 Y0.9415
G01 X-2.7363 Y0.9569
G01 X-2.7718 Y0.9670
G01 X-2.8195 Y0.9783
G01 X-2.8557 Y0.9853
G01 X-2.8920 Y0.9909
G01 X-2.9408 Y0.9963
G01 X-2.9898 Y0.9993
G01 X-3.0266 Y1.0000
G01 X-75.0000 Y1.0000
G01 X-75.0368 Y0.9993
G01 X-75.0858 Y0.9963
G01 X-75.1224 Y0.9925
G01 X-75.1589 Y0.9873
G01 X-75.2071 Y0.9783
G01 X-75.2430 Y0.9700
G01 X-75.2903 Y0.9569
G01 X-75.3253 Y0.9456
G01 X-75.3599 Y0.9330
G01 X-75.4052 Y0.9142
G01 X-75.4386 Y0.8987
G01 X-75.4714 Y0.8819
G01 X-75.5141 Y0.8577
G01 X-75.5453 Y0.8382
G01 X-75.5758 Y0.8176
G01 X-75.6152 Y0.7883
G01 X-75.6624 Y0.7491
G01 X-75.6984 Y0.7157
G01 X-75.7327 Y0.6806
G01 X-75.7730 Y0.6344
G01 X-75.8105 Y0.5858
G01 X-75.8449 Y0.5350
G01 X-75.8701 Y0.4929
G01 X-75.8987 Y0.4386
G01 X-75.9239 Y0.3827
G01 X-75.9456 Y0.3253
G01 X-75.9604 Y0.2785
G01 X-75.9757 Y0.2191
G01 X-75.9853 Y0.1710
G01 X-75.9939 Y0.1102
G01 X-75.9981 Y0.0613
G01 X-76.0000 Y-0.0000
G01 X-76.0000 Y-63.0000
G01 X-75.9993 Y-63.0368
G01 X-75.9963 Y-63.0858
G01 X-75.9925 Y-63.1224
G01 X-75.9853 Y-63.1710
G01 X-75.9783 Y-63.2071
G01 X-75.9670 Y-63.2549
G01 X-75.9569 Y-63.2903
G01 X-75.9456 Y-63.3253
G01 X-75.9330 Y-63.3599
G01 X-75.9191 Y-63.3940
G01 X-75.8987 Y-63.4386
G01 X-75.8819 Y-63.4714
G01 X-75.8577 Y-63.5141
G01 X-75.8382 Y-63.5453
G01 X-75.8176 Y-63.5758
G01 X-75.7883 Y-63.6152
G01 X-75.7491 Y-63.6624
G01 X-75.7071 Y-63.7071
G01 X-75.6624 Y-63.7491
G01 X-75.6249 Y-63.7807
G01 X-75.5758 Y-63.8176
G01 X-75.5350 Y-63.8449
G01 X-75.4929 Y-63.8701
G01 X-75.4386 Y-63.8987
G01 X-75.3940 Y-63.9191
G01 X-75.3369 Y-63.9415
G01 X-75.2903 Y-63.9569
G01 X-75.2311 Y-63.9729
G01 X-75.1710 Y-63.9853
G01 X-75.1102 Y-63.9939
G01 X-75.0491 Y-63.9988
G01 X-75.0000 Y-64.0000
G01 X-0.0000 Y-64.0000
G01 X0.0368 Y-63.9993
G01 X0.0736 Y-63.9973
G01 X0.1102 Y-63.9939
G01 X0.1589 Y-63.9873
G01 X0.2071 Y-63.9783
G01 X0.2430 Y-63.9700
G01 X0.2903 Y-63.9569
G01 X0.3253 Y-63.9456
G01 X0.3599 Y-63.9330
G01 X0.3940 Y-63.9191
G01 X0.4276 Y-63.9040
G01 X0.4714 Y-63.8819
G01 X0.5141 Y-63.8577
G01 X0.5453 Y-63.8382
G01 X0.5758 Y-63.8176
G01 X0.6152 Y-63.7883
G01 X0.6624 Y-63.7491
G01 X0.6984 Y-63.7157
G01 X0.7327 Y-63.6806
G01 X0.7730 Y-63.6344
G01 X0.8032 Y-63.5957
G01 X0.8382 Y-63.5453
G01 X0.8640 Y-63.5035
G01 X0.8932 Y-63.4496
G01 X0.9191 Y-63.3940
G01 X0.9415 Y-63.3369
G01 X0.9569 Y-63.2903
G01 X0.9729 Y-63.2311
G01 X0.9853 Y-63.1710
G01 X0.9925 Y-63.1224
G01 X0.9973 Y-63.0736
G01 X0.9999 Y-63.0123
G01 X1.0000 Y-6.9953
G01 X0.9988 Y-6.9463
G01 X0.9952 Y-6.8973
G01 X0.9909 Y-6.8607
G01 X0.9853 Y-6.8244
G01 X0.9783 Y-6.7882
G01 X0.9700 Y-6.7523
G01 X0.9604 Y-6.7168
G01 X0.9495 Y-6.6816
G01 X0.9373 Y-6.6469
G01 X0.9239 Y-6.6126
G01 X0.9092 Y-6.5789
G01 X0.8932 Y-6.5457
G01 X0.8761 Y-6.5131
G01 X0.8577 Y-6.4812
G01 X0.8382 Y-6.4500
G01 X0.8176 Y-6.4195
G01 X0.7958 Y-6.3898
G01 X0.7730 Y-6.3609
G01 X0.7491 Y-6.3329
G01 X0.7242 Y-6.3058
G01 X0.6984 Y-6.2796
G01 X0.6716 Y-6.2544
G01 X0.6438 Y-6.2302
G01 X0.6152 Y-6.2070
G01 X0.5758 Y-6.1777
G01 X0.5453 Y-6.1571
G01 X0.5035 Y-6.1314
G01 X0.4714 Y-6.1134
G01 X0.4386 Y-6.0967
G01 X0.4052 Y-6.0811
G01 X0.3713 Y-6.0668
G01 X0.3369 Y-6.0538
G01 X0.3020 Y-6.0420
G01 X0.2667 Y-6.0315
G01 X0.2311 Y-6.0224
G01 X0.1951 Y-6.0145
G01 X0.1589 Y-6.0080
G01 X0.0980 Y-6.0001
G01 X0.0613 Y-5.9972
G01 X0.0245 Y-5.9956
G01 X-2.0266 Y-5.9953
G00 X-2.0266 Y-5.9953
G01 F70.00
G01 Z-0.7000
G01 F120.00
G01 X-2.0266 Y-0.0000
G01 X-2.0285 Y0.0613
G01 X-2.0314 Y0.0980
G01 X-2.0357 Y0.1346
G01 X-2.0413 Y0.1710
G01 X-2.0509 Y0.2191
G01 X-2.0628 Y0.2667
G01 X-2.0733 Y0.3020
G01 X-2.0893 Y0.3484
G01 X-2.1027 Y0.3827
G01 X-2.1175 Y0.4164
G01 X-2.1390 Y0.4605
G01 X-2.1565 Y0.4929
G01 X-2.1818 Y0.5350
G01 X-2.2020 Y0.5657
G01 X-2.2234 Y0.5957
G01 X-2.2536 Y0.6344
G01 X-2.2775 Y0.6624
G01 X-2.3024 Y0.6895
G01 X-2.3371 Y0.7242
G01 X-2.3642 Y0.7491
G01 X-2.4018 Y0.7807
G01 X-2.4408 Y0.8105
G01 X-2.4711 Y0.8315
G01 X-2.5020 Y0.8514
G01 X-2.5444 Y0.8761
G01 X-2.5770 Y0.8932
G01 X-2.6102 Y0.9092
G01 X-2.6553 Y0.9285
G01 X-2.6897 Y0.9415
G01 X-2.7363 Y0.9569
G01 X-2.7718 Y0.9670
G01 X-2.8195 Y0.9783
G01 X-2.8557 Y0.9853
G01 X-2.8920 Y0.9909
G01 X-2.9408 Y0.9963
G01 X-2.9898 Y0.9993
G01 X-3.0266 Y1.0000
G01 X-75.0000 Y1.0000
G01 X-75.0368 Y0.9993
G01 X-75.0858 Y0.9963
G01 X-75.1224 Y0.9925
G01 X-75.1589 Y0.9873
G01 X-75.2071 Y0.9783
G01 X-75.2430 Y0.9700
G01 X-75.2903 Y0.9569
G01 X-75.3253 Y0.9456
G01 X-75.3599 Y0.9330
G01 X-75.4052 Y0.9142
G01 X-75.4386 Y0.8987
G01 X-75.4714 Y0.8819
G01 X-75.5141 Y0.8577
G01 X-75.5453 Y0.8382
G01 X-75.5758 Y0.8176
G01 X-75.6152 Y0.7883
G01 X-75.6624 Y0.7491
G01 X-75.6984 Y0.7157
G01 X-75.7327 Y0.6806
G01 X-75.7730 Y0.6344
G01 X-75.8105 Y0.5858
G01 X-75.8449 Y0.5350
G01 X-75.8701 Y0.4929
G01 X-75.8987 Y0.4386
G01 X-75.9239 Y0.3827
G01 X-75.9456 Y0.3253
G01 X-75.9604 Y0.2785
G01 X-75.9757 Y0.2191
G01 X-75.9853 Y0.1710
G01 X-75.9939 Y0.1102
G01 X-75.9981 Y0.0613
G01 X-76.0000 Y-0.0000
G01 X-76.0000 Y-63.0000
G01 X-75.9993 Y-63.0368
G01 X-75.9963 Y-63.0858
G01 X-75.9925 Y-63.1224
G01 X-75.9853 Y-63.1710
G01 X-75.9783 Y-63.2071
G01 X-75.9670 Y-63.2549
G01 X-75.9569 Y-63.2903
G01 X-75.9456 Y-63.3253
G01 X-75.9330 Y-63.3599
G01 X-75.9191 Y-63.3940
G01 X-75.8987 Y-63.4386
G01 X-75.8819 Y-63.4714
G01 X-75.8577 Y-63.5141
G01 X-75.8382 Y-63.5453
G01 X-75.8176 Y-63.5758
G01 X-75.7883 Y-63.6152
G01 X-75.7491 Y-63.6624
G01 X-75.7071 Y-63.7071
G01 X-75.6624 Y-63.7491
G01 X-75.6249 Y-63.7807
G01 X-75.5758 Y-63.8176
G01 X-75.5350 Y-63.8449
G01 X-75.4929 Y-63.8701
G01 X-75.4386 Y-63.8987
G01 X-75.3940 Y-63.9191
G01 X-75.3369 Y-63.9415
G01 X-75.2903 Y-63.9569
G01 X-75.2311 Y-63.9729
G01 X-75.1710 Y-63.9853
G01 X-75.1102 Y-63.9939
G01 X-75.0491 Y-63.9988
G01 X-75.0000 Y-64.0000
G01 X-0.0000 Y-64.0000
G01 X0.0368 Y-63.9993
G01 X0.0736 Y-63.9973
G01 X0.1102 Y-63.9939
G01 X0.1589 Y-63.9873
G01 X0.2071 Y-63.9783
G01 X0.2430 Y-63.9700
G01 X0.2903 Y-63.9569
G01 X0.3253 Y-63.9456
G01 X0.3599 Y-63.9330
G01 X0.3940 Y-63.9191
G01 X0.4276 Y-63.9040
G01 X0.4714 Y-63.8819
G01 X0.5141 Y-63.8577
G01 X0.5453 Y-63.8382
G01 X0.5758 Y-63.8176
G01 X0.6152 Y-63.7883
G01 X0.6624 Y-63.7491
G01 X0.6984 Y-63.7157
G01 X0.7327 Y-63.6806
G01 X0.7730 Y-63.6344
G01 X0.8032 Y-63.5957
G01 X0.8382 Y-63.5453
G01 X0.8640 Y-63.5035
G01 X0.8932 Y-63.4496
G01 X0.9191 Y-63.3940
G01 X0.9415 Y-63.3369
G01 X0.9569 Y-63.2903
G01 X0.9729 Y-63.2311
G01 X0.9853 Y-63.1710
G01 X0.9925 Y-63.1224
G01 X0.9973 Y-63.0736
G01 X0.9999 Y-63.0123
G01 X1.0000 Y-6.9953
G01 X0.9988 Y-6.9463
G01 X0.9952 Y-6.8973
G01 X0.9909 Y-6.8607
G01 X0.9853 Y-6.8244
G01 X0.9783 Y-6.7882
G01 X0.9700 Y-6.7523
G01 X0.9604 Y-6.7168
G01 X0.9495 Y-6.6816
G01 X0.9373 Y-6.6469
G01 X0.9239 Y-6.6126
G01 X0.9092 Y-6.5789
G01 X0.8932 Y-6.5457
G01 X0.8761 Y-6.5131
G01 X0.8577 Y-6.4812
G01 X0.8382 Y-6.4500
G01 X0.8176 Y-6.4195
G01 X0.7958 Y-6.3898
G01 X0.7730 Y-6.3609
G01 X0.7491 Y-6.3329
G01 X0.7242 Y-6.3058
G01 X0.6984 Y-6.2796
G01 X0.6716 Y-6.2544
G01 X0.6438 Y-6.2302
G01 X0.6152 Y-6.2070
G01 X0.5758 Y-6.1777
G01 X0.5453 Y-6.1571
G01 X0.5035 Y-6.1314
G01 X0.4714 Y-6.1134
G01 X0.4386 Y-6.0967
G01 X0.4052 Y-6.0811
G01 X0.3713 Y-6.0668
G01 X0.3369 Y-6.0538
G01 X0.3020 Y-6.0420
G01 X0.2667 Y-6.0315
G01 X0.2311 Y-6.0224
G01 X0.1951 Y-6.0145
G01 X0.1589 Y-6.0080
G01 X0.0980 Y-6.0001
G01 X0.0613 Y-5.9972
G01 X0.0245 Y-5.9956
G01 X-2.0266 Y-5.9953
G00 X-2.0266 Y-5.9953
G01 F70.00
G01 Z-0.8000
G01 F120.00
G01 X-2.0266 Y-0.0000
G01 X-2.0285 Y0.0613
G01 X-2.0314 Y0.0980
G01 X-2.0357 Y0.1346
G01 X-2.0413 Y0.1710
G01 X-2.0509 Y0.2191
G01 X-2.0628 Y0.2667
G01 X-2.0733 Y0.3020
G01 X-2.0893 Y0.3484
G01 X-2.1027 Y0.3827
G01 X-2.1175 Y0.4164
G01 X-2.1390 Y0.4605
G01 X-2.1565 Y0.4929
G01 X-2.1818 Y0.5350
G01 X-2.2020 Y0.5657
G01 X-2.2234 Y0.5957
G01 X-2.2536 Y0.6344
G01 X-2.2775 Y0.6624
G01 X-2.3024 Y0.6895
G01 X-2.3371 Y0.7242
G01 X-2.3642 Y0.7491
G01 X-2.4018 Y0.7807
G01 X-2.4408 Y0.8105
G01 X-2.4711 Y0.8315
G01 X-2.5020 Y0.8514
G01 X-2.5444 Y0.8761
G01 X-2.5770 Y0.8932
G01 X-2.6102 Y0.9092
G01 X-2.6553 Y0.9285
G01 X-2.6897 Y0.9415
G01 X-2.7363 Y0.9569
G01 X-2.7718 Y0.9670
G01 X-2.8195 Y0.9783
G01 X-2.8557 Y0.9853
G01 X-2.8920 Y0.9909
G01 X-2.9408 Y0.9963
G01 X-2.9898 Y0.9993
G01 X-3.0266 Y1.0000
G01 X-75.0000 Y1.0000
G01 X-75.0368 Y0.9993
G01 X-75.0858 Y0.9963
G01 X-75.1224 Y0.9925
G01 X-75.1589 Y0.9873
G01 X-75.2071 Y0.9783
G01 X-75.2430 Y0.9700
G01 X-75.2903 Y0.9569
G01 X-75.3253 Y0.9456
G01 X-75.3599 Y0.9330
G01 X-75.4052 Y0.9142
G01 X-75.4386 Y0.8987
G01 X-75.4714 Y0.8819
G01 X-75.5141 Y0.8577
G01 X-75.5453 Y0.8382
G01 X-75.5758 Y0.8176
G01 X-75.6152 Y0.7883
G01 X-75.6624 Y0.7491
G01 X-75.6984 Y0.7157
G01 X-75.7327 Y0.6806
G01 X-75.7730 Y0.6344
G01 X-75.8105 Y0.5858
G01 X-75.8449 Y0.5350
G01 X-75.8701 Y0.4929
G01 X-75.8987 Y0.4386
G01 X-75.9239 Y0.3827
G01 X-75.9456 Y0.3253
G01 X-75.9604 Y0.2785
G01 X-75.9757 Y0.2191
G01 X-75.9853 Y0.1710
G01 X-75.9939 Y0.1102
G01 X-75.9981 Y0.0613
G01 X-76.0000 Y-0.0000
G01 X-76.0000 Y-63.0000
G01 X-75.9993 Y-63.0368
G01 X-75.9963 Y-63.0858
G01 X-75.9925 Y-63.1224
G01 X-75.9853 Y-63.1710
G01 X-75.9783 Y-63.2071
G01 X-75.9670 Y-63.2549
G01 X-75.9569 Y-63.2903
G01 X-75.9456 Y-63.3253
G01 X-75.9330 Y-63.3599
G01 X-75.9191 Y-63.3940
G01 X-75.8987 Y-63.4386
G01 X-75.8819 Y-63.4714
G01 X-75.8577 Y-63.5141
G01 X-75.8382 Y-63.5453
G01 X-75.8176 Y-63.5758
G01 X-75.7883 Y-63.6152
G01 X-75.7491 Y-63.6624
G01 X-75.7071 Y-63.7071
G01 X-75.6624 Y-63.7491
G01 X-75.6249 Y-63.7807
G01 X-75.5758 Y-63.8176
G01 X-75.5350 Y-63.8449
G01 X-75.4929 Y-63.8701
G01 X-75.4386 Y-63.8987
G01 X-75.3940 Y-63.9191
G01 X-75.3369 Y-63.9415
G01 X-75.2903 Y-63.9569
G01 X-75.2311 Y-63.9729
G01 X-75.1710 Y-63.9853
G01 X-75.1102 Y-63.9939
G01 X-75.0491 Y-63.9988
G01 X-75.0000 Y-64.0000
G01 X-0.0000 Y-64.0000
G01 X0.0368 Y-63.9993
G01 X0.0736 Y-63.9973
G01 X0.1102 Y-63.9939
G01 X0.1589 Y-63.9873
G01 X0.2071 Y-63.9783
G01 X0.2430 Y-63.9700
G01 X0.2903 Y-63.9569
G01 X0.3253 Y-63.9456
G01 X0.3599 Y-63.9330
G01 X0.3940 Y-63.9191
G01 X0.4276 Y-63.9040
G01 X0.4714 Y-63.8819
G01 X0.5141 Y-63.8577
G01 X0.5453 Y-63.8382
G01 X0.5758 Y-63.8176
G01 X0.6152 Y-63.7883
G01 X0.6624 Y-63.7491
G01 X0.6984 Y-63.7157
G01 X0.7327 Y-63.6806
G01 X0.7730 Y-63.6344
G01 X0.8032 Y-63.5957
G01 X0.8382 Y-63.5453
G01 X0.8640 Y-63.5035
G01 X0.8932 Y-63.4496
G01 X0.9191 Y-63.3940
G01 X0.9415 Y-63.3369
G01 X0.9569 Y-63.2903
G01 X0.9729 Y-63.2311
G01 X0.9853 Y-63.1710
G01 X0.9925 Y-63.1224
G01 X0.9973 Y-63.0736
G01 X0.9999 Y-63.0123
G01 X1.0000 Y-6.9953
G01 X0.9988 Y-6.9463
G01 X0.9952 Y-6.8973
G01 X0.9909 Y-6.8607
G01 X0.9853 Y-6.8244
G01 X0.9783 Y-6.7882
G01 X0.9700 Y-6.7523
G01 X0.9604 Y-6.7168
G01 X0.9495 Y-6.6816
G01 X0.9373 Y-6.6469
G01 X0.9239 Y-6.6126
G01 X0.9092 Y-6.5789
G01 X0.8932 Y-6.5457
G01 X0.8761 Y-6.5131
G01 X0.8577 Y-6.4812
G01 X0.8382 Y-6.4500
G01 X0.8176 Y-6.4195
G01 X0.7958 Y-6.3898
G01 X0.7730 Y-6.3609
G01 X0.7491 Y-6.3329
G01 X0.7242 Y-6.3058
G01 X0.6984 Y-6.2796
G01 X0.6716 Y-6.2544
G01 X0.6438 Y-6.2302
G01 X0.6152 Y-6.2070
G01 X0.5758 Y-6.1777
G01 X0.5453 Y-6.1571
G01 X0.5035 Y-6.1314
G01 X0.4714 Y-6.1134
G01 X0.4386 Y-6.0967
G01 X0.4052 Y-6.0811
G01 X0.3713 Y-6.0668
G01 X0.3369 Y-6.0538
G01 X0.3020 Y-6.0420
G01 X0.2667 Y-6.0315
G01 X0.2311 Y-6.0224
G01 X0.1951 Y-6.0145
G01 X0.1589 Y-6.0080
G01 X0.0980 Y-6.0001
G01 X0.0613 Y-5.9972
G01 X0.0245 Y-5.9956
G01 X-2.0266 Y-5.9953
G00 X-2.0266 Y-5.9953
G01 F70.00
G01 Z-0.9000
G01 F120.00
G01 X-2.0266 Y-0.0000
G01 X-2.0285 Y0.0613
G01 X-2.0314 Y0.0980
G01 X-2.0357 Y0.1346
G01 X-2.0413 Y0.1710
G01 X-2.0509 Y0.2191
G01 X-2.0628 Y0.2667
G01 X-2.0733 Y0.3020
G01 X-2.0893 Y0.3484
G01 X-2.1027 Y0.3827
G01 X-2.1175 Y0.4164
G01 X-2.1390 Y0.4605
G01 X-2.1565 Y0.4929
G01 X-2.1818 Y0.5350
G01 X-2.2020 Y0.5657
G01 X-2.2234 Y0.5957
G01 X-2.2536 Y0.6344
G01 X-2.2775 Y0.6624
G01 X-2.3024 Y0.6895
G01 X-2.3371 Y0.7242
G01 X-2.3642 Y0.7491
G01 X-2.4018 Y0.7807
G01 X-2.4408 Y0.8105
G01 X-2.4711 Y0.8315
G01 X-2.5020 Y0.8514
G01 X-2.5444 Y0.8761
G01 X-2.5770 Y0.8932
G01 X-2.6102 Y0.9092
G01 X-2.6553 Y0.9285
G01 X-2.6897 Y0.9415
G01 X-2.7363 Y0.9569
G01 X-2.7718 Y0.9670
G01 X-2.8195 Y0.9783
G01 X-2.8557 Y0.9853
G01 X-2.8920 Y0.9909
G01 X-2.9408 Y0.9963
G01 X-2.9898 Y0.9993
G01 X-3.0266 Y1.0000
G01 X-75.0000 Y1.0000
G01 X-75.0368 Y0.9993
G01 X-75.0858 Y0.9963
G01 X-75.1224 Y0.9925
G01 X-75.1589 Y0.9873
G01 X-75.2071 Y0.9783
G01 X-75.2430 Y0.9700
G01 X-75.2903 Y0.9569
G01 X-75.3253 Y0.9456
G01 X-75.3599 Y0.9330
G01 X-75.4052 Y0.9142
G01 X-75.4386 Y0.8987
G01 X-75.4714 Y0.8819
G01 X-75.5141 Y0.8577
G01 X-75.5453 Y0.8382
G01 X-75.5758 Y0.8176
G01 X-75.6152 Y0.7883
G01 X-75.6624 Y0.7491
G01 X-75.6984 Y0.7157
G01 X-75.7327 Y0.6806
G01 X-75.7730 Y0.6344
G01 X-75.8105 Y0.5858
G01 X-75.8449 Y0.5350
G01 X-75.8701 Y0.4929
G01 X-75.8987 Y0.4386
G01 X-75.9239 Y0.3827
G01 X-75.9456 Y0.3253
G01 X-75.9604 Y0.2785
G01 X-75.9757 Y0.2191
G01 X-75.9853 Y0.1710
G01 X-75.9939 Y0.1102
G01 X-75.9981 Y0.0613
G01 X-76.0000 Y-0.0000
G01 X-76.0000 Y-63.0000
G01 X-75.9993 Y-63.0368
G01 X-75.9963 Y-63.0858
G01 X-75.9925 Y-63.1224
G01 X-75.9853 Y-63.1710
G01 X-75.9783 Y-63.2071
G01 X-75.9670 Y-63.2549
G01 X-75.9569 Y-63.2903
G01 X-75.9456 Y-63.3253
G01 X-75.9330 Y-63.3599
G01 X-75.9191 Y-63.3940
G01 X-75.8987 Y-63.4386
G01 X-75.8819 Y-63.4714
G01 X-75.8577 Y-63.5141
G01 X-75.8382 Y-63.5453
G01 X-75.8176 Y-63.5758
G01 X-75.7883 Y-63.6152
G01 X-75.7491 Y-63.6624
G01 X-75.7071 Y-63.7071
G01 X-75.6624 Y-63.7491
G01 X-75.6249 Y-63.7807
G01 X-75.5758 Y-63.8176
G01 X-75.5350 Y-63.8449
G01 X-75.4929 Y-63.8701
G01 X-75.4386 Y-63.8987
G01 X-75.3940 Y-63.9191
G01 X-75.3369 Y-63.9415
G01 X-75.2903 Y-63.9569
G01 X-75.2311 Y-63.9729
G01 X-75.1710 Y-63.9853
G01 X-75.1102 Y-63.9939
G01 X-75.0491 Y-63.9988
G01 X-75.0000 Y-64.0000
G01 X-0.0000 Y-64.0000
G01 X0.0368 Y-63.9993
G01 X0.0736 Y-63.9973
G01 X0.1102 Y-63.9939
G01 X0.1589 Y-63.9873
G01 X0.2071 Y-63.9783
G01 X0.2430 Y-63.9700
G01 X0.2903 Y-63.9569
G01 X0.3253 Y-63.9456
G01 X0.3599 Y-63.9330
G01 X0.3940 Y-63.9191
G01 X0.4276 Y-63.9040
G01 X0.4714 Y-63.8819
G01 X0.5141 Y-63.8577
G01 X0.5453 Y-63.8382
G01 X0.5758 Y-63.8176
G01 X0.6152 Y-63.7883
G01 X0.6624 Y-63.7491
G01 X0.6984 Y-63.7157
G01 X0.7327 Y-63.6806
G01 X0.7730 Y-63.6344
G01 X0.8032 Y-63.5957
G01 X0.8382 Y-63.5453
G01 X0.8640 Y-63.5035
G01 X0.8932 Y-63.4496
G01 X0.9191 Y-63.3940
G01 X0.9415 Y-63.3369
G01 X0.9569 Y-63.2903
G01 X0.9729 Y-63.2311
G01 X0.9853 Y-63.1710
G01 X0.9925 Y-63.1224
G01 X0.9973 Y-63.0736
G01 X0.9999 Y-63.0123
G01 X1.0000 Y-6.9953
G01 X0.9988 Y-6.9463
G01 X0.9952 Y-6.8973
G01 X0.9909 Y-6.8607
G01 X0.9853 Y-6.8244
G01 X0.9783 Y-6.7882
G01 X0.9700 Y-6.7523
G01 X0.9604 Y-6.7168
G01 X0.9495 Y-6.6816
G01 X0.9373 Y-6.6469
G01 X0.9239 Y-6.6126
G01 X0.9092 Y-6.5789
G01 X0.8932 Y-6.5457
G01 X0.8761 Y-6.5131
G01 X0.8577 Y-6.4812
G01 X0.8382 Y-6.4500
G01 X0.8176 Y-6.4195
G01 X0.7958 Y-6.3898
G01 X0.7730 Y-6.3609
G01 X0.7491 Y-6.3329
G01 X0.7242 Y-6.3058
G01 X0.6984 Y-6.2796
G01 X0.6716 Y-6.2544
G01 X0.6438 Y-6.2302
G01 X0.6152 Y-6.2070
G01 X0.5758 Y-6.1777
G01 X0.5453 Y-6.1571
G01 X0.5035 Y-6.1314
G01 X0.4714 Y-6.1134
G01 X0.4386 Y-6.0967
G01 X0.4052 Y-6.0811
G01 X0.3713 Y-6.0668
G01 X0.3369 Y-6.0538
G01 X0.3020 Y-6.0420
G01 X0.2667 Y-6.0315
G01 X0.2311 Y-6.0224
G01 X0.1951 Y-6.0145
G01 X0.1589 Y-6.0080
G01 X0.0980 Y-6.0001
G01 X0.0613 Y-5.9972
G01 X0.0245 Y-5.9956
G01 X-2.0266 Y-5.9953
G00 X-2.0266 Y-5.9953
G01 F70.00
G01 Z-1.0000
G01 F120.00
G01 X-2.0266 Y-0.0000
G01 X-2.0285 Y0.0613
G01 X-2.0314 Y0.0980
G01 X-2.0357 Y0.1346
G01 X-2.0413 Y0.1710
G01 X-2.0509 Y0.2191
G01 X-2.0628 Y0.2667
G01 X-2.0733 Y0.3020
G01 X-2.0893 Y0.3484
G01 X-2.1027 Y0.3827
G01 X-2.1175 Y0.4164
G01 X-2.1390 Y0.4605
G01 X-2.1565 Y0.4929
G01 X-2.1818 Y0.5350
G01 X-2.2020 Y0.5657
G01 X-2.2234 Y0.5957
G01 X-2.2536 Y0.6344
G01 X-2.2775 Y0.6624
G01 X-2.3024 Y0.6895
G01 X-2.3371 Y0.7242
G01 X-2.3642 Y0.7491
G01 X-2.4018 Y0.7807
G01 X-2.4408 Y0.8105
G01 X-2.4711 Y0.8315
G01 X-2.5020 Y0.8514
G01 X-2.5444 Y0.8761
G01 X-2.5770 Y0.8932
G01 X-2.6102 Y0.9092
G01 X-2.6553 Y0.9285
G01 X-2.6897 Y0.9415
G01 X-2.7363 Y0.9569
G01 X-2.7718 Y0.9670
G01 X-2.8195 Y0.9783
G01 X-2.8557 Y0.9853
G01 X-2.8920 Y0.9909
G01 X-2.9408 Y0.9963
G01 X-2.9898 Y0.9993
G01 X-3.0266 Y1.0000
G01 X-75.0000 Y1.0000
G01 X-75.0368 Y0.9993
G01 X-75.0858 Y0.9963
G01 X-75.1224 Y0.9925
G01 X-75.1589 Y0.9873
G01 X-75.2071 Y0.9783
G01 X-75.2430 Y0.9700
G01 X-75.2903 Y0.9569
G01 X-75.3253 Y0.9456
G01 X-75.3599 Y0.9330
G01 X-75.4052 Y0.9142
G01 X-75.4386 Y0.8987
G01 X-75.4714 Y0.8819
G01 X-75.5141 Y0.8577
G01 X-75.5453 Y0.8382
G01 X-75.5758 Y0.8176
G01 X-75.6152 Y0.7883
G01 X-75.6624 Y0.7491
G01 X-75.6984 Y0.7157
G01 X-75.7327 Y0.6806
G01 X-75.7730 Y0.6344
G01 X-75.8105 Y0.5858
G01 X-75.8449 Y0.5350
G01 X-75.8701 Y0.4929
G01 X-75.8987 Y0.4386
G01 X-75.9239 Y0.3827
G01 X-75.9456 Y0.3253
G01 X-75.9604 Y0.2785
G01 X-75.9757 Y0.2191
G01 X-75.9853 Y0.1710
G01 X-75.9939 Y0.1102
G01 X-75.9981 Y0.0613
G01 X-76.0000 Y-0.0000
G01 X-76.0000 Y-63.0000
G01 X-75.9993 Y-63.0368
G01 X-75.9963 Y-63.0858
G01 X-75.9925 Y-63.1224
G01 X-75.9853 Y-63.1710
G01 X-75.9783 Y-63.2071
G01 X-75.9670 Y-63.2549
G01 X-75.9569 Y-63.2903
G01 X-75.9456 Y-63.3253
G01 X-75.9330 Y-63.3599
G01 X-75.9191 Y-63.3940
G01 X-75.8987 Y-63.4386
G01 X-75.8819 Y-63.4714
G01 X-75.8577 Y-63.5141
G01 X-75.8382 Y-63.5453
G01 X-75.8176 Y-63.5758
G01 X-75.7883 Y-63.6152
G01 X-75.7491 Y-63.6624
G01 X-75.7071 Y-63.7071
G01 X-75.6624 Y-63.7491
G01 X-75.6249 Y-63.7807
G01 X-75.5758 Y-63.8176
G01 X-75.5350 Y-63.8449
G01 X-75.4929 Y-63.8701
G01 X-75.4386 Y-63.8987
G01 X-75.3940 Y-63.9191
G01 X-75.3369 Y-63.9415
G01 X-75.2903 Y-63.9569
G01 X-75.2311 Y-63.9729
G01 X-75.1710 Y-63.9853
G01 X-75.1102 Y-63.9939
G01 X-75.0491 Y-63.9988
G01 X-75.0000 Y-64.0000
G01 X-0.0000 Y-64.0000
G01 X0.0368 Y-63.9993
G01 X0.0736 Y-63.9973
G01 X0.1102 Y-63.9939
G01 X0.1589 Y-63.9873
G01 X0.2071 Y-63.9783
G01 X0.2430 Y-63.9700
G01 X0.2903 Y-63.9569
G01 X0.3253 Y-63.9456
G01 X0.3599 Y-63.9330
G01 X0.3940 Y-63.9191
G01 X0.4276 Y-63.9040
G01 X0.4714 Y-63.8819
G01 X0.5141 Y-63.8577
G01 X0.5453 Y-63.8382
G01 X0.5758 Y-63.8176
G01 X0.6152 Y-63.7883
G01 X0.6624 Y-63.7491
G01 X0.6984 Y-63.7157
G01 X0.7327 Y-63.6806
G01 X0.7730 Y-63.6344
G01 X0.8032 Y-63.5957
G01 X0.8382 Y-63.5453
G01 X0.8640 Y-63.5035
G01 X0.8932 Y-63.4496
G01 X0.9191 Y-63.3940
G01 X0.9415 Y-63.3369
G01 X0.9569 Y-63.2903
G01 X0.9729 Y-63.2311
G01 X0.9853 Y-63.1710
G01 X0.9925 Y-63.1224
G01 X0.9973 Y-63.0736
G01 X0.9999 Y-63.0123
G01 X1.0000 Y-6.9953
G01 X0.9988 Y-6.9463
G01 X0.9952 Y-6.8973
G01 X0.9909 Y-6.8607
G01 X0.9853 Y-6.8244
G01 X0.9783 Y-6.7882
G01 X0.9700 Y-6.7523
G01 X0.9604 Y-6.7168
G01 X0.9495 Y-6.6816
G01 X0.9373 Y-6.6469
G01 X0.9239 Y-6.6126
G01 X0.9092 Y-6.5789
G01 X0.8932 Y-6.5457
G01 X0.8761 Y-6.5131
G01 X0.8577 Y-6.4812
G01 X0.8382 Y-6.4500
G01 X0.8176 Y-6.4195
G01 X0.7958 Y-6.3898
G01 X0.7730 Y-6.3609
G01 X0.7491 Y-6.3329
G01 X0.7242 Y-6.3058
G01 X0.6984 Y-6.2796
G01 X0.6716 Y-6.2544
G01 X0.6438 Y-6.2302
G01 X0.6152 Y-6.2070
G01 X0.5758 Y-6.1777
G01 X0.5453 Y-6.1571
G01 X0.5035 Y-6.1314
G01 X0.4714 Y-6.1134
G01 X0.4386 Y-6.0967
G01 X0.4052 Y-6.0811
G01 X0.3713 Y-6.0668
G01 X0.3369 Y-6.0538
G01 X0.3020 Y-6.0420
G01 X0.2667 Y-6.0315
G01 X0.2311 Y-6.0224
G01 X0.1951 Y-6.0145
G01 X0.1589 Y-6.0080
G01 X0.0980 Y-6.0001
G01 X0.0613 Y-5.9972
G01 X0.0245 Y-5.9956
G01 X-2.0266 Y-5.9953
G00 X-2.0266 Y-5.9953
G01 F70.00
G01 Z-1.1000
G01 F120.00
G01 X-2.0266 Y-0.0000
G01 X-2.0285 Y0.0613
G01 X-2.0314 Y0.0980
G01 X-2.0357 Y0.1346
G01 X-2.0413 Y0.1710
G01 X-2.0509 Y0.2191
G01 X-2.0628 Y0.2667
G01 X-2.0733 Y0.3020
G01 X-2.0893 Y0.3484
G01 X-2.1027 Y0.3827
G01 X-2.1175 Y0.4164
G01 X-2.1390 Y0.4605
G01 X-2.1565 Y0.4929
G01 X-2.1818 Y0.5350
G01 X-2.2020 Y0.5657
G01 X-2.2234 Y0.5957
G01 X-2.2536 Y0.6344
G01 X-2.2775 Y0.6624
G01 X-2.3024 Y0.6895
G01 X-2.3371 Y0.7242
G01 X-2.3642 Y0.7491
G01 X-2.4018 Y0.7807
G01 X-2.4408 Y0.8105
G01 X-2.4711 Y0.8315
G01 X-2.5020 Y0.8514
G01 X-2.5444 Y0.8761
G01 X-2.5770 Y0.8932
G01 X-2.6102 Y0.9092
G01 X-2.6553 Y0.9285
G01 X-2.6897 Y0.9415
G01 X-2.7363 Y0.9569
G01 X-2.7718 Y0.9670
G01 X-2.8195 Y0.9783
G01 X-2.8557 Y0.9853
G01 X-2.8920 Y0.9909
G01 X-2.9408 Y0.9963
G01 X-2.9898 Y0.9993
G01 X-3.0266 Y1.0000
G01 X-75.0000 Y1.0000
G01 X-75.0368 Y0.9993
G01 X-75.0858 Y0.9963
G01 X-75.1224 Y0.9925
G01 X-75.1589 Y0.9873
G01 X-75.2071 Y0.9783
G01 X-75.2430 Y0.9700
G01 X-75.2903 Y0.9569
G01 X-75.3253 Y0.9456
G01 X-75.3599 Y0.9330
G01 X-75.4052 Y0.9142
G01 X-75.4386 Y0.8987
G01 X-75.4714 Y0.8819
G01 X-75.5141 Y0.8577
G01 X-75.5453 Y0.8382
G01 X-75.5758 Y0.8176
G01 X-75.6152 Y0.7883
G01 X-75.6624 Y0.7491
G01 X-75.6984 Y0.7157
G01 X-75.7327 Y0.6806
G01 X-75.7730 Y0.6344
G01 X-75.8105 Y0.5858
G01 X-75.8449 Y0.5350
G01 X-75.8701 Y0.4929
G01 X-75.8987 Y0.4386
G01 X-75.9239 Y0.3827
G01 X-75.9456 Y0.3253
G01 X-75.9604 Y0.2785
G01 X-75.9757 Y0.2191
G01 X-75.9853 Y0.1710
G01 X-75.9939 Y0.1102
G01 X-75.9981 Y0.0613
G01 X-76.0000 Y-0.0000
G01 X-76.0000 Y-63.0000
G01 X-75.9993 Y-63.0368
G01 X-75.9963 Y-63.0858
G01 X-75.9925 Y-63.1224
G01 X-75.9853 Y-63.1710
G01 X-75.9783 Y-63.2071
G01 X-75.9670 Y-63.2549
G01 X-75.9569 Y-63.2903
G01 X-75.9456 Y-63.3253
G01 X-75.9330 Y-63.3599
G01 X-75.9191 Y-63.3940
G01 X-75.8987 Y-63.4386
G01 X-75.8819 Y-63.4714
G01 X-75.8577 Y-63.5141
G01 X-75.8382 Y-63.5453
G01 X-75.8176 Y-63.5758
G01 X-75.7883 Y-63.6152
G01 X-75.7491 Y-63.6624
G01 X-75.7071 Y-63.7071
G01 X-75.6624 Y-63.7491
G01 X-75.6249 Y-63.7807
G01 X-75.5758 Y-63.8176
G01 X-75.5350 Y-63.8449
G01 X-75.4929 Y-63.8701
G01 X-75.4386 Y-63.8987
G01 X-75.3940 Y-63.9191
G01 X-75.3369 Y-63.9415
G01 X-75.2903 Y-63.9569
G01 X-75.2311 Y-63.9729
G01 X-75.1710 Y-63.9853
G01 X-75.1102 Y-63.9939
G01 X-75.0491 Y-63.9988
G01 X-75.0000 Y-64.0000
G01 X-0.0000 Y-64.0000
G01 X0.0368 Y-63.9993
G01 X0.0736 Y-63.9973
G01 X0.1102 Y-63.9939
G01 X0.1589 Y-63.9873
G01 X0.2071 Y-63.9783
G01 X0.2430 Y-63.9700
G01 X0.2903 Y-63.9569
G01 X0.3253 Y-63.9456
G01 X0.3599 Y-63.9330
G01 X0.3940 Y-63.9191
G01 X0.4276 Y-63.9040
G01 X0.4714 Y-63.8819
G01 X0.5141 Y-63.8577
G01 X0.5453 Y-63.8382
G01 X0.5758 Y-63.8176
G01 X0.6152 Y-63.7883
G01 X0.6624 Y-63.7491
G01 X0.6984 Y-63.7157
G01 X0.7327 Y-63.6806
G01 X0.7730 Y-63.6344
G01 X0.8032 Y-63.5957
G01 X0.8382 Y-63.5453
G01 X0.8640 Y-63.5035
G01 X0.8932 Y-63.4496
G01 X0.9191 Y-63.3940
G01 X0.9415 Y-63.3369
G01 X0.9569 Y-63.2903
G01 X0.9729 Y-63.2311
G01 X0.9853 Y-63.1710
G01 X0.9925 Y-63.1224
G01 X0.9973 Y-63.0736
G01 X0.9999 Y-63.0123
G01 X1.0000 Y-6.9953
G01 X0.9988 Y-6.9463
G01 X0.9952 Y-6.8973
G01 X0.9909 Y-6.8607
G01 X0.9853 Y-6.8244
G01 X0.9783 Y-6.7882
G01 X0.9700 Y-6.7523
G01 X0.9604 Y-6.7168
G01 X0.9495 Y-6.6816
G01 X0.9373 Y-6.6469
G01 X0.9239 Y-6.6126
G01 X0.9092 Y-6.5789
G01 X0.8932 Y-6.5457
G01 X0.8761 Y-6.5131
G01 X0.8577 Y-6.4812
G01 X0.8382 Y-6.4500
G01 X0.8176 Y-6.4195
G01 X0.7958 Y-6.3898
G01 X0.7730 Y-6.3609
G01 X0.7491 Y-6.3329
G01 X0.7242 Y-6.3058
G01 X0.6984 Y-6.2796
G01 X0.6716 Y-6.2544
G01 X0.6438 Y-6.2302
G01 X0.6152 Y-6.2070
G01 X0.5758 Y-6.1777
G01 X0.5453 Y-6.1571
G01 X0.5035 Y-6.1314
G01 X0.4714 Y-6.1134
G01 X0.4386 Y-6.0967
G01 X0.4052 Y-6.0811
G01 X0.3713 Y-6.0668
G01 X0.3369 Y-6.0538
G01 X0.3020 Y-6.0420
G01 X0.2667 Y-6.0315
G01 X0.2311 Y-6.0224
G01 X0.1951 Y-6.0145
G01 X0.1589 Y-6.0080
G01 X0.0980 Y-6.0001
G01 X0.0613 Y-5.9972
G01 X0.0245 Y-5.9956
G01 X-2.0266 Y-5.9953
G00 X-2.0266 Y-5.9953
G01 F70.00
G01 Z-1.2000
G01 F120.00
G01 X-2.0266 Y-0.0000
G01 X-2.0285 Y0.0613
G01 X-2.0314 Y0.0980
G01 X-2.0357 Y0.1346
G01 X-2.0413 Y0.1710
G01 X-2.0509 Y0.2191
G01 X-2.0628 Y0.2667
G01 X-2.0733 Y0.3020
G01 X-2.0893 Y0.3484
G01 X-2.1027 Y0.3827
G01 X-2.1175 Y0.4164
G01 X-2.1390 Y0.4605
G01 X-2.1565 Y0.4929
G01 X-2.1818 Y0.5350
G01 X-2.2020 Y0.5657
G01 X-2.2234 Y0.5957
G01 X-2.2536 Y0.6344
G01 X-2.2775 Y0.6624
G01 X-2.3024 Y0.6895
G01 X-2.3371 Y0.7242
G01 X-2.3642 Y0.7491
G01 X-2.4018 Y0.7807
G01 X-2.4408 Y0.8105
G01 X-2.4711 Y0.8315
G01 X-2.5020 Y0.8514
G01 X-2.5444 Y0.8761
G01 X-2.5770 Y0.8932
G01 X-2.6102 Y0.9092
G01 X-2.6553 Y0.9285
G01 X-2.6897 Y0.9415
G01 X-2.7363 Y0.9569
G01 X-2.7718 Y0.9670
G01 X-2.8195 Y0.9783
G01 X-2.8557 Y0.9853
G01 X-2.8920 Y0.9909
G01 X-2.9408 Y0.9963
G01 X-2.9898 Y0.9993
G01 X-3.0266 Y1.0000
G01 X-75.0000 Y1.0000
G01 X-75.0368 Y0.9993
G01 X-75.0858 Y0.9963
G01 X-75.1224 Y0.9925
G01 X-75.1589 Y0.9873
G01 X-75.2071 Y0.9783
G01 X-75.2430 Y0.9700
G01 X-75.2903 Y0.9569
G01 X-75.3253 Y0.9456
G01 X-75.3599 Y0.9330
G01 X-75.4052 Y0.9142
G01 X-75.4386 Y0.8987
G01 X-75.4714 Y0.8819
G01 X-75.5141 Y0.8577
G01 X-75.5453 Y0.8382
G01 X-75.5758 Y0.8176
G01 X-75.6152 Y0.7883
G01 X-75.6624 Y0.7491
G01 X-75.6984 Y0.7157
G01 X-75.7327 Y0.6806
G01 X-75.7730 Y0.6344
G01 X-75.8105 Y0.5858
G01 X-75.8449 Y0.5350
G01 X-75.8701 Y0.4929
G01 X-75.8987 Y0.4386
G01 X-75.9239 Y0.3827
G01 X-75.9456 Y0.3253
G01 X-75.9604 Y0.2785
G01 X-75.9757 Y0.2191
G01 X-75.9853 Y0.1710
G01 X-75.9939 Y0.1102
G01 X-75.9981 Y0.0613
G01 X-76.0000 Y-0.0000
G01 X-76.0000 Y-63.0000
G01 X-75.9993 Y-63.0368
G01 X-75.9963 Y-63.0858
G01 X-75.9925 Y-63.1224
G01 X-75.9853 Y-63.1710
G01 X-75.9783 Y-63.2071
G01 X-75.9670 Y-63.2549
G01 X-75.9569 Y-63.2903
G01 X-75.9456 Y-63.3253
G01 X-75.9330 Y-63.3599
G01 X-75.9191 Y-63.3940
G01 X-75.8987 Y-63.4386
G01 X-75.8819 Y-63.4714
G01 X-75.8577 Y-63.5141
G01 X-75.8382 Y-63.5453
G01 X-75.8176 Y-63.5758
G01 X-75.7883 Y-63.6152
G01 X-75.7491 Y-63.6624
G01 X-75.7071 Y-63.7071
G01 X-75.6624 Y-63.7491
G01 X-75.6249 Y-63.7807
G01 X-75.5758 Y-63.8176
G01 X-75.5350 Y-63.8449
G01 X-75.4929 Y-63.8701
G01 X-75.4386 Y-63.8987
G01 X-75.3940 Y-63.9191
G01 X-75.3369 Y-63.9415
G01 X-75.2903 Y-63.9569
G01 X-75.2311 Y-63.9729
G01 X-75.1710 Y-63.9853
G01 X-75.1102 Y-63.9939
G01 X-75.0491 Y-63.9988
G01 X-75.0000 Y-64.0000
G01 X-0.0000 Y-64.0000
G01 X0.0368 Y-63.9993
G01 X0.0736 Y-63.9973
G01 X0.1102 Y-63.9939
G01 X0.1589 Y-63.9873
G01 X0.2071 Y-63.9783
G01 X0.2430 Y-63.9700
G01 X0.2903 Y-63.9569
G01 X0.3253 Y-63.9456
G01 X0.3599 Y-63.9330
G01 X0.3940 Y-63.9191
G01 X0.4276 Y-63.9040
G01 X0.4714 Y-63.8819
G01 X0.5141 Y-63.8577
G01 X0.5453 Y-63.8382
G01 X0.5758 Y-63.8176
G01 X0.6152 Y-63.7883
G01 X0.6624 Y-63.7491
G01 X0.6984 Y-63.7157
G01 X0.7327 Y-63.6806
G01 X0.7730 Y-63.6344
G01 X0.8032 Y-63.5957
G01 X0.8382 Y-63.5453
G01 X0.8640 Y-63.5035
G01 X0.8932 Y-63.4496
G01 X0.9191 Y-63.3940
G01 X0.9415 Y-63.3369
G01 X0.9569 Y-63.2903
G01 X0.9729 Y-63.2311
G01 X0.9853 Y-63.1710
G01 X0.9925 Y-63.1224
G01 X0.9973 Y-63.0736
G01 X0.9999 Y-63.0123
G01 X1.0000 Y-6.9953
G01 X0.9988 Y-6.9463
G01 X0.9952 Y-6.8973
G01 X0.9909 Y-6.8607
G01 X0.9853 Y-6.8244
G01 X0.9783 Y-6.7882
G01 X0.9700 Y-6.7523
G01 X0.9604 Y-6.7168
G01 X0.9495 Y-6.6816
G01 X0.9373 Y-6.6469
G01 X0.9239 Y-6.6126
G01 X0.9092 Y-6.5789
G01 X0.8932 Y-6.5457
G01 X0.8761 Y-6.5131
G01 X0.8577 Y-6.4812
G01 X0.8382 Y-6.4500
G01 X0.8176 Y-6.4195
G01 X0.7958 Y-6.3898
G01 X0.7730 Y-6.3609
G01 X0.7491 Y-6.3329
G01 X0.7242 Y-6.3058
G01 X0.6984 Y-6.2796
G01 X0.6716 Y-6.2544
G01 X0.6438 Y-6.2302
G01 X0.6152 Y-6.2070
G01 X0.5758 Y-6.1777
G01 X0.5453 Y-6.1571
G01 X0.5035 Y-6.1314
G01 X0.4714 Y-6.1134
G01 X0.4386 Y-6.0967
G01 X0.4052 Y-6.0811
G01 X0.3713 Y-6.0668
G01 X0.3369 Y-6.0538
G01 X0.3020 Y-6.0420
G01 X0.2667 Y-6.0315
G01 X0.2311 Y-6.0224
G01 X0.1951 Y-6.0145
G01 X0.1589 Y-6.0080
G01 X0.0980 Y-6.0001
G01 X0.0613 Y-5.9972
G01 X0.0245 Y-5.9956
G01 X-2.0266 Y-5.9953
G00 X-2.0266 Y-5.9953
G01 F70.00
G01 Z-1.3000
G01 F120.00
G01 X-2.0266 Y-0.0000
G01 X-2.0285 Y0.0613
G01 X-2.0314 Y0.0980
G01 X-2.0357 Y0.1346
G01 X-2.0413 Y0.1710
G01 X-2.0509 Y0.2191
G01 X-2.0628 Y0.2667
G01 X-2.0733 Y0.3020
G01 X-2.0893 Y0.3484
G01 X-2.1027 Y0.3827
G01 X-2.1175 Y0.4164
G01 X-2.1390 Y0.4605
G01 X-2.1565 Y0.4929
G01 X-2.1818 Y0.5350
G01 X-2.2020 Y0.5657
G01 X-2.2234 Y0.5957
G01 X-2.2536 Y0.6344
G01 X-2.2775 Y0.6624
G01 X-2.3024 Y0.6895
G01 X-2.3371 Y0.7242
G01 X-2.3642 Y0.7491
G01 X-2.4018 Y0.7807
G01 X-2.4408 Y0.8105
G01 X-2.4711 Y0.8315
G01 X-2.5020 Y0.8514
G01 X-2.5444 Y0.8761
G01 X-2.5770 Y0.8932
G01 X-2.6102 Y0.9092
G01 X-2.6553 Y0.9285
G01 X-2.6897 Y0.9415
G01 X-2.7363 Y0.9569
G01 X-2.7718 Y0.9670
G01 X-2.8195 Y0.9783
G01 X-2.8557 Y0.9853
G01 X-2.8920 Y0.9909
G01 X-2.9408 Y0.9963
G01 X-2.9898 Y0.9993
G01 X-3.0266 Y1.0000
G01 X-75.0000 Y1.0000
G01 X-75.0368 Y0.9993
G01 X-75.0858 Y0.9963
G01 X-75.1224 Y0.9925
G01 X-75.1589 Y0.9873
G01 X-75.2071 Y0.9783
G01 X-75.2430 Y0.9700
G01 X-75.2903 Y0.9569
G01 X-75.3253 Y0.9456
G01 X-75.3599 Y0.9330
G01 X-75.4052 Y0.9142
G01 X-75.4386 Y0.8987
G01 X-75.4714 Y0.8819
G01 X-75.5141 Y0.8577
G01 X-75.5453 Y0.8382
G01 X-75.5758 Y0.8176
G01 X-75.6152 Y0.7883
G01 X-75.6624 Y0.7491
G01 X-75.6984 Y0.7157
G01 X-75.7327 Y0.6806
G01 X-75.7730 Y0.6344
G01 X-75.8105 Y0.5858
G01 X-75.8449 Y0.5350
G01 X-75.8701 Y0.4929
G01 X-75.8987 Y0.4386
G01 X-75.9239 Y0.3827
G01 X-75.9456 Y0.3253
G01 X-75.9604 Y0.2785
G01 X-75.9757 Y0.2191
G01 X-75.9853 Y0.1710
G01 X-75.9939 Y0.1102
G01 X-75.9981 Y0.0613
G01 X-76.0000 Y-0.0000
G01 X-76.0000 Y-63.0000
G01 X-75.9993 Y-63.0368
G01 X-75.9963 Y-63.0858
G01 X-75.9925 Y-63.1224
G01 X-75.9853 Y-63.1710
G01 X-75.9783 Y-63.2071
G01 X-75.9670 Y-63.2549
G01 X-75.9569 Y-63.2903
G01 X-75.9456 Y-63.3253
G01 X-75.9330 Y-63.3599
G01 X-75.9191 Y-63.3940
G01 X-75.8987 Y-63.4386
G01 X-75.8819 Y-63.4714
G01 X-75.8577 Y-63.5141
G01 X-75.8382 Y-63.5453
G01 X-75.8176 Y-63.5758
G01 X-75.7883 Y-63.6152
G01 X-75.7491 Y-63.6624
G01 X-75.7071 Y-63.7071
G01 X-75.6624 Y-63.7491
G01 X-75.6249 Y-63.7807
G01 X-75.5758 Y-63.8176
G01 X-75.5350 Y-63.8449
G01 X-75.4929 Y-63.8701
G01 X-75.4386 Y-63.8987
G01 X-75.3940 Y-63.9191
G01 X-75.3369 Y-63.9415
G01 X-75.2903 Y-63.9569
G01 X-75.2311 Y-63.9729
G01 X-75.1710 Y-63.9853
G01 X-75.1102 Y-63.9939
G01 X-75.0491 Y-63.9988
G01 X-75.0000 Y-64.0000
G01 X-0.0000 Y-64.0000
G01 X0.0368 Y-63.9993
G01 X0.0736 Y-63.9973
G01 X0.1102 Y-63.9939
G01 X0.1589 Y-63.9873
G01 X0.2071 Y-63.9783
G01 X0.2430 Y-63.9700
G01 X0.2903 Y-63.9569
G01 X0.3253 Y-63.9456
G01 X0.3599 Y-63.9330
G01 X0.3940 Y-63.9191
G01 X0.4276 Y-63.9040
G01 X0.4714 Y-63.8819
G01 X0.5141 Y-63.8577
G01 X0.5453 Y-63.8382
G01 X0.5758 Y-63.8176
G01 X0.6152 Y-63.7883
G01 X0.6624 Y-63.7491
G01 X0.6984 Y-63.7157
G01 X0.7327 Y-63.6806
G01 X0.7730 Y-63.6344
G01 X0.8032 Y-63.5957
G01 X0.8382 Y-63.5453
G01 X0.8640 Y-63.5035
G01 X0.8932 Y-63.4496
G01 X0.9191 Y-63.3940
G01 X0.9415 Y-63.3369
G01 X0.9569 Y-63.2903
G01 X0.9729 Y-63.2311
G01 X0.9853 Y-63.1710
G01 X0.9925 Y-63.1224
G01 X0.9973 Y-63.0736
G01 X0.9999 Y-63.0123
G01 X1.0000 Y-6.9953
G01 X0.9988 Y-6.9463
G01 X0.9952 Y-6.8973
G01 X0.9909 Y-6.8607
G01 X0.9853 Y-6.8244
G01 X0.9783 Y-6.7882
G01 X0.9700 Y-6.7523
G01 X0.9604 Y-6.7168
G01 X0.9495 Y-6.6816
G01 X0.9373 Y-6.6469
G01 X0.9239 Y-6.6126
G01 X0.9092 Y-6.5789
G01 X0.8932 Y-6.5457
G01 X0.8761 Y-6.5131
G01 X0.8577 Y-6.4812
G01 X0.8382 Y-6.4500
G01 X0.8176 Y-6.4195
G01 X0.7958 Y-6.3898
G01 X0.7730 Y-6.3609
G01 X0.7491 Y-6.3329
G01 X0.7242 Y-6.3058
G01 X0.6984 Y-6.2796
G01 X0.6716 Y-6.2544
G01 X0.6438 Y-6.2302
G01 X0.6152 Y-6.2070
G01 X0.5758 Y-6.1777
G01 X0.5453 Y-6.1571
G01 X0.5035 Y-6.1314
G01 X0.4714 Y-6.1134
G01 X0.4386 Y-6.0967
G01 X0.4052 Y-6.0811
G01 X0.3713 Y-6.0668
G01 X0.3369 Y-6.0538
G01 X0.3020 Y-6.0420
G01 X0.2667 Y-6.0315
G01 X0.2311 Y-6.0224
G01 X0.1951 Y-6.0145
G01 X0.1589 Y-6.0080
G01 X0.0980 Y-6.0001
G01 X0.0613 Y-5.9972
G01 X0.0245 Y-5.9956
G01 X-2.0266 Y-5.9953
G00 X-2.0266 Y-5.9953
G01 F70.00
G01 Z-1.4000
G01 F120.00
G01 X-2.0266 Y-0.0000
G01 X-2.0285 Y0.0613
G01 X-2.0314 Y0.0980
G01 X-2.0357 Y0.1346
G01 X-2.0413 Y0.1710
G01 X-2.0509 Y0.2191
G01 X-2.0628 Y0.2667
G01 X-2.0733 Y0.3020
G01 X-2.0893 Y0.3484
G01 X-2.1027 Y0.3827
G01 X-2.1175 Y0.4164
G01 X-2.1390 Y0.4605
G01 X-2.1565 Y0.4929
G01 X-2.1818 Y0.5350
G01 X-2.2020 Y0.5657
G01 X-2.2234 Y0.5957
G01 X-2.2536 Y0.6344
G01 X-2.2775 Y0.6624
G01 X-2.3024 Y0.6895
G01 X-2.3371 Y0.7242
G01 X-2.3642 Y0.7491
G01 X-2.4018 Y0.7807
G01 X-2.4408 Y0.8105
G01 X-2.4711 Y0.8315
G01 X-2.5020 Y0.8514
G01 X-2.5444 Y0.8761
G01 X-2.5770 Y0.8932
G01 X-2.6102 Y0.9092
G01 X-2.6553 Y0.9285
G01 X-2.6897 Y0.9415
G01 X-2.7363 Y0.9569
G01 X-2.7718 Y0.9670
G01 X-2.8195 Y0.9783
G01 X-2.8557 Y0.9853
G01 X-2.8920 Y0.9909
G01 X-2.9408 Y0.9963
G01 X-2.9898 Y0.9993
G01 X-3.0266 Y1.0000
G01 X-75.0000 Y1.0000
G01 X-75.0368 Y0.9993
G01 X-75.0858 Y0.9963
G01 X-75.1224 Y0.9925
G01 X-75.1589 Y0.9873
G01 X-75.2071 Y0.9783
G01 X-75.2430 Y0.9700
G01 X-75.2903 Y0.9569
G01 X-75.3253 Y0.9456
G01 X-75.3599 Y0.9330
G01 X-75.4052 Y0.9142
G01 X-75.4386 Y0.8987
G01 X-75.4714 Y0.8819
G01 X-75.5141 Y0.8577
G01 X-75.5453 Y0.8382
G01 X-75.5758 Y0.8176
G01 X-75.6152 Y0.7883
G01 X-75.6624 Y0.7491
G01 X-75.6984 Y0.7157
G01 X-75.7327 Y0.6806
G01 X-75.7730 Y0.6344
G01 X-75.8105 Y0.5858
G01 X-75.8449 Y0.5350
G01 X-75.8701 Y0.4929
G01 X-75.8987 Y0.4386
G01 X-75.9239 Y0.3827
G01 X-75.9456 Y0.3253
G01 X-75.9604 Y0.2785
G01 X-75.9757 Y0.2191
G01 X-75.9853 Y0.1710
G01 X-75.9939 Y0.1102
G01 X-75.9981 Y0.0613
G01 X-76.0000 Y-0.0000
G01 X-76.0000 Y-63.0000
G01 X-75.9993 Y-63.0368
G01 X-75.9963 Y-63.0858
G01 X-75.9925 Y-63.1224
G01 X-75.9853 Y-63.1710
G01 X-75.9783 Y-63.2071
G01 X-75.9670 Y-63.2549
G01 X-75.9569 Y-63.2903
G01 X-75.9456 Y-63.3253
G01 X-75.9330 Y-63.3599
G01 X-75.9191 Y-63.3940
G01 X-75.8987 Y-63.4386
G01 X-75.8819 Y-63.4714
G01 X-75.8577 Y-63.5141
G01 X-75.8382 Y-63.5453
G01 X-75.8176 Y-63.5758
G01 X-75.7883 Y-63.6152
G01 X-75.7491 Y-63.6624
G01 X-75.7071 Y-63.7071
G01 X-75.6624 Y-63.7491
G01 X-75.6249 Y-63.7807
G01 X-75.5758 Y-63.8176
G01 X-75.5350 Y-63.8449
G01 X-75.4929 Y-63.8701
G01 X-75.4386 Y-63.8987
G01 X-75.3940 Y-63.9191
G01 X-75.3369 Y-63.9415
G01 X-75.2903 Y-63.9569
G01 X-75.2311 Y-63.9729
G01 X-75.1710 Y-63.9853
G01 X-75.1102 Y-63.9939
G01 X-75.0491 Y-63.9988
G01 X-75.0000 Y-64.0000
G01 X-0.0000 Y-64.0000
G01 X0.0368 Y-63.9993
G01 X0.0736 Y-63.9973
G01 X0.1102 Y-63.9939
G01 X0.1589 Y-63.9873
G01 X0.2071 Y-63.9783
G01 X0.2430 Y-63.9700
G01 X0.2903 Y-63.9569
G01 X0.3253 Y-63.9456
G01 X0.3599 Y-63.9330
G01 X0.3940 Y-63.9191
G01 X0.4276 Y-63.9040
G01 X0.4714 Y-63.8819
G01 X0.5141 Y-63.8577
G01 X0.5453 Y-63.8382
G01 X0.5758 Y-63.8176
G01 X0.6152 Y-63.7883
G01 X0.6624 Y-63.7491
G01 X0.6984 Y-63.7157
G01 X0.7327 Y-63.6806
G01 X0.7730 Y-63.6344
G01 X0.8032 Y-63.5957
G01 X0.8382 Y-63.5453
G01 X0.8640 Y-63.5035
G01 X0.8932 Y-63.4496
G01 X0.9191 Y-63.3940
G01 X0.9415 Y-63.3369
G01 X0.9569 Y-63.2903
G01 X0.9729 Y-63.2311
G01 X0.9853 Y-63.1710
G01 X0.9925 Y-63.1224
G01 X0.9973 Y-63.0736
G01 X0.9999 Y-63.0123
G01 X1.0000 Y-6.9953
G01 X0.9988 Y-6.9463
G01 X0.9952 Y-6.8973
G01 X0.9909 Y-6.8607
G01 X0.9853 Y-6.8244
G01 X0.9783 Y-6.7882
G01 X0.9700 Y-6.7523
G01 X0.9604 Y-6.7168
G01 X0.9495 Y-6.6816
G01 X0.9373 Y-6.6469
G01 X0.9239 Y-6.6126
G01 X0.9092 Y-6.5789
G01 X0.8932 Y-6.5457
G01 X0.8761 Y-6.5131
G01 X0.8577 Y-6.4812
G01 X0.8382 Y-6.4500
G01 X0.8176 Y-6.4195
G01 X0.7958 Y-6.3898
G01 X0.7730 Y-6.3609
G01 X0.7491 Y-6.3329
G01 X0.7242 Y-6.3058
G01 X0.6984 Y-6.2796
G01 X0.6716 Y-6.2544
G01 X0.6438 Y-6.2302
G01 X0.6152 Y-6.2070
G01 X0.5758 Y-6.1777
G01 X0.5453 Y-6.1571
G01 X0.5035 Y-6.1314
G01 X0.4714 Y-6.1134
G01 X0.4386 Y-6.0967
G01 X0.4052 Y-6.0811
G01 X0.3713 Y-6.0668
G01 X0.3369 Y-6.0538
G01 X0.3020 Y-6.0420
G01 X0.2667 Y-6.0315
G01 X0.2311 Y-6.0224
G01 X0.1951 Y-6.0145
G01 X0.1589 Y-6.0080
G01 X0.0980 Y-6.0001
G01 X0.0613 Y-5.9972
G01 X0.0245 Y-5.9956
G01 X-2.0266 Y-5.9953
G00 X-2.0266 Y-5.9953
G01 F70.00
G01 Z-1.5000
G01 F120.00
G01 X-2.0266 Y-0.0000
G01 X-2.0285 Y0.0613
G01 X-2.0314 Y0.0980
G01 X-2.0357 Y0.1346
G01 X-2.0413 Y0.1710
G01 X-2.0509 Y0.2191
G01 X-2.0628 Y0.2667
G01 X-2.0733 Y0.3020
G01 X-2.0893 Y0.3484
G01 X-2.1027 Y0.3827
G01 X-2.1175 Y0.4164
G01 X-2.1390 Y0.4605
G01 X-2.1565 Y0.4929
G01 X-2.1818 Y0.5350
G01 X-2.2020 Y0.5657
G01 X-2.2234 Y0.5957
G01 X-2.2536 Y0.6344
G01 X-2.2775 Y0.6624
G01 X-2.3024 Y0.6895
G01 X-2.3371 Y0.7242
G01 X-2.3642 Y0.7491
G01 X-2.4018 Y0.7807
G01 X-2.4408 Y0.8105
G01 X-2.4711 Y0.8315
G01 X-2.5020 Y0.8514
G01 X-2.5444 Y0.8761
G01 X-2.5770 Y0.8932
G01 X-2.6102 Y0.9092
G01 X-2.6553 Y0.9285
G01 X-2.6897 Y0.9415
G01 X-2.7363 Y0.9569
G01 X-2.7718 Y0.9670
G01 X-2.8195 Y0.9783
G01 X-2.8557 Y0.9853
G01 X-2.8920 Y0.9909
G01 X-2.9408 Y0.9963
G01 X-2.9898 Y0.9993
G01 X-3.0266 Y1.0000
G01 X-75.0000 Y1.0000
G01 X-75.0368 Y0.9993
G01 X-75.0858 Y0.9963
G01 X-75.1224 Y0.9925
G01 X-75.1589 Y0.9873
G01 X-75.2071 Y0.9783
G01 X-75.2430 Y0.9700
G01 X-75.2903 Y0.9569
G01 X-75.3253 Y0.9456
G01 X-75.3599 Y0.9330
G01 X-75.4052 Y0.9142
G01 X-75.4386 Y0.8987
G01 X-75.4714 Y0.8819
G01 X-75.5141 Y0.8577
G01 X-75.5453 Y0.8382
G01 X-75.5758 Y0.8176
G01 X-75.6152 Y0.7883
G01 X-75.6624 Y0.7491
G01 X-75.6984 Y0.7157
G01 X-75.7327 Y0.6806
G01 X-75.7730 Y0.6344
G01 X-75.8105 Y0.5858
G01 X-75.8449 Y0.5350
G01 X-75.8701 Y0.4929
G01 X-75.8987 Y0.4386
G01 X-75.9239 Y0.3827
G01 X-75.9456 Y0.3253
G01 X-75.9604 Y0.2785
G01 X-75.9757 Y0.2191
G01 X-75.9853 Y0.1710
G01 X-75.9939 Y0.1102
G01 X-75.9981 Y0.0613
G01 X-76.0000 Y-0.0000
G01 X-76.0000 Y-63.0000
G01 X-75.9993 Y-63.0368
G01 X-75.9963 Y-63.0858
G01 X-75.9925 Y-63.1224
G01 X-75.9853 Y-63.1710
G01 X-75.9783 Y-63.2071
G01 X-75.9670 Y-63.2549
G01 X-75.9569 Y-63.2903
G01 X-75.9456 Y-63.3253
G01 X-75.9330 Y-63.3599
G01 X-75.9191 Y-63.3940
G01 X-75.8987 Y-63.4386
G01 X-75.8819 Y-63.4714
G01 X-75.8577 Y-63.5141
G01 X-75.8382 Y-63.5453
G01 X-75.8176 Y-63.5758
G01 X-75.7883 Y-63.6152
G01 X-75.7491 Y-63.6624
G01 X-75.7071 Y-63.7071
G01 X-75.6624 Y-63.7491
G01 X-75.6249 Y-63.7807
G01 X-75.5758 Y-63.8176
G01 X-75.5350 Y-63.8449
G01 X-75.4929 Y-63.8701
G01 X-75.4386 Y-63.8987
G01 X-75.3940 Y-63.9191
G01 X-75.3369 Y-63.9415
G01 X-75.2903 Y-63.9569
G01 X-75.2311 Y-63.9729
G01 X-75.1710 Y-63.9853
G01 X-75.1102 Y-63.9939
G01 X-75.0491 Y-63.9988
G01 X-75.0000 Y-64.0000
G01 X-0.0000 Y-64.0000
G01 X0.0368 Y-63.9993
G01 X0.0736 Y-63.9973
G01 X0.1102 Y-63.9939
G01 X0.1589 Y-63.9873
G01 X0.2071 Y-63.9783
G01 X0.2430 Y-63.9700
G01 X0.2903 Y-63.9569
G01 X0.3253 Y-63.9456
G01 X0.3599 Y-63.9330
G01 X0.3940 Y-63.9191
G01 X0.4276 Y-63.9040
G01 X0.4714 Y-63.8819
G01 X0.5141 Y-63.8577
G01 X0.5453 Y-63.8382
G01 X0.5758 Y-63.8176
G01 X0.6152 Y-63.7883
G01 X0.6624 Y-63.7491
G01 X0.6984 Y-63.7157
G01 X0.7327 Y-63.6806
G01 X0.7730 Y-63.6344
G01 X0.8032 Y-63.5957
G01 X0.8382 Y-63.5453
G01 X0.8640 Y-63.5035
G01 X0.8932 Y-63.4496
G01 X0.9191 Y-63.3940
G01 X0.9415 Y-63.3369
G01 X0.9569 Y-63.2903
G01 X0.9729 Y-63.2311
G01 X0.9853 Y-63.1710
G01 X0.9925 Y-63.1224
G01 X0.9973 Y-63.0736
G01 X0.9999 Y-63.0123
G01 X1.0000 Y-6.9953
G01 X0.9988 Y-6.9463
G01 X0.9952 Y-6.8973
G01 X0.9909 Y-6.8607
G01 X0.9853 Y-6.8244
G01 X0.9783 Y-6.7882
G01 X0.9700 Y-6.7523
G01 X0.9604 Y-6.7168
G01 X0.9495 Y-6.6816
G01 X0.9373 Y-6.6469
G01 X0.9239 Y-6.6126
G01 X0.9092 Y-6.5789
G01 X0.8932 Y-6.5457
G01 X0.8761 Y-6.5131
G01 X0.8577 Y-6.4812
G01 X0.8382 Y-6.4500
G01 X0.8176 Y-6.4195
G01 X0.7958 Y-6.3898
G01 X0.7730 Y-6.3609
G01 X0.7491 Y-6.3329
G01 X0.7242 Y-6.3058
G01 X0.6984 Y-6.2796
G01 X0.6716 Y-6.2544
G01 X0.6438 Y-6.2302
G01 X0.6152 Y-6.2070
G01 X0.5758 Y-6.1777
G01 X0.5453 Y-6.1571
G01 X0.5035 Y-6.1314
G01 X0.4714 Y-6.1134
G01 X0.4386 Y-6.0967
G01 X0.4052 Y-6.0811
G01 X0.3713 Y-6.0668
G01 X0.3369 Y-6.0538
G01 X0.3020 Y-6.0420
G01 X0.2667 Y-6.0315
G01 X0.2311 Y-6.0224
G01 X0.1951 Y-6.0145
G01 X0.1589 Y-6.0080
G01 X0.0980 Y-6.0001
G01 X0.0613 Y-5.9972
G01 X0.0245 Y-5.9956
G01 X-2.0266 Y-5.9953
G00 X-2.0266 Y-5.9953
G01 F70.00
G01 Z-1.6000
G01 F120.00
G01 X-2.0266 Y-0.0000
G01 X-2.0285 Y0.0613
G01 X-2.0314 Y0.0980
G01 X-2.0357 Y0.1346
G01 X-2.0413 Y0.1710
G01 X-2.0509 Y0.2191
G01 X-2.0628 Y0.2667
G01 X-2.0733 Y0.3020
G01 X-2.0893 Y0.3484
G01 X-2.1027 Y0.3827
G01 X-2.1175 Y0.4164
G01 X-2.1390 Y0.4605
G01 X-2.1565 Y0.4929
G01 X-2.1818 Y0.5350
G01 X-2.2020 Y0.5657
G01 X-2.2234 Y0.5957
G01 X-2.2536 Y0.6344
G01 X-2.2775 Y0.6624
G01 X-2.3024 Y0.6895
G01 X-2.3371 Y0.7242
G01 X-2.3642 Y0.7491
G01 X-2.4018 Y0.7807
G01 X-2.4408 Y0.8105
G01 X-2.4711 Y0.8315
G01 X-2.5020 Y0.8514
G01 X-2.5444 Y0.8761
G01 X-2.5770 Y0.8932
G01 X-2.6102 Y0.9092
G01 X-2.6553 Y0.9285
G01 X-2.6897 Y0.9415
G01 X-2.7363 Y0.9569
G01 X-2.7718 Y0.9670
G01 X-2.8195 Y0.9783
G01 X-2.8557 Y0.9853
G01 X-2.8920 Y0.9909
G01 X-2.9408 Y0.9963
G01 X-2.9898 Y0.9993
G01 X-3.0266 Y1.0000
G01 X-75.0000 Y1.0000
G01 X-75.0368 Y0.9993
G01 X-75.0858 Y0.9963
G01 X-75.1224 Y0.9925
G01 X-75.1589 Y0.9873
G01 X-75.2071 Y0.9783
G01 X-75.2430 Y0.9700
G01 X-75.2903 Y0.9569
G01 X-75.3253 Y0.9456
G01 X-75.3599 Y0.9330
G01 X-75.4052 Y0.9142
G01 X-75.4386 Y0.8987
G01 X-75.4714 Y0.8819
G01 X-75.5141 Y0.8577
G01 X-75.5453 Y0.8382
G01 X-75.5758 Y0.8176
G01 X-75.6152 Y0.7883
G01 X-75.6624 Y0.7491
G01 X-75.6984 Y0.7157
G01 X-75.7327 Y0.6806
G01 X-75.7730 Y0.6344
G01 X-75.8105 Y0.5858
G01 X-75.8449 Y0.5350
G01 X-75.8701 Y0.4929
G01 X-75.8987 Y0.4386
G01 X-75.9239 Y0.3827
G01 X-75.9456 Y0.3253
G01 X-75.9604 Y0.2785
G01 X-75.9757 Y0.2191
G01 X-75.9853 Y0.1710
G01 X-75.9939 Y0.1102
G01 X-75.9981 Y0.0613
G01 X-76.0000 Y-0.0000
G01 X-76.0000 Y-63.0000
G01 X-75.9993 Y-63.0368
G01 X-75.9963 Y-63.0858
G01 X-75.9925 Y-63.1224
G01 X-75.9853 Y-63.1710
G01 X-75.9783 Y-63.2071
G01 X-75.9670 Y-63.2549
G01 X-75.9569 Y-63.2903
G01 X-75.9456 Y-63.3253
G01 X-75.9330 Y-63.3599
G01 X-75.9191 Y-63.3940
G01 X-75.8987 Y-63.4386
G01 X-75.8819 Y-63.4714
G01 X-75.8577 Y-63.5141
G01 X-75.8382 Y-63.5453
G01 X-75.8176 Y-63.5758
G01 X-75.7883 Y-63.6152
G01 X-75.7491 Y-63.6624
G01 X-75.7071 Y-63.7071
G01 X-75.6624 Y-63.7491
G01 X-75.6249 Y-63.7807
G01 X-75.5758 Y-63.8176
G01 X-75.5350 Y-63.8449
G01 X-75.4929 Y-63.8701
G01 X-75.4386 Y-63.8987
G01 X-75.3940 Y-63.9191
G01 X-75.3369 Y-63.9415
G01 X-75.2903 Y-63.9569
G01 X-75.2311 Y-63.9729
G01 X-75.1710 Y-63.9853
G01 X-75.1102 Y-63.9939
G01 X-75.0491 Y-63.9988
G01 X-75.0000 Y-64.0000
G01 X-0.0000 Y-64.0000
G01 X0.0368 Y-63.9993
G01 X0.0736 Y-63.9973
G01 X0.1102 Y-63.9939
G01 X0.1589 Y-63.9873
G01 X0.2071 Y-63.9783
G01 X0.2430 Y-63.9700
G01 X0.2903 Y-63.9569
G01 X0.3253 Y-63.9456
G01 X0.3599 Y-63.9330
G01 X0.3940 Y-63.9191
G01 X0.4276 Y-63.9040
G01 X0.4714 Y-63.8819
G01 X0.5141 Y-63.8577
G01 X0.5453 Y-63.8382
G01 X0.5758 Y-63.8176
G01 X0.6152 Y-63.7883
G01 X0.6624 Y-63.7491
G01 X0.6984 Y-63.7157
G01 X0.7327 Y-63.6806
G01 X0.7730 Y-63.6344
G01 X0.8032 Y-63.5957
G01 X0.8382 Y-63.5453
G01 X0.8640 Y-63.5035
G01 X0.8932 Y-63.4496
G01 X0.9191 Y-63.3940
G01 X0.9415 Y-63.3369
G01 X0.9569 Y-63.2903
G01 X0.9729 Y-63.2311
G01 X0.9853 Y-63.1710
G01 X0.9925 Y-63.1224
G01 X0.9973 Y-63.0736
G01 X0.9999 Y-63.0123
G01 X1.0000 Y-6.9953
G01 X0.9988 Y-6.9463
G01 X0.9952 Y-6.8973
G01 X0.9909 Y-6.8607
G01 X0.9853 Y-6.8244
G01 X0.9783 Y-6.7882
G01 X0.9700 Y-6.7523
G01 X0.9604 Y-6.7168
G01 X0.9495 Y-6.6816
G01 X0.9373 Y-6.6469
G01 X0.9239 Y-6.6126
G01 X0.9092 Y-6.5789
G01 X0.8932 Y-6.5457
G01 X0.8761 Y-6.5131
G01 X0.8577 Y-6.4812
G01 X0.8382 Y-6.4500
G01 X0.8176 Y-6.4195
G01 X0.7958 Y-6.3898
G01 X0.7730 Y-6.3609
G01 X0.7491 Y-6.3329
G01 X0.7242 Y-6.3058
G01 X0.6984 Y-6.2796
G01 X0.6716 Y-6.2544
G01 X0.6438 Y-6.2302
G01 X0.6152 Y-6.2070
G01 X0.5758 Y-6.1777
G01 X0.5453 Y-6.1571
G01 X0.5035 Y-6.1314
G01 X0.4714 Y-6.1134
G01 X0.4386 Y-6.0967
G01 X0.4052 Y-6.0811
G01 X0.3713 Y-6.0668
G01 X0.3369 Y-6.0538
G01 X0.3020 Y-6.0420
G01 X0.2667 Y-6.0315
G01 X0.2311 Y-6.0224
G01 X0.1951 Y-6.0145
G01 X0.1589 Y-6.0080
G01 X0.0980 Y-6.0001
G01 X0.0613 Y-5.9972
G01 X0.0245 Y-5.9956
G01 X-2.0266 Y-5.9953
G00 X-2.0266 Y-5.9953
G01 F70.00
G01 Z-1.7000
G01 F120.00
G01 X-2.0266 Y-0.0000
G01 X-2.0285 Y0.0613
G01 X-2.0314 Y0.0980
G01 X-2.0357 Y0.1346
G01 X-2.0413 Y0.1710
G01 X-2.0509 Y0.2191
G01 X-2.0628 Y0.2667
G01 X-2.0733 Y0.3020
G01 X-2.0893 Y0.3484
G01 X-2.1027 Y0.3827
G01 X-2.1175 Y0.4164
G01 X-2.1390 Y0.4605
G01 X-2.1565 Y0.4929
G01 X-2.1818 Y0.5350
G01 X-2.2020 Y0.5657
G01 X-2.2234 Y0.5957
G01 X-2.2536 Y0.6344
G01 X-2.2775 Y0.6624
G01 X-2.3024 Y0.6895
G01 X-2.3371 Y0.7242
G01 X-2.3642 Y0.7491
G01 X-2.4018 Y0.7807
G01 X-2.4408 Y0.8105
G01 X-2.4711 Y0.8315
G01 X-2.5020 Y0.8514
G01 X-2.5444 Y0.8761
G01 X-2.5770 Y0.8932
G01 X-2.6102 Y0.9092
G01 X-2.6553 Y0.9285
G01 X-2.6897 Y0.9415
G01 X-2.7363 Y0.9569
G01 X-2.7718 Y0.9670
G01 X-2.8195 Y0.9783
G01 X-2.8557 Y0.9853
G01 X-2.8920 Y0.9909
G01 X-2.9408 Y0.9963
G01 X-2.9898 Y0.9993
G01 X-3.0266 Y1.0000
G01 X-75.0000 Y1.0000
G01 X-75.0368 Y0.9993
G01 X-75.0858 Y0.9963
G01 X-75.1224 Y0.9925
G01 X-75.1589 Y0.9873
G01 X-75.2071 Y0.9783
G01 X-75.2430 Y0.9700
G01 X-75.2903 Y0.9569
G01 X-75.3253 Y0.9456
G01 X-75.3599 Y0.9330
G01 X-75.4052 Y0.9142
G01 X-75.4386 Y0.8987
G01 X-75.4714 Y0.8819
G01 X-75.5141 Y0.8577
G01 X-75.5453 Y0.8382
G01 X-75.5758 Y0.8176
G01 X-75.6152 Y0.7883
G01 X-75.6624 Y0.7491
G01 X-75.6984 Y0.7157
G01 X-75.7327 Y0.6806
G01 X-75.7730 Y0.6344
G01 X-75.8105 Y0.5858
G01 X-75.8449 Y0.5350
G01 X-75.8701 Y0.4929
G01 X-75.8987 Y0.4386
G01 X-75.9239 Y0.3827
G01 X-75.9456 Y0.3253
G01 X-75.9604 Y0.2785
G01 X-75.9757 Y0.2191
G01 X-75.9853 Y0.1710
G01 X-75.9939 Y0.1102
G01 X-75.9981 Y0.0613
G01 X-76.0000 Y-0.0000
G01 X-76.0000 Y-63.0000
G01 X-75.9993 Y-63.0368
G01 X-75.9963 Y-63.0858
G01 X-75.9925 Y-63.1224
G01 X-75.9853 Y-63.1710
G01 X-75.9783 Y-63.2071
G01 X-75.9670 Y-63.2549
G01 X-75.9569 Y-63.2903
G01 X-75.9456 Y-63.3253
G01 X-75.9330 Y-63.3599
G01 X-75.9191 Y-63.3940
G01 X-75.8987 Y-63.4386
G01 X-75.8819 Y-63.4714
G01 X-75.8577 Y-63.5141
G01 X-75.8382 Y-63.5453
G01 X-75.8176 Y-63.5758
G01 X-75.7883 Y-63.6152
G01 X-75.7491 Y-63.6624
G01 X-75.7071 Y-63.7071
G01 X-75.6624 Y-63.7491
G01 X-75.6249 Y-63.7807
G01 X-75.5758 Y-63.8176
G01 X-75.5350 Y-63.8449
G01 X-75.4929 Y-63.8701
G01 X-75.4386 Y-63.8987
G01 X-75.3940 Y-63.9191
G01 X-75.3369 Y-63.9415
G01 X-75.2903 Y-63.9569
G01 X-75.2311 Y-63.9729
G01 X-75.1710 Y-63.9853
G01 X-75.1102 Y-63.9939
G01 X-75.0491 Y-63.9988
G01 X-75.0000 Y-64.0000
G01 X-0.0000 Y-64.0000
G01 X0.0368 Y-63.9993
G01 X0.0736 Y-63.9973
G01 X0.1102 Y-63.9939
G01 X0.1589 Y-63.9873
G01 X0.2071 Y-63.9783
G01 X0.2430 Y-63.9700
G01 X0.2903 Y-63.9569
G01 X0.3253 Y-63.9456
G01 X0.3599 Y-63.9330
G01 X0.3940 Y-63.9191
G01 X0.4276 Y-63.9040
G01 X0.4714 Y-63.8819
G01 X0.5141 Y-63.8577
G01 X0.5453 Y-63.8382
G01 X0.5758 Y-63.8176
G01 X0.6152 Y-63.7883
G01 X0.6624 Y-63.7491
G01 X0.6984 Y-63.7157
G01 X0.7327 Y-63.6806
G01 X0.7730 Y-63.6344
G01 X0.8032 Y-63.5957
G01 X0.8382 Y-63.5453
G01 X0.8640 Y-63.5035
G01 X0.8932 Y-63.4496
G01 X0.9191 Y-63.3940
G01 X0.9415 Y-63.3369
G01 X0.9569 Y-63.2903
G01 X0.9729 Y-63.2311
G01 X0.9853 Y-63.1710
G01 X0.9925 Y-63.1224
G01 X0.9973 Y-63.0736
G01 X0.9999 Y-63.0123
G01 X1.0000 Y-6.9953
G01 X0.9988 Y-6.9463
G01 X0.9952 Y-6.8973
G01 X0.9909 Y-6.8607
G01 X0.9853 Y-6.8244
G01 X0.9783 Y-6.7882
G01 X0.9700 Y-6.7523
G01 X0.9604 Y-6.7168
G01 X0.9495 Y-6.6816
G01 X0.9373 Y-6.6469
G01 X0.9239 Y-6.6126
G01 X0.9092 Y-6.5789
G01 X0.8932 Y-6.5457
G01 X0.8761 Y-6.5131
G01 X0.8577 Y-6.4812
G01 X0.8382 Y-6.4500
G01 X0.8176 Y-6.4195
G01 X0.7958 Y-6.3898
G01 X0.7730 Y-6.3609
G01 X0.7491 Y-6.3329
G01 X0.7242 Y-6.3058
G01 X0.6984 Y-6.2796
G01 X0.6716 Y-6.2544
G01 X0.6438 Y-6.2302
G01 X0.6152 Y-6.2070
G01 X0.5758 Y-6.1777
G01 X0.5453 Y-6.1571
G01 X0.5035 Y-6.1314
G01 X0.4714 Y-6.1134
G01 X0.4386 Y-6.0967
G01 X0.4052 Y-6.0811
G01 X0.3713 Y-6.0668
G01 X0.3369 Y-6.0538
G01 X0.3020 Y-6.0420
G01 X0.2667 Y-6.0315
G01 X0.2311 Y-6.0224
G01 X0.1951 Y-6.0145
G01 X0.1589 Y-6.0080
G01 X0.0980 Y-6.0001
G01 X0.0613 Y-5.9972
G01 X0.0245 Y-5.9956
G01 X-2.0266 Y-5.9953
G00 X-2.0266 Y-5.9953
G01 F70.00
G01 Z-1.8000
G01 F120.00
G01 X-2.0266 Y-0.0000
G01 X-2.0285 Y0.0613
G01 X-2.0314 Y0.0980
G01 X-2.0357 Y0.1346
G01 X-2.0413 Y0.1710
G01 X-2.0509 Y0.2191
G01 X-2.0628 Y0.2667
G01 X-2.0733 Y0.3020
G01 X-2.0893 Y0.3484
G01 X-2.1027 Y0.3827
G01 X-2.1175 Y0.4164
G01 X-2.1390 Y0.4605
G01 X-2.1565 Y0.4929
G01 X-2.1818 Y0.5350
G01 X-2.2020 Y0.5657
G01 X-2.2234 Y0.5957
G01 X-2.2536 Y0.6344
G01 X-2.2775 Y0.6624
G01 X-2.3024 Y0.6895
G01 X-2.3371 Y0.7242
G01 X-2.3642 Y0.7491
G01 X-2.4018 Y0.7807
G01 X-2.4408 Y0.8105
G01 X-2.4711 Y0.8315
G01 X-2.5020 Y0.8514
G01 X-2.5444 Y0.8761
G01 X-2.5770 Y0.8932
G01 X-2.6102 Y0.9092
G01 X-2.6553 Y0.9285
G01 X-2.6897 Y0.9415
G01 X-2.7363 Y0.9569
G01 X-2.7718 Y0.9670
G01 X-2.8195 Y0.9783
G01 X-2.8557 Y0.9853
G01 X-2.8920 Y0.9909
G01 X-2.9408 Y0.9963
G01 X-2.9898 Y0.9993
G01 X-3.0266 Y1.0000
G01 X-75.0000 Y1.0000
G01 X-75.0368 Y0.9993
G01 X-75.0858 Y0.9963
G01 X-75.1224 Y0.9925
G01 X-75.1589 Y0.9873
G01 X-75.2071 Y0.9783
G01 X-75.2430 Y0.9700
G01 X-75.2903 Y0.9569
G01 X-75.3253 Y0.9456
G01 X-75.3599 Y0.9330
G01 X-75.4052 Y0.9142
G01 X-75.4386 Y0.8987
G01 X-75.4714 Y0.8819
G01 X-75.5141 Y0.8577
G01 X-75.5453 Y0.8382
G01 X-75.5758 Y0.8176
G01 X-75.6152 Y0.7883
G01 X-75.6624 Y0.7491
G01 X-75.6984 Y0.7157
G01 X-75.7327 Y0.6806
G01 X-75.7730 Y0.6344
G01 X-75.8105 Y0.5858
G01 X-75.8449 Y0.5350
G01 X-75.8701 Y0.4929
G01 X-75.8987 Y0.4386
G01 X-75.9239 Y0.3827
G01 X-75.9456 Y0.3253
G01 X-75.9604 Y0.2785
G01 X-75.9757 Y0.2191
G01 X-75.9853 Y0.1710
G01 X-75.9939 Y0.1102
G01 X-75.9981 Y0.0613
G01 X-76.0000 Y-0.0000
G01 X-76.0000 Y-63.0000
G01 X-75.9993 Y-63.0368
G01 X-75.9963 Y-63.0858
G01 X-75.9925 Y-63.1224
G01 X-75.9853 Y-63.1710
G01 X-75.9783 Y-63.2071
G01 X-75.9670 Y-63.2549
G01 X-75.9569 Y-63.2903
G01 X-75.9456 Y-63.3253
G01 X-75.9330 Y-63.3599
G01 X-75.9191 Y-63.3940
G01 X-75.8987 Y-63.4386
G01 X-75.8819 Y-63.4714
G01 X-75.8577 Y-63.5141
G01 X-75.8382 Y-63.5453
G01 X-75.8176 Y-63.5758
G01 X-75.7883 Y-63.6152
G01 X-75.7491 Y-63.6624
G01 X-75.7071 Y-63.7071
G01 X-75.6624 Y-63.7491
G01 X-75.6249 Y-63.7807
G01 X-75.5758 Y-63.8176
G01 X-75.5350 Y-63.8449
G01 X-75.4929 Y-63.8701
G01 X-75.4386 Y-63.8987
G01 X-75.3940 Y-63.9191
G01 X-75.3369 Y-63.9415
G01 X-75.2903 Y-63.9569
G01 X-75.2311 Y-63.9729
G01 X-75.1710 Y-63.9853
G01 X-75.1102 Y-63.9939
G01 X-75.0491 Y-63.9988
G01 X-75.0000 Y-64.0000
G01 X-0.0000 Y-64.0000
G01 X0.0368 Y-63.9993
G01 X0.0736 Y-63.9973
G01 X0.1102 Y-63.9939
G01 X0.1589 Y-63.9873
G01 X0.2071 Y-63.9783
G01 X0.2430 Y-63.9700
G01 X0.2903 Y-63.9569
G01 X0.3253 Y-63.9456
G01 X0.3599 Y-63.9330
G01 X0.3940 Y-63.9191
G01 X0.4276 Y-63.9040
G01 X0.4714 Y-63.8819
G01 X0.5141 Y-63.8577
G01 X0.5453 Y-63.8382
G01 X0.5758 Y-63.8176
G01 X0.6152 Y-63.7883
G01 X0.6624 Y-63.7491
G01 X0.6984 Y-63.7157
G01 X0.7327 Y-63.6806
G01 X0.7730 Y-63.6344
G01 X0.8032 Y-63.5957
G01 X0.8382 Y-63.5453
G01 X0.8640 Y-63.5035
G01 X0.8932 Y-63.4496
G01 X0.9191 Y-63.3940
G01 X0.9415 Y-63.3369
G01 X0.9569 Y-63.2903
G01 X0.9729 Y-63.2311
G01 X0.9853 Y-63.1710
G01 X0.9925 Y-63.1224
G01 X0.9973 Y-63.0736
G01 X0.9999 Y-63.0123
G01 X1.0000 Y-6.9953
G01 X0.9988 Y-6.9463
G01 X0.9952 Y-6.8973
G01 X0.9909 Y-6.8607
G01 X0.9853 Y-6.8244
G01 X0.9783 Y-6.7882
G01 X0.9700 Y-6.7523
G01 X0.9604 Y-6.7168
G01 X0.9495 Y-6.6816
G01 X0.9373 Y-6.6469
G01 X0.9239 Y-6.6126
G01 X0.9092 Y-6.5789
G01 X0.8932 Y-6.5457
G01 X0.8761 Y-6.5131
G01 X0.8577 Y-6.4812
G01 X0.8382 Y-6.4500
G01 X0.8176 Y-6.4195
G01 X0.7958 Y-6.3898
G01 X0.7730 Y-6.3609
G01 X0.7491 Y-6.3329
G01 X0.7242 Y-6.3058
G01 X0.6984 Y-6.2796
G01 X0.6716 Y-6.2544
G01 X0.6438 Y-6.2302
G01 X0.6152 Y-6.2070
G01 X0.5758 Y-6.1777
G01 X0.5453 Y-6.1571
G01 X0.5035 Y-6.1314
G01 X0.4714 Y-6.1134
G01 X0.4386 Y-6.0967
G01 X0.4052 Y-6.0811
G01 X0.3713 Y-6.0668
G01 X0.3369 Y-6.0538
G01 X0.3020 Y-6.0420
G01 X0.2667 Y-6.0315
G01 X0.2311 Y-6.0224
G01 X0.1951 Y-6.0145
G01 X0.1589 Y-6.0080
G01 X0.0980 Y-6.0001
G01 X0.0613 Y-5.9972
G01 X0.0245 Y-5.9956
G01 X-2.0266 Y-5.9953
G00 Z2.0000
M05
G00 Z2.0000
G00 Z25.00

