(G-CODE GENERATED BY FLATCAM v8.993 - www.flatcam.org - Version Date: 2020/06/05)

(Name: A1_RF_PA_TOP.drl_cnc)
(Type: G-code from Excellon)
(Units: MM)

(Created on Friday, 27 November 2020 at 15:22)

(This preprocessor is the default preprocessor used by FlatCAM.)
(It is made to work with MACH3 compatible motion controllers.)


(TOOLS DIAMETER: )
(Tool: 1 -> Dia: 0.5)
(Tool: 2 -> Dia: 0.6)
(Tool: 3 -> Dia: 0.8)
(Tool: 4 -> Dia: 3.0)

(FEEDRATE Z: )
(Tool: 1 -> Feedrate: 70.0)
(Tool: 2 -> Feedrate: 70.0)
(Tool: 3 -> Feedrate: 70.0)
(Tool: 4 -> Feedrate: 70.0)

(FEEDRATE RAPIDS: )
(Tool: 1 -> Feedrate Rapids: 1500)
(Tool: 2 -> Feedrate Rapids: 1500)
(Tool: 3 -> Feedrate Rapids: 1500)
(Tool: 4 -> Feedrate Rapids: 1500)

(Z_CUT: )
(Tool: 1 -> Z_Cut: -1.8)
(Tool: 2 -> Z_Cut: -1.8)
(Tool: 3 -> Z_Cut: -1.8)
(Tool: 4 -> Z_Cut: -1.9000000000000001)

(Tools Offset: )
(Tool: 4 -> Offset Z: -0.0)

(Z_MOVE: )
(Tool: 1 -> Z_Move: 2)
(Tool: 2 -> Z_Move: 2)
(Tool: 3 -> Z_Move: 2)
(Tool: 4 -> Z_Move: 2)

(Z Toolchange: 5.0 mm)
(X,Y Toolchange: 0.00, 0.00 mm)
(Z Start: None mm)
(Z End: 2.0 mm)
(Steps per circle: 128)
(Preprocessor Excellon: default)

(X range:    1.6000 ...   73.0000  mm)
(Y range:  -77.9300 ...   -1.7000  mm)

(Spindle Speed: 10000.0 RPM)
G21
G90
G94



G01 F70.00

M5
G00 Z5.0000
T4
G00 X0.0000 Y0.0000                
M6
(MSG, Change to Tool Dia = 3.00 ||| Total drills for tool T4 = 6)
M0
G00 Z5.0000

M03 S10000
G00 X15.0800 Y-32.1100
G01 Z-1.9000
G01 Z0
G00 Z2.0000
G00 X4.9200 Y-27.3400
G01 Z-1.9000
G01 Z0
G00 Z2.0000
G00 X66.3600 Y-4.4800
G01 Z-1.9000
G01 Z0
G00 Z2.0000
G00 X66.3600 Y-75.8000
G01 Z-1.9000
G01 Z0
G00 Z2.0000
G00 X55.0900 Y-69.2500
G01 Z-1.9000
G01 Z0
G00 Z2.0000
G00 X37.4600 Y-41.9500
G01 Z-1.9000
G01 Z0
G00 Z2.0000
M05
G00 Z2.00

