(G-CODE GENERATED BY FLATCAM v8.993 - www.flatcam.org - Version Date: 2020/06/05)

(Name: A1_RF_PA_Ф1_верх.gbr_iso_combined_cnc)
(Type: G-code from Geometry)
(Units: MM)

(Created on Tuesday, 08 December 2020 at 14:30)

(This preprocessor is the default preprocessor used by FlatCAM.)
(It is made to work with MACH3 compatible motion controllers.)

(TOOL DIAMETER: 0.14 mm)
(Feedrate_XY: 120.0 mm/min)
(Feedrate_Z: 70.0 mm/min)
(Feedrate rapids 1500.0 mm/min)

(Z_Cut: -0.06 mm)
(Z_Move: 2.0 mm)
(Z Start: None mm)
(Z End: 25.0 mm)
(Steps per circle: 128)
(Preprocessor Geometry: default)

(X range:    0.9758 ...   73.3206  mm)
(Y range:  -78.5734 ...   -0.8749  mm)

(Spindle Speed: 10000 RPM)
G21
G90
G94



G01 F120.00
G00 Z2.0000

M03 S10000
G00 X1.7700 Y-2.0000
G01 F70.00
G01 Z-0.0600
G01 F120.00
G01 X1.7711 Y-1.9775
G01 X1.7744 Y-1.9551
G01 X1.7799 Y-1.9332
G01 X1.7875 Y-1.9120
G01 X1.7972 Y-1.8916
G01 X1.8088 Y-1.8722
G01 X1.8222 Y-1.8541
G01 X1.8374 Y-1.8374
G01 X1.8541 Y-1.8222
G01 X1.8722 Y-1.8088
G01 X1.8916 Y-1.7972
G01 X1.9120 Y-1.7875
G01 X1.9332 Y-1.7799
G01 X1.9551 Y-1.7744
G01 X1.9775 Y-1.7711
G01 X2.0000 Y-1.7700
G01 X2.0225 Y-1.7711
G01 X2.0449 Y-1.7744
G01 X2.0668 Y-1.7799
G01 X2.0880 Y-1.7875
G01 X2.1084 Y-1.7972
G01 X2.1278 Y-1.8088
G01 X2.1459 Y-1.8222
G01 X2.1626 Y-1.8374
G01 X2.1778 Y-1.8541
G01 X2.1912 Y-1.8722
G01 X2.2028 Y-1.8916
G01 X2.2125 Y-1.9120
G01 X2.2201 Y-1.9332
G01 X2.2256 Y-1.9551
G01 X2.2289 Y-1.9775
G01 X2.2300 Y-2.0000
G01 X2.2289 Y-2.0225
G01 X2.2256 Y-2.0449
G01 X2.2201 Y-2.0668
G01 X2.2125 Y-2.0880
G01 X2.2028 Y-2.1084
G01 X2.1912 Y-2.1278
G01 X2.1778 Y-2.1459
G01 X2.1626 Y-2.1626
G01 X2.1459 Y-2.1778
G01 X2.1278 Y-2.1912
G01 X2.1084 Y-2.2028
G01 X2.0880 Y-2.2125
G01 X2.0668 Y-2.2201
G01 X2.0449 Y-2.2256
G01 X2.0225 Y-2.2289
G01 X2.0000 Y-2.2300
G01 X1.9775 Y-2.2289
G01 X1.9551 Y-2.2256
G01 X1.9332 Y-2.2201
G01 X1.9120 Y-2.2125
G01 X1.8916 Y-2.2028
G01 X1.8722 Y-2.1912
G01 X1.8541 Y-2.1778
G01 X1.8374 Y-2.1626
G01 X1.8222 Y-2.1459
G01 X1.8088 Y-2.1278
G01 X1.7972 Y-2.1084
G01 X1.7875 Y-2.0880
G01 X1.7799 Y-2.0668
G01 X1.7744 Y-2.0449
G01 X1.7711 Y-2.0225
G01 X1.7700 Y-2.0000
G00 Z2.0000
G00 X1.8400 Y-2.0000
G01 F70.00
G01 Z-0.0600
G01 F120.00
G01 X1.8408 Y-1.9843
G01 X1.8431 Y-1.9688
G01 X1.8469 Y-1.9536
G01 X1.8522 Y-1.9388
G01 X1.8589 Y-1.9246
G01 X1.8670 Y-1.9111
G01 X1.8764 Y-1.8985
G01 X1.8869 Y-1.8869
G01 X1.8985 Y-1.8764
G01 X1.9111 Y-1.8670
G01 X1.9246 Y-1.8589
G01 X1.9388 Y-1.8522
G01 X1.9536 Y-1.8469
G01 X1.9688 Y-1.8431
G01 X1.9843 Y-1.8408
G01 X2.0000 Y-1.8400
G01 X2.0157 Y-1.8408
G01 X2.0312 Y-1.8431
G01 X2.0464 Y-1.8469
G01 X2.0612 Y-1.8522
G01 X2.0754 Y-1.8589
G01 X2.0889 Y-1.8670
G01 X2.1015 Y-1.8764
G01 X2.1131 Y-1.8869
G01 X2.1236 Y-1.8985
G01 X2.1330 Y-1.9111
G01 X2.1411 Y-1.9246
G01 X2.1478 Y-1.9388
G01 X2.1531 Y-1.9536
G01 X2.1569 Y-1.9688
G01 X2.1592 Y-1.9843
G01 X2.1600 Y-2.0000
G01 X2.1592 Y-2.0157
G01 X2.1569 Y-2.0312
G01 X2.1531 Y-2.0464
G01 X2.1478 Y-2.0612
G01 X2.1411 Y-2.0754
G01 X2.1330 Y-2.0889
G01 X2.1236 Y-2.1015
G01 X2.1131 Y-2.1131
G01 X2.1015 Y-2.1236
G01 X2.0889 Y-2.1330
G01 X2.0754 Y-2.1411
G01 X2.0612 Y-2.1478
G01 X2.0464 Y-2.1531
G01 X2.0312 Y-2.1569
G01 X2.0157 Y-2.1592
G01 X2.0000 Y-2.1600
G01 X1.9843 Y-2.1592
G01 X1.9688 Y-2.1569
G01 X1.9536 Y-2.1531
G01 X1.9388 Y-2.1478
G01 X1.9246 Y-2.1411
G01 X1.9111 Y-2.1330
G01 X1.8985 Y-2.1236
G01 X1.8869 Y-2.1131
G01 X1.8764 Y-2.1015
G01 X1.8670 Y-2.0889
G01 X1.8589 Y-2.0754
G01 X1.8522 Y-2.0612
G01 X1.8469 Y-2.0464
G01 X1.8431 Y-2.0312
G01 X1.8408 Y-2.0157
G01 X1.8400 Y-2.0000
G00 Z2.0000
G00 X1.9101 Y-2.0000
G01 F70.00
G01 Z-0.0600
G01 F120.00
G01 X1.9118 Y-1.9825
G01 X1.9169 Y-1.9656
G01 X1.9252 Y-1.9500
G01 X1.9364 Y-1.9364
G01 X1.9500 Y-1.9252
G01 X1.9656 Y-1.9169
G01 X1.9825 Y-1.9118
G01 X2.0000 Y-1.9101
G01 X2.0175 Y-1.9118
G01 X2.0344 Y-1.9169
G01 X2.0500 Y-1.9252
G01 X2.0636 Y-1.9364
G01 X2.0748 Y-1.9500
G01 X2.0831 Y-1.9656
G01 X2.0882 Y-1.9825
G01 X2.0899 Y-2.0000
G01 X2.0882 Y-2.0175
G01 X2.0831 Y-2.0344
G01 X2.0748 Y-2.0500
G01 X2.0636 Y-2.0636
G01 X2.0500 Y-2.0748
G01 X2.0344 Y-2.0831
G01 X2.0175 Y-2.0882
G01 X2.0000 Y-2.0899
G01 X1.9825 Y-2.0882
G01 X1.9656 Y-2.0831
G01 X1.9500 Y-2.0748
G01 X1.9364 Y-2.0636
G01 X1.9252 Y-2.0500
G01 X1.9169 Y-2.0344
G01 X1.9118 Y-2.0175
G01 X1.9101 Y-2.0000
G00 Z2.0000
G00 X1.9801 Y-2.0000
G01 F70.00
G01 Z-0.0600
G01 F120.00
G01 X1.9816 Y-1.9924
G01 X1.9859 Y-1.9859
G01 X1.9924 Y-1.9816
G01 X2.0000 Y-1.9801
G01 X2.0076 Y-1.9816
G01 X2.0141 Y-1.9859
G01 X2.0184 Y-1.9924
G01 X2.0199 Y-2.0000
G01 X2.0184 Y-2.0076
G01 X2.0141 Y-2.0141
G01 X2.0076 Y-2.0184
G01 X2.0000 Y-2.0199
G01 X1.9924 Y-2.0184
G01 X1.9859 Y-2.0141
G01 X1.9816 Y-2.0076
G01 X1.9801 Y-2.0000
G00 Z2.0000
G00 X3.5124 Y-4.7038
G01 F70.00
G01 Z-0.0600
G01 F120.00
G01 X3.5118 Y-4.7156
G01 X3.5101 Y-4.7272
G01 X3.5073 Y-4.7386
G01 X3.5033 Y-4.7497
G01 X3.4983 Y-4.7603
G01 X3.4922 Y-4.7704
G01 X3.4852 Y-4.7799
G01 X3.4773 Y-4.7886
G01 X3.4686 Y-4.7965
G01 X3.4591 Y-4.8035
G01 X3.4490 Y-4.8096
G01 X3.4384 Y-4.8146
G01 X3.4273 Y-4.8186
G01 X3.4159 Y-4.8214
G01 X3.4043 Y-4.8231
G01 X3.3925 Y-4.8237
G01 X3.3807 Y-4.8231
G01 X3.3691 Y-4.8214
G01 X3.3577 Y-4.8186
G01 X3.3466 Y-4.8146
G01 X3.3360 Y-4.8096
G01 X3.3259 Y-4.8035
G01 X3.3164 Y-4.7965
G01 X3.3077 Y-4.7886
G01 X3.2998 Y-4.7799
G01 X3.2928 Y-4.7704
G01 X3.2867 Y-4.7603
G01 X3.2817 Y-4.7497
G01 X3.2777 Y-4.7386
G01 X3.2749 Y-4.7272
G01 X3.2732 Y-4.7156
G01 X3.2726 Y-4.7038
G01 X3.2732 Y-4.6920
G01 X3.2749 Y-4.6804
G01 X3.2777 Y-4.6690
G01 X3.2817 Y-4.6579
G01 X3.2867 Y-4.6473
G01 X3.2928 Y-4.6372
G01 X3.2998 Y-4.6277
G01 X3.3077 Y-4.6190
G01 X3.3164 Y-4.6111
G01 X3.3259 Y-4.6041
G01 X3.3360 Y-4.5980
G01 X3.3466 Y-4.5930
G01 X3.3577 Y-4.5890
G01 X3.3691 Y-4.5862
G01 X3.3807 Y-4.5845
G01 X3.3925 Y-4.5839
G01 X3.4043 Y-4.5845
G01 X3.4159 Y-4.5862
G01 X3.4273 Y-4.5890
G01 X3.4384 Y-4.5930
G01 X3.4490 Y-4.5980
G01 X3.4591 Y-4.6041
G01 X3.4686 Y-4.6111
G01 X3.4773 Y-4.6190
G01 X3.4852 Y-4.6277
G01 X3.4922 Y-4.6372
G01 X3.4983 Y-4.6473
G01 X3.5033 Y-4.6579
G01 X3.5073 Y-4.6690
G01 X3.5101 Y-4.6804
G01 X3.5118 Y-4.6920
G01 X3.5124 Y-4.7038
G00 Z2.0000
G00 X3.5824 Y-4.7038
G01 F70.00
G01 Z-0.0600
G01 F120.00
G01 X3.5815 Y-4.7224
G01 X3.5788 Y-4.7409
G01 X3.5743 Y-4.7589
G01 X3.5680 Y-4.7765
G01 X3.5600 Y-4.7933
G01 X3.5504 Y-4.8093
G01 X3.5393 Y-4.8243
G01 X3.5268 Y-4.8381
G01 X3.5130 Y-4.8506
G01 X3.4980 Y-4.8617
G01 X3.4820 Y-4.8713
G01 X3.4652 Y-4.8793
G01 X3.4476 Y-4.8856
G01 X3.4296 Y-4.8901
G01 X3.4111 Y-4.8928
G01 X3.3925 Y-4.8937
G01 X3.3739 Y-4.8928
G01 X3.3554 Y-4.8901
G01 X3.3374 Y-4.8856
G01 X3.3198 Y-4.8793
G01 X3.3030 Y-4.8713
G01 X3.2870 Y-4.8617
G01 X3.2720 Y-4.8506
G01 X3.2582 Y-4.8381
G01 X3.2457 Y-4.8243
G01 X3.2346 Y-4.8093
G01 X3.2250 Y-4.7933
G01 X3.2170 Y-4.7765
G01 X3.2107 Y-4.7589
G01 X3.2062 Y-4.7409
G01 X3.2035 Y-4.7224
G01 X3.2026 Y-4.7038
G01 X3.2035 Y-4.6852
G01 X3.2062 Y-4.6667
G01 X3.2107 Y-4.6487
G01 X3.2170 Y-4.6311
G01 X3.2250 Y-4.6143
G01 X3.2346 Y-4.5983
G01 X3.2457 Y-4.5833
G01 X3.2582 Y-4.5695
G01 X3.2720 Y-4.5570
G01 X3.2870 Y-4.5459
G01 X3.3030 Y-4.5363
G01 X3.3198 Y-4.5283
G01 X3.3374 Y-4.5220
G01 X3.3554 Y-4.5175
G01 X3.3739 Y-4.5148
G01 X3.3925 Y-4.5139
G01 X3.4111 Y-4.5148
G01 X3.4296 Y-4.5175
G01 X3.4476 Y-4.5220
G01 X3.4652 Y-4.5283
G01 X3.4820 Y-4.5363
G01 X3.4980 Y-4.5459
G01 X3.5130 Y-4.5570
G01 X3.5268 Y-4.5695
G01 X3.5393 Y-4.5833
G01 X3.5504 Y-4.5983
G01 X3.5600 Y-4.6143
G01 X3.5680 Y-4.6311
G01 X3.5743 Y-4.6487
G01 X3.5788 Y-4.6667
G01 X3.5815 Y-4.6852
G01 X3.5824 Y-4.7038
G00 Z2.0000
G00 X3.6525 Y-4.7038
G01 F70.00
G01 Z-0.0600
G01 F120.00
G01 X3.6512 Y-4.7293
G01 X3.6475 Y-4.7545
G01 X3.6413 Y-4.7793
G01 X3.6327 Y-4.8033
G01 X3.6218 Y-4.8263
G01 X3.6086 Y-4.8482
G01 X3.5935 Y-4.8687
G01 X3.5763 Y-4.8876
G01 X3.5574 Y-4.9048
G01 X3.5369 Y-4.9199
G01 X3.5150 Y-4.9331
G01 X3.4920 Y-4.9440
G01 X3.4680 Y-4.9526
G01 X3.4432 Y-4.9588
G01 X3.4180 Y-4.9625
G01 X3.3925 Y-4.9638
G01 X3.3670 Y-4.9625
G01 X3.3418 Y-4.9588
G01 X3.3170 Y-4.9526
G01 X3.2930 Y-4.9440
G01 X3.2700 Y-4.9331
G01 X3.2481 Y-4.9199
G01 X3.2276 Y-4.9048
G01 X3.2087 Y-4.8876
G01 X3.1915 Y-4.8687
G01 X3.1764 Y-4.8482
G01 X3.1632 Y-4.8263
G01 X3.1523 Y-4.8033
G01 X3.1437 Y-4.7793
G01 X3.1375 Y-4.7545
G01 X3.1338 Y-4.7293
G01 X3.1325 Y-4.7038
G01 X3.1338 Y-4.6783
G01 X3.1375 Y-4.6531
G01 X3.1437 Y-4.6283
G01 X3.1523 Y-4.6043
G01 X3.1632 Y-4.5813
G01 X3.1764 Y-4.5594
G01 X3.1915 Y-4.5389
G01 X3.2087 Y-4.5200
G01 X3.2276 Y-4.5028
G01 X3.2481 Y-4.4877
G01 X3.2700 Y-4.4745
G01 X3.2930 Y-4.4636
G01 X3.3170 Y-4.4550
G01 X3.3418 Y-4.4488
G01 X3.3670 Y-4.4451
G01 X3.3925 Y-4.4438
G01 X3.4180 Y-4.4451
G01 X3.4432 Y-4.4488
G01 X3.4680 Y-4.4550
G01 X3.4920 Y-4.4636
G01 X3.5150 Y-4.4745
G01 X3.5369 Y-4.4877
G01 X3.5574 Y-4.5028
G01 X3.5763 Y-4.5200
G01 X3.5935 Y-4.5389
G01 X3.6086 Y-4.5594
G01 X3.6218 Y-4.5813
G01 X3.6327 Y-4.6043
G01 X3.6413 Y-4.6283
G01 X3.6475 Y-4.6531
G01 X3.6512 Y-4.6783
G01 X3.6525 Y-4.7038
G00 Z2.0000
G00 X3.7225 Y-4.7038
G01 F70.00
G01 Z-0.0600
G01 F120.00
G01 X3.7209 Y-4.7361
G01 X3.7161 Y-4.7682
G01 X3.7083 Y-4.7996
G01 X3.6974 Y-4.8301
G01 X3.6835 Y-4.8594
G01 X3.6669 Y-4.8871
G01 X3.6476 Y-4.9131
G01 X3.6258 Y-4.9371
G01 X3.6018 Y-4.9589
G01 X3.5758 Y-4.9782
G01 X3.5481 Y-4.9948
G01 X3.5188 Y-5.0087
G01 X3.4883 Y-5.0196
G01 X3.4569 Y-5.0274
G01 X3.4248 Y-5.0322
G01 X3.3925 Y-5.0338
G01 X3.3602 Y-5.0322
G01 X3.3281 Y-5.0274
G01 X3.2967 Y-5.0196
G01 X3.2662 Y-5.0087
G01 X3.2369 Y-4.9948
G01 X3.2092 Y-4.9782
G01 X3.1832 Y-4.9589
G01 X3.1592 Y-4.9371
G01 X3.1374 Y-4.9131
G01 X3.1181 Y-4.8871
G01 X3.1015 Y-4.8594
G01 X3.0876 Y-4.8301
G01 X3.0767 Y-4.7996
G01 X3.0689 Y-4.7682
G01 X3.0641 Y-4.7361
G01 X3.0625 Y-4.7038
G01 X3.0641 Y-4.6715
G01 X3.0689 Y-4.6394
G01 X3.0767 Y-4.6080
G01 X3.0876 Y-4.5775
G01 X3.1015 Y-4.5482
G01 X3.1181 Y-4.5205
G01 X3.1374 Y-4.4945
G01 X3.1592 Y-4.4705
G01 X3.1832 Y-4.4487
G01 X3.2092 Y-4.4294
G01 X3.2369 Y-4.4128
G01 X3.2662 Y-4.3989
G01 X3.2967 Y-4.3880
G01 X3.3281 Y-4.3802
G01 X3.3602 Y-4.3754
G01 X3.3925 Y-4.3738
G01 X3.4248 Y-4.3754
G01 X3.4569 Y-4.3802
G01 X3.4883 Y-4.3880
G01 X3.5188 Y-4.3989
G01 X3.5481 Y-4.4128
G01 X3.5758 Y-4.4294
G01 X3.6018 Y-4.4487
G01 X3.6258 Y-4.4705
G01 X3.6476 Y-4.4945
G01 X3.6669 Y-4.5205
G01 X3.6835 Y-4.5482
G01 X3.6974 Y-4.5775
G01 X3.7083 Y-4.6080
G01 X3.7161 Y-4.6394
G01 X3.7209 Y-4.6715
G01 X3.7225 Y-4.7038
G00 Z2.0000
G00 X4.7125 Y-4.7038
G01 F70.00
G01 Z-0.0600
G01 F120.00
G01 X4.7109 Y-4.6390
G01 X4.7061 Y-4.5744
G01 X4.6982 Y-4.5101
G01 X4.6871 Y-4.4463
G01 X4.6729 Y-4.3831
G01 X4.6557 Y-4.3206
G01 X4.6353 Y-4.2591
G01 X4.6120 Y-4.1987
G01 X4.5858 Y-4.1394
G01 X4.5566 Y-4.0816
G01 X4.5247 Y-4.0252
G01 X4.4900 Y-3.9704
G01 X4.4527 Y-3.9175
G01 X4.4129 Y-3.8664
G01 X4.3706 Y-3.8173
G01 X4.3259 Y-3.7704
G01 X4.2790 Y-3.7257
G01 X4.2299 Y-3.6834
G01 X4.1788 Y-3.6436
G01 X4.1259 Y-3.6063
G01 X4.0711 Y-3.5716
G01 X4.0147 Y-3.5397
G01 X3.9569 Y-3.5105
G01 X3.8976 Y-3.4843
G01 X3.8372 Y-3.4610
G01 X3.7757 Y-3.4406
G01 X3.7132 Y-3.4234
G01 X3.6500 Y-3.4092
G01 X3.5862 Y-3.3981
G01 X3.5219 Y-3.3902
G01 X3.4573 Y-3.3854
G01 X3.3925 Y-3.3838
G01 X3.3277 Y-3.3854
G01 X3.2631 Y-3.3902
G01 X3.1988 Y-3.3981
G01 X3.1350 Y-3.4092
G01 X3.0718 Y-3.4234
G01 X3.0093 Y-3.4406
G01 X2.9478 Y-3.4610
G01 X2.8874 Y-3.4843
G01 X2.8281 Y-3.5105
G01 X2.7703 Y-3.5397
G01 X2.7139 Y-3.5716
G01 X2.6591 Y-3.6063
G01 X2.6062 Y-3.6436
G01 X2.5551 Y-3.6834
G01 X2.5060 Y-3.7257
G01 X2.4591 Y-3.7704
G01 X2.4144 Y-3.8173
G01 X2.3721 Y-3.8664
G01 X2.3323 Y-3.9175
G01 X2.2950 Y-3.9704
G01 X2.2603 Y-4.0252
G01 X2.2284 Y-4.0816
G01 X2.1992 Y-4.1394
G01 X2.1730 Y-4.1987
G01 X2.1497 Y-4.2591
G01 X2.1293 Y-4.3206
G01 X2.1121 Y-4.3831
G01 X2.0979 Y-4.4463
G01 X2.0868 Y-4.5101
G01 X2.0789 Y-4.5744
G01 X2.0741 Y-4.6390
G01 X2.0725 Y-4.7038
G01 X2.0741 Y-4.7686
G01 X2.0789 Y-4.8332
G01 X2.0868 Y-4.8975
G01 X2.0979 Y-4.9613
G01 X2.1121 Y-5.0245
G01 X2.1293 Y-5.0870
G01 X2.1497 Y-5.1485
G01 X2.1730 Y-5.2089
G01 X2.1992 Y-5.2682
G01 X2.2284 Y-5.3260
G01 X2.2603 Y-5.3824
G01 X2.2950 Y-5.4372
G01 X2.3323 Y-5.4901
G01 X2.3721 Y-5.5412
G01 X2.4144 Y-5.5903
G01 X2.4591 Y-5.6372
G01 X2.5060 Y-5.6819
G01 X2.5551 Y-5.7242
G01 X2.6062 Y-5.7640
G01 X2.6591 Y-5.8013
G01 X2.7139 Y-5.8360
G01 X2.7703 Y-5.8679
G01 X2.8281 Y-5.8971
G01 X2.8874 Y-5.9233
G01 X2.9478 Y-5.9466
G01 X3.0093 Y-5.9670
G01 X3.0718 Y-5.9842
G01 X3.1350 Y-5.9984
G01 X3.1988 Y-6.0095
G01 X3.2631 Y-6.0174
G01 X3.3277 Y-6.0222
G01 X3.3925 Y-6.0238
G01 X3.4573 Y-6.0222
G01 X3.5219 Y-6.0174
G01 X3.5862 Y-6.0095
G01 X3.6500 Y-5.9984
G01 X3.7132 Y-5.9842
G01 X3.7757 Y-5.9670
G01 X3.8372 Y-5.9466
G01 X3.8976 Y-5.9233
G01 X3.9569 Y-5.8971
G01 X4.0147 Y-5.8679
G01 X4.0711 Y-5.8360
G01 X4.1259 Y-5.8013
G01 X4.1788 Y-5.7640
G01 X4.2299 Y-5.7242
G01 X4.2790 Y-5.6819
G01 X4.3259 Y-5.6372
G01 X4.3706 Y-5.5903
G01 X4.4129 Y-5.5412
G01 X4.4527 Y-5.4901
G01 X4.4900 Y-5.4372
G01 X4.5247 Y-5.3824
G01 X4.5566 Y-5.3260
G01 X4.5858 Y-5.2682
G01 X4.6120 Y-5.2089
G01 X4.6353 Y-5.1485
G01 X4.6557 Y-5.0870
G01 X4.6729 Y-5.0245
G01 X4.6871 Y-4.9613
G01 X4.6982 Y-4.8975
G01 X4.7061 Y-4.8332
G01 X4.7109 Y-4.7686
G01 X4.7125 Y-4.7038
G00 Z2.0000
G00 X4.7825 Y-4.7038
G01 F70.00
G01 Z-0.0600
G01 F120.00
G01 X4.7808 Y-4.6356
G01 X4.7758 Y-4.5676
G01 X4.7675 Y-4.4998
G01 X4.7558 Y-4.4326
G01 X4.7408 Y-4.3661
G01 X4.7226 Y-4.3003
G01 X4.7012 Y-4.2355
G01 X4.6767 Y-4.1719
G01 X4.6490 Y-4.1095
G01 X4.6184 Y-4.0486
G01 X4.5847 Y-3.9892
G01 X4.5482 Y-3.9316
G01 X4.5090 Y-3.8758
G01 X4.4670 Y-3.8220
G01 X4.4224 Y-3.7703
G01 X4.3754 Y-3.7209
G01 X4.3260 Y-3.6739
G01 X4.2743 Y-3.6293
G01 X4.2205 Y-3.5873
G01 X4.1647 Y-3.5481
G01 X4.1071 Y-3.5116
G01 X4.0477 Y-3.4779
G01 X3.9868 Y-3.4473
G01 X3.9244 Y-3.4196
G01 X3.8608 Y-3.3951
G01 X3.7960 Y-3.3737
G01 X3.7302 Y-3.3555
G01 X3.6637 Y-3.3405
G01 X3.5965 Y-3.3288
G01 X3.5287 Y-3.3205
G01 X3.4607 Y-3.3155
G01 X3.3925 Y-3.3138
G01 X3.3243 Y-3.3155
G01 X3.2563 Y-3.3205
G01 X3.1885 Y-3.3288
G01 X3.1213 Y-3.3405
G01 X3.0548 Y-3.3555
G01 X2.9890 Y-3.3737
G01 X2.9242 Y-3.3951
G01 X2.8606 Y-3.4196
G01 X2.7982 Y-3.4473
G01 X2.7373 Y-3.4779
G01 X2.6779 Y-3.5116
G01 X2.6203 Y-3.5481
G01 X2.5645 Y-3.5873
G01 X2.5107 Y-3.6293
G01 X2.4590 Y-3.6739
G01 X2.4096 Y-3.7209
G01 X2.3626 Y-3.7703
G01 X2.3180 Y-3.8220
G01 X2.2760 Y-3.8758
G01 X2.2368 Y-3.9316
G01 X2.2003 Y-3.9892
G01 X2.1666 Y-4.0486
G01 X2.1360 Y-4.1095
G01 X2.1083 Y-4.1719
G01 X2.0838 Y-4.2355
G01 X2.0624 Y-4.3003
G01 X2.0442 Y-4.3661
G01 X2.0292 Y-4.4326
G01 X2.0175 Y-4.4998
G01 X2.0092 Y-4.5676
G01 X2.0042 Y-4.6356
G01 X2.0025 Y-4.7038
G01 X2.0042 Y-4.7720
G01 X2.0092 Y-4.8400
G01 X2.0175 Y-4.9078
G01 X2.0292 Y-4.9750
G01 X2.0442 Y-5.0415
G01 X2.0624 Y-5.1073
G01 X2.0838 Y-5.1721
G01 X2.1083 Y-5.2357
G01 X2.1360 Y-5.2981
G01 X2.1666 Y-5.3590
G01 X2.2003 Y-5.4184
G01 X2.2368 Y-5.4760
G01 X2.2760 Y-5.5318
G01 X2.3180 Y-5.5856
G01 X2.3626 Y-5.6373
G01 X2.4096 Y-5.6867
G01 X2.4590 Y-5.7337
G01 X2.5107 Y-5.7783
G01 X2.5645 Y-5.8203
G01 X2.6203 Y-5.8595
G01 X2.6779 Y-5.8960
G01 X2.7373 Y-5.9297
G01 X2.7982 Y-5.9603
G01 X2.8606 Y-5.9880
G01 X2.9242 Y-6.0125
G01 X2.9890 Y-6.0339
G01 X3.0548 Y-6.0521
G01 X3.1213 Y-6.0671
G01 X3.1885 Y-6.0788
G01 X3.2563 Y-6.0871
G01 X3.3243 Y-6.0921
G01 X3.3925 Y-6.0938
G01 X3.4607 Y-6.0921
G01 X3.5287 Y-6.0871
G01 X3.5965 Y-6.0788
G01 X3.6637 Y-6.0671
G01 X3.7302 Y-6.0521
G01 X3.7960 Y-6.0339
G01 X3.8608 Y-6.0125
G01 X3.9244 Y-5.9880
G01 X3.9868 Y-5.9603
G01 X4.0477 Y-5.9297
G01 X4.1071 Y-5.8960
G01 X4.1647 Y-5.8595
G01 X4.2205 Y-5.8203
G01 X4.2743 Y-5.7783
G01 X4.3260 Y-5.7337
G01 X4.3754 Y-5.6867
G01 X4.4224 Y-5.6373
G01 X4.4670 Y-5.5856
G01 X4.5090 Y-5.5318
G01 X4.5482 Y-5.4760
G01 X4.5847 Y-5.4184
G01 X4.6184 Y-5.3590
G01 X4.6490 Y-5.2981
G01 X4.6767 Y-5.2357
G01 X4.7012 Y-5.1721
G01 X4.7226 Y-5.1073
G01 X4.7408 Y-5.0415
G01 X4.7558 Y-4.9750
G01 X4.7675 Y-4.9078
G01 X4.7758 Y-4.8400
G01 X4.7808 Y-4.7720
G01 X4.7825 Y-4.7038
G00 Z2.0000
G00 X4.9025 Y-4.7038
G01 F70.00
G01 Z-0.0600
G01 F120.00
G01 X4.9006 Y-4.7779
G01 X4.8952 Y-4.8518
G01 X4.8861 Y-4.9254
G01 X4.8734 Y-4.9984
G01 X4.8572 Y-5.0707
G01 X4.8374 Y-5.1421
G01 X4.8142 Y-5.2125
G01 X4.7875 Y-5.2816
G01 X4.7575 Y-5.3494
G01 X4.7242 Y-5.4156
G01 X4.6876 Y-5.4801
G01 X4.6480 Y-5.5427
G01 X4.6053 Y-5.6033
G01 X4.5597 Y-5.6617
G01 X4.5113 Y-5.7178
G01 X4.4602 Y-5.7715
G01 X4.4065 Y-5.8226
G01 X4.3504 Y-5.8710
G01 X4.2920 Y-5.9166
G01 X4.2314 Y-5.9593
G01 X4.1688 Y-5.9989
G01 X4.1043 Y-6.0355
G01 X4.0381 Y-6.0688
G01 X3.9703 Y-6.0988
G01 X3.9012 Y-6.1255
G01 X3.8308 Y-6.1487
G01 X3.7594 Y-6.1685
G01 X3.6871 Y-6.1847
G01 X3.6141 Y-6.1974
G01 X3.5405 Y-6.2065
G01 X3.4666 Y-6.2119
G01 X3.3925 Y-6.2138
G01 X3.3184 Y-6.2119
G01 X3.2445 Y-6.2065
G01 X3.1709 Y-6.1974
G01 X3.0979 Y-6.1847
G01 X3.0256 Y-6.1685
G01 X2.9542 Y-6.1487
G01 X2.8838 Y-6.1255
G01 X2.8147 Y-6.0988
G01 X2.7469 Y-6.0688
G01 X2.6807 Y-6.0355
G01 X2.6162 Y-5.9989
G01 X2.5536 Y-5.9593
G01 X2.4930 Y-5.9166
G01 X2.4346 Y-5.8710
G01 X2.3785 Y-5.8226
G01 X2.3248 Y-5.7715
G01 X2.2737 Y-5.7178
G01 X2.2253 Y-5.6617
G01 X2.1797 Y-5.6033
G01 X2.1370 Y-5.5427
G01 X2.0974 Y-5.4801
G01 X2.0608 Y-5.4156
G01 X2.0275 Y-5.3494
G01 X1.9975 Y-5.2816
G01 X1.9708 Y-5.2125
G01 X1.9476 Y-5.1421
G01 X1.9278 Y-5.0707
G01 X1.9116 Y-4.9984
G01 X1.8989 Y-4.9254
G01 X1.8898 Y-4.8518
G01 X1.8844 Y-4.7779
G01 X1.8825 Y-4.7038
G01 X1.8844 Y-4.6297
G01 X1.8898 Y-4.5558
G01 X1.8989 Y-4.4822
G01 X1.9116 Y-4.4092
G01 X1.9278 Y-4.3369
G01 X1.9476 Y-4.2655
G01 X1.9708 Y-4.1951
G01 X1.9975 Y-4.1260
G01 X2.0275 Y-4.0582
G01 X2.0608 Y-3.9920
G01 X2.0974 Y-3.9275
G01 X2.1370 Y-3.8649
G01 X2.1797 Y-3.8043
G01 X2.2253 Y-3.7459
G01 X2.2737 Y-3.6898
G01 X2.3248 Y-3.6361
G01 X2.3785 Y-3.5850
G01 X2.4346 Y-3.5366
G01 X2.4930 Y-3.4910
G01 X2.5536 Y-3.4483
G01 X2.6162 Y-3.4087
G01 X2.6807 Y-3.3721
G01 X2.7469 Y-3.3388
G01 X2.8147 Y-3.3088
G01 X2.8838 Y-3.2821
G01 X2.9542 Y-3.2589
G01 X3.0256 Y-3.2391
G01 X3.0979 Y-3.2229
G01 X3.1709 Y-3.2102
G01 X3.2445 Y-3.2011
G01 X3.3184 Y-3.1957
G01 X3.3925 Y-3.1938
G01 X3.4666 Y-3.1957
G01 X3.5405 Y-3.2011
G01 X3.6141 Y-3.2102
G01 X3.6871 Y-3.2229
G01 X3.7594 Y-3.2391
G01 X3.8308 Y-3.2589
G01 X3.9012 Y-3.2821
G01 X3.9703 Y-3.3088
G01 X4.0381 Y-3.3388
G01 X4.1043 Y-3.3721
G01 X4.1688 Y-3.4087
G01 X4.2314 Y-3.4483
G01 X4.2920 Y-3.4910
G01 X4.3504 Y-3.5366
G01 X4.4065 Y-3.5850
G01 X4.4602 Y-3.6361
G01 X4.5113 Y-3.6898
G01 X4.5597 Y-3.7459
G01 X4.6053 Y-3.8043
G01 X4.6480 Y-3.8649
G01 X4.6876 Y-3.9275
G01 X4.7242 Y-3.9920
G01 X4.7575 Y-4.0582
G01 X4.7875 Y-4.1260
G01 X4.8142 Y-4.1951
G01 X4.8374 Y-4.2655
G01 X4.8572 Y-4.3369
G01 X4.8734 Y-4.4092
G01 X4.8861 Y-4.4822
G01 X4.8952 Y-4.5558
G01 X4.9006 Y-4.6297
G01 X4.9025 Y-4.7038
G00 Z2.0000
G00 X4.9725 Y-4.7038
G01 F70.00
G01 Z-0.0600
G01 F120.00
G01 X4.9706 Y-4.7813
G01 X4.9649 Y-4.8587
G01 X4.9554 Y-4.9356
G01 X4.9421 Y-5.0120
G01 X4.9251 Y-5.0877
G01 X4.9044 Y-5.1624
G01 X4.8801 Y-5.2361
G01 X4.8522 Y-5.3084
G01 X4.8208 Y-5.3793
G01 X4.7859 Y-5.4486
G01 X4.7477 Y-5.5161
G01 X4.7062 Y-5.5816
G01 X4.6616 Y-5.6450
G01 X4.6138 Y-5.7061
G01 X4.5632 Y-5.7648
G01 X4.5097 Y-5.8210
G01 X4.4535 Y-5.8745
G01 X4.3948 Y-5.9251
G01 X4.3337 Y-5.9729
G01 X4.2703 Y-6.0175
G01 X4.2048 Y-6.0590
G01 X4.1373 Y-6.0972
G01 X4.0680 Y-6.1321
G01 X3.9971 Y-6.1635
G01 X3.9248 Y-6.1914
G01 X3.8511 Y-6.2157
G01 X3.7764 Y-6.2364
G01 X3.7007 Y-6.2534
G01 X3.6243 Y-6.2667
G01 X3.5474 Y-6.2762
G01 X3.4700 Y-6.2819
G01 X3.3925 Y-6.2838
G01 X3.3150 Y-6.2819
G01 X3.2376 Y-6.2762
G01 X3.1607 Y-6.2667
G01 X3.0843 Y-6.2534
G01 X3.0086 Y-6.2364
G01 X2.9339 Y-6.2157
G01 X2.8602 Y-6.1914
G01 X2.7879 Y-6.1635
G01 X2.7170 Y-6.1321
G01 X2.6477 Y-6.0972
G01 X2.5802 Y-6.0590
G01 X2.5147 Y-6.0175
G01 X2.4513 Y-5.9729
G01 X2.3902 Y-5.9251
G01 X2.3315 Y-5.8745
G01 X2.2753 Y-5.8210
G01 X2.2218 Y-5.7648
G01 X2.1712 Y-5.7061
G01 X2.1234 Y-5.6450
G01 X2.0788 Y-5.5816
G01 X2.0373 Y-5.5161
G01 X1.9991 Y-5.4486
G01 X1.9642 Y-5.3793
G01 X1.9328 Y-5.3084
G01 X1.9049 Y-5.2361
G01 X1.8806 Y-5.1624
G01 X1.8599 Y-5.0877
G01 X1.8429 Y-5.0120
G01 X1.8296 Y-4.9356
G01 X1.8201 Y-4.8587
G01 X1.8144 Y-4.7813
G01 X1.8125 Y-4.7038
G01 X1.8144 Y-4.6263
G01 X1.8201 Y-4.5489
G01 X1.8296 Y-4.4720
G01 X1.8429 Y-4.3956
G01 X1.8599 Y-4.3199
G01 X1.8806 Y-4.2452
G01 X1.9049 Y-4.1715
G01 X1.9328 Y-4.0992
G01 X1.9642 Y-4.0283
G01 X1.9991 Y-3.9590
G01 X2.0373 Y-3.8915
G01 X2.0788 Y-3.8260
G01 X2.1234 Y-3.7626
G01 X2.1712 Y-3.7015
G01 X2.2218 Y-3.6428
G01 X2.2753 Y-3.5866
G01 X2.3315 Y-3.5331
G01 X2.3902 Y-3.4825
G01 X2.4513 Y-3.4347
G01 X2.5147 Y-3.3901
G01 X2.5802 Y-3.3486
G01 X2.6477 Y-3.3104
G01 X2.7170 Y-3.2755
G01 X2.7879 Y-3.2441
G01 X2.8602 Y-3.2162
G01 X2.9339 Y-3.1919
G01 X3.0086 Y-3.1712
G01 X3.0843 Y-3.1542
G01 X3.1607 Y-3.1409
G01 X3.2376 Y-3.1314
G01 X3.3150 Y-3.1257
G01 X3.3925 Y-3.1238
G01 X3.4700 Y-3.1257
G01 X3.5474 Y-3.1314
G01 X3.6243 Y-3.1409
G01 X3.7007 Y-3.1542
G01 X3.7764 Y-3.1712
G01 X3.8511 Y-3.1919
G01 X3.9248 Y-3.2162
G01 X3.9971 Y-3.2441
G01 X4.0680 Y-3.2755
G01 X4.1373 Y-3.3104
G01 X4.2048 Y-3.3486
G01 X4.2703 Y-3.3901
G01 X4.3337 Y-3.4347
G01 X4.3948 Y-3.4825
G01 X4.4535 Y-3.5331
G01 X4.5097 Y-3.5866
G01 X4.5632 Y-3.6428
G01 X4.6138 Y-3.7015
G01 X4.6616 Y-3.7626
G01 X4.7062 Y-3.8260
G01 X4.7477 Y-3.8915
G01 X4.7859 Y-3.9590
G01 X4.8208 Y-4.0283
G01 X4.8522 Y-4.0992
G01 X4.8801 Y-4.1715
G01 X4.9044 Y-4.2452
G01 X4.9251 Y-4.3199
G01 X4.9421 Y-4.3956
G01 X4.9554 Y-4.4720
G01 X4.9649 Y-4.5489
G01 X4.9706 Y-4.6263
G01 X4.9725 Y-4.7038
G00 Z2.0000
G00 X5.4149 Y-7.3794
G01 F70.00
G01 Z-0.0600
G01 F120.00
G01 X5.4134 Y-7.3870
G01 X5.4091 Y-7.3935
G01 X5.4026 Y-7.3978
G01 X5.3950 Y-7.3993
G01 X5.3874 Y-7.3978
G01 X5.3809 Y-7.3935
G01 X5.3766 Y-7.3870
G01 X5.3751 Y-7.3794
G01 X5.3766 Y-7.3718
G01 X5.3809 Y-7.3653
G01 X5.3874 Y-7.3610
G01 X5.3950 Y-7.3595
G01 X5.4026 Y-7.3610
G01 X5.4091 Y-7.3653
G01 X5.4134 Y-7.3718
G01 X5.4149 Y-7.3794
G00 Z2.0000
G00 X5.4849 Y-7.3794
G01 F70.00
G01 Z-0.0600
G01 F120.00
G01 X5.4832 Y-7.3969
G01 X5.4781 Y-7.4138
G01 X5.4698 Y-7.4294
G01 X5.4586 Y-7.4430
G01 X5.4450 Y-7.4542
G01 X5.4294 Y-7.4625
G01 X5.4125 Y-7.4676
G01 X5.3950 Y-7.4693
G01 X5.3775 Y-7.4676
G01 X5.3606 Y-7.4625
G01 X5.3450 Y-7.4542
G01 X5.3314 Y-7.4430
G01 X5.3202 Y-7.4294
G01 X5.3119 Y-7.4138
G01 X5.3068 Y-7.3969
G01 X5.3051 Y-7.3794
G01 X5.3068 Y-7.3619
G01 X5.3119 Y-7.3450
G01 X5.3202 Y-7.3294
G01 X5.3314 Y-7.3158
G01 X5.3450 Y-7.3046
G01 X5.3606 Y-7.2963
G01 X5.3775 Y-7.2912
G01 X5.3950 Y-7.2895
G01 X5.4125 Y-7.2912
G01 X5.4294 Y-7.2963
G01 X5.4450 Y-7.3046
G01 X5.4586 Y-7.3158
G01 X5.4698 Y-7.3294
G01 X5.4781 Y-7.3450
G01 X5.4832 Y-7.3619
G01 X5.4849 Y-7.3794
G00 Z2.0000
G00 X5.5550 Y-7.3794
G01 F70.00
G01 Z-0.0600
G01 F120.00
G01 X5.5542 Y-7.3951
G01 X5.5519 Y-7.4106
G01 X5.5481 Y-7.4258
G01 X5.5428 Y-7.4406
G01 X5.5361 Y-7.4548
G01 X5.5280 Y-7.4683
G01 X5.5186 Y-7.4809
G01 X5.5081 Y-7.4925
G01 X5.4965 Y-7.5030
G01 X5.4839 Y-7.5124
G01 X5.4704 Y-7.5205
G01 X5.4562 Y-7.5272
G01 X5.4414 Y-7.5325
G01 X5.4262 Y-7.5363
G01 X5.4107 Y-7.5386
G01 X5.3950 Y-7.5394
G01 X5.3793 Y-7.5386
G01 X5.3638 Y-7.5363
G01 X5.3486 Y-7.5325
G01 X5.3338 Y-7.5272
G01 X5.3196 Y-7.5205
G01 X5.3061 Y-7.5124
G01 X5.2935 Y-7.5030
G01 X5.2819 Y-7.4925
G01 X5.2714 Y-7.4809
G01 X5.2620 Y-7.4683
G01 X5.2539 Y-7.4548
G01 X5.2472 Y-7.4406
G01 X5.2419 Y-7.4258
G01 X5.2381 Y-7.4106
G01 X5.2358 Y-7.3951
G01 X5.2350 Y-7.3794
G01 X5.2358 Y-7.3637
G01 X5.2381 Y-7.3482
G01 X5.2419 Y-7.3330
G01 X5.2472 Y-7.3182
G01 X5.2539 Y-7.3040
G01 X5.2620 Y-7.2905
G01 X5.2714 Y-7.2779
G01 X5.2819 Y-7.2663
G01 X5.2935 Y-7.2558
G01 X5.3061 Y-7.2464
G01 X5.3196 Y-7.2383
G01 X5.3338 Y-7.2316
G01 X5.3486 Y-7.2263
G01 X5.3638 Y-7.2225
G01 X5.3793 Y-7.2202
G01 X5.3950 Y-7.2194
G01 X5.4107 Y-7.2202
G01 X5.4262 Y-7.2225
G01 X5.4414 Y-7.2263
G01 X5.4562 Y-7.2316
G01 X5.4704 Y-7.2383
G01 X5.4839 Y-7.2464
G01 X5.4965 Y-7.2558
G01 X5.5081 Y-7.2663
G01 X5.5186 Y-7.2779
G01 X5.5280 Y-7.2905
G01 X5.5361 Y-7.3040
G01 X5.5428 Y-7.3182
G01 X5.5481 Y-7.3330
G01 X5.5519 Y-7.3482
G01 X5.5542 Y-7.3637
G01 X5.5550 Y-7.3794
G00 Z2.0000
G00 X5.6250 Y-7.3794
G01 F70.00
G01 Z-0.0600
G01 F120.00
G01 X5.6239 Y-7.4019
G01 X5.6206 Y-7.4243
G01 X5.6151 Y-7.4462
G01 X5.6075 Y-7.4674
G01 X5.5978 Y-7.4878
G01 X5.5862 Y-7.5072
G01 X5.5728 Y-7.5253
G01 X5.5576 Y-7.5420
G01 X5.5409 Y-7.5572
G01 X5.5228 Y-7.5706
G01 X5.5034 Y-7.5822
G01 X5.4830 Y-7.5919
G01 X5.4618 Y-7.5995
G01 X5.4399 Y-7.6050
G01 X5.4175 Y-7.6083
G01 X5.3950 Y-7.6094
G01 X5.3725 Y-7.6083
G01 X5.3501 Y-7.6050
G01 X5.3282 Y-7.5995
G01 X5.3070 Y-7.5919
G01 X5.2866 Y-7.5822
G01 X5.2672 Y-7.5706
G01 X5.2491 Y-7.5572
G01 X5.2324 Y-7.5420
G01 X5.2172 Y-7.5253
G01 X5.2038 Y-7.5072
G01 X5.1922 Y-7.4878
G01 X5.1825 Y-7.4674
G01 X5.1749 Y-7.4462
G01 X5.1694 Y-7.4243
G01 X5.1661 Y-7.4019
G01 X5.1650 Y-7.3794
G01 X5.1661 Y-7.3569
G01 X5.1694 Y-7.3345
G01 X5.1749 Y-7.3126
G01 X5.1825 Y-7.2914
G01 X5.1922 Y-7.2710
G01 X5.2038 Y-7.2516
G01 X5.2172 Y-7.2335
G01 X5.2324 Y-7.2168
G01 X5.2491 Y-7.2016
G01 X5.2672 Y-7.1882
G01 X5.2866 Y-7.1766
G01 X5.3070 Y-7.1669
G01 X5.3282 Y-7.1593
G01 X5.3501 Y-7.1538
G01 X5.3725 Y-7.1505
G01 X5.3950 Y-7.1494
G01 X5.4175 Y-7.1505
G01 X5.4399 Y-7.1538
G01 X5.4618 Y-7.1593
G01 X5.4830 Y-7.1669
G01 X5.5034 Y-7.1766
G01 X5.5228 Y-7.1882
G01 X5.5409 Y-7.2016
G01 X5.5576 Y-7.2168
G01 X5.5728 Y-7.2335
G01 X5.5862 Y-7.2516
G01 X5.5978 Y-7.2710
G01 X5.6075 Y-7.2914
G01 X5.6151 Y-7.3126
G01 X5.6206 Y-7.3345
G01 X5.6239 Y-7.3569
G01 X5.6250 Y-7.3794
G00 Z2.0000
G00 X6.8509 Y-9.0780
G01 F70.00
G01 Z-0.0600
G01 F120.00
G01 X6.8279 Y-9.0916
G01 X6.8081 Y-9.0777
G01 X6.8289 Y-9.0789
G01 X6.8509 Y-9.0780
G00 Z2.0000
G00 X6.8236 Y-9.1753
G01 F70.00
G01 Z-0.0600
G01 F120.00
G01 X6.8069 Y-9.1624
G01 X6.7680 Y-9.1350
G01 X6.7249 Y-9.1077
G01 X6.6791 Y-9.0816
G01 X6.6350 Y-9.0594
G01 X6.5868 Y-9.0380
G01 X6.5392 Y-9.0196
G01 X6.4907 Y-9.0036
G01 X6.4432 Y-8.9904
G01 X6.3917 Y-8.9788
G01 X6.3414 Y-8.9701
G01 X6.2907 Y-8.9638
G01 X6.2398 Y-8.9601
G01 X6.1888 Y-8.9588
G01 X6.1378 Y-8.9601
G01 X6.0869 Y-8.9638
G01 X6.0379 Y-8.9698
G01 X5.9859 Y-8.9788
G01 X5.9361 Y-8.9900
G01 X5.8869 Y-9.0036
G01 X5.8384 Y-9.0196
G01 X5.7908 Y-9.0380
G01 X5.7441 Y-9.0587
G01 X5.6985 Y-9.0816
G01 X5.6541 Y-9.1068
G01 X5.6110 Y-9.1341
G01 X5.5693 Y-9.1635
G01 X5.5290 Y-9.1949
G01 X5.4904 Y-9.2282
G01 X5.4534 Y-9.2634
G01 X5.4182 Y-9.3004
G01 X5.3849 Y-9.3390
G01 X5.3545 Y-9.3779
G01 X5.3241 Y-9.4210
G01 X5.2968 Y-9.4641
G01 X5.2716 Y-9.5085
G01 X5.2487 Y-9.5541
G01 X5.2280 Y-9.6008
G01 X5.2096 Y-9.6484
G01 X5.1936 Y-9.6969
G01 X5.1800 Y-9.7461
G01 X5.1688 Y-9.7959
G01 X5.1601 Y-9.8462
G01 X5.1538 Y-9.8969
G01 X5.1501 Y-9.9478
G01 X5.1488 Y-9.9988
G01 X5.1501 Y-10.0498
G01 X5.1538 Y-10.1007
G01 X5.1601 Y-10.1514
G01 X5.1688 Y-10.2017
G01 X5.1800 Y-10.2515
G01 X5.1936 Y-10.3007
G01 X5.2096 Y-10.3492
G01 X5.2280 Y-10.3968
G01 X5.2487 Y-10.4435
G01 X5.2716 Y-10.4891
G01 X5.2968 Y-10.5335
G01 X5.3241 Y-10.5766
G01 X5.3535 Y-10.6183
G01 X5.3849 Y-10.6586
G01 X5.4182 Y-10.6972
G01 X5.4534 Y-10.7342
G01 X5.4904 Y-10.7694
G01 X5.5290 Y-10.8027
G01 X5.5679 Y-10.8331
G01 X5.6139 Y-10.8654
G01 X5.6541 Y-10.8908
G01 X5.6985 Y-10.9160
G01 X5.7473 Y-10.9404
G01 X5.7908 Y-10.9596
G01 X5.8384 Y-10.9780
G01 X5.8869 Y-10.9940
G01 X5.9328 Y-11.0068
G01 X5.9859 Y-11.0188
G01 X6.0396 Y-11.0280
G01 X6.0869 Y-11.0338
G01 X6.1378 Y-11.0375
G01 X6.1922 Y-11.0388
G01 X6.2398 Y-11.0375
G01 X6.2907 Y-11.0338
G01 X6.3414 Y-11.0275
G01 X6.3883 Y-11.0194
G01 X6.4415 Y-11.0076
G01 X6.4907 Y-10.9940
G01 X6.5359 Y-10.9791
G01 X6.5868 Y-10.9596
G01 X6.6335 Y-10.9389
G01 X6.6760 Y-10.9176
G01 X6.7235 Y-10.8908
G01 X6.7694 Y-10.8616
G01 X6.8083 Y-10.8341
G01 X6.8486 Y-10.8027
G01 X6.8872 Y-10.7694
G01 X6.9217 Y-10.7366
G01 X6.9594 Y-10.6972
G01 X6.9927 Y-10.6586
G01 X7.0221 Y-10.6211
G01 X7.0535 Y-10.5766
G01 X7.0826 Y-10.5305
G01 X7.1060 Y-10.4891
G01 X7.1289 Y-10.4435
G01 X7.1496 Y-10.3968
G01 X7.1668 Y-10.3524
G01 X7.1840 Y-10.3007
G01 X7.1984 Y-10.2482
G01 X7.2088 Y-10.2017
G01 X7.2175 Y-10.1514
G01 X7.2238 Y-10.1007
G01 X7.2273 Y-10.0533
G01 X7.2288 Y-9.9988
G01 X7.2273 Y-9.9443
G01 X7.2238 Y-9.8969
G01 X7.2179 Y-9.8486
G01 X11.7925 Y-7.1509
G01 X11.8046 Y-7.1635
G01 X11.8417 Y-7.1986
G01 X11.8790 Y-7.2308
G01 X11.9179 Y-7.2612
G01 X11.9639 Y-7.2935
G01 X12.0041 Y-7.3189
G01 X12.0501 Y-7.3449
G01 X12.0941 Y-7.3670
G01 X12.1408 Y-7.3877
G01 X12.1884 Y-7.4061
G01 X12.2336 Y-7.4211
G01 X12.2894 Y-7.4365
G01 X12.3359 Y-7.4469
G01 X12.3879 Y-7.4559
G01 X12.4369 Y-7.4619
G01 X12.4878 Y-7.4656
G01 X12.5388 Y-7.4669
G01 X12.5864 Y-7.4658
G01 X12.6442 Y-7.4615
G01 X12.6914 Y-7.4556
G01 X12.7417 Y-7.4469
G01 X12.7915 Y-7.4357
G01 X12.8407 Y-7.4221
G01 X12.8892 Y-7.4061
G01 X12.9336 Y-7.3890
G01 X12.9865 Y-7.3655
G01 X13.0291 Y-7.3441
G01 X13.0749 Y-7.3180
G01 X13.1166 Y-7.2916
G01 X13.1583 Y-7.2622
G01 X13.1986 Y-7.2308
G01 X13.2372 Y-7.1975
G01 X13.2742 Y-7.1623
G01 X13.3094 Y-7.1253
G01 X13.3427 Y-7.0867
G01 X13.3721 Y-7.0492
G01 X13.4035 Y-7.0047
G01 X13.4290 Y-6.9645
G01 X13.4576 Y-6.9141
G01 X13.4789 Y-6.8716
G01 X13.4996 Y-6.8249
G01 X13.5180 Y-6.7773
G01 X13.5340 Y-6.7288
G01 X13.5476 Y-6.6796
G01 X13.5588 Y-6.6298
G01 X13.5675 Y-6.5795
G01 X13.5734 Y-6.5323
G01 X13.5775 Y-6.4779
G01 X13.5788 Y-6.4303
G01 X13.5773 Y-6.3724
G01 X13.5738 Y-6.3250
G01 X13.5675 Y-6.2743
G01 X13.5588 Y-6.2240
G01 X13.5476 Y-6.1742
G01 X13.5340 Y-6.1250
G01 X13.5180 Y-6.0765
G01 X13.4996 Y-6.0289
G01 X13.4789 Y-5.9822
G01 X13.4560 Y-5.9366
G01 X13.4308 Y-5.8922
G01 X13.4035 Y-5.8491
G01 X13.3741 Y-5.8074
G01 X13.3427 Y-5.7671
G01 X13.3094 Y-5.7285
G01 X13.2742 Y-5.6915
G01 X13.2372 Y-5.6563
G01 X13.1986 Y-5.6230
G01 X13.1583 Y-5.5916
G01 X13.1166 Y-5.5622
G01 X13.0735 Y-5.5349
G01 X13.0291 Y-5.5097
G01 X12.9835 Y-5.4868
G01 X12.9368 Y-5.4661
G01 X12.8892 Y-5.4477
G01 X12.8407 Y-5.4317
G01 X12.7915 Y-5.4181
G01 X12.7417 Y-5.4069
G01 X12.6914 Y-5.3982
G01 X12.6407 Y-5.3919
G01 X12.5898 Y-5.3882
G01 X12.5388 Y-5.3869
G01 X12.4878 Y-5.3882
G01 X12.4369 Y-5.3919
G01 X12.3862 Y-5.3982
G01 X12.3359 Y-5.4069
G01 X12.2861 Y-5.4181
G01 X12.2369 Y-5.4317
G01 X12.1884 Y-5.4477
G01 X12.1408 Y-5.4661
G01 X12.0941 Y-5.4868
G01 X12.0485 Y-5.5097
G01 X12.0071 Y-5.5331
G01 X11.9610 Y-5.5622
G01 X11.9165 Y-5.5936
G01 X11.8790 Y-5.6230
G01 X11.8430 Y-5.6540
G01 X11.8034 Y-5.6915
G01 X11.7659 Y-5.7311
G01 X11.7349 Y-5.7671
G01 X11.7055 Y-5.8046
G01 X11.6722 Y-5.8520
G01 X11.6468 Y-5.8922
G01 X11.6233 Y-5.9336
G01 X11.5987 Y-5.9822
G01 X11.5780 Y-6.0289
G01 X11.5608 Y-6.0733
G01 X11.5436 Y-6.1250
G01 X11.5300 Y-6.1742
G01 X11.5195 Y-6.2206
G01 X11.5101 Y-6.2743
G01 X11.5035 Y-6.3284
G01 X11.5001 Y-6.3759
G01 X11.4990 Y-6.4181
G01 X6.8236 Y-9.1753
G00 Z2.0000
G00 X6.8173 Y-9.2603
G01 F70.00
G01 Z-0.0600
G01 F120.00
G01 X6.8035 Y-9.2484
G01 X6.7673 Y-9.2202
G01 X6.7284 Y-9.1928
G01 X6.6875 Y-9.1668
G01 X6.6468 Y-9.1437
G01 X6.6035 Y-9.1219
G01 X6.5600 Y-9.1026
G01 X6.5156 Y-9.0855
G01 X6.4712 Y-9.0708
G01 X6.4245 Y-9.0579
G01 X6.3780 Y-9.0474
G01 X6.3311 Y-9.0393
G01 X6.2839 Y-9.0335
G01 X6.2364 Y-9.0300
G01 X6.1888 Y-9.0288
G01 X6.1412 Y-9.0300
G01 X6.0946 Y-9.0334
G01 X6.0465 Y-9.0393
G01 X5.9996 Y-9.0474
G01 X5.9531 Y-9.0579
G01 X5.9072 Y-9.0706
G01 X5.8620 Y-9.0855
G01 X5.8176 Y-9.1026
G01 X5.7741 Y-9.1219
G01 X5.7315 Y-9.1433
G01 X5.6901 Y-9.1668
G01 X5.6499 Y-9.1923
G01 X5.6110 Y-9.2197
G01 X5.5734 Y-9.2490
G01 X5.5374 Y-9.2801
G01 X5.5029 Y-9.3129
G01 X5.4701 Y-9.3474
G01 X5.4395 Y-9.3828
G01 X5.4097 Y-9.4210
G01 X5.3823 Y-9.4599
G01 X5.3568 Y-9.5001
G01 X5.3333 Y-9.5415
G01 X5.3119 Y-9.5841
G01 X5.2926 Y-9.6276
G01 X5.2755 Y-9.6720
G01 X5.2606 Y-9.7172
G01 X5.2479 Y-9.7631
G01 X5.2374 Y-9.8096
G01 X5.2293 Y-9.8565
G01 X5.2235 Y-9.9037
G01 X5.2200 Y-9.9512
G01 X5.2188 Y-9.9988
G01 X5.2200 Y-10.0464
G01 X5.2235 Y-10.0939
G01 X5.2293 Y-10.1411
G01 X5.2374 Y-10.1880
G01 X5.2479 Y-10.2345
G01 X5.2606 Y-10.2804
G01 X5.2755 Y-10.3256
G01 X5.2926 Y-10.3700
G01 X5.3119 Y-10.4135
G01 X5.3333 Y-10.4561
G01 X5.3568 Y-10.4975
G01 X5.3823 Y-10.5377
G01 X5.4097 Y-10.5766
G01 X5.4390 Y-10.6142
G01 X5.4701 Y-10.6502
G01 X5.5029 Y-10.6847
G01 X5.5374 Y-10.7175
G01 X5.5728 Y-10.7481
G01 X5.6124 Y-10.7789
G01 X5.6499 Y-10.8053
G01 X5.6901 Y-10.8308
G01 X5.7315 Y-10.8543
G01 X5.7725 Y-10.8749
G01 X5.8176 Y-10.8950
G01 X5.8636 Y-10.9127
G01 X5.9072 Y-10.9270
G01 X5.9531 Y-10.9397
G01 X5.9996 Y-10.9502
G01 X6.0448 Y-10.9580
G01 X6.0954 Y-10.9643
G01 X6.1412 Y-10.9676
G01 X6.1871 Y-10.9688
G01 X6.2381 Y-10.9675
G01 X6.2839 Y-10.9641
G01 X6.3311 Y-10.9583
G01 X6.3780 Y-10.9502
G01 X6.4228 Y-10.9401
G01 X6.4720 Y-10.9265
G01 X6.5156 Y-10.9121
G01 X6.5600 Y-10.8950
G01 X6.6035 Y-10.8757
G01 X6.6445 Y-10.8551
G01 X6.6875 Y-10.8308
G01 X6.7291 Y-10.8044
G01 X6.7666 Y-10.7779
G01 X6.8042 Y-10.7486
G01 X6.8402 Y-10.7175
G01 X6.8735 Y-10.6859
G01 X6.9075 Y-10.6502
G01 X6.9397 Y-10.6128
G01 X6.9679 Y-10.5766
G01 X6.9953 Y-10.5377
G01 X7.0208 Y-10.4975
G01 X7.0434 Y-10.4576
G01 X7.0664 Y-10.4120
G01 X7.0850 Y-10.3700
G01 X7.1015 Y-10.3272
G01 X7.1170 Y-10.2804
G01 X7.1297 Y-10.2345
G01 X7.1398 Y-10.1897
G01 X7.1485 Y-10.1394
G01 X7.1541 Y-10.0939
G01 X7.1575 Y-10.0481
G01 X7.1588 Y-9.9971
G01 X7.1576 Y-9.9512
G01 X7.1541 Y-9.9037
G01 X7.1483 Y-9.8565
G01 X7.1408 Y-9.8129
G01 X11.8058 Y-7.0618
G01 X11.8207 Y-7.0789
G01 X11.8535 Y-7.1134
G01 X11.8874 Y-7.1456
G01 X11.9241 Y-7.1773
G01 X11.9610 Y-7.2060
G01 X11.9999 Y-7.2334
G01 X12.0401 Y-7.2589
G01 X12.0808 Y-7.2820
G01 X12.1241 Y-7.3038
G01 X12.1660 Y-7.3224
G01 X12.2136 Y-7.3408
G01 X12.2572 Y-7.3551
G01 X12.3031 Y-7.3678
G01 X12.3496 Y-7.3783
G01 X12.3956 Y-7.3863
G01 X12.4437 Y-7.3922
G01 X12.4895 Y-7.3956
G01 X12.5405 Y-7.3969
G01 X12.5864 Y-7.3957
G01 X12.6339 Y-7.3922
G01 X12.6811 Y-7.3864
G01 X12.7280 Y-7.3783
G01 X12.7745 Y-7.3678
G01 X12.8204 Y-7.3551
G01 X12.8656 Y-7.3402
G01 X12.9084 Y-7.3237
G01 X12.9551 Y-7.3030
G01 X12.9961 Y-7.2824
G01 X13.0375 Y-7.2589
G01 X13.0777 Y-7.2334
G01 X13.1166 Y-7.2060
G01 X13.1542 Y-7.1767
G01 X13.1902 Y-7.1456
G01 X13.2247 Y-7.1128
G01 X13.2575 Y-7.0783
G01 X13.2886 Y-7.0423
G01 X13.3169 Y-7.0061
G01 X13.3463 Y-6.9644
G01 X13.3708 Y-6.9256
G01 X13.3951 Y-6.8826
G01 X13.4157 Y-6.8416
G01 X13.4350 Y-6.7981
G01 X13.4521 Y-6.7537
G01 X13.4670 Y-6.7085
G01 X13.4797 Y-6.6626
G01 X13.4902 Y-6.6161
G01 X13.4983 Y-6.5692
G01 X13.5041 Y-6.5220
G01 X13.5076 Y-6.4745
G01 X13.5088 Y-6.4269
G01 X13.5076 Y-6.3793
G01 X13.5043 Y-6.3335
G01 X13.4983 Y-6.2846
G01 X13.4905 Y-6.2394
G01 X13.4793 Y-6.1895
G01 X13.4670 Y-6.1453
G01 X13.4521 Y-6.1001
G01 X13.4350 Y-6.0557
G01 X13.4153 Y-6.0114
G01 X13.3943 Y-5.9696
G01 X13.3708 Y-5.9282
G01 X13.3453 Y-5.8880
G01 X13.3179 Y-5.8491
G01 X13.2886 Y-5.8115
G01 X13.2575 Y-5.7755
G01 X13.2247 Y-5.7410
G01 X13.1902 Y-5.7082
G01 X13.1542 Y-5.6771
G01 X13.1166 Y-5.6478
G01 X13.0777 Y-5.6204
G01 X13.0375 Y-5.5949
G01 X12.9961 Y-5.5714
G01 X12.9535 Y-5.5500
G01 X12.9100 Y-5.5307
G01 X12.8656 Y-5.5136
G01 X12.8204 Y-5.4987
G01 X12.7745 Y-5.4860
G01 X12.7280 Y-5.4755
G01 X12.6811 Y-5.4674
G01 X12.6339 Y-5.4616
G01 X12.5864 Y-5.4581
G01 X12.5388 Y-5.4569
G01 X12.4912 Y-5.4581
G01 X12.4437 Y-5.4616
G01 X12.3965 Y-5.4674
G01 X12.3496 Y-5.4755
G01 X12.3031 Y-5.4860
G01 X12.2572 Y-5.4987
G01 X12.2120 Y-5.5136
G01 X12.1676 Y-5.5307
G01 X12.1233 Y-5.5504
G01 X12.0815 Y-5.5714
G01 X12.0416 Y-5.5940
G01 X11.9999 Y-5.6204
G01 X11.9596 Y-5.6488
G01 X11.9234 Y-5.6771
G01 X11.8874 Y-5.7082
G01 X11.8517 Y-5.7422
G01 X11.8201 Y-5.7755
G01 X11.7890 Y-5.8115
G01 X11.7587 Y-5.8505
G01 X11.7323 Y-5.8880
G01 X11.7072 Y-5.9275
G01 X11.6825 Y-5.9712
G01 X11.6619 Y-6.0122
G01 X11.6426 Y-6.0557
G01 X11.6249 Y-6.1017
G01 X11.6106 Y-6.1453
G01 X11.5981 Y-6.1904
G01 X11.5871 Y-6.2394
G01 X11.5793 Y-6.2846
G01 X11.5736 Y-6.3310
G01 X11.5699 Y-6.3802
G01 X11.5688 Y-6.4269
G01 X11.5695 Y-6.4578
G01 X6.8173 Y-9.2603
G00 Z2.0000
G00 X7.2950 Y-9.9098
G01 F70.00
G01 Z-0.0600
G01 F120.00
G01 X7.2930 Y-9.8856
G01 X7.3153 Y-9.8724
G01 X7.3044 Y-9.8903
G01 X7.2950 Y-9.9098
G00 Z2.0000
G00 X7.3488 Y-9.9988
G01 F70.00
G01 Z-0.0600
G01 F120.00
G01 X7.3474 Y-10.0557
G01 X7.3432 Y-10.1125
G01 X7.3362 Y-10.1690
G01 X7.3265 Y-10.2251
G01 X7.3140 Y-10.2806
G01 X7.2988 Y-10.3355
G01 X7.2810 Y-10.3896
G01 X7.2605 Y-10.4427
G01 X7.2374 Y-10.4947
G01 X7.2118 Y-10.5456
G01 X7.1837 Y-10.5951
G01 X7.1533 Y-10.6432
G01 X7.1205 Y-10.6898
G01 X7.0855 Y-10.7347
G01 X7.0483 Y-10.7778
G01 X7.0090 Y-10.8190
G01 X6.9678 Y-10.8583
G01 X6.9247 Y-10.8955
G01 X6.8798 Y-10.9305
G01 X6.8332 Y-10.9633
G01 X6.7851 Y-10.9937
G01 X6.7356 Y-11.0218
G01 X6.6847 Y-11.0474
G01 X6.6327 Y-11.0705
G01 X6.5796 Y-11.0910
G01 X6.5255 Y-11.1088
G01 X6.4706 Y-11.1240
G01 X6.4151 Y-11.1365
G01 X6.3590 Y-11.1462
G01 X6.3025 Y-11.1532
G01 X6.2457 Y-11.1574
G01 X6.1888 Y-11.1588
G01 X6.1319 Y-11.1574
G01 X6.0751 Y-11.1532
G01 X6.0186 Y-11.1462
G01 X5.9625 Y-11.1365
G01 X5.9070 Y-11.1240
G01 X5.8521 Y-11.1088
G01 X5.7980 Y-11.0910
G01 X5.7449 Y-11.0705
G01 X5.6929 Y-11.0474
G01 X5.6420 Y-11.0218
G01 X5.5925 Y-10.9937
G01 X5.5444 Y-10.9633
G01 X5.4978 Y-10.9305
G01 X5.4529 Y-10.8955
G01 X5.4098 Y-10.8583
G01 X5.3686 Y-10.8190
G01 X5.3293 Y-10.7778
G01 X5.2921 Y-10.7347
G01 X5.2571 Y-10.6898
G01 X5.2243 Y-10.6432
G01 X5.1939 Y-10.5951
G01 X5.1658 Y-10.5456
G01 X5.1402 Y-10.4947
G01 X5.1171 Y-10.4427
G01 X5.0966 Y-10.3896
G01 X5.0788 Y-10.3355
G01 X5.0636 Y-10.2806
G01 X5.0511 Y-10.2251
G01 X5.0414 Y-10.1690
G01 X5.0344 Y-10.1125
G01 X5.0302 Y-10.0557
G01 X5.0288 Y-9.9988
G01 X5.0302 Y-9.9419
G01 X5.0344 Y-9.8851
G01 X5.0414 Y-9.8286
G01 X5.0511 Y-9.7725
G01 X5.0636 Y-9.7170
G01 X5.0788 Y-9.6621
G01 X5.0966 Y-9.6080
G01 X5.1171 Y-9.5549
G01 X5.1402 Y-9.5029
G01 X5.1658 Y-9.4520
G01 X5.1939 Y-9.4025
G01 X5.2243 Y-9.3544
G01 X5.2571 Y-9.3078
G01 X5.2921 Y-9.2629
G01 X5.3293 Y-9.2198
G01 X5.3686 Y-9.1786
G01 X5.4098 Y-9.1393
G01 X5.4529 Y-9.1021
G01 X5.4978 Y-9.0671
G01 X5.5444 Y-9.0343
G01 X5.5925 Y-9.0039
G01 X5.6420 Y-8.9758
G01 X5.6929 Y-8.9502
G01 X5.7449 Y-8.9271
G01 X5.7980 Y-8.9066
G01 X5.8521 Y-8.8888
G01 X5.9070 Y-8.8736
G01 X5.9625 Y-8.8611
G01 X6.0186 Y-8.8514
G01 X6.0751 Y-8.8444
G01 X6.1319 Y-8.8402
G01 X6.1888 Y-8.8388
G01 X6.2457 Y-8.8402
G01 X6.3025 Y-8.8444
G01 X6.3590 Y-8.8514
G01 X6.4151 Y-8.8611
G01 X6.4706 Y-8.8736
G01 X6.5255 Y-8.8888
G01 X6.5796 Y-8.9066
G01 X6.6327 Y-8.9271
G01 X6.6847 Y-8.9502
G01 X6.7356 Y-8.9758
G01 X6.7696 Y-8.9948
G01 X6.7823 Y-9.0002
G01 X6.7938 Y-9.0039
G01 X6.8073 Y-9.0069
G01 X6.8210 Y-9.0086
G01 X6.8330 Y-9.0089
G01 X6.8468 Y-9.0080
G01 X6.8604 Y-9.0058
G01 X6.8738 Y-9.0022
G01 X6.8867 Y-8.9973
G01 X6.8991 Y-8.9912
G01 X11.3207 Y-6.3837
G01 X11.3307 Y-6.3772
G01 X11.3477 Y-6.3630
G01 X11.3622 Y-6.3462
G01 X11.3739 Y-6.3274
G01 X11.3820 Y-6.3085
G01 X11.3875 Y-6.2870
G01 X11.3914 Y-6.2567
G01 X11.4011 Y-6.2006
G01 X11.4136 Y-6.1451
G01 X11.4288 Y-6.0902
G01 X11.4466 Y-6.0361
G01 X11.4671 Y-5.9830
G01 X11.4902 Y-5.9310
G01 X11.5158 Y-5.8801
G01 X11.5439 Y-5.8306
G01 X11.5743 Y-5.7825
G01 X11.6071 Y-5.7359
G01 X11.6421 Y-5.6910
G01 X11.6793 Y-5.6479
G01 X11.7186 Y-5.6067
G01 X11.7598 Y-5.5674
G01 X11.8029 Y-5.5302
G01 X11.8478 Y-5.4952
G01 X11.8944 Y-5.4624
G01 X11.9425 Y-5.4320
G01 X11.9920 Y-5.4039
G01 X12.0429 Y-5.3783
G01 X12.0949 Y-5.3552
G01 X12.1480 Y-5.3347
G01 X12.2021 Y-5.3169
G01 X12.2570 Y-5.3017
G01 X12.3125 Y-5.2892
G01 X12.3686 Y-5.2795
G01 X12.4251 Y-5.2725
G01 X12.4819 Y-5.2683
G01 X12.5388 Y-5.2669
G01 X12.5957 Y-5.2683
G01 X12.6525 Y-5.2725
G01 X12.7090 Y-5.2795
G01 X12.7651 Y-5.2892
G01 X12.8206 Y-5.3017
G01 X12.8755 Y-5.3169
G01 X12.9296 Y-5.3347
G01 X12.9827 Y-5.3552
G01 X13.0347 Y-5.3783
G01 X13.0856 Y-5.4039
G01 X13.1351 Y-5.4320
G01 X13.1832 Y-5.4624
G01 X13.2298 Y-5.4952
G01 X13.2747 Y-5.5302
G01 X13.3178 Y-5.5674
G01 X13.3590 Y-5.6067
G01 X13.3983 Y-5.6479
G01 X13.4355 Y-5.6910
G01 X13.4705 Y-5.7359
G01 X13.5033 Y-5.7825
G01 X13.5337 Y-5.8306
G01 X13.5618 Y-5.8801
G01 X13.5874 Y-5.9310
G01 X13.6105 Y-5.9830
G01 X13.6310 Y-6.0361
G01 X13.6488 Y-6.0902
G01 X13.6640 Y-6.1451
G01 X13.6765 Y-6.2006
G01 X13.6862 Y-6.2567
G01 X13.6932 Y-6.3132
G01 X13.6974 Y-6.3700
G01 X13.6988 Y-6.4269
G01 X13.6974 Y-6.4838
G01 X13.6932 Y-6.5406
G01 X13.6862 Y-6.5971
G01 X13.6765 Y-6.6532
G01 X13.6640 Y-6.7087
G01 X13.6488 Y-6.7636
G01 X13.6310 Y-6.8177
G01 X13.6105 Y-6.8708
G01 X13.5874 Y-6.9228
G01 X13.5618 Y-6.9737
G01 X13.5337 Y-7.0232
G01 X13.5033 Y-7.0713
G01 X13.4705 Y-7.1179
G01 X13.4355 Y-7.1628
G01 X13.3983 Y-7.2059
G01 X13.3590 Y-7.2471
G01 X13.3178 Y-7.2864
G01 X13.2747 Y-7.3236
G01 X13.2298 Y-7.3586
G01 X13.1832 Y-7.3914
G01 X13.1351 Y-7.4218
G01 X13.0856 Y-7.4499
G01 X13.0347 Y-7.4755
G01 X12.9827 Y-7.4986
G01 X12.9296 Y-7.5191
G01 X12.8755 Y-7.5369
G01 X12.8206 Y-7.5521
G01 X12.7651 Y-7.5646
G01 X12.7090 Y-7.5743
G01 X12.6525 Y-7.5813
G01 X12.5957 Y-7.5855
G01 X12.5388 Y-7.5869
G01 X12.4819 Y-7.5855
G01 X12.4251 Y-7.5813
G01 X12.3686 Y-7.5743
G01 X12.3125 Y-7.5646
G01 X12.2570 Y-7.5521
G01 X12.2021 Y-7.5369
G01 X12.1480 Y-7.5191
G01 X12.0949 Y-7.4986
G01 X12.0429 Y-7.4755
G01 X11.9920 Y-7.4499
G01 X11.9425 Y-7.4218
G01 X11.8944 Y-7.3914
G01 X11.8396 Y-7.3528
G01 X11.8276 Y-7.3459
G01 X11.8151 Y-7.3401
G01 X11.8020 Y-7.3357
G01 X11.7886 Y-7.3325
G01 X11.7749 Y-7.3307
G01 X11.7611 Y-7.3302
G01 X11.7474 Y-7.3311
G01 X11.7321 Y-7.3337
G01 X11.7188 Y-7.3374
G01 X11.7059 Y-7.3425
G01 X11.6921 Y-7.3496
G01 X7.4160 Y-9.8714
G01 X7.4006 Y-9.8822
G01 X7.3869 Y-9.8949
G01 X7.3749 Y-9.9094
G01 X7.3650 Y-9.9254
G01 X7.3573 Y-9.9425
G01 X7.3520 Y-9.9606
G01 X7.3491 Y-9.9791
G01 X7.3488 Y-9.9988
G00 Z2.0000
G00 X7.4188 Y-9.9988
G01 F70.00
G01 Z-0.0600
G01 F120.00
G01 X7.4173 Y-10.0592
G01 X7.4129 Y-10.1194
G01 X7.4055 Y-10.1793
G01 X7.3951 Y-10.2388
G01 X7.3819 Y-10.2977
G01 X7.3658 Y-10.3558
G01 X7.3469 Y-10.4132
G01 X7.3252 Y-10.4695
G01 X7.3007 Y-10.5247
G01 X7.2735 Y-10.5786
G01 X7.2438 Y-10.6311
G01 X7.2115 Y-10.6821
G01 X7.1767 Y-10.7315
G01 X7.1396 Y-10.7791
G01 X7.1002 Y-10.8248
G01 X7.0585 Y-10.8685
G01 X7.0148 Y-10.9102
G01 X6.9691 Y-10.9496
G01 X6.9215 Y-10.9867
G01 X6.8721 Y-11.0215
G01 X6.8211 Y-11.0538
G01 X6.7686 Y-11.0835
G01 X6.7147 Y-11.1107
G01 X6.6595 Y-11.1352
G01 X6.6032 Y-11.1569
G01 X6.5458 Y-11.1758
G01 X6.4877 Y-11.1919
G01 X6.4288 Y-11.2051
G01 X6.3693 Y-11.2155
G01 X6.3094 Y-11.2229
G01 X6.2492 Y-11.2273
G01 X6.1888 Y-11.2288
G01 X6.1284 Y-11.2273
G01 X6.0682 Y-11.2229
G01 X6.0083 Y-11.2155
G01 X5.9488 Y-11.2051
G01 X5.8899 Y-11.1919
G01 X5.8318 Y-11.1758
G01 X5.7744 Y-11.1569
G01 X5.7181 Y-11.1352
G01 X5.6629 Y-11.1107
G01 X5.6090 Y-11.0835
G01 X5.5565 Y-11.0538
G01 X5.5055 Y-11.0215
G01 X5.4561 Y-10.9867
G01 X5.4085 Y-10.9496
G01 X5.3628 Y-10.9102
G01 X5.3191 Y-10.8685
G01 X5.2774 Y-10.8248
G01 X5.2380 Y-10.7791
G01 X5.2009 Y-10.7315
G01 X5.1661 Y-10.6821
G01 X5.1338 Y-10.6311
G01 X5.1041 Y-10.5786
G01 X5.0769 Y-10.5247
G01 X5.0524 Y-10.4695
G01 X5.0307 Y-10.4132
G01 X5.0118 Y-10.3558
G01 X4.9957 Y-10.2977
G01 X4.9825 Y-10.2388
G01 X4.9721 Y-10.1793
G01 X4.9647 Y-10.1194
G01 X4.9603 Y-10.0592
G01 X4.9588 Y-9.9988
G01 X4.9603 Y-9.9384
G01 X4.9647 Y-9.8782
G01 X4.9721 Y-9.8183
G01 X4.9825 Y-9.7588
G01 X4.9957 Y-9.6999
G01 X5.0118 Y-9.6418
G01 X5.0307 Y-9.5844
G01 X5.0524 Y-9.5281
G01 X5.0769 Y-9.4729
G01 X5.1041 Y-9.4190
G01 X5.1338 Y-9.3665
G01 X5.1661 Y-9.3155
G01 X5.2009 Y-9.2661
G01 X5.2380 Y-9.2185
G01 X5.2774 Y-9.1728
G01 X5.3191 Y-9.1291
G01 X5.3628 Y-9.0874
G01 X5.4085 Y-9.0480
G01 X5.4561 Y-9.0109
G01 X5.5055 Y-8.9761
G01 X5.5565 Y-8.9438
G01 X5.6090 Y-8.9141
G01 X5.6629 Y-8.8869
G01 X5.7181 Y-8.8624
G01 X5.7744 Y-8.8407
G01 X5.8318 Y-8.8218
G01 X5.8899 Y-8.8057
G01 X5.9488 Y-8.7925
G01 X6.0083 Y-8.7821
G01 X6.0682 Y-8.7747
G01 X6.1284 Y-8.7703
G01 X6.1888 Y-8.7688
G01 X6.2492 Y-8.7703
G01 X6.3094 Y-8.7747
G01 X6.3693 Y-8.7821
G01 X6.4288 Y-8.7925
G01 X6.4877 Y-8.8057
G01 X6.5458 Y-8.8218
G01 X6.6032 Y-8.8407
G01 X6.6595 Y-8.8624
G01 X6.7147 Y-8.8869
G01 X6.7686 Y-8.9141
G01 X6.7987 Y-8.9311
G01 X6.8099 Y-8.9357
G01 X6.8234 Y-8.9385
G01 X6.8380 Y-8.9386
G01 X6.8524 Y-8.9356
G01 X6.8650 Y-8.9301
G01 X11.2901 Y-6.3202
G01 X11.2986 Y-6.3131
G01 X11.3064 Y-6.3040
G01 X11.3125 Y-6.2937
G01 X11.3165 Y-6.2834
G01 X11.3187 Y-6.2743
G01 X11.3221 Y-6.2464
G01 X11.3325 Y-6.1869
G01 X11.3457 Y-6.1280
G01 X11.3618 Y-6.0699
G01 X11.3807 Y-6.0125
G01 X11.4024 Y-5.9562
G01 X11.4269 Y-5.9010
G01 X11.4541 Y-5.8471
G01 X11.4838 Y-5.7946
G01 X11.5161 Y-5.7436
G01 X11.5509 Y-5.6942
G01 X11.5880 Y-5.6466
G01 X11.6274 Y-5.6009
G01 X11.6691 Y-5.5572
G01 X11.7128 Y-5.5155
G01 X11.7585 Y-5.4761
G01 X11.8061 Y-5.4390
G01 X11.8555 Y-5.4042
G01 X11.9065 Y-5.3719
G01 X11.9590 Y-5.3422
G01 X12.0129 Y-5.3150
G01 X12.0681 Y-5.2905
G01 X12.1244 Y-5.2688
G01 X12.1818 Y-5.2499
G01 X12.2399 Y-5.2338
G01 X12.2988 Y-5.2206
G01 X12.3583 Y-5.2102
G01 X12.4182 Y-5.2028
G01 X12.4784 Y-5.1984
G01 X12.5388 Y-5.1969
G01 X12.5992 Y-5.1984
G01 X12.6594 Y-5.2028
G01 X12.7193 Y-5.2102
G01 X12.7788 Y-5.2206
G01 X12.8377 Y-5.2338
G01 X12.8958 Y-5.2499
G01 X12.9532 Y-5.2688
G01 X13.0095 Y-5.2905
G01 X13.0647 Y-5.3150
G01 X13.1186 Y-5.3422
G01 X13.1711 Y-5.3719
G01 X13.2221 Y-5.4042
G01 X13.2715 Y-5.4390
G01 X13.3191 Y-5.4761
G01 X13.3648 Y-5.5155
G01 X13.4085 Y-5.5572
G01 X13.4502 Y-5.6009
G01 X13.4896 Y-5.6466
G01 X13.5267 Y-5.6942
G01 X13.5615 Y-5.7436
G01 X13.5938 Y-5.7946
G01 X13.6235 Y-5.8471
G01 X13.6507 Y-5.9010
G01 X13.6752 Y-5.9562
G01 X13.6969 Y-6.0125
G01 X13.7158 Y-6.0699
G01 X13.7319 Y-6.1280
G01 X13.7451 Y-6.1869
G01 X13.7555 Y-6.2464
G01 X13.7629 Y-6.3063
G01 X13.7673 Y-6.3665
G01 X13.7688 Y-6.4269
G01 X13.7673 Y-6.4873
G01 X13.7629 Y-6.5475
G01 X13.7555 Y-6.6074
G01 X13.7451 Y-6.6669
G01 X13.7319 Y-6.7258
G01 X13.7158 Y-6.7839
G01 X13.6969 Y-6.8413
G01 X13.6752 Y-6.8976
G01 X13.6507 Y-6.9528
G01 X13.6235 Y-7.0067
G01 X13.5938 Y-7.0592
G01 X13.5615 Y-7.1102
G01 X13.5267 Y-7.1596
G01 X13.4896 Y-7.2072
G01 X13.4502 Y-7.2529
G01 X13.4085 Y-7.2966
G01 X13.3648 Y-7.3383
G01 X13.3191 Y-7.3777
G01 X13.2715 Y-7.4148
G01 X13.2221 Y-7.4496
G01 X13.1711 Y-7.4819
G01 X13.1186 Y-7.5116
G01 X13.0647 Y-7.5388
G01 X13.0095 Y-7.5633
G01 X12.9532 Y-7.5850
G01 X12.8958 Y-7.6039
G01 X12.8377 Y-7.6200
G01 X12.7788 Y-7.6332
G01 X12.7193 Y-7.6436
G01 X12.6594 Y-7.6510
G01 X12.5992 Y-7.6554
G01 X12.5388 Y-7.6569
G01 X12.4784 Y-7.6554
G01 X12.4182 Y-7.6510
G01 X12.3583 Y-7.6436
G01 X12.2988 Y-7.6332
G01 X12.2399 Y-7.6200
G01 X12.1818 Y-7.6039
G01 X12.1244 Y-7.5850
G01 X12.0681 Y-7.5633
G01 X12.0129 Y-7.5388
G01 X11.9590 Y-7.5116
G01 X11.9065 Y-7.4819
G01 X11.8555 Y-7.4496
G01 X11.8028 Y-7.4124
G01 X11.7923 Y-7.4065
G01 X11.7785 Y-7.4019
G01 X11.7639 Y-7.4002
G01 X11.7493 Y-7.4016
G01 X11.7354 Y-7.4060
G01 X11.7277 Y-7.4099
G01 X7.4523 Y-9.9312
G01 X7.4440 Y-9.9372
G01 X7.4371 Y-9.9436
G01 X7.4313 Y-9.9509
G01 X7.4260 Y-9.9597
G01 X7.4224 Y-9.9684
G01 X7.4198 Y-9.9783
G01 X7.4187 Y-9.9877
G01 X7.4188 Y-9.9988
G00 Z2.0000
G00 X6.4188 Y-9.9988
G01 F70.00
G01 Z-0.0600
G01 F120.00
G01 X6.4177 Y-10.0213
G01 X6.4144 Y-10.0437
G01 X6.4089 Y-10.0656
G01 X6.4013 Y-10.0868
G01 X6.3916 Y-10.1072
G01 X6.3800 Y-10.1266
G01 X6.3666 Y-10.1447
G01 X6.3514 Y-10.1614
G01 X6.3347 Y-10.1766
G01 X6.3166 Y-10.1900
G01 X6.2972 Y-10.2016
G01 X6.2768 Y-10.2113
G01 X6.2556 Y-10.2189
G01 X6.2337 Y-10.2244
G01 X6.2113 Y-10.2277
G01 X6.1888 Y-10.2288
G01 X6.1663 Y-10.2277
G01 X6.1439 Y-10.2244
G01 X6.1220 Y-10.2189
G01 X6.1008 Y-10.2113
G01 X6.0804 Y-10.2016
G01 X6.0610 Y-10.1900
G01 X6.0429 Y-10.1766
G01 X6.0262 Y-10.1614
G01 X6.0110 Y-10.1447
G01 X5.9976 Y-10.1266
G01 X5.9860 Y-10.1072
G01 X5.9763 Y-10.0868
G01 X5.9687 Y-10.0656
G01 X5.9632 Y-10.0437
G01 X5.9599 Y-10.0213
G01 X5.9588 Y-9.9988
G01 X5.9599 Y-9.9763
G01 X5.9632 Y-9.9539
G01 X5.9687 Y-9.9320
G01 X5.9763 Y-9.9108
G01 X5.9860 Y-9.8904
G01 X5.9976 Y-9.8710
G01 X6.0110 Y-9.8529
G01 X6.0262 Y-9.8362
G01 X6.0429 Y-9.8210
G01 X6.0610 Y-9.8076
G01 X6.0804 Y-9.7960
G01 X6.1008 Y-9.7863
G01 X6.1220 Y-9.7787
G01 X6.1439 Y-9.7732
G01 X6.1663 Y-9.7699
G01 X6.1888 Y-9.7688
G01 X6.2113 Y-9.7699
G01 X6.2337 Y-9.7732
G01 X6.2556 Y-9.7787
G01 X6.2768 Y-9.7863
G01 X6.2972 Y-9.7960
G01 X6.3166 Y-9.8076
G01 X6.3347 Y-9.8210
G01 X6.3514 Y-9.8362
G01 X6.3666 Y-9.8529
G01 X6.3800 Y-9.8710
G01 X6.3916 Y-9.8904
G01 X6.4013 Y-9.9108
G01 X6.4089 Y-9.9320
G01 X6.4144 Y-9.9539
G01 X6.4177 Y-9.9763
G01 X6.4188 Y-9.9988
G00 Z2.0000
G00 X6.3488 Y-9.9988
G01 F70.00
G01 Z-0.0600
G01 F120.00
G01 X6.3480 Y-10.0145
G01 X6.3457 Y-10.0300
G01 X6.3419 Y-10.0452
G01 X6.3366 Y-10.0600
G01 X6.3299 Y-10.0742
G01 X6.3218 Y-10.0877
G01 X6.3124 Y-10.1003
G01 X6.3019 Y-10.1119
G01 X6.2903 Y-10.1224
G01 X6.2777 Y-10.1318
G01 X6.2642 Y-10.1399
G01 X6.2500 Y-10.1466
G01 X6.2352 Y-10.1519
G01 X6.2200 Y-10.1557
G01 X6.2045 Y-10.1580
G01 X6.1888 Y-10.1588
G01 X6.1731 Y-10.1580
G01 X6.1576 Y-10.1557
G01 X6.1424 Y-10.1519
G01 X6.1276 Y-10.1466
G01 X6.1134 Y-10.1399
G01 X6.0999 Y-10.1318
G01 X6.0873 Y-10.1224
G01 X6.0757 Y-10.1119
G01 X6.0652 Y-10.1003
G01 X6.0558 Y-10.0877
G01 X6.0477 Y-10.0742
G01 X6.0410 Y-10.0600
G01 X6.0357 Y-10.0452
G01 X6.0319 Y-10.0300
G01 X6.0296 Y-10.0145
G01 X6.0288 Y-9.9988
G01 X6.0296 Y-9.9831
G01 X6.0319 Y-9.9676
G01 X6.0357 Y-9.9524
G01 X6.0410 Y-9.9376
G01 X6.0477 Y-9.9234
G01 X6.0558 Y-9.9099
G01 X6.0652 Y-9.8973
G01 X6.0757 Y-9.8857
G01 X6.0873 Y-9.8752
G01 X6.0999 Y-9.8658
G01 X6.1134 Y-9.8577
G01 X6.1276 Y-9.8510
G01 X6.1424 Y-9.8457
G01 X6.1576 Y-9.8419
G01 X6.1731 Y-9.8396
G01 X6.1888 Y-9.8388
G01 X6.2045 Y-9.8396
G01 X6.2200 Y-9.8419
G01 X6.2352 Y-9.8457
G01 X6.2500 Y-9.8510
G01 X6.2642 Y-9.8577
G01 X6.2777 Y-9.8658
G01 X6.2903 Y-9.8752
G01 X6.3019 Y-9.8857
G01 X6.3124 Y-9.8973
G01 X6.3218 Y-9.9099
G01 X6.3299 Y-9.9234
G01 X6.3366 Y-9.9376
G01 X6.3419 Y-9.9524
G01 X6.3457 Y-9.9676
G01 X6.3480 Y-9.9831
G01 X6.3488 Y-9.9988
G00 Z2.0000
G00 X6.2787 Y-9.9988
G01 F70.00
G01 Z-0.0600
G01 F120.00
G01 X6.2770 Y-10.0163
G01 X6.2719 Y-10.0332
G01 X6.2636 Y-10.0488
G01 X6.2524 Y-10.0624
G01 X6.2388 Y-10.0736
G01 X6.2232 Y-10.0819
G01 X6.2063 Y-10.0870
G01 X6.1888 Y-10.0887
G01 X6.1713 Y-10.0870
G01 X6.1544 Y-10.0819
G01 X6.1388 Y-10.0736
G01 X6.1252 Y-10.0624
G01 X6.1140 Y-10.0488
G01 X6.1057 Y-10.0332
G01 X6.1006 Y-10.0163
G01 X6.0989 Y-9.9988
G01 X6.1006 Y-9.9813
G01 X6.1057 Y-9.9644
G01 X6.1140 Y-9.9488
G01 X6.1252 Y-9.9352
G01 X6.1388 Y-9.9240
G01 X6.1544 Y-9.9157
G01 X6.1713 Y-9.9106
G01 X6.1888 Y-9.9089
G01 X6.2063 Y-9.9106
G01 X6.2232 Y-9.9157
G01 X6.2388 Y-9.9240
G01 X6.2524 Y-9.9352
G01 X6.2636 Y-9.9488
G01 X6.2719 Y-9.9644
G01 X6.2770 Y-9.9813
G01 X6.2787 Y-9.9988
G00 Z2.0000
G00 X6.2087 Y-9.9988
G01 F70.00
G01 Z-0.0600
G01 F120.00
G01 X6.2072 Y-10.0064
G01 X6.2029 Y-10.0129
G01 X6.1964 Y-10.0172
G01 X6.1888 Y-10.0187
G01 X6.1812 Y-10.0172
G01 X6.1747 Y-10.0129
G01 X6.1704 Y-10.0064
G01 X6.1689 Y-9.9988
G01 X6.1704 Y-9.9912
G01 X6.1747 Y-9.9847
G01 X6.1812 Y-9.9804
G01 X6.1888 Y-9.9789
G01 X6.1964 Y-9.9804
G01 X6.2029 Y-9.9847
G01 X6.2072 Y-9.9912
G01 X6.2087 Y-9.9988
G00 Z2.0000
G00 X8.2724 Y-12.0625
G01 F70.00
G01 Z-0.0600
G01 F120.00
G01 X8.2709 Y-12.0701
G01 X8.2666 Y-12.0766
G01 X8.2601 Y-12.0809
G01 X8.2525 Y-12.0824
G01 X8.2449 Y-12.0809
G01 X8.2384 Y-12.0766
G01 X8.2341 Y-12.0701
G01 X8.2326 Y-12.0625
G01 X8.2341 Y-12.0549
G01 X8.2384 Y-12.0484
G01 X8.2449 Y-12.0441
G01 X8.2525 Y-12.0426
G01 X8.2601 Y-12.0441
G01 X8.2666 Y-12.0484
G01 X8.2709 Y-12.0549
G01 X8.2724 Y-12.0625
G00 Z2.0000
G00 X8.3424 Y-12.0625
G01 F70.00
G01 Z-0.0600
G01 F120.00
G01 X8.3407 Y-12.0800
G01 X8.3356 Y-12.0969
G01 X8.3273 Y-12.1125
G01 X8.3161 Y-12.1261
G01 X8.3025 Y-12.1373
G01 X8.2869 Y-12.1456
G01 X8.2700 Y-12.1507
G01 X8.2525 Y-12.1524
G01 X8.2350 Y-12.1507
G01 X8.2181 Y-12.1456
G01 X8.2025 Y-12.1373
G01 X8.1889 Y-12.1261
G01 X8.1777 Y-12.1125
G01 X8.1694 Y-12.0969
G01 X8.1643 Y-12.0800
G01 X8.1626 Y-12.0625
G01 X8.1643 Y-12.0450
G01 X8.1694 Y-12.0281
G01 X8.1777 Y-12.0125
G01 X8.1889 Y-11.9989
G01 X8.2025 Y-11.9877
G01 X8.2181 Y-11.9794
G01 X8.2350 Y-11.9743
G01 X8.2525 Y-11.9726
G01 X8.2700 Y-11.9743
G01 X8.2869 Y-11.9794
G01 X8.3025 Y-11.9877
G01 X8.3161 Y-11.9989
G01 X8.3273 Y-12.0125
G01 X8.3356 Y-12.0281
G01 X8.3407 Y-12.0450
G01 X8.3424 Y-12.0625
G00 Z2.0000
G00 X8.4125 Y-12.0625
G01 F70.00
G01 Z-0.0600
G01 F120.00
G01 X8.4117 Y-12.0782
G01 X8.4094 Y-12.0937
G01 X8.4056 Y-12.1089
G01 X8.4003 Y-12.1237
G01 X8.3936 Y-12.1379
G01 X8.3855 Y-12.1514
G01 X8.3761 Y-12.1640
G01 X8.3656 Y-12.1756
G01 X8.3540 Y-12.1861
G01 X8.3414 Y-12.1955
G01 X8.3279 Y-12.2036
G01 X8.3137 Y-12.2103
G01 X8.2989 Y-12.2156
G01 X8.2837 Y-12.2194
G01 X8.2682 Y-12.2217
G01 X8.2525 Y-12.2225
G01 X8.2368 Y-12.2217
G01 X8.2213 Y-12.2194
G01 X8.2061 Y-12.2156
G01 X8.1913 Y-12.2103
G01 X8.1771 Y-12.2036
G01 X8.1636 Y-12.1955
G01 X8.1510 Y-12.1861
G01 X8.1394 Y-12.1756
G01 X8.1289 Y-12.1640
G01 X8.1195 Y-12.1514
G01 X8.1114 Y-12.1379
G01 X8.1047 Y-12.1237
G01 X8.0994 Y-12.1089
G01 X8.0956 Y-12.0937
G01 X8.0933 Y-12.0782
G01 X8.0925 Y-12.0625
G01 X8.0933 Y-12.0468
G01 X8.0956 Y-12.0313
G01 X8.0994 Y-12.0161
G01 X8.1047 Y-12.0013
G01 X8.1114 Y-11.9871
G01 X8.1195 Y-11.9736
G01 X8.1289 Y-11.9610
G01 X8.1394 Y-11.9494
G01 X8.1510 Y-11.9389
G01 X8.1636 Y-11.9295
G01 X8.1771 Y-11.9214
G01 X8.1913 Y-11.9147
G01 X8.2061 Y-11.9094
G01 X8.2213 Y-11.9056
G01 X8.2368 Y-11.9033
G01 X8.2525 Y-11.9025
G01 X8.2682 Y-11.9033
G01 X8.2837 Y-11.9056
G01 X8.2989 Y-11.9094
G01 X8.3137 Y-11.9147
G01 X8.3279 Y-11.9214
G01 X8.3414 Y-11.9295
G01 X8.3540 Y-11.9389
G01 X8.3656 Y-11.9494
G01 X8.3761 Y-11.9610
G01 X8.3855 Y-11.9736
G01 X8.3936 Y-11.9871
G01 X8.4003 Y-12.0013
G01 X8.4056 Y-12.0161
G01 X8.4094 Y-12.0313
G01 X8.4117 Y-12.0468
G01 X8.4125 Y-12.0625
G00 Z2.0000
G00 X8.4825 Y-12.0625
G01 F70.00
G01 Z-0.0600
G01 F120.00
G01 X8.4814 Y-12.0850
G01 X8.4781 Y-12.1074
G01 X8.4726 Y-12.1293
G01 X8.4650 Y-12.1505
G01 X8.4553 Y-12.1709
G01 X8.4437 Y-12.1903
G01 X8.4303 Y-12.2084
G01 X8.4151 Y-12.2251
G01 X8.3984 Y-12.2403
G01 X8.3803 Y-12.2537
G01 X8.3609 Y-12.2653
G01 X8.3405 Y-12.2750
G01 X8.3193 Y-12.2826
G01 X8.2974 Y-12.2881
G01 X8.2750 Y-12.2914
G01 X8.2525 Y-12.2925
G01 X8.2300 Y-12.2914
G01 X8.2076 Y-12.2881
G01 X8.1857 Y-12.2826
G01 X8.1645 Y-12.2750
G01 X8.1441 Y-12.2653
G01 X8.1247 Y-12.2537
G01 X8.1066 Y-12.2403
G01 X8.0899 Y-12.2251
G01 X8.0747 Y-12.2084
G01 X8.0613 Y-12.1903
G01 X8.0497 Y-12.1709
G01 X8.0400 Y-12.1505
G01 X8.0324 Y-12.1293
G01 X8.0269 Y-12.1074
G01 X8.0236 Y-12.0850
G01 X8.0225 Y-12.0625
G01 X8.0236 Y-12.0400
G01 X8.0269 Y-12.0176
G01 X8.0324 Y-11.9957
G01 X8.0400 Y-11.9745
G01 X8.0497 Y-11.9541
G01 X8.0613 Y-11.9347
G01 X8.0747 Y-11.9166
G01 X8.0899 Y-11.8999
G01 X8.1066 Y-11.8847
G01 X8.1247 Y-11.8713
G01 X8.1441 Y-11.8597
G01 X8.1645 Y-11.8500
G01 X8.1857 Y-11.8424
G01 X8.2076 Y-11.8369
G01 X8.2300 Y-11.8336
G01 X8.2525 Y-11.8325
G01 X8.2750 Y-11.8336
G01 X8.2974 Y-11.8369
G01 X8.3193 Y-11.8424
G01 X8.3405 Y-11.8500
G01 X8.3609 Y-11.8597
G01 X8.3803 Y-11.8713
G01 X8.3984 Y-11.8847
G01 X8.4151 Y-11.8999
G01 X8.4303 Y-11.9166
G01 X8.4437 Y-11.9347
G01 X8.4553 Y-11.9541
G01 X8.4650 Y-11.9745
G01 X8.4726 Y-11.9957
G01 X8.4781 Y-12.0176
G01 X8.4814 Y-12.0400
G01 X8.4825 Y-12.0625
G00 Z2.0000
G00 X11.7433 Y-7.2611
G01 F70.00
G01 Z-0.0600
G01 F120.00
G01 X11.7818 Y-7.2384
G01 X11.8127 Y-7.2661
G01 X11.7948 Y-7.2626
G01 X11.7770 Y-7.2606
G01 X11.7590 Y-7.2602
G01 X11.7433 Y-7.2611
G00 Z2.0000
G00 X11.4303 Y-6.3701
G01 F70.00
G01 Z-0.0600
G01 F120.00
G01 X11.4299 Y-6.3776
G01 X11.4228 Y-6.3818
G01 X11.4272 Y-6.3751
G01 X11.4303 Y-6.3701
G00 Z2.0000
G00 X12.5587 Y-6.4269
G01 F70.00
G01 Z-0.0600
G01 F120.00
G01 X12.5572 Y-6.4345
G01 X12.5529 Y-6.4410
G01 X12.5464 Y-6.4453
G01 X12.5388 Y-6.4468
G01 X12.5312 Y-6.4453
G01 X12.5247 Y-6.4410
G01 X12.5204 Y-6.4345
G01 X12.5189 Y-6.4269
G01 X12.5204 Y-6.4193
G01 X12.5247 Y-6.4128
G01 X12.5312 Y-6.4085
G01 X12.5388 Y-6.4070
G01 X12.5464 Y-6.4085
G01 X12.5529 Y-6.4128
G01 X12.5572 Y-6.4193
G01 X12.5587 Y-6.4269
G00 Z2.0000
G00 X12.6287 Y-6.4269
G01 F70.00
G01 Z-0.0600
G01 F120.00
G01 X12.6270 Y-6.4444
G01 X12.6219 Y-6.4613
G01 X12.6136 Y-6.4769
G01 X12.6024 Y-6.4905
G01 X12.5888 Y-6.5017
G01 X12.5732 Y-6.5100
G01 X12.5563 Y-6.5151
G01 X12.5388 Y-6.5168
G01 X12.5213 Y-6.5151
G01 X12.5044 Y-6.5100
G01 X12.4888 Y-6.5017
G01 X12.4752 Y-6.4905
G01 X12.4640 Y-6.4769
G01 X12.4557 Y-6.4613
G01 X12.4506 Y-6.4444
G01 X12.4489 Y-6.4269
G01 X12.4506 Y-6.4094
G01 X12.4557 Y-6.3925
G01 X12.4640 Y-6.3769
G01 X12.4752 Y-6.3633
G01 X12.4888 Y-6.3521
G01 X12.5044 Y-6.3438
G01 X12.5213 Y-6.3387
G01 X12.5388 Y-6.3370
G01 X12.5563 Y-6.3387
G01 X12.5732 Y-6.3438
G01 X12.5888 Y-6.3521
G01 X12.6024 Y-6.3633
G01 X12.6136 Y-6.3769
G01 X12.6219 Y-6.3925
G01 X12.6270 Y-6.4094
G01 X12.6287 Y-6.4269
G00 Z2.0000
G00 X12.6988 Y-6.4269
G01 F70.00
G01 Z-0.0600
G01 F120.00
G01 X12.6980 Y-6.4426
G01 X12.6957 Y-6.4581
G01 X12.6919 Y-6.4733
G01 X12.6866 Y-6.4881
G01 X12.6799 Y-6.5023
G01 X12.6718 Y-6.5158
G01 X12.6624 Y-6.5284
G01 X12.6519 Y-6.5400
G01 X12.6403 Y-6.5505
G01 X12.6277 Y-6.5599
G01 X12.6142 Y-6.5680
G01 X12.6000 Y-6.5747
G01 X12.5852 Y-6.5800
G01 X12.5700 Y-6.5838
G01 X12.5545 Y-6.5861
G01 X12.5388 Y-6.5869
G01 X12.5231 Y-6.5861
G01 X12.5076 Y-6.5838
G01 X12.4924 Y-6.5800
G01 X12.4776 Y-6.5747
G01 X12.4634 Y-6.5680
G01 X12.4499 Y-6.5599
G01 X12.4373 Y-6.5505
G01 X12.4257 Y-6.5400
G01 X12.4152 Y-6.5284
G01 X12.4058 Y-6.5158
G01 X12.3977 Y-6.5023
G01 X12.3910 Y-6.4881
G01 X12.3857 Y-6.4733
G01 X12.3819 Y-6.4581
G01 X12.3796 Y-6.4426
G01 X12.3788 Y-6.4269
G01 X12.3796 Y-6.4112
G01 X12.3819 Y-6.3957
G01 X12.3857 Y-6.3805
G01 X12.3910 Y-6.3657
G01 X12.3977 Y-6.3515
G01 X12.4058 Y-6.3380
G01 X12.4152 Y-6.3254
G01 X12.4257 Y-6.3138
G01 X12.4373 Y-6.3033
G01 X12.4499 Y-6.2939
G01 X12.4634 Y-6.2858
G01 X12.4776 Y-6.2791
G01 X12.4924 Y-6.2738
G01 X12.5076 Y-6.2700
G01 X12.5231 Y-6.2677
G01 X12.5388 Y-6.2669
G01 X12.5545 Y-6.2677
G01 X12.5700 Y-6.2700
G01 X12.5852 Y-6.2738
G01 X12.6000 Y-6.2791
G01 X12.6142 Y-6.2858
G01 X12.6277 Y-6.2939
G01 X12.6403 Y-6.3033
G01 X12.6519 Y-6.3138
G01 X12.6624 Y-6.3254
G01 X12.6718 Y-6.3380
G01 X12.6799 Y-6.3515
G01 X12.6866 Y-6.3657
G01 X12.6919 Y-6.3805
G01 X12.6957 Y-6.3957
G01 X12.6980 Y-6.4112
G01 X12.6988 Y-6.4269
G00 Z2.0000
G00 X12.7688 Y-6.4269
G01 F70.00
G01 Z-0.0600
G01 F120.00
G01 X12.7677 Y-6.4494
G01 X12.7644 Y-6.4718
G01 X12.7589 Y-6.4937
G01 X12.7513 Y-6.5149
G01 X12.7416 Y-6.5353
G01 X12.7300 Y-6.5547
G01 X12.7166 Y-6.5728
G01 X12.7014 Y-6.5895
G01 X12.6847 Y-6.6047
G01 X12.6666 Y-6.6181
G01 X12.6472 Y-6.6297
G01 X12.6268 Y-6.6394
G01 X12.6056 Y-6.6470
G01 X12.5837 Y-6.6525
G01 X12.5613 Y-6.6558
G01 X12.5388 Y-6.6569
G01 X12.5163 Y-6.6558
G01 X12.4939 Y-6.6525
G01 X12.4720 Y-6.6470
G01 X12.4508 Y-6.6394
G01 X12.4304 Y-6.6297
G01 X12.4110 Y-6.6181
G01 X12.3929 Y-6.6047
G01 X12.3762 Y-6.5895
G01 X12.3610 Y-6.5728
G01 X12.3476 Y-6.5547
G01 X12.3360 Y-6.5353
G01 X12.3263 Y-6.5149
G01 X12.3187 Y-6.4937
G01 X12.3132 Y-6.4718
G01 X12.3099 Y-6.4494
G01 X12.3088 Y-6.4269
G01 X12.3099 Y-6.4044
G01 X12.3132 Y-6.3820
G01 X12.3187 Y-6.3601
G01 X12.3263 Y-6.3389
G01 X12.3360 Y-6.3185
G01 X12.3476 Y-6.2991
G01 X12.3610 Y-6.2810
G01 X12.3762 Y-6.2643
G01 X12.3929 Y-6.2491
G01 X12.4110 Y-6.2357
G01 X12.4304 Y-6.2241
G01 X12.4508 Y-6.2144
G01 X12.4720 Y-6.2068
G01 X12.4939 Y-6.2013
G01 X12.5163 Y-6.1980
G01 X12.5388 Y-6.1969
G01 X12.5613 Y-6.1980
G01 X12.5837 Y-6.2013
G01 X12.6056 Y-6.2068
G01 X12.6268 Y-6.2144
G01 X12.6472 Y-6.2241
G01 X12.6666 Y-6.2357
G01 X12.6847 Y-6.2491
G01 X12.7014 Y-6.2643
G01 X12.7166 Y-6.2810
G01 X12.7300 Y-6.2991
G01 X12.7416 Y-6.3185
G01 X12.7513 Y-6.3389
G01 X12.7589 Y-6.3601
G01 X12.7644 Y-6.3820
G01 X12.7677 Y-6.4044
G01 X12.7688 Y-6.4269
G00 Z2.0000
G00 X15.7336 Y-5.7125
G01 F70.00
G01 Z-0.0600
G01 F120.00
G01 X15.7321 Y-5.7201
G01 X15.7278 Y-5.7266
G01 X15.7213 Y-5.7309
G01 X15.7137 Y-5.7324
G01 X15.7061 Y-5.7309
G01 X15.6996 Y-5.7266
G01 X15.6953 Y-5.7201
G01 X15.6938 Y-5.7125
G01 X15.6953 Y-5.7049
G01 X15.6996 Y-5.6984
G01 X15.7061 Y-5.6941
G01 X15.7137 Y-5.6926
G01 X15.7213 Y-5.6941
G01 X15.7278 Y-5.6984
G01 X15.7321 Y-5.7049
G01 X15.7336 Y-5.7125
G00 Z2.0000
G00 X15.8036 Y-5.7125
G01 F70.00
G01 Z-0.0600
G01 F120.00
G01 X15.8019 Y-5.7300
G01 X15.7968 Y-5.7469
G01 X15.7885 Y-5.7625
G01 X15.7773 Y-5.7761
G01 X15.7637 Y-5.7873
G01 X15.7481 Y-5.7956
G01 X15.7312 Y-5.8007
G01 X15.7137 Y-5.8024
G01 X15.6962 Y-5.8007
G01 X15.6793 Y-5.7956
G01 X15.6637 Y-5.7873
G01 X15.6501 Y-5.7761
G01 X15.6389 Y-5.7625
G01 X15.6306 Y-5.7469
G01 X15.6255 Y-5.7300
G01 X15.6238 Y-5.7125
G01 X15.6255 Y-5.6950
G01 X15.6306 Y-5.6781
G01 X15.6389 Y-5.6625
G01 X15.6501 Y-5.6489
G01 X15.6637 Y-5.6377
G01 X15.6793 Y-5.6294
G01 X15.6962 Y-5.6243
G01 X15.7137 Y-5.6226
G01 X15.7312 Y-5.6243
G01 X15.7481 Y-5.6294
G01 X15.7637 Y-5.6377
G01 X15.7773 Y-5.6489
G01 X15.7885 Y-5.6625
G01 X15.7968 Y-5.6781
G01 X15.8019 Y-5.6950
G01 X15.8036 Y-5.7125
G00 Z2.0000
G00 X15.8737 Y-5.7125
G01 F70.00
G01 Z-0.0600
G01 F120.00
G01 X15.8729 Y-5.7282
G01 X15.8706 Y-5.7437
G01 X15.8668 Y-5.7589
G01 X15.8615 Y-5.7737
G01 X15.8548 Y-5.7879
G01 X15.8467 Y-5.8014
G01 X15.8373 Y-5.8140
G01 X15.8268 Y-5.8256
G01 X15.8152 Y-5.8361
G01 X15.8026 Y-5.8455
G01 X15.7891 Y-5.8536
G01 X15.7749 Y-5.8603
G01 X15.7601 Y-5.8656
G01 X15.7449 Y-5.8694
G01 X15.7294 Y-5.8717
G01 X15.7137 Y-5.8725
G01 X15.6980 Y-5.8717
G01 X15.6825 Y-5.8694
G01 X15.6673 Y-5.8656
G01 X15.6525 Y-5.8603
G01 X15.6383 Y-5.8536
G01 X15.6248 Y-5.8455
G01 X15.6122 Y-5.8361
G01 X15.6006 Y-5.8256
G01 X15.5901 Y-5.8140
G01 X15.5807 Y-5.8014
G01 X15.5726 Y-5.7879
G01 X15.5659 Y-5.7737
G01 X15.5606 Y-5.7589
G01 X15.5568 Y-5.7437
G01 X15.5545 Y-5.7282
G01 X15.5537 Y-5.7125
G01 X15.5545 Y-5.6968
G01 X15.5568 Y-5.6813
G01 X15.5606 Y-5.6661
G01 X15.5659 Y-5.6513
G01 X15.5726 Y-5.6371
G01 X15.5807 Y-5.6236
G01 X15.5901 Y-5.6110
G01 X15.6006 Y-5.5994
G01 X15.6122 Y-5.5889
G01 X15.6248 Y-5.5795
G01 X15.6383 Y-5.5714
G01 X15.6525 Y-5.5647
G01 X15.6673 Y-5.5594
G01 X15.6825 Y-5.5556
G01 X15.6980 Y-5.5533
G01 X15.7137 Y-5.5525
G01 X15.7294 Y-5.5533
G01 X15.7449 Y-5.5556
G01 X15.7601 Y-5.5594
G01 X15.7749 Y-5.5647
G01 X15.7891 Y-5.5714
G01 X15.8026 Y-5.5795
G01 X15.8152 Y-5.5889
G01 X15.8268 Y-5.5994
G01 X15.8373 Y-5.6110
G01 X15.8467 Y-5.6236
G01 X15.8548 Y-5.6371
G01 X15.8615 Y-5.6513
G01 X15.8668 Y-5.6661
G01 X15.8706 Y-5.6813
G01 X15.8729 Y-5.6968
G01 X15.8737 Y-5.7125
G00 Z2.0000
G00 X15.9437 Y-5.7125
G01 F70.00
G01 Z-0.0600
G01 F120.00
G01 X15.9426 Y-5.7350
G01 X15.9393 Y-5.7574
G01 X15.9338 Y-5.7793
G01 X15.9262 Y-5.8005
G01 X15.9165 Y-5.8209
G01 X15.9049 Y-5.8403
G01 X15.8915 Y-5.8584
G01 X15.8763 Y-5.8751
G01 X15.8596 Y-5.8903
G01 X15.8415 Y-5.9037
G01 X15.8221 Y-5.9153
G01 X15.8017 Y-5.9250
G01 X15.7805 Y-5.9326
G01 X15.7586 Y-5.9381
G01 X15.7362 Y-5.9414
G01 X15.7137 Y-5.9425
G01 X15.6912 Y-5.9414
G01 X15.6688 Y-5.9381
G01 X15.6469 Y-5.9326
G01 X15.6257 Y-5.9250
G01 X15.6053 Y-5.9153
G01 X15.5859 Y-5.9037
G01 X15.5678 Y-5.8903
G01 X15.5511 Y-5.8751
G01 X15.5359 Y-5.8584
G01 X15.5225 Y-5.8403
G01 X15.5109 Y-5.8209
G01 X15.5012 Y-5.8005
G01 X15.4936 Y-5.7793
G01 X15.4881 Y-5.7574
G01 X15.4848 Y-5.7350
G01 X15.4837 Y-5.7125
G01 X15.4848 Y-5.6900
G01 X15.4881 Y-5.6676
G01 X15.4936 Y-5.6457
G01 X15.5012 Y-5.6245
G01 X15.5109 Y-5.6041
G01 X15.5225 Y-5.5847
G01 X15.5359 Y-5.5666
G01 X15.5511 Y-5.5499
G01 X15.5678 Y-5.5347
G01 X15.5859 Y-5.5213
G01 X15.6053 Y-5.5097
G01 X15.6257 Y-5.5000
G01 X15.6469 Y-5.4924
G01 X15.6688 Y-5.4869
G01 X15.6912 Y-5.4836
G01 X15.7137 Y-5.4825
G01 X15.7362 Y-5.4836
G01 X15.7586 Y-5.4869
G01 X15.7805 Y-5.4924
G01 X15.8017 Y-5.5000
G01 X15.8221 Y-5.5097
G01 X15.8415 Y-5.5213
G01 X15.8596 Y-5.5347
G01 X15.8763 Y-5.5499
G01 X15.8915 Y-5.5666
G01 X15.9049 Y-5.5847
G01 X15.9165 Y-5.6041
G01 X15.9262 Y-5.6245
G01 X15.9338 Y-5.6457
G01 X15.9393 Y-5.6676
G01 X15.9426 Y-5.6900
G01 X15.9437 Y-5.7125
G00 Z2.0000
G00 X19.6025 Y-3.8102
G01 F70.00
G01 Z-0.0600
G01 F120.00
G01 X19.6015 Y-3.8529
G01 X19.5983 Y-3.8955
G01 X19.5931 Y-3.9379
G01 X19.5858 Y-3.9800
G01 X19.5764 Y-4.0216
G01 X19.5650 Y-4.0628
G01 X19.5516 Y-4.1033
G01 X19.5362 Y-4.1432
G01 X19.5189 Y-4.1822
G01 X19.4997 Y-4.2203
G01 X19.4786 Y-4.2575
G01 X19.4558 Y-4.2936
G01 X19.4312 Y-4.3285
G01 X19.4049 Y-4.3621
G01 X19.3770 Y-4.3945
G01 X19.3475 Y-4.4254
G01 X19.3166 Y-4.4548
G01 X19.2843 Y-4.4827
G01 X19.2506 Y-4.5090
G01 X19.2157 Y-4.5335
G01 X19.1796 Y-4.5564
G01 X19.1424 Y-4.5774
G01 X19.1043 Y-4.5966
G01 X19.0652 Y-4.6139
G01 X19.0254 Y-4.6293
G01 X18.9848 Y-4.6426
G01 X18.9437 Y-4.6540
G01 X18.9020 Y-4.6634
G01 X18.8599 Y-4.6706
G01 X18.8175 Y-4.6759
G01 X18.7749 Y-4.6790
G01 X18.7323 Y-4.6800
G01 X18.6896 Y-4.6790
G01 X18.6470 Y-4.6758
G01 X18.6046 Y-4.6706
G01 X18.5625 Y-4.6633
G01 X18.5209 Y-4.6539
G01 X18.4797 Y-4.6425
G01 X18.4392 Y-4.6291
G01 X18.3993 Y-4.6137
G01 X18.3603 Y-4.5964
G01 X18.3222 Y-4.5772
G01 X18.2850 Y-4.5561
G01 X18.2489 Y-4.5333
G01 X18.2140 Y-4.5087
G01 X18.1804 Y-4.4824
G01 X18.1480 Y-4.4545
G01 X18.1171 Y-4.4250
G01 X18.0877 Y-4.3941
G01 X18.0598 Y-4.3618
G01 X18.0335 Y-4.3281
G01 X18.0090 Y-4.2932
G01 X17.9861 Y-4.2571
G01 X17.9651 Y-4.2199
G01 X17.9459 Y-4.1818
G01 X17.9286 Y-4.1427
G01 X17.9132 Y-4.1029
G01 X17.8999 Y-4.0623
G01 X17.8885 Y-4.0212
G01 X17.8791 Y-3.9795
G01 X17.8719 Y-3.9374
G01 X17.8666 Y-3.8950
G01 X17.8635 Y-3.8524
G01 X17.8625 Y-3.8098
G01 X17.8635 Y-3.7671
G01 X17.8667 Y-3.7245
G01 X17.8719 Y-3.6821
G01 X17.8792 Y-3.6400
G01 X17.8886 Y-3.5984
G01 X17.9000 Y-3.5572
G01 X17.9134 Y-3.5167
G01 X17.9288 Y-3.4768
G01 X17.9461 Y-3.4378
G01 X17.9653 Y-3.3997
G01 X17.9864 Y-3.3625
G01 X18.0092 Y-3.3264
G01 X18.0338 Y-3.2915
G01 X18.0601 Y-3.2579
G01 X18.0880 Y-3.2255
G01 X18.1175 Y-3.1946
G01 X18.1484 Y-3.1652
G01 X18.1807 Y-3.1373
G01 X18.2144 Y-3.1110
G01 X18.2493 Y-3.0865
G01 X18.2854 Y-3.0636
G01 X18.3226 Y-3.0426
G01 X18.3607 Y-3.0234
G01 X18.3998 Y-3.0061
G01 X18.4396 Y-2.9907
G01 X18.4802 Y-2.9774
G01 X18.5213 Y-2.9660
G01 X18.5630 Y-2.9566
G01 X18.6051 Y-2.9494
G01 X18.6475 Y-2.9441
G01 X18.6901 Y-2.9410
G01 X18.7327 Y-2.9400
G01 X18.7754 Y-2.9410
G01 X18.8180 Y-2.9442
G01 X18.8604 Y-2.9494
G01 X18.9025 Y-2.9567
G01 X18.9441 Y-2.9661
G01 X18.9853 Y-2.9775
G01 X19.0258 Y-2.9909
G01 X19.0657 Y-3.0063
G01 X19.1047 Y-3.0236
G01 X19.1428 Y-3.0428
G01 X19.1800 Y-3.0639
G01 X19.2161 Y-3.0867
G01 X19.2510 Y-3.1113
G01 X19.2846 Y-3.1376
G01 X19.3170 Y-3.1655
G01 X19.3479 Y-3.1950
G01 X19.3773 Y-3.2259
G01 X19.4052 Y-3.2582
G01 X19.4315 Y-3.2919
G01 X19.4560 Y-3.3268
G01 X19.4789 Y-3.3629
G01 X19.4999 Y-3.4001
G01 X19.5191 Y-3.4382
G01 X19.5364 Y-3.4773
G01 X19.5518 Y-3.5171
G01 X19.5651 Y-3.5577
G01 X19.5765 Y-3.5988
G01 X19.5859 Y-3.6405
G01 X19.5931 Y-3.6826
G01 X19.5984 Y-3.7250
G01 X19.6015 Y-3.7676
G01 X19.6025 Y-3.8102
G00 Z2.0000
G00 X19.6725 Y-3.8111
G01 F70.00
G01 Z-0.0600
G01 F120.00
G01 X19.6713 Y-3.8572
G01 X19.6679 Y-3.9032
G01 X19.6622 Y-3.9490
G01 X19.6543 Y-3.9945
G01 X19.6441 Y-4.0395
G01 X19.6317 Y-4.0839
G01 X19.6172 Y-4.1277
G01 X19.6006 Y-4.1708
G01 X19.5818 Y-4.2129
G01 X19.5610 Y-4.2541
G01 X19.5382 Y-4.2942
G01 X19.5135 Y-4.3332
G01 X19.4869 Y-4.3709
G01 X19.4585 Y-4.4072
G01 X19.4283 Y-4.4421
G01 X19.3964 Y-4.4755
G01 X19.3630 Y-4.5073
G01 X19.3280 Y-4.5374
G01 X19.2916 Y-4.5657
G01 X19.2538 Y-4.5922
G01 X19.2148 Y-4.6169
G01 X19.1747 Y-4.6396
G01 X19.1334 Y-4.6602
G01 X19.0912 Y-4.6789
G01 X19.0481 Y-4.6955
G01 X19.0043 Y-4.7099
G01 X18.9598 Y-4.7221
G01 X18.9148 Y-4.7322
G01 X18.8693 Y-4.7400
G01 X18.8235 Y-4.7456
G01 X18.7775 Y-4.7490
G01 X18.7314 Y-4.7500
G01 X18.6853 Y-4.7488
G01 X18.6393 Y-4.7454
G01 X18.5935 Y-4.7397
G01 X18.5480 Y-4.7318
G01 X18.5030 Y-4.7216
G01 X18.4586 Y-4.7092
G01 X18.4148 Y-4.6947
G01 X18.3717 Y-4.6781
G01 X18.3296 Y-4.6593
G01 X18.2884 Y-4.6385
G01 X18.2483 Y-4.6157
G01 X18.2093 Y-4.5910
G01 X18.1716 Y-4.5644
G01 X18.1353 Y-4.5360
G01 X18.1004 Y-4.5058
G01 X18.0670 Y-4.4739
G01 X18.0352 Y-4.4405
G01 X18.0051 Y-4.4055
G01 X17.9768 Y-4.3691
G01 X17.9503 Y-4.3313
G01 X17.9256 Y-4.2923
G01 X17.9029 Y-4.2522
G01 X17.8823 Y-4.2109
G01 X17.8636 Y-4.1687
G01 X17.8470 Y-4.1256
G01 X17.8326 Y-4.0818
G01 X17.8204 Y-4.0373
G01 X17.8103 Y-3.9923
G01 X17.8025 Y-3.9468
G01 X17.7969 Y-3.9010
G01 X17.7935 Y-3.8550
G01 X17.7925 Y-3.8089
G01 X17.7937 Y-3.7628
G01 X17.7971 Y-3.7168
G01 X17.8028 Y-3.6710
G01 X17.8107 Y-3.6255
G01 X17.8209 Y-3.5805
G01 X17.8333 Y-3.5361
G01 X17.8478 Y-3.4923
G01 X17.8644 Y-3.4492
G01 X17.8832 Y-3.4071
G01 X17.9040 Y-3.3659
G01 X17.9268 Y-3.3258
G01 X17.9515 Y-3.2868
G01 X17.9781 Y-3.2491
G01 X18.0065 Y-3.2128
G01 X18.0367 Y-3.1779
G01 X18.0686 Y-3.1445
G01 X18.1020 Y-3.1127
G01 X18.1370 Y-3.0826
G01 X18.1734 Y-3.0543
G01 X18.2112 Y-3.0278
G01 X18.2502 Y-3.0031
G01 X18.2903 Y-2.9804
G01 X18.3316 Y-2.9598
G01 X18.3738 Y-2.9411
G01 X18.4169 Y-2.9245
G01 X18.4607 Y-2.9101
G01 X18.5052 Y-2.8979
G01 X18.5502 Y-2.8878
G01 X18.5957 Y-2.8800
G01 X18.6415 Y-2.8744
G01 X18.6875 Y-2.8710
G01 X18.7336 Y-2.8700
G01 X18.7797 Y-2.8712
G01 X18.8257 Y-2.8746
G01 X18.8715 Y-2.8803
G01 X18.9170 Y-2.8882
G01 X18.9620 Y-2.8984
G01 X19.0064 Y-2.9108
G01 X19.0502 Y-2.9253
G01 X19.0933 Y-2.9419
G01 X19.1354 Y-2.9607
G01 X19.1766 Y-2.9815
G01 X19.2167 Y-3.0043
G01 X19.2557 Y-3.0290
G01 X19.2934 Y-3.0556
G01 X19.3297 Y-3.0840
G01 X19.3646 Y-3.1142
G01 X19.3980 Y-3.1461
G01 X19.4298 Y-3.1795
G01 X19.4599 Y-3.2145
G01 X19.4882 Y-3.2509
G01 X19.5147 Y-3.2887
G01 X19.5394 Y-3.3277
G01 X19.5621 Y-3.3678
G01 X19.5827 Y-3.4091
G01 X19.6014 Y-3.4513
G01 X19.6180 Y-3.4944
G01 X19.6324 Y-3.5382
G01 X19.6446 Y-3.5827
G01 X19.6547 Y-3.6277
G01 X19.6625 Y-3.6732
G01 X19.6681 Y-3.7190
G01 X19.6715 Y-3.7650
G01 X19.6725 Y-3.8111
G00 Z2.0000
G00 X19.7425 Y-3.8120
G01 F70.00
G01 Z-0.0600
G01 F120.00
G01 X19.7412 Y-3.8615
G01 X19.7375 Y-3.9110
G01 X19.7313 Y-3.9601
G01 X19.7227 Y-4.0090
G01 X19.7118 Y-4.0573
G01 X19.6985 Y-4.1051
G01 X19.6828 Y-4.1521
G01 X19.6649 Y-4.1983
G01 X19.6447 Y-4.2436
G01 X19.6223 Y-4.2879
G01 X19.5978 Y-4.3309
G01 X19.5712 Y-4.3728
G01 X19.5426 Y-4.4133
G01 X19.5120 Y-4.4523
G01 X19.4796 Y-4.4898
G01 X19.4453 Y-4.5256
G01 X19.4093 Y-4.5597
G01 X19.3717 Y-4.5920
G01 X19.3326 Y-4.6224
G01 X19.2920 Y-4.6509
G01 X19.2501 Y-4.6773
G01 X19.2069 Y-4.7017
G01 X19.1626 Y-4.7239
G01 X19.1172 Y-4.7439
G01 X19.0709 Y-4.7616
G01 X19.0238 Y-4.7771
G01 X18.9760 Y-4.7902
G01 X18.9276 Y-4.8010
G01 X18.8788 Y-4.8094
G01 X18.8295 Y-4.8154
G01 X18.7801 Y-4.8189
G01 X18.7305 Y-4.8200
G01 X18.6810 Y-4.8187
G01 X18.6315 Y-4.8150
G01 X18.5824 Y-4.8088
G01 X18.5335 Y-4.8002
G01 X18.4852 Y-4.7893
G01 X18.4374 Y-4.7760
G01 X18.3904 Y-4.7603
G01 X18.3442 Y-4.7424
G01 X18.2989 Y-4.7222
G01 X18.2546 Y-4.6998
G01 X18.2116 Y-4.6753
G01 X18.1697 Y-4.6487
G01 X18.1292 Y-4.6201
G01 X18.0902 Y-4.5895
G01 X18.0527 Y-4.5571
G01 X18.0169 Y-4.5228
G01 X17.9828 Y-4.4868
G01 X17.9505 Y-4.4492
G01 X17.9201 Y-4.4101
G01 X17.8916 Y-4.3695
G01 X17.8652 Y-4.3276
G01 X17.8408 Y-4.2844
G01 X17.8186 Y-4.2401
G01 X17.7986 Y-4.1947
G01 X17.7809 Y-4.1484
G01 X17.7654 Y-4.1013
G01 X17.7523 Y-4.0535
G01 X17.7415 Y-4.0051
G01 X17.7331 Y-3.9563
G01 X17.7271 Y-3.9070
G01 X17.7236 Y-3.8576
G01 X17.7225 Y-3.8080
G01 X17.7238 Y-3.7585
G01 X17.7275 Y-3.7090
G01 X17.7337 Y-3.6599
G01 X17.7423 Y-3.6110
G01 X17.7532 Y-3.5627
G01 X17.7665 Y-3.5149
G01 X17.7822 Y-3.4679
G01 X17.8001 Y-3.4217
G01 X17.8203 Y-3.3764
G01 X17.8427 Y-3.3321
G01 X17.8672 Y-3.2891
G01 X17.8938 Y-3.2472
G01 X17.9224 Y-3.2067
G01 X17.9530 Y-3.1677
G01 X17.9854 Y-3.1302
G01 X18.0197 Y-3.0944
G01 X18.0557 Y-3.0603
G01 X18.0933 Y-3.0280
G01 X18.1324 Y-2.9976
G01 X18.1730 Y-2.9691
G01 X18.2149 Y-2.9427
G01 X18.2581 Y-2.9183
G01 X18.3024 Y-2.8961
G01 X18.3478 Y-2.8761
G01 X18.3941 Y-2.8584
G01 X18.4412 Y-2.8429
G01 X18.4890 Y-2.8298
G01 X18.5374 Y-2.8190
G01 X18.5862 Y-2.8106
G01 X18.6355 Y-2.8046
G01 X18.6849 Y-2.8011
G01 X18.7345 Y-2.8000
G01 X18.7840 Y-2.8013
G01 X18.8335 Y-2.8050
G01 X18.8826 Y-2.8112
G01 X18.9315 Y-2.8198
G01 X18.9798 Y-2.8307
G01 X19.0276 Y-2.8440
G01 X19.0746 Y-2.8597
G01 X19.1208 Y-2.8776
G01 X19.1661 Y-2.8978
G01 X19.2104 Y-2.9202
G01 X19.2534 Y-2.9447
G01 X19.2953 Y-2.9713
G01 X19.3358 Y-2.9999
G01 X19.3748 Y-3.0305
G01 X19.4123 Y-3.0629
G01 X19.4481 Y-3.0972
G01 X19.4822 Y-3.1332
G01 X19.5145 Y-3.1708
G01 X19.5449 Y-3.2099
G01 X19.5734 Y-3.2505
G01 X19.5998 Y-3.2924
G01 X19.6242 Y-3.3356
G01 X19.6464 Y-3.3799
G01 X19.6664 Y-3.4253
G01 X19.6841 Y-3.4716
G01 X19.6996 Y-3.5187
G01 X19.7127 Y-3.5665
G01 X19.7235 Y-3.6149
G01 X19.7319 Y-3.6637
G01 X19.7379 Y-3.7130
G01 X19.7414 Y-3.7624
G01 X19.7425 Y-3.8120
G00 Z2.0000
G00 X19.8125 Y-3.8128
G01 F70.00
G01 Z-0.0600
G01 F120.00
G01 X19.8111 Y-3.8658
G01 X19.8071 Y-3.9187
G01 X19.8004 Y-3.9713
G01 X19.7912 Y-4.0235
G01 X19.7795 Y-4.0752
G01 X19.7652 Y-4.1262
G01 X19.7484 Y-4.1765
G01 X19.7292 Y-4.2259
G01 X19.7076 Y-4.2743
G01 X19.6837 Y-4.3216
G01 X19.6574 Y-4.3677
G01 X19.6289 Y-4.4124
G01 X19.5983 Y-4.4556
G01 X19.5656 Y-4.4973
G01 X19.5309 Y-4.5374
G01 X19.4942 Y-4.5757
G01 X19.4557 Y-4.6121
G01 X19.4155 Y-4.6467
G01 X19.3736 Y-4.6792
G01 X19.3302 Y-4.7096
G01 X19.2853 Y-4.7378
G01 X19.2391 Y-4.7638
G01 X19.1917 Y-4.7875
G01 X19.1432 Y-4.8089
G01 X19.0937 Y-4.8278
G01 X19.0433 Y-4.8443
G01 X18.9922 Y-4.8583
G01 X18.9404 Y-4.8698
G01 X18.8882 Y-4.8788
G01 X18.8356 Y-4.8851
G01 X18.7827 Y-4.8889
G01 X18.7297 Y-4.8900
G01 X18.6767 Y-4.8886
G01 X18.6238 Y-4.8846
G01 X18.5712 Y-4.8779
G01 X18.5190 Y-4.8687
G01 X18.4673 Y-4.8570
G01 X18.4163 Y-4.8427
G01 X18.3660 Y-4.8259
G01 X18.3166 Y-4.8067
G01 X18.2682 Y-4.7851
G01 X18.2209 Y-4.7612
G01 X18.1748 Y-4.7349
G01 X18.1301 Y-4.7064
G01 X18.0869 Y-4.6758
G01 X18.0452 Y-4.6431
G01 X18.0051 Y-4.6084
G01 X17.9668 Y-4.5717
G01 X17.9304 Y-4.5332
G01 X17.8958 Y-4.4930
G01 X17.8633 Y-4.4511
G01 X17.8329 Y-4.4077
G01 X17.8047 Y-4.3628
G01 X17.7787 Y-4.3166
G01 X17.7550 Y-4.2692
G01 X17.7336 Y-4.2207
G01 X17.7147 Y-4.1712
G01 X17.6982 Y-4.1208
G01 X17.6842 Y-4.0697
G01 X17.6727 Y-4.0179
G01 X17.6637 Y-3.9657
G01 X17.6574 Y-3.9131
G01 X17.6536 Y-3.8602
G01 X17.6525 Y-3.8072
G01 X17.6539 Y-3.7542
G01 X17.6579 Y-3.7013
G01 X17.6646 Y-3.6487
G01 X17.6738 Y-3.5965
G01 X17.6855 Y-3.5448
G01 X17.6998 Y-3.4938
G01 X17.7166 Y-3.4435
G01 X17.7358 Y-3.3941
G01 X17.7574 Y-3.3457
G01 X17.7813 Y-3.2984
G01 X17.8076 Y-3.2523
G01 X17.8361 Y-3.2076
G01 X17.8667 Y-3.1644
G01 X17.8994 Y-3.1227
G01 X17.9341 Y-3.0826
G01 X17.9708 Y-3.0443
G01 X18.0093 Y-3.0079
G01 X18.0495 Y-2.9733
G01 X18.0914 Y-2.9408
G01 X18.1348 Y-2.9104
G01 X18.1797 Y-2.8822
G01 X18.2259 Y-2.8562
G01 X18.2733 Y-2.8325
G01 X18.3218 Y-2.8111
G01 X18.3713 Y-2.7922
G01 X18.4217 Y-2.7757
G01 X18.4728 Y-2.7617
G01 X18.5246 Y-2.7502
G01 X18.5768 Y-2.7412
G01 X18.6294 Y-2.7349
G01 X18.6823 Y-2.7311
G01 X18.7353 Y-2.7300
G01 X18.7883 Y-2.7314
G01 X18.8412 Y-2.7354
G01 X18.8938 Y-2.7421
G01 X18.9460 Y-2.7513
G01 X18.9977 Y-2.7630
G01 X19.0487 Y-2.7773
G01 X19.0990 Y-2.7941
G01 X19.1484 Y-2.8133
G01 X19.1968 Y-2.8349
G01 X19.2441 Y-2.8588
G01 X19.2902 Y-2.8851
G01 X19.3349 Y-2.9136
G01 X19.3781 Y-2.9442
G01 X19.4198 Y-2.9769
G01 X19.4599 Y-3.0116
G01 X19.4982 Y-3.0483
G01 X19.5346 Y-3.0868
G01 X19.5692 Y-3.1270
G01 X19.6017 Y-3.1689
G01 X19.6321 Y-3.2123
G01 X19.6603 Y-3.2572
G01 X19.6863 Y-3.3034
G01 X19.7100 Y-3.3508
G01 X19.7314 Y-3.3993
G01 X19.7503 Y-3.4488
G01 X19.7668 Y-3.4992
G01 X19.7808 Y-3.5503
G01 X19.7923 Y-3.6021
G01 X19.8013 Y-3.6543
G01 X19.8076 Y-3.7069
G01 X19.8114 Y-3.7598
G01 X19.8125 Y-3.8128
G00 Z2.0000
G00 X20.4324 Y-2.6943
G01 F70.00
G01 Z-0.0600
G01 F120.00
G01 X20.4410 Y-2.7106
G01 X20.4507 Y-2.7258
G01 X20.4617 Y-2.7401
G01 X20.4739 Y-2.7534
G01 X20.4872 Y-2.7656
G01 X20.5015 Y-2.7766
G01 X20.5167 Y-2.7863
G01 X20.5330 Y-2.7949
G01 X20.4324 Y-2.7949
G01 X20.4324 Y-2.6943
G00 Z2.0000
G00 X21.9924 Y-2.6049
G01 F70.00
G01 Z-0.0600
G01 F120.00
G01 X21.9924 Y-1.2040
G01 X21.9911 Y-1.1912
G01 X21.9871 Y-1.1781
G01 X21.9811 Y-1.1667
G01 X21.9725 Y-1.1560
G01 X21.9620 Y-1.1472
G01 X21.9500 Y-1.1406
G01 X21.9369 Y-1.1364
G01 X21.9224 Y-1.1349
G01 X20.6215 Y-1.1349
G01 X20.6087 Y-1.1362
G01 X20.5956 Y-1.1402
G01 X20.5842 Y-1.1462
G01 X20.5735 Y-1.1548
G01 X20.5647 Y-1.1653
G01 X20.5581 Y-1.1773
G01 X20.5537 Y-1.1912
G01 X20.5524 Y-1.2049
G01 X20.5524 Y-2.6058
G01 X20.5537 Y-2.6186
G01 X20.5577 Y-2.6317
G01 X20.5637 Y-2.6431
G01 X20.5723 Y-2.6538
G01 X20.5828 Y-2.6626
G01 X20.5948 Y-2.6692
G01 X20.6079 Y-2.6734
G01 X20.6215 Y-2.6749
G01 X21.9250 Y-2.6749
G01 X21.9377 Y-2.6732
G01 X21.9508 Y-2.6689
G01 X21.9627 Y-2.6621
G01 X21.9731 Y-2.6532
G01 X21.9811 Y-2.6431
G01 X21.9874 Y-2.6309
G01 X21.9912 Y-2.6177
G01 X21.9924 Y-2.6049
G00 Z2.0000
G00 X22.0624 Y-2.6049
G01 F70.00
G01 Z-0.0600
G01 F120.00
G01 X22.0624 Y-1.2015
G01 X22.0613 Y-1.1878
G01 X22.0590 Y-1.1742
G01 X22.0553 Y-1.1610
G01 X22.0504 Y-1.1482
G01 X22.0442 Y-1.1359
G01 X22.0369 Y-1.1243
G01 X22.0284 Y-1.1135
G01 X22.0202 Y-1.1047
G01 X22.0099 Y-1.0956
G01 X21.9987 Y-1.0875
G01 X21.9884 Y-1.0814
G01 X21.9760 Y-1.0756
G01 X21.9647 Y-1.0714
G01 X21.9514 Y-1.0679
G01 X21.9395 Y-1.0660
G01 X21.9258 Y-1.0649
G01 X20.6224 Y-1.0649
G01 X20.6087 Y-1.0656
G01 X20.5951 Y-1.0676
G01 X20.5818 Y-1.0709
G01 X20.5688 Y-1.0756
G01 X20.5564 Y-1.0814
G01 X20.5446 Y-1.0885
G01 X20.5323 Y-1.0978
G01 X20.5222 Y-1.1071
G01 X20.5131 Y-1.1174
G01 X20.5060 Y-1.1271
G01 X20.4998 Y-1.1374
G01 X20.4937 Y-1.1497
G01 X20.4889 Y-1.1626
G01 X20.4854 Y-1.1759
G01 X20.4833 Y-1.1895
G01 X20.4824 Y-1.2015
G01 X20.4824 Y-2.6049
G01 X20.4833 Y-2.6203
G01 X20.4854 Y-2.6339
G01 X20.4889 Y-2.6472
G01 X20.4937 Y-2.6601
G01 X20.4998 Y-2.6724
G01 X20.5070 Y-2.6841
G01 X20.5153 Y-2.6950
G01 X20.5246 Y-2.7051
G01 X20.5349 Y-2.7142
G01 X20.5461 Y-2.7223
G01 X20.5579 Y-2.7292
G01 X20.5688 Y-2.7342
G01 X20.5801 Y-2.7384
G01 X20.5934 Y-2.7419
G01 X20.6053 Y-2.7438
G01 X20.6190 Y-2.7449
G01 X21.9310 Y-2.7446
G01 X21.9446 Y-2.7431
G01 X21.9581 Y-2.7403
G01 X21.9712 Y-2.7361
G01 X21.9823 Y-2.7315
G01 X21.9944 Y-2.7250
G01 X22.0044 Y-2.7184
G01 X22.0138 Y-2.7109
G01 X22.0238 Y-2.7014
G01 X22.0328 Y-2.6910
G01 X22.0407 Y-2.6798
G01 X22.0475 Y-2.6678
G01 X22.0524 Y-2.6569
G01 X22.0569 Y-2.6439
G01 X22.0600 Y-2.6305
G01 X22.0619 Y-2.6169
G01 X22.0624 Y-2.6049
G00 Z2.0000
G00 X23.0497 Y-2.8149
G01 F70.00
G01 Z-0.0600
G01 F120.00
G01 X23.0830 Y-2.8149
G01 X23.0968 Y-2.8454
G01 X23.0752 Y-2.8291
G01 X23.0619 Y-2.8211
G01 X23.0497 Y-2.8149
G00 Z2.0000
G00 X23.8683 Y-2.6577
G01 F70.00
G01 Z-0.0600
G01 F120.00
G01 X23.8781 Y-2.6473
G01 X23.8853 Y-2.6356
G01 X23.8903 Y-2.6219
G01 X23.8923 Y-2.6083
G01 X23.8924 Y-2.1457
G01 X26.2199 Y-2.1457
G01 X27.7787 Y-3.7045
G01 X27.7787 Y-5.1136
G01 X27.7258 Y-5.1335
G01 X27.6815 Y-5.1531
G01 X27.6389 Y-5.1745
G01 X27.5961 Y-5.1989
G01 X27.5573 Y-5.2235
G01 X27.5198 Y-5.2499
G01 X27.4822 Y-5.2791
G01 X27.4448 Y-5.3113
G01 X27.4103 Y-5.3441
G01 X27.3775 Y-5.3786
G01 X27.3453 Y-5.4160
G01 X27.3161 Y-5.4536
G01 X27.2897 Y-5.4911
G01 X27.2651 Y-5.5299
G01 X27.2407 Y-5.5727
G01 X27.2193 Y-5.6153
G01 X27.2000 Y-5.6588
G01 X27.1829 Y-5.7032
G01 X27.1680 Y-5.7484
G01 X27.1549 Y-5.7960
G01 X27.1445 Y-5.8425
G01 X27.1367 Y-5.8877
G01 X27.1311 Y-5.9332
G01 X27.1274 Y-5.9824
G01 X27.1262 Y-6.0300
G01 X27.1274 Y-6.0776
G01 X27.1309 Y-6.1251
G01 X27.1367 Y-6.1723
G01 X27.1448 Y-6.2192
G01 X27.1553 Y-6.2657
G01 X27.1685 Y-6.3132
G01 X27.1835 Y-6.3584
G01 X27.2000 Y-6.4012
G01 X27.2186 Y-6.4432
G01 X27.2407 Y-6.4873
G01 X27.2638 Y-6.5279
G01 X27.2897 Y-6.5689
G01 X27.3181 Y-6.6092
G01 X27.3464 Y-6.6454
G01 X27.3763 Y-6.6801
G01 X27.4103 Y-6.7159
G01 X27.4448 Y-6.7487
G01 X27.4822 Y-6.7809
G01 X27.5184 Y-6.8091
G01 X27.5559 Y-6.8356
G01 X27.5975 Y-6.8620
G01 X27.6389 Y-6.8855
G01 X27.6830 Y-6.9076
G01 X27.7250 Y-6.9262
G01 X27.7678 Y-6.9427
G01 X27.8146 Y-6.9582
G01 X27.8605 Y-6.9709
G01 X27.9087 Y-6.9817
G01 X27.9539 Y-6.9895
G01 X27.9994 Y-6.9951
G01 X28.0469 Y-6.9987
G01 X28.0962 Y-7.0000
G01 X28.1455 Y-6.9987
G01 X28.1930 Y-6.9951
G01 X28.2385 Y-6.9895
G01 X28.2837 Y-6.9817
G01 X28.3319 Y-6.9709
G01 X28.3778 Y-6.9582
G01 X28.4230 Y-6.9433
G01 X28.4690 Y-6.9255
G01 X28.5125 Y-6.9061
G01 X28.5535 Y-6.8855
G01 X28.5934 Y-6.8629
G01 X28.6351 Y-6.8365
G01 X28.6740 Y-6.8091
G01 X28.7129 Y-6.7787
G01 X28.7476 Y-6.7487
G01 X28.7809 Y-6.7171
G01 X28.8149 Y-6.6814
G01 X28.8466 Y-6.6447
G01 X28.8753 Y-6.6078
G01 X28.9027 Y-6.5689
G01 X28.9282 Y-6.5287
G01 X28.9525 Y-6.4857
G01 X28.9731 Y-6.4447
G01 X28.9930 Y-6.3996
G01 X29.0095 Y-6.3568
G01 X29.0239 Y-6.3132
G01 X29.0367 Y-6.2674
G01 X29.0476 Y-6.2192
G01 X29.0557 Y-6.1723
G01 X29.0615 Y-6.1251
G01 X29.0650 Y-6.0776
G01 X29.0662 Y-6.0300
G01 X29.0650 Y-5.9824
G01 X29.0615 Y-5.9349
G01 X29.0557 Y-5.8877
G01 X29.0476 Y-5.8408
G01 X29.0375 Y-5.7960
G01 X29.0244 Y-5.7484
G01 X29.0089 Y-5.7016
G01 X28.9924 Y-5.6588
G01 X28.9738 Y-5.6168
G01 X28.9517 Y-5.5727
G01 X28.9273 Y-5.5299
G01 X28.9027 Y-5.4911
G01 X28.8763 Y-5.4536
G01 X28.8460 Y-5.4146
G01 X28.8149 Y-5.3786
G01 X28.7833 Y-5.3453
G01 X28.7476 Y-5.3113
G01 X28.7102 Y-5.2791
G01 X28.6740 Y-5.2509
G01 X28.6365 Y-5.2244
G01 X28.5934 Y-5.1971
G01 X28.5535 Y-5.1745
G01 X28.5125 Y-5.1539
G01 X28.4674 Y-5.1338
G01 X28.4189 Y-5.1153
G01 X28.4189 Y-3.5710
G01 X28.4174 Y-3.5405
G01 X28.4124 Y-3.5078
G01 X28.4089 Y-3.4925
G01 X28.4008 Y-3.4657
G01 X28.3886 Y-3.4358
G01 X28.3742 Y-3.4088
G01 X28.3640 Y-3.3926
G01 X28.3463 Y-3.3688
G01 X28.3258 Y-3.3461
G01 X26.5662 Y-1.5873
G01 X26.5432 Y-1.5685
G01 X26.5185 Y-1.5519
G01 X26.5019 Y-1.5425
G01 X26.4750 Y-1.5298
G01 X26.4454 Y-1.5193
G01 X26.4166 Y-1.5120
G01 X26.3978 Y-1.5087
G01 X26.3665 Y-1.5058
G01 X23.8924 Y-1.5055
G01 X23.8924 Y-1.2049
G01 X23.8918 Y-1.1955
G01 X23.8896 Y-1.1854
G01 X23.8860 Y-1.1757
G01 X23.8811 Y-1.1667
G01 X23.8748 Y-1.1585
G01 X23.8675 Y-1.1513
G01 X23.8591 Y-1.1453
G01 X23.8500 Y-1.1406
G01 X23.8402 Y-1.1372
G01 X23.8310 Y-1.1354
G01 X23.8224 Y-1.1349
G01 X22.5224 Y-1.1349
G01 X22.5121 Y-1.1357
G01 X22.5021 Y-1.1379
G01 X22.4925 Y-1.1416
G01 X22.4828 Y-1.1472
G01 X22.4741 Y-1.1542
G01 X22.4672 Y-1.1618
G01 X22.4611 Y-1.1711
G01 X22.4565 Y-1.1813
G01 X22.4536 Y-1.1921
G01 X22.4524 Y-1.2023
G01 X22.4524 Y-2.6049
G01 X22.4532 Y-2.6152
G01 X22.4554 Y-2.6252
G01 X22.4591 Y-2.6348
G01 X22.4647 Y-2.6445
G01 X22.4711 Y-2.6525
G01 X22.4787 Y-2.6596
G01 X22.4879 Y-2.6658
G01 X22.4972 Y-2.6702
G01 X22.5071 Y-2.6732
G01 X22.5173 Y-2.6747
G01 X23.1733 Y-2.6749
G01 X23.9808 Y-4.4582
G01 X23.9640 Y-4.4728
G01 X23.9272 Y-4.5078
G01 X23.8910 Y-4.5458
G01 X23.8561 Y-4.5862
G01 X23.8243 Y-4.6269
G01 X23.7935 Y-4.6705
G01 X23.7654 Y-4.7149
G01 X23.7395 Y-4.7606
G01 X23.7156 Y-4.8083
G01 X23.6946 Y-4.8555
G01 X23.6752 Y-4.9062
G01 X23.6593 Y-4.9544
G01 X23.6457 Y-5.0033
G01 X23.6341 Y-5.0546
G01 X23.6248 Y-5.1080
G01 X23.6184 Y-5.1601
G01 X23.6145 Y-5.2125
G01 X23.6132 Y-5.2659
G01 X23.6145 Y-5.3175
G01 X23.6185 Y-5.3716
G01 X23.6251 Y-5.4237
G01 X23.6338 Y-5.4737
G01 X23.6449 Y-5.5233
G01 X23.6593 Y-5.5756
G01 X23.6757 Y-5.6255
G01 X23.6946 Y-5.6745
G01 X23.7159 Y-5.7225
G01 X23.7395 Y-5.7694
G01 X23.7663 Y-5.8166
G01 X23.7945 Y-5.8609
G01 X23.8238 Y-5.9024
G01 X23.8550 Y-5.9425
G01 X23.8904 Y-5.9836
G01 X23.9266 Y-6.0216
G01 X23.9646 Y-6.0578
G01 X24.0051 Y-6.0927
G01 X24.0458 Y-6.1244
G01 X24.0873 Y-6.1537
G01 X24.1331 Y-6.1828
G01 X24.1803 Y-6.2094
G01 X24.2257 Y-6.2323
G01 X24.2737 Y-6.2536
G01 X24.3227 Y-6.2725
G01 X24.3710 Y-6.2884
G01 X24.4232 Y-6.3029
G01 X24.4761 Y-6.3148
G01 X24.5262 Y-6.3234
G01 X24.5783 Y-6.3298
G01 X24.6324 Y-6.3338
G01 X24.6832 Y-6.3350
G01 X24.7357 Y-6.3337
G01 X24.7881 Y-6.3298
G01 X24.8385 Y-6.3237
G01 X24.8919 Y-6.3144
G01 X24.9449 Y-6.3025
G01 X24.9938 Y-6.2889
G01 X25.0437 Y-6.2725
G01 X25.0943 Y-6.2529
G01 X25.1407 Y-6.2323
G01 X25.1861 Y-6.2094
G01 X25.2348 Y-6.1819
G01 X25.2777 Y-6.1547
G01 X25.3206 Y-6.1244
G01 X25.3633 Y-6.0910
G01 X25.4018 Y-6.0578
G01 X25.4386 Y-6.0228
G01 X25.4760 Y-5.9836
G01 X25.5114 Y-5.9425
G01 X25.5426 Y-5.9024
G01 X25.5719 Y-5.8609
G01 X25.6018 Y-5.8136
G01 X25.6269 Y-5.7694
G01 X25.6497 Y-5.7240
G01 X25.6718 Y-5.6745
G01 X25.6907 Y-5.6255
G01 X25.7066 Y-5.5772
G01 X25.7211 Y-5.5250
G01 X25.7326 Y-5.4737
G01 X25.7413 Y-5.4237
G01 X25.7480 Y-5.3699
G01 X25.7520 Y-5.3158
G01 X25.7532 Y-5.2650
G01 X25.7519 Y-5.2134
G01 X25.7480 Y-5.1601
G01 X25.7416 Y-5.1080
G01 X25.7326 Y-5.0563
G01 X25.7211 Y-5.0050
G01 X25.7071 Y-4.9544
G01 X25.6907 Y-4.9045
G01 X25.6718 Y-4.8555
G01 X25.6497 Y-4.8060
G01 X25.6269 Y-4.7606
G01 X25.6001 Y-4.7134
G01 X25.5719 Y-4.6691
G01 X25.5426 Y-4.6276
G01 X25.5114 Y-4.5875
G01 X25.4760 Y-4.5464
G01 X25.4398 Y-4.5084
G01 X25.4018 Y-4.4722
G01 X25.3633 Y-4.4390
G01 X25.3206 Y-4.4056
G01 X25.2777 Y-4.3753
G01 X25.2333 Y-4.3472
G01 X25.1876 Y-4.3213
G01 X25.1407 Y-4.2977
G01 X25.0927 Y-4.2764
G01 X25.0437 Y-4.2575
G01 X24.9938 Y-4.2411
G01 X24.9432 Y-4.2271
G01 X24.8919 Y-4.2156
G01 X24.8402 Y-4.2066
G01 X24.7881 Y-4.2002
G01 X24.7357 Y-4.1963
G01 X24.6832 Y-4.1950
G01 X24.6298 Y-4.1963
G01 X24.5673 Y-4.2015
G01 X23.8683 Y-2.6577
G00 Z2.0000
G00 X24.0324 Y-2.3865
G01 F70.00
G01 Z-0.0600
G01 F120.00
G01 X24.0324 Y-2.2857
G01 X24.1334 Y-2.2857
G01 X24.1167 Y-2.2945
G01 X24.1015 Y-2.3042
G01 X24.0872 Y-2.3152
G01 X24.0739 Y-2.3274
G01 X24.0617 Y-2.3407
G01 X24.0507 Y-2.3550
G01 X24.0410 Y-2.3702
G01 X24.0324 Y-2.3865
G00 Z2.0000
G00 X24.1334 Y-1.3655
G01 F70.00
G01 Z-0.0600
G01 F120.00
G01 X24.0324 Y-1.3655
G01 X24.0324 Y-1.2647
G01 X24.0410 Y-1.2810
G01 X24.0507 Y-1.2962
G01 X24.0617 Y-1.3105
G01 X24.0739 Y-1.3238
G01 X24.0872 Y-1.3360
G01 X24.1015 Y-1.3470
G01 X24.1167 Y-1.3567
G01 X24.1334 Y-1.3655
G00 Z2.0000
G00 X24.0124 Y-1.1155
G01 F70.00
G01 Z-0.0600
G01 F120.00
G01 X24.0038 Y-1.0992
G01 X23.9941 Y-1.0840
G01 X23.9831 Y-1.0697
G01 X23.9709 Y-1.0564
G01 X23.9576 Y-1.0442
G01 X23.9433 Y-1.0332
G01 X23.9281 Y-1.0235
G01 X23.9118 Y-1.0149
G01 X24.0124 Y-1.0149
G01 X24.0124 Y-1.1155
G00 Z2.0000
G00 X22.4330 Y-1.0149
G01 F70.00
G01 Z-0.0600
G01 F120.00
G01 X22.4079 Y-1.0289
G01 X22.3952 Y-1.0378
G01 X22.3833 Y-1.0476
G01 X22.3634 Y-1.0677
G01 X22.3537 Y-1.0798
G01 X22.3450 Y-1.0926
G01 X22.3372 Y-1.1059
G01 X22.3304 Y-1.1198
G01 X22.3207 Y-1.1464
G01 X22.3170 Y-1.1614
G01 X22.3143 Y-1.1766
G01 X22.3124 Y-1.2049
G01 X22.3124 Y-2.6049
G01 X22.3130 Y-2.6203
G01 X22.3164 Y-2.6459
G01 X22.3238 Y-2.6732
G01 X22.3348 Y-2.6993
G01 X22.3492 Y-2.7237
G01 X22.3668 Y-2.7459
G01 X22.3872 Y-2.7656
G01 X22.4101 Y-2.7823
G01 X22.4330 Y-2.7949
G01 X22.0118 Y-2.7949
G01 X22.0369 Y-2.7809
G01 X22.0496 Y-2.7720
G01 X22.0615 Y-2.7622
G01 X22.0814 Y-2.7421
G01 X22.0911 Y-2.7300
G01 X22.0998 Y-2.7172
G01 X22.1076 Y-2.7039
G01 X22.1144 Y-2.6900
G01 X22.1241 Y-2.6634
G01 X22.1278 Y-2.6484
G01 X22.1305 Y-2.6332
G01 X22.1324 Y-2.6049
G01 X22.1324 Y-1.2049
G01 X22.1318 Y-1.1895
G01 X22.1278 Y-1.1614
G01 X22.1210 Y-1.1366
G01 X22.1100 Y-1.1105
G01 X22.0956 Y-1.0861
G01 X22.0780 Y-1.0639
G01 X22.0576 Y-1.0442
G01 X22.0347 Y-1.0275
G01 X22.0118 Y-1.0149
G01 X22.4330 Y-1.0149
G00 Z2.0000
G00 X22.2694 Y-1.0849
G01 F70.00
G01 Z-0.0600
G01 F120.00
G01 X22.2576 Y-1.1138
G01 X22.2492 Y-1.1436
G01 X22.2441 Y-1.1740
G01 X22.2424 Y-1.2049
G01 X22.2424 Y-2.6083
G01 X22.2445 Y-2.6392
G01 X22.2500 Y-2.6696
G01 X22.2588 Y-2.6992
G01 X22.2694 Y-2.7249
G01 X22.1754 Y-2.7249
G01 X22.1872 Y-2.6960
G01 X22.1956 Y-2.6662
G01 X22.2007 Y-2.6358
G01 X22.2024 Y-2.6049
G01 X22.2024 Y-1.2015
G01 X22.2003 Y-1.1706
G01 X22.1948 Y-1.1402
G01 X22.1860 Y-1.1106
G01 X22.1754 Y-1.0849
G01 X22.2694 Y-1.0849
G00 Z2.0000
G00 X20.5330 Y-1.0149
G01 F70.00
G01 Z-0.0600
G01 F120.00
G01 X20.5167 Y-1.0235
G01 X20.5015 Y-1.0332
G01 X20.4872 Y-1.0442
G01 X20.4739 Y-1.0564
G01 X20.4617 Y-1.0697
G01 X20.4507 Y-1.0840
G01 X20.4410 Y-1.0992
G01 X20.4324 Y-1.1155
G01 X20.4324 Y-1.0149
G01 X20.5330 Y-1.0149
G00 Z2.0000
G00 X23.7986 Y-4.3953
G01 F70.00
G01 Z-0.0600
G01 F120.00
G01 X23.8122 Y-4.4254
G01 X23.7914 Y-4.4474
G01 X23.7966 Y-4.4214
G01 X23.7986 Y-4.3953
G00 Z2.0000
G00 X23.8960 Y-4.4408
G01 F70.00
G01 Z-0.0600
G01 F120.00
G01 X23.8759 Y-4.4601
G01 X23.8397 Y-4.4982
G01 X23.8031 Y-4.5405
G01 X23.7675 Y-4.5859
G01 X23.7363 Y-4.6302
G01 X23.7054 Y-4.6789
G01 X23.6778 Y-4.7276
G01 X23.6527 Y-4.7776
G01 X23.6306 Y-4.8272
G01 X23.6098 Y-4.8809
G01 X23.5923 Y-4.9341
G01 X23.5774 Y-4.9880
G01 X23.5651 Y-5.0426
G01 X23.5555 Y-5.0977
G01 X23.5487 Y-5.1533
G01 X23.5446 Y-5.2091
G01 X23.5432 Y-5.2633
G01 X23.5446 Y-5.3209
G01 X23.5487 Y-5.3767
G01 X23.5555 Y-5.4323
G01 X23.5651 Y-5.4874
G01 X23.5774 Y-5.5420
G01 X23.5923 Y-5.5959
G01 X23.6098 Y-5.6491
G01 X23.6300 Y-5.7013
G01 X23.6527 Y-5.7524
G01 X23.6778 Y-5.8024
G01 X23.7054 Y-5.8511
G01 X23.7353 Y-5.8984
G01 X23.7675 Y-5.9441
G01 X23.8020 Y-5.9882
G01 X23.8385 Y-6.0306
G01 X23.8759 Y-6.0699
G01 X23.9176 Y-6.1097
G01 X23.9600 Y-6.1462
G01 X24.0041 Y-6.1807
G01 X24.0498 Y-6.2129
G01 X24.0971 Y-6.2428
G01 X24.1458 Y-6.2704
G01 X24.1958 Y-6.2955
G01 X24.2469 Y-6.3182
G01 X24.2991 Y-6.3384
G01 X24.3523 Y-6.3559
G01 X24.4062 Y-6.3708
G01 X24.4608 Y-6.3831
G01 X24.5159 Y-6.3927
G01 X24.5715 Y-6.3995
G01 X24.6273 Y-6.4036
G01 X24.6832 Y-6.4050
G01 X24.7391 Y-6.4036
G01 X24.7949 Y-6.3995
G01 X24.8505 Y-6.3927
G01 X24.9056 Y-6.3831
G01 X24.9602 Y-6.3708
G01 X25.0141 Y-6.3559
G01 X25.0673 Y-6.3384
G01 X25.1195 Y-6.3182
G01 X25.1706 Y-6.2955
G01 X25.2206 Y-6.2704
G01 X25.2693 Y-6.2428
G01 X25.3166 Y-6.2129
G01 X25.3623 Y-6.1807
G01 X25.4064 Y-6.1462
G01 X25.4488 Y-6.1097
G01 X25.4881 Y-6.0723
G01 X25.5302 Y-6.0280
G01 X25.5644 Y-5.9882
G01 X25.5989 Y-5.9441
G01 X25.6311 Y-5.8984
G01 X25.6592 Y-5.8540
G01 X25.6886 Y-5.8024
G01 X25.7152 Y-5.7493
G01 X25.7364 Y-5.7013
G01 X25.7566 Y-5.6491
G01 X25.7751 Y-5.5926
G01 X25.7890 Y-5.5420
G01 X25.8013 Y-5.4874
G01 X25.8113 Y-5.4289
G01 X25.8177 Y-5.3767
G01 X25.8218 Y-5.3209
G01 X25.8232 Y-5.2650
G01 X25.8220 Y-5.2125
G01 X25.8177 Y-5.1533
G01 X25.8109 Y-5.0977
G01 X25.8019 Y-5.0460
G01 X25.7890 Y-4.9880
G01 X25.7731 Y-4.9308
G01 X25.7566 Y-4.8809
G01 X25.7371 Y-4.8303
G01 X25.7122 Y-4.7745
G01 X25.6886 Y-4.7276
G01 X25.6610 Y-4.6789
G01 X25.6311 Y-4.6316
G01 X25.6009 Y-4.5887
G01 X25.5622 Y-4.5392
G01 X25.5279 Y-4.4994
G01 X25.4893 Y-4.4589
G01 X25.4488 Y-4.4203
G01 X25.4090 Y-4.3860
G01 X25.3595 Y-4.3473
G01 X25.3166 Y-4.3171
G01 X25.2707 Y-4.2881
G01 X25.2175 Y-4.2580
G01 X25.1706 Y-4.2345
G01 X25.1195 Y-4.2118
G01 X25.0673 Y-4.1916
G01 X25.0174 Y-4.1751
G01 X24.9585 Y-4.1588
G01 X24.9056 Y-4.1469
G01 X24.8539 Y-4.1379
G01 X24.7932 Y-4.1303
G01 X24.7391 Y-4.1264
G01 X24.6849 Y-4.1250
G01 X24.6290 Y-4.1263
G01 X24.6107 Y-4.1276
G01 X23.9487 Y-2.6654
G01 X23.9542 Y-2.6521
G01 X23.9586 Y-2.6372
G01 X23.9611 Y-2.6237
G01 X23.9624 Y-2.6083
G01 X23.9624 Y-2.2157
G01 X26.1909 Y-2.2157
G01 X27.7087 Y-3.7335
G01 X27.7087 Y-5.0651
G01 X27.6515 Y-5.0899
G01 X27.6029 Y-5.1145
G01 X27.5615 Y-5.1380
G01 X27.5213 Y-5.1634
G01 X27.4767 Y-5.1947
G01 X27.4338 Y-5.2283
G01 X27.3978 Y-5.2594
G01 X27.3633 Y-5.2922
G01 X27.3256 Y-5.3316
G01 X27.2912 Y-5.3716
G01 X27.2589 Y-5.4133
G01 X27.2315 Y-5.4522
G01 X27.2060 Y-5.4924
G01 X27.1790 Y-5.5397
G01 X27.1546 Y-5.5885
G01 X27.1354 Y-5.6320
G01 X27.1182 Y-5.6764
G01 X27.1010 Y-5.7281
G01 X27.0866 Y-5.7806
G01 X27.0762 Y-5.8271
G01 X27.0677 Y-5.8757
G01 X27.0612 Y-5.9281
G01 X27.0575 Y-5.9790
G01 X27.0562 Y-6.0300
G01 X27.0573 Y-6.0776
G01 X27.0612 Y-6.1319
G01 X27.0670 Y-6.1792
G01 X27.0769 Y-6.2363
G01 X27.0874 Y-6.2827
G01 X27.1010 Y-6.3319
G01 X27.1170 Y-6.3804
G01 X27.1354 Y-6.4280
G01 X27.1561 Y-6.4747
G01 X27.1790 Y-6.5203
G01 X27.2042 Y-6.5647
G01 X27.2324 Y-6.6092
G01 X27.2609 Y-6.6495
G01 X27.2901 Y-6.6871
G01 X27.3256 Y-6.7284
G01 X27.3633 Y-6.7678
G01 X27.3978 Y-6.8006
G01 X27.4338 Y-6.8317
G01 X27.4767 Y-6.8653
G01 X27.5213 Y-6.8966
G01 X27.5615 Y-6.9220
G01 X27.6029 Y-6.9455
G01 X27.6515 Y-6.9701
G01 X27.7014 Y-6.9921
G01 X27.7458 Y-7.0092
G01 X27.7943 Y-7.0252
G01 X27.8468 Y-7.0396
G01 X27.8933 Y-7.0500
G01 X27.9402 Y-7.0582
G01 X27.9977 Y-7.0653
G01 X28.0452 Y-7.0687
G01 X28.0928 Y-7.0700
G01 X28.1472 Y-7.0687
G01 X28.2016 Y-7.0646
G01 X28.2488 Y-7.0587
G01 X28.2957 Y-7.0506
G01 X28.3489 Y-7.0388
G01 X28.3981 Y-7.0252
G01 X28.4433 Y-7.0103
G01 X28.4942 Y-6.9908
G01 X28.5439 Y-6.9686
G01 X28.5865 Y-6.9472
G01 X28.6309 Y-6.9220
G01 X28.6768 Y-6.8928
G01 X28.7157 Y-6.8653
G01 X28.7533 Y-6.8361
G01 X28.7971 Y-6.7983
G01 X28.8316 Y-6.7654
G01 X28.8645 Y-6.7309
G01 X28.9001 Y-6.6898
G01 X28.9335 Y-6.6467
G01 X28.9609 Y-6.6078
G01 X28.9864 Y-6.5676
G01 X29.0134 Y-6.5203
G01 X29.0378 Y-6.4715
G01 X29.0570 Y-6.4280
G01 X29.0748 Y-6.3820
G01 X29.0914 Y-6.3319
G01 X29.1050 Y-6.2827
G01 X29.1162 Y-6.2329
G01 X29.1249 Y-6.1826
G01 X29.1312 Y-6.1319
G01 X29.1349 Y-6.0810
G01 X29.1362 Y-6.0300
G01 X29.1349 Y-5.9790
G01 X29.1312 Y-5.9281
G01 X29.1249 Y-5.8774
G01 X29.1162 Y-5.8271
G01 X29.1050 Y-5.7773
G01 X29.0914 Y-5.7281
G01 X29.0754 Y-5.6796
G01 X29.0570 Y-5.6320
G01 X29.0378 Y-5.5885
G01 X29.0134 Y-5.5397
G01 X28.9882 Y-5.4953
G01 X28.9609 Y-5.4522
G01 X28.9315 Y-5.4105
G01 X28.9001 Y-5.3702
G01 X28.8668 Y-5.3316
G01 X28.8316 Y-5.2946
G01 X28.7971 Y-5.2617
G01 X28.7560 Y-5.2261
G01 X28.7157 Y-5.1947
G01 X28.6740 Y-5.1653
G01 X28.6338 Y-5.1398
G01 X28.5865 Y-5.1128
G01 X28.5439 Y-5.0914
G01 X28.4889 Y-5.0671
G01 X28.4886 Y-3.5562
G01 X28.4870 Y-3.5337
G01 X28.4847 Y-3.5147
G01 X28.4814 Y-3.4958
G01 X28.4768 Y-3.4754
G01 X28.4716 Y-3.4570
G01 X28.4649 Y-3.4373
G01 X28.4529 Y-3.4082
G01 X28.4437 Y-3.3895
G01 X28.4316 Y-3.3684
G01 X28.4122 Y-3.3395
G01 X28.3982 Y-3.3218
G01 X28.3759 Y-3.2973
G01 X26.6271 Y-1.5485
G01 X26.5987 Y-1.5229
G01 X26.5835 Y-1.5112
G01 X26.5664 Y-1.4993
G01 X26.5394 Y-1.4832
G01 X26.5224 Y-1.4744
G01 X26.5034 Y-1.4658
G01 X26.4855 Y-1.4589
G01 X26.4506 Y-1.4480
G01 X26.4252 Y-1.4423
G01 X26.3907 Y-1.4374
G01 X26.3542 Y-1.4355
G01 X23.9624 Y-1.4355
G01 X23.9624 Y-1.2015
G01 X23.9606 Y-1.1827
G01 X23.9564 Y-1.1643
G01 X23.9497 Y-1.1466
G01 X23.9407 Y-1.1300
G01 X23.9295 Y-1.1148
G01 X23.9164 Y-1.1012
G01 X23.9016 Y-1.0895
G01 X23.8853 Y-1.0798
G01 X23.8696 Y-1.0731
G01 X23.8514 Y-1.0679
G01 X23.8378 Y-1.0658
G01 X23.8224 Y-1.0649
G01 X22.5172 Y-1.0650
G01 X22.5036 Y-1.0662
G01 X22.4901 Y-1.0687
G01 X22.4752 Y-1.0731
G01 X22.4625 Y-1.0783
G01 X22.4504 Y-1.0848
G01 X22.4376 Y-1.0935
G01 X22.4271 Y-1.1023
G01 X22.4164 Y-1.1135
G01 X22.4089 Y-1.1229
G01 X22.4023 Y-1.1329
G01 X22.3966 Y-1.1435
G01 X22.3912 Y-1.1561
G01 X22.3875 Y-1.1676
G01 X22.3848 Y-1.1793
G01 X22.3831 Y-1.1912
G01 X22.3824 Y-1.2032
G01 X22.3824 Y-2.6066
G01 X22.3833 Y-2.6203
G01 X22.3854 Y-2.6339
G01 X22.3889 Y-2.6472
G01 X22.3944 Y-2.6616
G01 X22.4023 Y-2.6769
G01 X22.4131 Y-2.6924
G01 X22.4259 Y-2.7063
G01 X22.4404 Y-2.7184
G01 X22.4564 Y-2.7284
G01 X22.4720 Y-2.7355
G01 X22.4884 Y-2.7407
G01 X22.5070 Y-2.7440
G01 X22.5224 Y-2.7449
G01 X23.1282 Y-2.7449
G01 X23.8960 Y-4.4408
G00 Z2.0000
G00 X24.6822 Y-4.0550
G01 F70.00
G01 Z-0.0600
G01 F120.00
G01 X24.6550 Y-4.0556
G01 X24.6426 Y-4.0282
G01 X24.6621 Y-4.0431
G01 X24.6822 Y-4.0550
G00 Z2.0000
G00 X24.8031 Y-5.2650
G01 F70.00
G01 Z-0.0600
G01 F120.00
G01 X24.8025 Y-5.2768
G01 X24.8008 Y-5.2884
G01 X24.7980 Y-5.2998
G01 X24.7940 Y-5.3109
G01 X24.7890 Y-5.3215
G01 X24.7829 Y-5.3316
G01 X24.7759 Y-5.3411
G01 X24.7680 Y-5.3498
G01 X24.7593 Y-5.3577
G01 X24.7498 Y-5.3647
G01 X24.7397 Y-5.3708
G01 X24.7291 Y-5.3758
G01 X24.7180 Y-5.3798
G01 X24.7066 Y-5.3826
G01 X24.6950 Y-5.3843
G01 X24.6832 Y-5.3849
G01 X24.6714 Y-5.3843
G01 X24.6598 Y-5.3826
G01 X24.6484 Y-5.3798
G01 X24.6373 Y-5.3758
G01 X24.6267 Y-5.3708
G01 X24.6166 Y-5.3647
G01 X24.6071 Y-5.3577
G01 X24.5984 Y-5.3498
G01 X24.5905 Y-5.3411
G01 X24.5835 Y-5.3316
G01 X24.5774 Y-5.3215
G01 X24.5724 Y-5.3109
G01 X24.5684 Y-5.2998
G01 X24.5656 Y-5.2884
G01 X24.5639 Y-5.2768
G01 X24.5633 Y-5.2650
G01 X24.5639 Y-5.2532
G01 X24.5656 Y-5.2416
G01 X24.5684 Y-5.2302
G01 X24.5724 Y-5.2191
G01 X24.5774 Y-5.2085
G01 X24.5835 Y-5.1984
G01 X24.5905 Y-5.1889
G01 X24.5984 Y-5.1802
G01 X24.6071 Y-5.1723
G01 X24.6166 Y-5.1653
G01 X24.6267 Y-5.1592
G01 X24.6373 Y-5.1542
G01 X24.6484 Y-5.1502
G01 X24.6598 Y-5.1474
G01 X24.6714 Y-5.1457
G01 X24.6832 Y-5.1451
G01 X24.6950 Y-5.1457
G01 X24.7066 Y-5.1474
G01 X24.7180 Y-5.1502
G01 X24.7291 Y-5.1542
G01 X24.7397 Y-5.1592
G01 X24.7498 Y-5.1653
G01 X24.7593 Y-5.1723
G01 X24.7680 Y-5.1802
G01 X24.7759 Y-5.1889
G01 X24.7829 Y-5.1984
G01 X24.7890 Y-5.2085
G01 X24.7940 Y-5.2191
G01 X24.7980 Y-5.2302
G01 X24.8008 Y-5.2416
G01 X24.8025 Y-5.2532
G01 X24.8031 Y-5.2650
G00 Z2.0000
G00 X24.8731 Y-5.2650
G01 F70.00
G01 Z-0.0600
G01 F120.00
G01 X24.8722 Y-5.2836
G01 X24.8695 Y-5.3021
G01 X24.8650 Y-5.3201
G01 X24.8587 Y-5.3377
G01 X24.8507 Y-5.3545
G01 X24.8411 Y-5.3705
G01 X24.8300 Y-5.3855
G01 X24.8175 Y-5.3993
G01 X24.8037 Y-5.4118
G01 X24.7887 Y-5.4229
G01 X24.7727 Y-5.4325
G01 X24.7559 Y-5.4405
G01 X24.7383 Y-5.4468
G01 X24.7203 Y-5.4513
G01 X24.7018 Y-5.4540
G01 X24.6832 Y-5.4549
G01 X24.6646 Y-5.4540
G01 X24.6461 Y-5.4513
G01 X24.6281 Y-5.4468
G01 X24.6105 Y-5.4405
G01 X24.5937 Y-5.4325
G01 X24.5777 Y-5.4229
G01 X24.5627 Y-5.4118
G01 X24.5489 Y-5.3993
G01 X24.5364 Y-5.3855
G01 X24.5253 Y-5.3705
G01 X24.5157 Y-5.3545
G01 X24.5077 Y-5.3377
G01 X24.5014 Y-5.3201
G01 X24.4969 Y-5.3021
G01 X24.4942 Y-5.2836
G01 X24.4933 Y-5.2650
G01 X24.4942 Y-5.2464
G01 X24.4969 Y-5.2279
G01 X24.5014 Y-5.2099
G01 X24.5077 Y-5.1923
G01 X24.5157 Y-5.1755
G01 X24.5253 Y-5.1595
G01 X24.5364 Y-5.1445
G01 X24.5489 Y-5.1307
G01 X24.5627 Y-5.1182
G01 X24.5777 Y-5.1071
G01 X24.5937 Y-5.0975
G01 X24.6105 Y-5.0895
G01 X24.6281 Y-5.0832
G01 X24.6461 Y-5.0787
G01 X24.6646 Y-5.0760
G01 X24.6832 Y-5.0751
G01 X24.7018 Y-5.0760
G01 X24.7203 Y-5.0787
G01 X24.7383 Y-5.0832
G01 X24.7559 Y-5.0895
G01 X24.7727 Y-5.0975
G01 X24.7887 Y-5.1071
G01 X24.8037 Y-5.1182
G01 X24.8175 Y-5.1307
G01 X24.8300 Y-5.1445
G01 X24.8411 Y-5.1595
G01 X24.8507 Y-5.1755
G01 X24.8587 Y-5.1923
G01 X24.8650 Y-5.2099
G01 X24.8695 Y-5.2279
G01 X24.8722 Y-5.2464
G01 X24.8731 Y-5.2650
G00 Z2.0000
G00 X24.9432 Y-5.2650
G01 F70.00
G01 Z-0.0600
G01 F120.00
G01 X24.9419 Y-5.2905
G01 X24.9382 Y-5.3157
G01 X24.9320 Y-5.3405
G01 X24.9234 Y-5.3645
G01 X24.9125 Y-5.3875
G01 X24.8993 Y-5.4094
G01 X24.8842 Y-5.4299
G01 X24.8670 Y-5.4488
G01 X24.8481 Y-5.4660
G01 X24.8276 Y-5.4811
G01 X24.8057 Y-5.4943
G01 X24.7827 Y-5.5052
G01 X24.7587 Y-5.5138
G01 X24.7339 Y-5.5200
G01 X24.7087 Y-5.5237
G01 X24.6832 Y-5.5250
G01 X24.6577 Y-5.5237
G01 X24.6325 Y-5.5200
G01 X24.6077 Y-5.5138
G01 X24.5837 Y-5.5052
G01 X24.5607 Y-5.4943
G01 X24.5388 Y-5.4811
G01 X24.5183 Y-5.4660
G01 X24.4994 Y-5.4488
G01 X24.4822 Y-5.4299
G01 X24.4671 Y-5.4094
G01 X24.4539 Y-5.3875
G01 X24.4430 Y-5.3645
G01 X24.4344 Y-5.3405
G01 X24.4282 Y-5.3157
G01 X24.4245 Y-5.2905
G01 X24.4232 Y-5.2650
G01 X24.4245 Y-5.2395
G01 X24.4282 Y-5.2143
G01 X24.4344 Y-5.1895
G01 X24.4430 Y-5.1655
G01 X24.4539 Y-5.1425
G01 X24.4671 Y-5.1206
G01 X24.4822 Y-5.1001
G01 X24.4994 Y-5.0812
G01 X24.5183 Y-5.0640
G01 X24.5388 Y-5.0489
G01 X24.5607 Y-5.0357
G01 X24.5837 Y-5.0248
G01 X24.6077 Y-5.0162
G01 X24.6325 Y-5.0100
G01 X24.6577 Y-5.0063
G01 X24.6832 Y-5.0050
G01 X24.7087 Y-5.0063
G01 X24.7339 Y-5.0100
G01 X24.7587 Y-5.0162
G01 X24.7827 Y-5.0248
G01 X24.8057 Y-5.0357
G01 X24.8276 Y-5.0489
G01 X24.8481 Y-5.0640
G01 X24.8670 Y-5.0812
G01 X24.8842 Y-5.1001
G01 X24.8993 Y-5.1206
G01 X24.9125 Y-5.1425
G01 X24.9234 Y-5.1655
G01 X24.9320 Y-5.1895
G01 X24.9382 Y-5.2143
G01 X24.9419 Y-5.2395
G01 X24.9432 Y-5.2650
G00 Z2.0000
G00 X25.0132 Y-5.2650
G01 F70.00
G01 Z-0.0600
G01 F120.00
G01 X25.0116 Y-5.2973
G01 X25.0068 Y-5.3294
G01 X24.9990 Y-5.3608
G01 X24.9881 Y-5.3913
G01 X24.9742 Y-5.4206
G01 X24.9576 Y-5.4483
G01 X24.9383 Y-5.4743
G01 X24.9165 Y-5.4983
G01 X24.8925 Y-5.5201
G01 X24.8665 Y-5.5394
G01 X24.8388 Y-5.5560
G01 X24.8095 Y-5.5699
G01 X24.7790 Y-5.5808
G01 X24.7476 Y-5.5886
G01 X24.7155 Y-5.5934
G01 X24.6832 Y-5.5950
G01 X24.6509 Y-5.5934
G01 X24.6188 Y-5.5886
G01 X24.5874 Y-5.5808
G01 X24.5569 Y-5.5699
G01 X24.5276 Y-5.5560
G01 X24.4999 Y-5.5394
G01 X24.4739 Y-5.5201
G01 X24.4499 Y-5.4983
G01 X24.4281 Y-5.4743
G01 X24.4088 Y-5.4483
G01 X24.3922 Y-5.4206
G01 X24.3783 Y-5.3913
G01 X24.3674 Y-5.3608
G01 X24.3596 Y-5.3294
G01 X24.3548 Y-5.2973
G01 X24.3532 Y-5.2650
G01 X24.3548 Y-5.2327
G01 X24.3596 Y-5.2006
G01 X24.3674 Y-5.1692
G01 X24.3783 Y-5.1387
G01 X24.3922 Y-5.1094
G01 X24.4088 Y-5.0817
G01 X24.4281 Y-5.0557
G01 X24.4499 Y-5.0317
G01 X24.4739 Y-5.0099
G01 X24.4999 Y-4.9906
G01 X24.5276 Y-4.9740
G01 X24.5569 Y-4.9601
G01 X24.5874 Y-4.9492
G01 X24.6188 Y-4.9414
G01 X24.6509 Y-4.9366
G01 X24.6832 Y-4.9350
