(G-CODE GENERATED BY FLATCAM v8.993 - www.flatcam.org - Version Date: 2020/06/05)

(Name: A1_RF_PA_Ф1_верх.gbr_iso_combined_cutoff_cnc)
(Type: G-code from Geometry)
(Units: MM)

(Created on Friday, 27 November 2020 at 15:27)

(This preprocessor is the default preprocessor used by FlatCAM.)
(It is made to work with MACH3 compatible motion controllers.)

(TOOL DIAMETER: 2.0 mm)
(Feedrate_XY: 120.0 mm/min)
(Feedrate_Z: 70.0 mm/min)
(Feedrate rapids 1500.0 mm/min)

(Z_Cut: -1.8 mm)
(DepthPerCut: 0.1 mm <=>18 passes)
(Z_Move: 2.0 mm)
(Z Start: None mm)
(Z End: 25.0 mm)
(Steps per circle: 128)
(Preprocessor Geometry: default)

(X range:   -1.0000 ...   75.5000  mm)
(Y range:  -81.6000 ...    1.0000  mm)

(Spindle Speed: 10000 RPM)
G21
G90
G94



G01 F120.00
G00 Z2.0000

M03 S10000
G00 X-1.0000 Y-0.0000
G01 F70.00
G01 Z-0.1000
G01 F120.00
G01 X-0.9999 Y-34.9252
G01 X-0.9988 Y-34.9620
G01 X-0.9952 Y-35.0110
G01 X-0.9909 Y-35.0476
G01 X-0.9831 Y-35.0960
G01 X-0.9729 Y-35.1440
G01 X-0.9604 Y-35.1915
G01 X-0.9495 Y-35.2267
G01 X-0.9330 Y-35.2729
G01 X-0.9142 Y-35.3182
G01 X-0.8987 Y-35.3516
G01 X-0.8819 Y-35.3844
G01 X-0.8577 Y-35.4271
G01 X-0.8382 Y-35.4583
G01 X-0.8105 Y-35.4988
G01 X-0.7883 Y-35.5282
G01 X-0.7572 Y-35.5661
G01 X-0.7242 Y-35.6025
G01 X-0.6895 Y-35.6372
G01 X-0.6438 Y-35.6781
G01 X-0.6055 Y-35.7088
G01 X-0.5556 Y-35.7444
G01 X-0.5141 Y-35.7707
G01 X-0.4714 Y-35.7949
G01 X-0.4164 Y-35.8221
G01 X-0.3713 Y-35.8415
G01 X-0.3253 Y-35.8586
G01 X-0.2785 Y-35.8734
G01 X-0.2191 Y-35.8887
G01 X-0.1589 Y-35.9003
G01 X-0.1102 Y-35.9069
G01 X-0.0613 Y-35.9111
G01 X-0.0123 Y-35.9129
G01 X21.7926 Y-35.9130
G01 X21.7926 Y-52.4152
G01 X21.7933 Y-52.4520
G01 X21.7953 Y-52.4887
G01 X21.7987 Y-52.5254
G01 X21.8034 Y-52.5619
G01 X21.8095 Y-52.5982
G01 X21.8169 Y-52.6343
G01 X21.8256 Y-52.6700
G01 X21.8357 Y-52.7055
G01 X21.8470 Y-52.7405
G01 X21.8596 Y-52.7751
G01 X21.8735 Y-52.8092
G01 X21.8886 Y-52.8427
G01 X21.9050 Y-52.8757
G01 X21.9225 Y-52.9081
G01 X21.9413 Y-52.9398
G01 X21.9680 Y-52.9809
G01 X21.9894 Y-53.0109
G01 X22.0119 Y-53.0400
G01 X22.0354 Y-53.0683
G01 X22.0600 Y-53.0958
G01 X22.0855 Y-53.1223
G01 X22.1120 Y-53.1478
G01 X22.1395 Y-53.1724
G01 X22.1678 Y-53.1959
G01 X22.1969 Y-53.2184
G01 X22.2269 Y-53.2398
G01 X22.2576 Y-53.2600
G01 X22.2891 Y-53.2791
G01 X22.3212 Y-53.2971
G01 X22.3540 Y-53.3138
G01 X22.3874 Y-53.3294
G01 X22.4213 Y-53.3437
G01 X22.4557 Y-53.3567
G01 X22.5023 Y-53.3721
G01 X22.5378 Y-53.3822
G01 X22.5855 Y-53.3935
G01 X22.6217 Y-53.4005
G01 X22.6702 Y-53.4077
G01 X22.7068 Y-53.4115
G01 X22.7436 Y-53.4140
G01 X22.7926 Y-53.4152
G01 X49.8120 Y-53.4152
G01 X49.8121 Y-80.6123
G01 X49.8132 Y-80.6491
G01 X49.8157 Y-80.6858
G01 X49.8195 Y-80.7224
G01 X49.8247 Y-80.7589
G01 X49.8312 Y-80.7951
G01 X49.8391 Y-80.8311
G01 X49.8482 Y-80.8667
G01 X49.8625 Y-80.9137
G01 X49.8747 Y-80.9484
G01 X49.8881 Y-80.9827
G01 X49.9029 Y-81.0164
G01 X49.9188 Y-81.0496
G01 X49.9360 Y-81.0822
G01 X49.9543 Y-81.1141
G01 X49.9806 Y-81.1556
G01 X50.0016 Y-81.1858
G01 X50.0390 Y-81.2344
G01 X50.0794 Y-81.2806
G01 X50.1136 Y-81.3157
G01 X50.1589 Y-81.3572
G01 X50.2065 Y-81.3958
G01 X50.2565 Y-81.4315
G01 X50.2979 Y-81.4577
G01 X50.3515 Y-81.4876
G01 X50.4068 Y-81.5142
G01 X50.4636 Y-81.5373
G01 X50.5100 Y-81.5533
G01 X50.5690 Y-81.5700
G01 X50.6290 Y-81.5831
G01 X50.6896 Y-81.5925
G01 X50.7507 Y-81.5981
G01 X50.7998 Y-81.5999
G01 X69.3729 Y-81.5999
G01 X69.4097 Y-81.5988
G01 X69.4586 Y-81.5952
G01 X69.5073 Y-81.5892
G01 X69.5436 Y-81.5831
G01 X69.5797 Y-81.5757
G01 X69.6273 Y-81.5638
G01 X69.6626 Y-81.5533
G01 X69.7090 Y-81.5374
G01 X69.7545 Y-81.5191
G01 X69.7991 Y-81.4987
G01 X69.8427 Y-81.4761
G01 X69.8746 Y-81.4578
G01 X69.9161 Y-81.4315
G01 X69.9463 Y-81.4105
G01 X69.9757 Y-81.3884
G01 X70.0137 Y-81.3573
G01 X70.0500 Y-81.3243
G01 X70.0762 Y-81.2985
G01 X70.1096 Y-81.2625
G01 X70.1453 Y-81.2199
G01 X75.0397 Y-76.2478
G01 X75.0624 Y-76.2328
G01 X75.0926 Y-76.2114
G01 X75.1410 Y-76.1734
G01 X75.1871 Y-76.1325
G01 X75.2305 Y-76.0888
G01 X75.2633 Y-76.0520
G01 X75.2866 Y-76.0233
G01 X75.3161 Y-75.9838
G01 X75.3369 Y-75.9533
G01 X75.3566 Y-75.9220
G01 X75.3810 Y-75.8791
G01 X75.4032 Y-75.8351
G01 X75.4184 Y-75.8015
G01 X75.4368 Y-75.7557
G01 X75.4491 Y-75.7209
G01 X75.4601 Y-75.6856
G01 X75.4727 Y-75.6379
G01 X75.4830 Y-75.5897
G01 X75.4891 Y-75.5533
G01 X75.4939 Y-75.5166
G01 X75.4981 Y-75.4675
G01 X75.5000 Y-75.4059
G01 X75.5000 Y-4.7787
G01 X75.4993 Y-4.7421
G01 X75.4963 Y-4.6933
G01 X75.4910 Y-4.6447
G01 X75.4854 Y-4.6085
G01 X75.4759 Y-4.5605
G01 X75.4641 Y-4.5131
G01 X75.4499 Y-4.4663
G01 X75.4379 Y-4.4317
G01 X75.4198 Y-4.3863
G01 X75.4048 Y-4.3528
G01 X75.3829 Y-4.3091
G01 X75.3589 Y-4.2666
G01 X75.3328 Y-4.2252
G01 X75.3120 Y-4.1950
G01 X75.2825 Y-4.1561
G01 X75.2511 Y-4.1186
G01 X75.2180 Y-4.0827
G01 X75.1831 Y-4.0484
G01 X75.1466 Y-4.0159
G01 X75.1182 Y-3.9927
G01 X75.0791 Y-3.9634
G01 X75.0385 Y-3.9361
G01 X74.9967 Y-3.9108
G01 X74.9605 Y-3.8911
G01 X70.5737 Y0.4203
G01 X70.5525 Y0.4635
G01 X70.5287 Y0.5063
G01 X70.5029 Y0.5478
G01 X70.4751 Y0.5881
G01 X70.4454 Y0.6270
G01 X70.4138 Y0.6643
G01 X70.3804 Y0.7001
G01 X70.3453 Y0.7342
G01 X70.3179 Y0.7586
G01 X70.2800 Y0.7896
G01 X70.2506 Y0.8116
G01 X70.2102 Y0.8392
G01 X70.1685 Y0.8648
G01 X70.1364 Y0.8826
G01 X70.0927 Y0.9046
G01 X70.0479 Y0.9243
G01 X70.0023 Y0.9419
G01 X69.9675 Y0.9536
G01 X69.9323 Y0.9640
G01 X69.8848 Y0.9758
G01 X69.8488 Y0.9832
G01 X69.8005 Y0.9910
G01 X69.7519 Y0.9963
G01 X69.7153 Y0.9988
G01 X69.6664 Y1.0000
G01 X-0.0123 Y0.9999
G01 X-0.0613 Y0.9981
G01 X-0.1102 Y0.9939
G01 X-0.1589 Y0.9873
G01 X-0.2071 Y0.9783
G01 X-0.2549 Y0.9670
G01 X-0.3020 Y0.9533
G01 X-0.3484 Y0.9373
G01 X-0.3940 Y0.9191
G01 X-0.4386 Y0.8987
G01 X-0.4822 Y0.8761
G01 X-0.5246 Y0.8514
G01 X-0.5657 Y0.8246
G01 X-0.6055 Y0.7958
G01 X-0.6438 Y0.7652
G01 X-0.6716 Y0.7410
G01 X-0.7071 Y0.7071
G01 X-0.7410 Y0.6716
G01 X-0.7730 Y0.6344
G01 X-0.8032 Y0.5957
G01 X-0.8315 Y0.5556
G01 X-0.8577 Y0.5141
G01 X-0.8819 Y0.4714
G01 X-0.9040 Y0.4276
G01 X-0.9239 Y0.3827
G01 X-0.9415 Y0.3369
G01 X-0.9569 Y0.2903
G01 X-0.9700 Y0.2430
G01 X-0.9808 Y0.1951
G01 X-0.9892 Y0.1467
G01 X-0.9952 Y0.0980
G01 X-0.9988 Y0.0491
G01 X-1.0000 Y-0.0000
G00 X-1.0000 Y-0.0000
G01 F70.00
G01 Z-0.2000
G01 F120.00
G01 X-0.9999 Y-34.9252
G01 X-0.9988 Y-34.9620
G01 X-0.9952 Y-35.0110
G01 X-0.9909 Y-35.0476
G01 X-0.9831 Y-35.0960
G01 X-0.9729 Y-35.1440
G01 X-0.9604 Y-35.1915
G01 X-0.9495 Y-35.2267
G01 X-0.9330 Y-35.2729
G01 X-0.9142 Y-35.3182
G01 X-0.8987 Y-35.3516
G01 X-0.8819 Y-35.3844
G01 X-0.8577 Y-35.4271
G01 X-0.8382 Y-35.4583
G01 X-0.8105 Y-35.4988
G01 X-0.7883 Y-35.5282
G01 X-0.7572 Y-35.5661
G01 X-0.7242 Y-35.6025
G01 X-0.6895 Y-35.6372
G01 X-0.6438 Y-35.6781
G01 X-0.6055 Y-35.7088
G01 X-0.5556 Y-35.7444
G01 X-0.5141 Y-35.7707
G01 X-0.4714 Y-35.7949
G01 X-0.4164 Y-35.8221
G01 X-0.3713 Y-35.8415
G01 X-0.3253 Y-35.8586
G01 X-0.2785 Y-35.8734
G01 X-0.2191 Y-35.8887
G01 X-0.1589 Y-35.9003
G01 X-0.1102 Y-35.9069
G01 X-0.0613 Y-35.9111
G01 X-0.0123 Y-35.9129
G01 X21.7926 Y-35.9130
G01 X21.7926 Y-52.4152
G01 X21.7933 Y-52.4520
G01 X21.7953 Y-52.4887
G01 X21.7987 Y-52.5254
G01 X21.8034 Y-52.5619
G01 X21.8095 Y-52.5982
G01 X21.8169 Y-52.6343
G01 X21.8256 Y-52.6700
G01 X21.8357 Y-52.7055
G01 X21.8470 Y-52.7405
G01 X21.8596 Y-52.7751
G01 X21.8735 Y-52.8092
G01 X21.8886 Y-52.8427
G01 X21.9050 Y-52.8757
G01 X21.9225 Y-52.9081
G01 X21.9413 Y-52.9398
G01 X21.9680 Y-52.9809
G01 X21.9894 Y-53.0109
G01 X22.0119 Y-53.0400
G01 X22.0354 Y-53.0683
G01 X22.0600 Y-53.0958
G01 X22.0855 Y-53.1223
G01 X22.1120 Y-53.1478
G01 X22.1395 Y-53.1724
G01 X22.1678 Y-53.1959
G01 X22.1969 Y-53.2184
G01 X22.2269 Y-53.2398
G01 X22.2576 Y-53.2600
G01 X22.2891 Y-53.2791
G01 X22.3212 Y-53.2971
G01 X22.3540 Y-53.3138
G01 X22.3874 Y-53.3294
G01 X22.4213 Y-53.3437
G01 X22.4557 Y-53.3567
G01 X22.5023 Y-53.3721
G01 X22.5378 Y-53.3822
G01 X22.5855 Y-53.3935
G01 X22.6217 Y-53.4005
G01 X22.6702 Y-53.4077
G01 X22.7068 Y-53.4115
G01 X22.7436 Y-53.4140
G01 X22.7926 Y-53.4152
G01 X49.8120 Y-53.4152
G01 X49.8121 Y-80.6123
G01 X49.8132 Y-80.6491
G01 X49.8157 Y-80.6858
G01 X49.8195 Y-80.7224
G01 X49.8247 Y-80.7589
G01 X49.8312 Y-80.7951
G01 X49.8391 Y-80.8311
G01 X49.8482 Y-80.8667
G01 X49.8625 Y-80.9137
G01 X49.8747 Y-80.9484
G01 X49.8881 Y-80.9827
G01 X49.9029 Y-81.0164
G01 X49.9188 Y-81.0496
G01 X49.9360 Y-81.0822
G01 X49.9543 Y-81.1141
G01 X49.9806 Y-81.1556
G01 X50.0016 Y-81.1858
G01 X50.0390 Y-81.2344
G01 X50.0794 Y-81.2806
G01 X50.1136 Y-81.3157
G01 X50.1589 Y-81.3572
G01 X50.2065 Y-81.3958
G01 X50.2565 Y-81.4315
G01 X50.2979 Y-81.4577
G01 X50.3515 Y-81.4876
G01 X50.4068 Y-81.5142
G01 X50.4636 Y-81.5373
G01 X50.5100 Y-81.5533
G01 X50.5690 Y-81.5700
G01 X50.6290 Y-81.5831
G01 X50.6896 Y-81.5925
G01 X50.7507 Y-81.5981
G01 X50.7998 Y-81.5999
G01 X69.3729 Y-81.5999
G01 X69.4097 Y-81.5988
G01 X69.4586 Y-81.5952
G01 X69.5073 Y-81.5892
G01 X69.5436 Y-81.5831
G01 X69.5797 Y-81.5757
G01 X69.6273 Y-81.5638
G01 X69.6626 Y-81.5533
G01 X69.7090 Y-81.5374
G01 X69.7545 Y-81.5191
G01 X69.7991 Y-81.4987
G01 X69.8427 Y-81.4761
G01 X69.8746 Y-81.4578
G01 X69.9161 Y-81.4315
G01 X69.9463 Y-81.4105
G01 X69.9757 Y-81.3884
G01 X70.0137 Y-81.3573
G01 X70.0500 Y-81.3243
G01 X70.0762 Y-81.2985
G01 X70.1096 Y-81.2625
G01 X70.1453 Y-81.2199
G01 X75.0397 Y-76.2478
G01 X75.0624 Y-76.2328
G01 X75.0926 Y-76.2114
G01 X75.1410 Y-76.1734
G01 X75.1871 Y-76.1325
G01 X75.2305 Y-76.0888
G01 X75.2633 Y-76.0520
G01 X75.2866 Y-76.0233
G01 X75.3161 Y-75.9838
G01 X75.3369 Y-75.9533
G01 X75.3566 Y-75.9220
G01 X75.3810 Y-75.8791
G01 X75.4032 Y-75.8351
G01 X75.4184 Y-75.8015
G01 X75.4368 Y-75.7557
G01 X75.4491 Y-75.7209
G01 X75.4601 Y-75.6856
G01 X75.4727 Y-75.6379
G01 X75.4830 Y-75.5897
G01 X75.4891 Y-75.5533
G01 X75.4939 Y-75.5166
G01 X75.4981 Y-75.4675
G01 X75.5000 Y-75.4059
G01 X75.5000 Y-4.7787
G01 X75.4993 Y-4.7421
G01 X75.4963 Y-4.6933
G01 X75.4910 Y-4.6447
G01 X75.4854 Y-4.6085
G01 X75.4759 Y-4.5605
G01 X75.4641 Y-4.5131
G01 X75.4499 Y-4.4663
G01 X75.4379 Y-4.4317
G01 X75.4198 Y-4.3863
G01 X75.4048 Y-4.3528
G01 X75.3829 Y-4.3091
G01 X75.3589 Y-4.2666
G01 X75.3328 Y-4.2252
G01 X75.3120 Y-4.1950
G01 X75.2825 Y-4.1561
G01 X75.2511 Y-4.1186
G01 X75.2180 Y-4.0827
G01 X75.1831 Y-4.0484
G01 X75.1466 Y-4.0159
G01 X75.1182 Y-3.9927
G01 X75.0791 Y-3.9634
G01 X75.0385 Y-3.9361
G01 X74.9967 Y-3.9108
G01 X74.9605 Y-3.8911
G01 X70.5737 Y0.4203
G01 X70.5525 Y0.4635
G01 X70.5287 Y0.5063
G01 X70.5029 Y0.5478
G01 X70.4751 Y0.5881
G01 X70.4454 Y0.6270
G01 X70.4138 Y0.6643
G01 X70.3804 Y0.7001
G01 X70.3453 Y0.7342
G01 X70.3179 Y0.7586
G01 X70.2800 Y0.7896
G01 X70.2506 Y0.8116
G01 X70.2102 Y0.8392
G01 X70.1685 Y0.8648
G01 X70.1364 Y0.8826
G01 X70.0927 Y0.9046
G01 X70.0479 Y0.9243
G01 X70.0023 Y0.9419
G01 X69.9675 Y0.9536
G01 X69.9323 Y0.9640
G01 X69.8848 Y0.9758
G01 X69.8488 Y0.9832
G01 X69.8005 Y0.9910
G01 X69.7519 Y0.9963
G01 X69.7153 Y0.9988
G01 X69.6664 Y1.0000
G01 X-0.0123 Y0.9999
G01 X-0.0613 Y0.9981
G01 X-0.1102 Y0.9939
G01 X-0.1589 Y0.9873
G01 X-0.2071 Y0.9783
G01 X-0.2549 Y0.9670
G01 X-0.3020 Y0.9533
G01 X-0.3484 Y0.9373
G01 X-0.3940 Y0.9191
G01 X-0.4386 Y0.8987
G01 X-0.4822 Y0.8761
G01 X-0.5246 Y0.8514
G01 X-0.5657 Y0.8246
G01 X-0.6055 Y0.7958
G01 X-0.6438 Y0.7652
G01 X-0.6716 Y0.7410
G01 X-0.7071 Y0.7071
G01 X-0.7410 Y0.6716
G01 X-0.7730 Y0.6344
G01 X-0.8032 Y0.5957
G01 X-0.8315 Y0.5556
G01 X-0.8577 Y0.5141
G01 X-0.8819 Y0.4714
G01 X-0.9040 Y0.4276
G01 X-0.9239 Y0.3827
G01 X-0.9415 Y0.3369
G01 X-0.9569 Y0.2903
G01 X-0.9700 Y0.2430
G01 X-0.9808 Y0.1951
G01 X-0.9892 Y0.1467
G01 X-0.9952 Y0.0980
G01 X-0.9988 Y0.0491
G01 X-1.0000 Y-0.0000
G00 X-1.0000 Y-0.0000
G01 F70.00
G01 Z-0.3000
G01 F120.00
G01 X-0.9999 Y-34.9252
G01 X-0.9988 Y-34.9620
G01 X-0.9952 Y-35.0110
G01 X-0.9909 Y-35.0476
G01 X-0.9831 Y-35.0960
G01 X-0.9729 Y-35.1440
G01 X-0.9604 Y-35.1915
G01 X-0.9495 Y-35.2267
G01 X-0.9330 Y-35.2729
G01 X-0.9142 Y-35.3182
G01 X-0.8987 Y-35.3516
G01 X-0.8819 Y-35.3844
G01 X-0.8577 Y-35.4271
G01 X-0.8382 Y-35.4583
G01 X-0.8105 Y-35.4988
G01 X-0.7883 Y-35.5282
G01 X-0.7572 Y-35.5661
G01 X-0.7242 Y-35.6025
G01 X-0.6895 Y-35.6372
G01 X-0.6438 Y-35.6781
G01 X-0.6055 Y-35.7088
G01 X-0.5556 Y-35.7444
G01 X-0.5141 Y-35.7707
G01 X-0.4714 Y-35.7949
G01 X-0.4164 Y-35.8221
G01 X-0.3713 Y-35.8415
G01 X-0.3253 Y-35.8586
G01 X-0.2785 Y-35.8734
G01 X-0.2191 Y-35.8887
G01 X-0.1589 Y-35.9003
G01 X-0.1102 Y-35.9069
G01 X-0.0613 Y-35.9111
G01 X-0.0123 Y-35.9129
G01 X21.7926 Y-35.9130
G01 X21.7926 Y-52.4152
G01 X21.7933 Y-52.4520
G01 X21.7953 Y-52.4887
G01 X21.7987 Y-52.5254
G01 X21.8034 Y-52.5619
G01 X21.8095 Y-52.5982
G01 X21.8169 Y-52.6343
G01 X21.8256 Y-52.6700
G01 X21.8357 Y-52.7055
G01 X21.8470 Y-52.7405
G01 X21.8596 Y-52.7751
G01 X21.8735 Y-52.8092
G01 X21.8886 Y-52.8427
G01 X21.9050 Y-52.8757
G01 X21.9225 Y-52.9081
G01 X21.9413 Y-52.9398
G01 X21.9680 Y-52.9809
G01 X21.9894 Y-53.0109
G01 X22.0119 Y-53.0400
G01 X22.0354 Y-53.0683
G01 X22.0600 Y-53.0958
G01 X22.0855 Y-53.1223
G01 X22.1120 Y-53.1478
G01 X22.1395 Y-53.1724
G01 X22.1678 Y-53.1959
G01 X22.1969 Y-53.2184
G01 X22.2269 Y-53.2398
G01 X22.2576 Y-53.2600
G01 X22.2891 Y-53.2791
G01 X22.3212 Y-53.2971
G01 X22.3540 Y-53.3138
G01 X22.3874 Y-53.3294
G01 X22.4213 Y-53.3437
G01 X22.4557 Y-53.3567
G01 X22.5023 Y-53.3721
G01 X22.5378 Y-53.3822
G01 X22.5855 Y-53.3935
G01 X22.6217 Y-53.4005
G01 X22.6702 Y-53.4077
G01 X22.7068 Y-53.4115
G01 X22.7436 Y-53.4140
G01 X22.7926 Y-53.4152
G01 X49.8120 Y-53.4152
G01 X49.8121 Y-80.6123
G01 X49.8132 Y-80.6491
G01 X49.8157 Y-80.6858
G01 X49.8195 Y-80.7224
G01 X49.8247 Y-80.7589
G01 X49.8312 Y-80.7951
G01 X49.8391 Y-80.8311
G01 X49.8482 Y-80.8667
G01 X49.8625 Y-80.9137
G01 X49.8747 Y-80.9484
G01 X49.8881 Y-80.9827
G01 X49.9029 Y-81.0164
G01 X49.9188 Y-81.0496
G01 X49.9360 Y-81.0822
G01 X49.9543 Y-81.1141
G01 X49.9806 Y-81.1556
G01 X50.0016 Y-81.1858
G01 X50.0390 Y-81.2344
G01 X50.0794 Y-81.2806
G01 X50.1136 Y-81.3157
G01 X50.1589 Y-81.3572
G01 X50.2065 Y-81.3958
G01 X50.2565 Y-81.4315
G01 X50.2979 Y-81.4577
G01 X50.3515 Y-81.4876
G01 X50.4068 Y-81.5142
G01 X50.4636 Y-81.5373
G01 X50.5100 Y-81.5533
G01 X50.5690 Y-81.5700
G01 X50.6290 Y-81.5831
G01 X50.6896 Y-81.5925
G01 X50.7507 Y-81.5981
G01 X50.7998 Y-81.5999
G01 X69.3729 Y-81.5999
G01 X69.4097 Y-81.5988
G01 X69.4586 Y-81.5952
G01 X69.5073 Y-81.5892
G01 X69.5436 Y-81.5831
G01 X69.5797 Y-81.5757
G01 X69.6273 Y-81.5638
G01 X69.6626 Y-81.5533
G01 X69.7090 Y-81.5374
G01 X69.7545 Y-81.5191
G01 X69.7991 Y-81.4987
G01 X69.8427 Y-81.4761
G01 X69.8746 Y-81.4578
G01 X69.9161 Y-81.4315
G01 X69.9463 Y-81.4105
G01 X69.9757 Y-81.3884
G01 X70.0137 Y-81.3573
G01 X70.0500 Y-81.3243
G01 X70.0762 Y-81.2985
G01 X70.1096 Y-81.2625
G01 X70.1453 Y-81.2199
G01 X75.0397 Y-76.2478
G01 X75.0624 Y-76.2328
G01 X75.0926 Y-76.2114
G01 X75.1410 Y-76.1734
G01 X75.1871 Y-76.1325
G01 X75.2305 Y-76.0888
G01 X75.2633 Y-76.0520
G01 X75.2866 Y-76.0233
G01 X75.3161 Y-75.9838
G01 X75.3369 Y-75.9533
G01 X75.3566 Y-75.9220
G01 X75.3810 Y-75.8791
G01 X75.4032 Y-75.8351
G01 X75.4184 Y-75.8015
G01 X75.4368 Y-75.7557
G01 X75.4491 Y-75.7209
G01 X75.4601 Y-75.6856
G01 X75.4727 Y-75.6379
G01 X75.4830 Y-75.5897
G01 X75.4891 Y-75.5533
G01 X75.4939 Y-75.5166
G01 X75.4981 Y-75.4675
G01 X75.5000 Y-75.4059
G01 X75.5000 Y-4.7787
G01 X75.4993 Y-4.7421
G01 X75.4963 Y-4.6933
G01 X75.4910 Y-4.6447
G01 X75.4854 Y-4.6085
G01 X75.4759 Y-4.5605
G01 X75.4641 Y-4.5131
G01 X75.4499 Y-4.4663
G01 X75.4379 Y-4.4317
G01 X75.4198 Y-4.3863
G01 X75.4048 Y-4.3528
G01 X75.3829 Y-4.3091
G01 X75.3589 Y-4.2666
G01 X75.3328 Y-4.2252
G01 X75.3120 Y-4.1950
G01 X75.2825 Y-4.1561
G01 X75.2511 Y-4.1186
G01 X75.2180 Y-4.0827
G01 X75.1831 Y-4.0484
G01 X75.1466 Y-4.0159
G01 X75.1182 Y-3.9927
G01 X75.0791 Y-3.9634
G01 X75.0385 Y-3.9361
G01 X74.9967 Y-3.9108
G01 X74.9605 Y-3.8911
G01 X70.5737 Y0.4203
G01 X70.5525 Y0.4635
G01 X70.5287 Y0.5063
G01 X70.5029 Y0.5478
G01 X70.4751 Y0.5881
G01 X70.4454 Y0.6270
G01 X70.4138 Y0.6643
G01 X70.3804 Y0.7001
G01 X70.3453 Y0.7342
G01 X70.3179 Y0.7586
G01 X70.2800 Y0.7896
G01 X70.2506 Y0.8116
G01 X70.2102 Y0.8392
G01 X70.1685 Y0.8648
G01 X70.1364 Y0.8826
G01 X70.0927 Y0.9046
G01 X70.0479 Y0.9243
G01 X70.0023 Y0.9419
G01 X69.9675 Y0.9536
G01 X69.9323 Y0.9640
G01 X69.8848 Y0.9758
G01 X69.8488 Y0.9832
G01 X69.8005 Y0.9910
G01 X69.7519 Y0.9963
G01 X69.7153 Y0.9988
G01 X69.6664 Y1.0000
G01 X-0.0123 Y0.9999
G01 X-0.0613 Y0.9981
G01 X-0.1102 Y0.9939
G01 X-0.1589 Y0.9873
G01 X-0.2071 Y0.9783
G01 X-0.2549 Y0.9670
G01 X-0.3020 Y0.9533
G01 X-0.3484 Y0.9373
G01 X-0.3940 Y0.9191
G01 X-0.4386 Y0.8987
G01 X-0.4822 Y0.8761
G01 X-0.5246 Y0.8514
G01 X-0.5657 Y0.8246
G01 X-0.6055 Y0.7958
G01 X-0.6438 Y0.7652
G01 X-0.6716 Y0.7410
G01 X-0.7071 Y0.7071
G01 X-0.7410 Y0.6716
G01 X-0.7730 Y0.6344
G01 X-0.8032 Y0.5957
G01 X-0.8315 Y0.5556
G01 X-0.8577 Y0.5141
G01 X-0.8819 Y0.4714
G01 X-0.9040 Y0.4276
G01 X-0.9239 Y0.3827
G01 X-0.9415 Y0.3369
G01 X-0.9569 Y0.2903
G01 X-0.9700 Y0.2430
G01 X-0.9808 Y0.1951
G01 X-0.9892 Y0.1467
G01 X-0.9952 Y0.0980
G01 X-0.9988 Y0.0491
G01 X-1.0000 Y-0.0000
G00 X-1.0000 Y-0.0000
G01 F70.00
G01 Z-0.4000
G01 F120.00
G01 X-0.9999 Y-34.9252
G01 X-0.9988 Y-34.9620
G01 X-0.9952 Y-35.0110
G01 X-0.9909 Y-35.0476
G01 X-0.9831 Y-35.0960
G01 X-0.9729 Y-35.1440
G01 X-0.9604 Y-35.1915
G01 X-0.9495 Y-35.2267
G01 X-0.9330 Y-35.2729
G01 X-0.9142 Y-35.3182
G01 X-0.8987 Y-35.3516
G01 X-0.8819 Y-35.3844
G01 X-0.8577 Y-35.4271
G01 X-0.8382 Y-35.4583
G01 X-0.8105 Y-35.4988
G01 X-0.7883 Y-35.5282
G01 X-0.7572 Y-35.5661
G01 X-0.7242 Y-35.6025
G01 X-0.6895 Y-35.6372
G01 X-0.6438 Y-35.6781
G01 X-0.6055 Y-35.7088
G01 X-0.5556 Y-35.7444
G01 X-0.5141 Y-35.7707
G01 X-0.4714 Y-35.7949
G01 X-0.4164 Y-35.8221
G01 X-0.3713 Y-35.8415
G01 X-0.3253 Y-35.8586
G01 X-0.2785 Y-35.8734
G01 X-0.2191 Y-35.8887
G01 X-0.1589 Y-35.9003
G01 X-0.1102 Y-35.9069
G01 X-0.0613 Y-35.9111
G01 X-0.0123 Y-35.9129
G01 X21.7926 Y-35.9130
G01 X21.7926 Y-52.4152
G01 X21.7933 Y-52.4520
G01 X21.7953 Y-52.4887
G01 X21.7987 Y-52.5254
G01 X21.8034 Y-52.5619
G01 X21.8095 Y-52.5982
G01 X21.8169 Y-52.6343
G01 X21.8256 Y-52.6700
G01 X21.8357 Y-52.7055
G01 X21.8470 Y-52.7405
G01 X21.8596 Y-52.7751
G01 X21.8735 Y-52.8092
G01 X21.8886 Y-52.8427
G01 X21.9050 Y-52.8757
G01 X21.9225 Y-52.9081
G01 X21.9413 Y-52.9398
G01 X21.9680 Y-52.9809
G01 X21.9894 Y-53.0109
G01 X22.0119 Y-53.0400
G01 X22.0354 Y-53.0683
G01 X22.0600 Y-53.0958
G01 X22.0855 Y-53.1223
G01 X22.1120 Y-53.1478
G01 X22.1395 Y-53.1724
G01 X22.1678 Y-53.1959
G01 X22.1969 Y-53.2184
G01 X22.2269 Y-53.2398
G01 X22.2576 Y-53.2600
G01 X22.2891 Y-53.2791
G01 X22.3212 Y-53.2971
G01 X22.3540 Y-53.3138
G01 X22.3874 Y-53.3294
G01 X22.4213 Y-53.3437
G01 X22.4557 Y-53.3567
G01 X22.5023 Y-53.3721
G01 X22.5378 Y-53.3822
G01 X22.5855 Y-53.3935
G01 X22.6217 Y-53.4005
G01 X22.6702 Y-53.4077
G01 X22.7068 Y-53.4115
G01 X22.7436 Y-53.4140
G01 X22.7926 Y-53.4152
G01 X49.8120 Y-53.4152
G01 X49.8121 Y-80.6123
G01 X49.8132 Y-80.6491
G01 X49.8157 Y-80.6858
G01 X49.8195 Y-80.7224
G01 X49.8247 Y-80.7589
G01 X49.8312 Y-80.7951
G01 X49.8391 Y-80.8311
G01 X49.8482 Y-80.8667
G01 X49.8625 Y-80.9137
G01 X49.8747 Y-80.9484
G01 X49.8881 Y-80.9827
G01 X49.9029 Y-81.0164
G01 X49.9188 Y-81.0496
G01 X49.9360 Y-81.0822
G01 X49.9543 Y-81.1141
G01 X49.9806 Y-81.1556
G01 X50.0016 Y-81.1858
G01 X50.0390 Y-81.2344
G01 X50.0794 Y-81.2806
G01 X50.1136 Y-81.3157
G01 X50.1589 Y-81.3572
G01 X50.2065 Y-81.3958
G01 X50.2565 Y-81.4315
G01 X50.2979 Y-81.4577
G01 X50.3515 Y-81.4876
G01 X50.4068 Y-81.5142
G01 X50.4636 Y-81.5373
G01 X50.5100 Y-81.5533
G01 X50.5690 Y-81.5700
G01 X50.6290 Y-81.5831
G01 X50.6896 Y-81.5925
G01 X50.7507 Y-81.5981
G01 X50.7998 Y-81.5999
G01 X69.3729 Y-81.5999
G01 X69.4097 Y-81.5988
G01 X69.4586 Y-81.5952
G01 X69.5073 Y-81.5892
G01 X69.5436 Y-81.5831
G01 X69.5797 Y-81.5757
G01 X69.6273 Y-81.5638
G01 X69.6626 Y-81.5533
G01 X69.7090 Y-81.5374
G01 X69.7545 Y-81.5191
G01 X69.7991 Y-81.4987
G01 X69.8427 Y-81.4761
G01 X69.8746 Y-81.4578
G01 X69.9161 Y-81.4315
G01 X69.9463 Y-81.4105
G01 X69.9757 Y-81.3884
G01 X70.0137 Y-81.3573
G01 X70.0500 Y-81.3243
G01 X70.0762 Y-81.2985
G01 X70.1096 Y-81.2625
G01 X70.1453 Y-81.2199
G01 X75.0397 Y-76.2478
G01 X75.0624 Y-76.2328
G01 X75.0926 Y-76.2114
G01 X75.1410 Y-76.1734
G01 X75.1871 Y-76.1325
G01 X75.2305 Y-76.0888
G01 X75.2633 Y-76.0520
G01 X75.2866 Y-76.0233
G01 X75.3161 Y-75.9838
G01 X75.3369 Y-75.9533
G01 X75.3566 Y-75.9220
G01 X75.3810 Y-75.8791
G01 X75.4032 Y-75.8351
G01 X75.4184 Y-75.8015
G01 X75.4368 Y-75.7557
G01 X75.4491 Y-75.7209
G01 X75.4601 Y-75.6856
G01 X75.4727 Y-75.6379
G01 X75.4830 Y-75.5897
G01 X75.4891 Y-75.5533
G01 X75.4939 Y-75.5166
G01 X75.4981 Y-75.4675
G01 X75.5000 Y-75.4059
G01 X75.5000 Y-4.7787
G01 X75.4993 Y-4.7421
G01 X75.4963 Y-4.6933
G01 X75.4910 Y-4.6447
G01 X75.4854 Y-4.6085
G01 X75.4759 Y-4.5605
G01 X75.4641 Y-4.5131
G01 X75.4499 Y-4.4663
G01 X75.4379 Y-4.4317
G01 X75.4198 Y-4.3863
G01 X75.4048 Y-4.3528
G01 X75.3829 Y-4.3091
G01 X75.3589 Y-4.2666
G01 X75.3328 Y-4.2252
G01 X75.3120 Y-4.1950
G01 X75.2825 Y-4.1561
G01 X75.2511 Y-4.1186
G01 X75.2180 Y-4.0827
G01 X75.1831 Y-4.0484
G01 X75.1466 Y-4.0159
G01 X75.1182 Y-3.9927
G01 X75.0791 Y-3.9634
G01 X75.0385 Y-3.9361
G01 X74.9967 Y-3.9108
G01 X74.9605 Y-3.8911
G01 X70.5737 Y0.4203
G01 X70.5525 Y0.4635
G01 X70.5287 Y0.5063
G01 X70.5029 Y0.5478
G01 X70.4751 Y0.5881
G01 X70.4454 Y0.6270
G01 X70.4138 Y0.6643
G01 X70.3804 Y0.7001
G01 X70.3453 Y0.7342
G01 X70.3179 Y0.7586
G01 X70.2800 Y0.7896
G01 X70.2506 Y0.8116
G01 X70.2102 Y0.8392
G01 X70.1685 Y0.8648
G01 X70.1364 Y0.8826
G01 X70.0927 Y0.9046
G01 X70.0479 Y0.9243
G01 X70.0023 Y0.9419
G01 X69.9675 Y0.9536
G01 X69.9323 Y0.9640
G01 X69.8848 Y0.9758
G01 X69.8488 Y0.9832
G01 X69.8005 Y0.9910
G01 X69.7519 Y0.9963
G01 X69.7153 Y0.9988
G01 X69.6664 Y1.0000
G01 X-0.0123 Y0.9999
G01 X-0.0613 Y0.9981
G01 X-0.1102 Y0.9939
G01 X-0.1589 Y0.9873
G01 X-0.2071 Y0.9783
G01 X-0.2549 Y0.9670
G01 X-0.3020 Y0.9533
G01 X-0.3484 Y0.9373
G01 X-0.3940 Y0.9191
G01 X-0.4386 Y0.8987
G01 X-0.4822 Y0.8761
G01 X-0.5246 Y0.8514
G01 X-0.5657 Y0.8246
G01 X-0.6055 Y0.7958
G01 X-0.6438 Y0.7652
G01 X-0.6716 Y0.7410
G01 X-0.7071 Y0.7071
G01 X-0.7410 Y0.6716
G01 X-0.7730 Y0.6344
G01 X-0.8032 Y0.5957
G01 X-0.8315 Y0.5556
G01 X-0.8577 Y0.5141
G01 X-0.8819 Y0.4714
G01 X-0.9040 Y0.4276
G01 X-0.9239 Y0.3827
G01 X-0.9415 Y0.3369
G01 X-0.9569 Y0.2903
G01 X-0.9700 Y0.2430
G01 X-0.9808 Y0.1951
G01 X-0.9892 Y0.1467
G01 X-0.9952 Y0.0980
G01 X-0.9988 Y0.0491
G01 X-1.0000 Y-0.0000
G00 X-1.0000 Y-0.0000
G01 F70.00
G01 Z-0.5000
G01 F120.00
G01 X-0.9999 Y-34.9252
G01 X-0.9988 Y-34.9620
G01 X-0.9952 Y-35.0110
G01 X-0.9909 Y-35.0476
G01 X-0.9831 Y-35.0960
G01 X-0.9729 Y-35.1440
G01 X-0.9604 Y-35.1915
G01 X-0.9495 Y-35.2267
G01 X-0.9330 Y-35.2729
G01 X-0.9142 Y-35.3182
G01 X-0.8987 Y-35.3516
G01 X-0.8819 Y-35.3844
G01 X-0.8577 Y-35.4271
G01 X-0.8382 Y-35.4583
G01 X-0.8105 Y-35.4988
G01 X-0.7883 Y-35.5282
G01 X-0.7572 Y-35.5661
G01 X-0.7242 Y-35.6025
G01 X-0.6895 Y-35.6372
G01 X-0.6438 Y-35.6781
G01 X-0.6055 Y-35.7088
G01 X-0.5556 Y-35.7444
G01 X-0.5141 Y-35.7707
G01 X-0.4714 Y-35.7949
G01 X-0.4164 Y-35.8221
G01 X-0.3713 Y-35.8415
G01 X-0.3253 Y-35.8586
G01 X-0.2785 Y-35.8734
G01 X-0.2191 Y-35.8887
G01 X-0.1589 Y-35.9003
G01 X-0.1102 Y-35.9069
G01 X-0.0613 Y-35.9111
G01 X-0.0123 Y-35.9129
G01 X21.7926 Y-35.9130
G01 X21.7926 Y-52.4152
G01 X21.7933 Y-52.4520
G01 X21.7953 Y-52.4887
G01 X21.7987 Y-52.5254
G01 X21.8034 Y-52.5619
G01 X21.8095 Y-52.5982
G01 X21.8169 Y-52.6343
G01 X21.8256 Y-52.6700
G01 X21.8357 Y-52.7055
G01 X21.8470 Y-52.7405
G01 X21.8596 Y-52.7751
G01 X21.8735 Y-52.8092
G01 X21.8886 Y-52.8427
G01 X21.9050 Y-52.8757
G01 X21.9225 Y-52.9081
G01 X21.9413 Y-52.9398
G01 X21.9680 Y-52.9809
G01 X21.9894 Y-53.0109
G01 X22.0119 Y-53.0400
G01 X22.0354 Y-53.0683
G01 X22.0600 Y-53.0958
G01 X22.0855 Y-53.1223
G01 X22.1120 Y-53.1478
G01 X22.1395 Y-53.1724
G01 X22.1678 Y-53.1959
G01 X22.1969 Y-53.2184
G01 X22.2269 Y-53.2398
G01 X22.2576 Y-53.2600
G01 X22.2891 Y-53.2791
G01 X22.3212 Y-53.2971
G01 X22.3540 Y-53.3138
G01 X22.3874 Y-53.3294
G01 X22.4213 Y-53.3437
G01 X22.4557 Y-53.3567
G01 X22.5023 Y-53.3721
G01 X22.5378 Y-53.3822
G01 X22.5855 Y-53.3935
G01 X22.6217 Y-53.4005
G01 X22.6702 Y-53.4077
G01 X22.7068 Y-53.4115
G01 X22.7436 Y-53.4140
G01 X22.7926 Y-53.4152
G01 X49.8120 Y-53.4152
G01 X49.8121 Y-80.6123
G01 X49.8132 Y-80.6491
G01 X49.8157 Y-80.6858
G01 X49.8195 Y-80.7224
G01 X49.8247 Y-80.7589
G01 X49.8312 Y-80.7951
G01 X49.8391 Y-80.8311
G01 X49.8482 Y-80.8667
G01 X49.8625 Y-80.9137
G01 X49.8747 Y-80.9484
G01 X49.8881 Y-80.9827
G01 X49.9029 Y-81.0164
G01 X49.9188 Y-81.0496
G01 X49.9360 Y-81.0822
G01 X49.9543 Y-81.1141
G01 X49.9806 Y-81.1556
G01 X50.0016 Y-81.1858
G01 X50.0390 Y-81.2344
G01 X50.0794 Y-81.2806
G01 X50.1136 Y-81.3157
G01 X50.1589 Y-81.3572
G01 X50.2065 Y-81.3958
G01 X50.2565 Y-81.4315
G01 X50.2979 Y-81.4577
G01 X50.3515 Y-81.4876
G01 X50.4068 Y-81.5142
G01 X50.4636 Y-81.5373
G01 X50.5100 Y-81.5533
G01 X50.5690 Y-81.5700
G01 X50.6290 Y-81.5831
G01 X50.6896 Y-81.5925
G01 X50.7507 Y-81.5981
G01 X50.7998 Y-81.5999
G01 X69.3729 Y-81.5999
G01 X69.4097 Y-81.5988
G01 X69.4586 Y-81.5952
G01 X69.5073 Y-81.5892
G01 X69.5436 Y-81.5831
G01 X69.5797 Y-81.5757
G01 X69.6273 Y-81.5638
G01 X69.6626 Y-81.5533
G01 X69.7090 Y-81.5374
G01 X69.7545 Y-81.5191
G01 X69.7991 Y-81.4987
G01 X69.8427 Y-81.4761
G01 X69.8746 Y-81.4578
G01 X69.9161 Y-81.4315
G01 X69.9463 Y-81.4105
G01 X69.9757 Y-81.3884
G01 X70.0137 Y-81.3573
G01 X70.0500 Y-81.3243
G01 X70.0762 Y-81.2985
G01 X70.1096 Y-81.2625
G01 X70.1453 Y-81.2199
G01 X75.0397 Y-76.2478
G01 X75.0624 Y-76.2328
G01 X75.0926 Y-76.2114
G01 X75.1410 Y-76.1734
G01 X75.1871 Y-76.1325
G01 X75.2305 Y-76.0888
G01 X75.2633 Y-76.0520
G01 X75.2866 Y-76.0233
G01 X75.3161 Y-75.9838
G01 X75.3369 Y-75.9533
G01 X75.3566 Y-75.9220
G01 X75.3810 Y-75.8791
G01 X75.4032 Y-75.8351
G01 X75.4184 Y-75.8015
G01 X75.4368 Y-75.7557
G01 X75.4491 Y-75.7209
G01 X75.4601 Y-75.6856
G01 X75.4727 Y-75.6379
G01 X75.4830 Y-75.5897
G01 X75.4891 Y-75.5533
G01 X75.4939 Y-75.5166
G01 X75.4981 Y-75.4675
G01 X75.5000 Y-75.4059
G01 X75.5000 Y-4.7787
G01 X75.4993 Y-4.7421
G01 X75.4963 Y-4.6933
G01 X75.4910 Y-4.6447
G01 X75.4854 Y-4.6085
G01 X75.4759 Y-4.5605
G01 X75.4641 Y-4.5131
G01 X75.4499 Y-4.4663
G01 X75.4379 Y-4.4317
G01 X75.4198 Y-4.3863
G01 X75.4048 Y-4.3528
G01 X75.3829 Y-4.3091
G01 X75.3589 Y-4.2666
G01 X75.3328 Y-4.2252
G01 X75.3120 Y-4.1950
G01 X75.2825 Y-4.1561
G01 X75.2511 Y-4.1186
G01 X75.2180 Y-4.0827
G01 X75.1831 Y-4.0484
G01 X75.1466 Y-4.0159
G01 X75.1182 Y-3.9927
G01 X75.0791 Y-3.9634
G01 X75.0385 Y-3.9361
G01 X74.9967 Y-3.9108
G01 X74.9605 Y-3.8911
G01 X70.5737 Y0.4203
G01 X70.5525 Y0.4635
G01 X70.5287 Y0.5063
G01 X70.5029 Y0.5478
G01 X70.4751 Y0.5881
G01 X70.4454 Y0.6270
G01 X70.4138 Y0.6643
G01 X70.3804 Y0.7001
G01 X70.3453 Y0.7342
G01 X70.3179 Y0.7586
G01 X70.2800 Y0.7896
G01 X70.2506 Y0.8116
G01 X70.2102 Y0.8392
G01 X70.1685 Y0.8648
G01 X70.1364 Y0.8826
G01 X70.0927 Y0.9046
G01 X70.0479 Y0.9243
G01 X70.0023 Y0.9419
G01 X69.9675 Y0.9536
G01 X69.9323 Y0.9640
G01 X69.8848 Y0.9758
G01 X69.8488 Y0.9832
G01 X69.8005 Y0.9910
G01 X69.7519 Y0.9963
G01 X69.7153 Y0.9988
G01 X69.6664 Y1.0000
G01 X-0.0123 Y0.9999
G01 X-0.0613 Y0.9981
G01 X-0.1102 Y0.9939
G01 X-0.1589 Y0.9873
G01 X-0.2071 Y0.9783
G01 X-0.2549 Y0.9670
G01 X-0.3020 Y0.9533
G01 X-0.3484 Y0.9373
G01 X-0.3940 Y0.9191
G01 X-0.4386 Y0.8987
G01 X-0.4822 Y0.8761
G01 X-0.5246 Y0.8514
G01 X-0.5657 Y0.8246
G01 X-0.6055 Y0.7958
G01 X-0.6438 Y0.7652
G01 X-0.6716 Y0.7410
G01 X-0.7071 Y0.7071
G01 X-0.7410 Y0.6716
G01 X-0.7730 Y0.6344
G01 X-0.8032 Y0.5957
G01 X-0.8315 Y0.5556
G01 X-0.8577 Y0.5141
G01 X-0.8819 Y0.4714
G01 X-0.9040 Y0.4276
G01 X-0.9239 Y0.3827
G01 X-0.9415 Y0.3369
G01 X-0.9569 Y0.2903
G01 X-0.9700 Y0.2430
G01 X-0.9808 Y0.1951
G01 X-0.9892 Y0.1467
G01 X-0.9952 Y0.0980
G01 X-0.9988 Y0.0491
G01 X-1.0000 Y-0.0000
G00 X-1.0000 Y-0.0000
G01 F70.00
G01 Z-0.6000
G01 F120.00
G01 X-0.9999 Y-34.9252
G01 X-0.9988 Y-34.9620
G01 X-0.9952 Y-35.0110
G01 X-0.9909 Y-35.0476
G01 X-0.9831 Y-35.0960
G01 X-0.9729 Y-35.1440
G01 X-0.9604 Y-35.1915
G01 X-0.9495 Y-35.2267
G01 X-0.9330 Y-35.2729
G01 X-0.9142 Y-35.3182
G01 X-0.8987 Y-35.3516
G01 X-0.8819 Y-35.3844
G01 X-0.8577 Y-35.4271
G01 X-0.8382 Y-35.4583
G01 X-0.8105 Y-35.4988
G01 X-0.7883 Y-35.5282
G01 X-0.7572 Y-35.5661
G01 X-0.7242 Y-35.6025
G01 X-0.6895 Y-35.6372
G01 X-0.6438 Y-35.6781
G01 X-0.6055 Y-35.7088
G01 X-0.5556 Y-35.7444
G01 X-0.5141 Y-35.7707
G01 X-0.4714 Y-35.7949
G01 X-0.4164 Y-35.8221
G01 X-0.3713 Y-35.8415
G01 X-0.3253 Y-35.8586
G01 X-0.2785 Y-35.8734
G01 X-0.2191 Y-35.8887
G01 X-0.1589 Y-35.9003
G01 X-0.1102 Y-35.9069
G01 X-0.0613 Y-35.9111
G01 X-0.0123 Y-35.9129
G01 X21.7926 Y-35.9130
G01 X21.7926 Y-52.4152
G01 X21.7933 Y-52.4520
G01 X21.7953 Y-52.4887
G01 X21.7987 Y-52.5254
G01 X21.8034 Y-52.5619
G01 X21.8095 Y-52.5982
G01 X21.8169 Y-52.6343
G01 X21.8256 Y-52.6700
G01 X21.8357 Y-52.7055
G01 X21.8470 Y-52.7405
G01 X21.8596 Y-52.7751
G01 X21.8735 Y-52.8092
G01 X21.8886 Y-52.8427
G01 X21.9050 Y-52.8757
G01 X21.9225 Y-52.9081
G01 X21.9413 Y-52.9398
G01 X21.9680 Y-52.9809
G01 X21.9894 Y-53.0109
G01 X22.0119 Y-53.0400
G01 X22.0354 Y-53.0683
G01 X22.0600 Y-53.0958
G01 X22.0855 Y-53.1223
G01 X22.1120 Y-53.1478
G01 X22.1395 Y-53.1724
G01 X22.1678 Y-53.1959
G01 X22.1969 Y-53.2184
G01 X22.2269 Y-53.2398
G01 X22.2576 Y-53.2600
G01 X22.2891 Y-53.2791
G01 X22.3212 Y-53.2971
G01 X22.3540 Y-53.3138
G01 X22.3874 Y-53.3294
G01 X22.4213 Y-53.3437
G01 X22.4557 Y-53.3567
G01 X22.5023 Y-53.3721
G01 X22.5378 Y-53.3822
G01 X22.5855 Y-53.3935
G01 X22.6217 Y-53.4005
G01 X22.6702 Y-53.4077
G01 X22.7068 Y-53.4115
G01 X22.7436 Y-53.4140
G01 X22.7926 Y-53.4152
G01 X49.8120 Y-53.4152
G01 X49.8121 Y-80.6123
G01 X49.8132 Y-80.6491
G01 X49.8157 Y-80.6858
G01 X49.8195 Y-80.7224
G01 X49.8247 Y-80.7589
G01 X49.8312 Y-80.7951
G01 X49.8391 Y-80.8311
G01 X49.8482 Y-80.8667
G01 X49.8625 Y-80.9137
G01 X49.8747 Y-80.9484
G01 X49.8881 Y-80.9827
G01 X49.9029 Y-81.0164
G01 X49.9188 Y-81.0496
G01 X49.9360 Y-81.0822
G01 X49.9543 Y-81.1141
G01 X49.9806 Y-81.1556
G01 X50.0016 Y-81.1858
G01 X50.0390 Y-81.2344
G01 X50.0794 Y-81.2806
G01 X50.1136 Y-81.3157
G01 X50.1589 Y-81.3572
G01 X50.2065 Y-81.3958
G01 X50.2565 Y-81.4315
G01 X50.2979 Y-81.4577
G01 X50.3515 Y-81.4876
G01 X50.4068 Y-81.5142
G01 X50.4636 Y-81.5373
G01 X50.5100 Y-81.5533
G01 X50.5690 Y-81.5700
G01 X50.6290 Y-81.5831
G01 X50.6896 Y-81.5925
G01 X50.7507 Y-81.5981
G01 X50.7998 Y-81.5999
G01 X69.3729 Y-81.5999
G01 X69.4097 Y-81.5988
G01 X69.4586 Y-81.5952
G01 X69.5073 Y-81.5892
G01 X69.5436 Y-81.5831
G01 X69.5797 Y-81.5757
G01 X69.6273 Y-81.5638
G01 X69.6626 Y-81.5533
G01 X69.7090 Y-81.5374
G01 X69.7545 Y-81.5191
G01 X69.7991 Y-81.4987
G01 X69.8427 Y-81.4761
G01 X69.8746 Y-81.4578
G01 X69.9161 Y-81.4315
G01 X69.9463 Y-81.4105
G01 X69.9757 Y-81.3884
G01 X70.0137 Y-81.3573
G01 X70.0500 Y-81.3243
G01 X70.0762 Y-81.2985
G01 X70.1096 Y-81.2625
G01 X70.1453 Y-81.2199
G01 X75.0397 Y-76.2478
G01 X75.0624 Y-76.2328
G01 X75.0926 Y-76.2114
G01 X75.1410 Y-76.1734
G01 X75.1871 Y-76.1325
G01 X75.2305 Y-76.0888
G01 X75.2633 Y-76.0520
G01 X75.2866 Y-76.0233
G01 X75.3161 Y-75.9838
G01 X75.3369 Y-75.9533
G01 X75.3566 Y-75.9220
G01 X75.3810 Y-75.8791
G01 X75.4032 Y-75.8351
G01 X75.4184 Y-75.8015
G01 X75.4368 Y-75.7557
G01 X75.4491 Y-75.7209
G01 X75.4601 Y-75.6856
G01 X75.4727 Y-75.6379
G01 X75.4830 Y-75.5897
G01 X75.4891 Y-75.5533
G01 X75.4939 Y-75.5166
G01 X75.4981 Y-75.4675
G01 X75.5000 Y-75.4059
G01 X75.5000 Y-4.7787
G01 X75.4993 Y-4.7421
G01 X75.4963 Y-4.6933
G01 X75.4910 Y-4.6447
G01 X75.4854 Y-4.6085
G01 X75.4759 Y-4.5605
G01 X75.4641 Y-4.5131
G01 X75.4499 Y-4.4663
G01 X75.4379 Y-4.4317
G01 X75.4198 Y-4.3863
G01 X75.4048 Y-4.3528
G01 X75.3829 Y-4.3091
G01 X75.3589 Y-4.2666
G01 X75.3328 Y-4.2252
G01 X75.3120 Y-4.1950
G01 X75.2825 Y-4.1561
G01 X75.2511 Y-4.1186
G01 X75.2180 Y-4.0827
G01 X75.1831 Y-4.0484
G01 X75.1466 Y-4.0159
G01 X75.1182 Y-3.9927
G01 X75.0791 Y-3.9634
G01 X75.0385 Y-3.9361
G01 X74.9967 Y-3.9108
G01 X74.9605 Y-3.8911
G01 X70.5737 Y0.4203
G01 X70.5525 Y0.4635
G01 X70.5287 Y0.5063
G01 X70.5029 Y0.5478
G01 X70.4751 Y0.5881
G01 X70.4454 Y0.6270
G01 X70.4138 Y0.6643
G01 X70.3804 Y0.7001
G01 X70.3453 Y0.7342
G01 X70.3179 Y0.7586
G01 X70.2800 Y0.7896
G01 X70.2506 Y0.8116
G01 X70.2102 Y0.8392
G01 X70.1685 Y0.8648
G01 X70.1364 Y0.8826
G01 X70.0927 Y0.9046
G01 X70.0479 Y0.9243
G01 X70.0023 Y0.9419
G01 X69.9675 Y0.9536
G01 X69.9323 Y0.9640
G01 X69.8848 Y0.9758
G01 X69.8488 Y0.9832
G01 X69.8005 Y0.9910
G01 X69.7519 Y0.9963
G01 X69.7153 Y0.9988
G01 X69.6664 Y1.0000
G01 X-0.0123 Y0.9999
G01 X-0.0613 Y0.9981
G01 X-0.1102 Y0.9939
G01 X-0.1589 Y0.9873
G01 X-0.2071 Y0.9783
G01 X-0.2549 Y0.9670
G01 X-0.3020 Y0.9533
G01 X-0.3484 Y0.9373
G01 X-0.3940 Y0.9191
G01 X-0.4386 Y0.8987
G01 X-0.4822 Y0.8761
G01 X-0.5246 Y0.8514
G01 X-0.5657 Y0.8246
G01 X-0.6055 Y0.7958
G01 X-0.6438 Y0.7652
G01 X-0.6716 Y0.7410
G01 X-0.7071 Y0.7071
G01 X-0.7410 Y0.6716
G01 X-0.7730 Y0.6344
G01 X-0.8032 Y0.5957
G01 X-0.8315 Y0.5556
G01 X-0.8577 Y0.5141
G01 X-0.8819 Y0.4714
G01 X-0.9040 Y0.4276
G01 X-0.9239 Y0.3827
G01 X-0.9415 Y0.3369
G01 X-0.9569 Y0.2903
G01 X-0.9700 Y0.2430
G01 X-0.9808 Y0.1951
G01 X-0.9892 Y0.1467
G01 X-0.9952 Y0.0980
G01 X-0.9988 Y0.0491
G01 X-1.0000 Y-0.0000
G00 X-1.0000 Y-0.0000
G01 F70.00
G01 Z-0.7000
G01 F120.00
G01 X-0.9999 Y-34.9252
G01 X-0.9988 Y-34.9620
G01 X-0.9952 Y-35.0110
G01 X-0.9909 Y-35.0476
G01 X-0.9831 Y-35.0960
G01 X-0.9729 Y-35.1440
G01 X-0.9604 Y-35.1915
G01 X-0.9495 Y-35.2267
G01 X-0.9330 Y-35.2729
G01 X-0.9142 Y-35.3182
G01 X-0.8987 Y-35.3516
G01 X-0.8819 Y-35.3844
G01 X-0.8577 Y-35.4271
G01 X-0.8382 Y-35.4583
G01 X-0.8105 Y-35.4988
G01 X-0.7883 Y-35.5282
G01 X-0.7572 Y-35.5661
G01 X-0.7242 Y-35.6025
G01 X-0.6895 Y-35.6372
G01 X-0.6438 Y-35.6781
G01 X-0.6055 Y-35.7088
G01 X-0.5556 Y-35.7444
G01 X-0.5141 Y-35.7707
G01 X-0.4714 Y-35.7949
G01 X-0.4164 Y-35.8221
G01 X-0.3713 Y-35.8415
G01 X-0.3253 Y-35.8586
G01 X-0.2785 Y-35.8734
G01 X-0.2191 Y-35.8887
G01 X-0.1589 Y-35.9003
G01 X-0.1102 Y-35.9069
G01 X-0.0613 Y-35.9111
G01 X-0.0123 Y-35.9129
G01 X21.7926 Y-35.9130
G01 X21.7926 Y-52.4152
G01 X21.7933 Y-52.4520
G01 X21.7953 Y-52.4887
G01 X21.7987 Y-52.5254
G01 X21.8034 Y-52.5619
G01 X21.8095 Y-52.5982
G01 X21.8169 Y-52.6343
G01 X21.8256 Y-52.6700
G01 X21.8357 Y-52.7055
G01 X21.8470 Y-52.7405
G01 X21.8596 Y-52.7751
G01 X21.8735 Y-52.8092
G01 X21.8886 Y-52.8427
G01 X21.9050 Y-52.8757
G01 X21.9225 Y-52.9081
G01 X21.9413 Y-52.9398
G01 X21.9680 Y-52.9809
G01 X21.9894 Y-53.0109
G01 X22.0119 Y-53.0400
G01 X22.0354 Y-53.0683
G01 X22.0600 Y-53.0958
G01 X22.0855 Y-53.1223
G01 X22.1120 Y-53.1478
G01 X22.1395 Y-53.1724
G01 X22.1678 Y-53.1959
G01 X22.1969 Y-53.2184
G01 X22.2269 Y-53.2398
G01 X22.2576 Y-53.2600
G01 X22.2891 Y-53.2791
G01 X22.3212 Y-53.2971
G01 X22.3540 Y-53.3138
G01 X22.3874 Y-53.3294
G01 X22.4213 Y-53.3437
G01 X22.4557 Y-53.3567
G01 X22.5023 Y-53.3721
G01 X22.5378 Y-53.3822
G01 X22.5855 Y-53.3935
G01 X22.6217 Y-53.4005
G01 X22.6702 Y-53.4077
G01 X22.7068 Y-53.4115
G01 X22.7436 Y-53.4140
G01 X22.7926 Y-53.4152
G01 X49.8120 Y-53.4152
G01 X49.8121 Y-80.6123
G01 X49.8132 Y-80.6491
G01 X49.8157 Y-80.6858
G01 X49.8195 Y-80.7224
G01 X49.8247 Y-80.7589
G01 X49.8312 Y-80.7951
G01 X49.8391 Y-80.8311
G01 X49.8482 Y-80.8667
G01 X49.8625 Y-80.9137
G01 X49.8747 Y-80.9484
G01 X49.8881 Y-80.9827
G01 X49.9029 Y-81.0164
G01 X49.9188 Y-81.0496
G01 X49.9360 Y-81.0822
G01 X49.9543 Y-81.1141
G01 X49.9806 Y-81.1556
G01 X50.0016 Y-81.1858
G01 X50.0390 Y-81.2344
G01 X50.0794 Y-81.2806
G01 X50.1136 Y-81.3157
G01 X50.1589 Y-81.3572
G01 X50.2065 Y-81.3958
G01 X50.2565 Y-81.4315
G01 X50.2979 Y-81.4577
G01 X50.3515 Y-81.4876
G01 X50.4068 Y-81.5142
G01 X50.4636 Y-81.5373
G01 X50.5100 Y-81.5533
G01 X50.5690 Y-81.5700
G01 X50.6290 Y-81.5831
G01 X50.6896 Y-81.5925
G01 X50.7507 Y-81.5981
G01 X50.7998 Y-81.5999
G01 X69.3729 Y-81.5999
G01 X69.4097 Y-81.5988
G01 X69.4586 Y-81.5952
G01 X69.5073 Y-81.5892
G01 X69.5436 Y-81.5831
G01 X69.5797 Y-81.5757
G01 X69.6273 Y-81.5638
G01 X69.6626 Y-81.5533
G01 X69.7090 Y-81.5374
G01 X69.7545 Y-81.5191
G01 X69.7991 Y-81.4987
G01 X69.8427 Y-81.4761
G01 X69.8746 Y-81.4578
G01 X69.9161 Y-81.4315
G01 X69.9463 Y-81.4105
G01 X69.9757 Y-81.3884
G01 X70.0137 Y-81.3573
G01 X70.0500 Y-81.3243
G01 X70.0762 Y-81.2985
G01 X70.1096 Y-81.2625
G01 X70.1453 Y-81.2199
G01 X75.0397 Y-76.2478
G01 X75.0624 Y-76.2328
G01 X75.0926 Y-76.2114
G01 X75.1410 Y-76.1734
G01 X75.1871 Y-76.1325
G01 X75.2305 Y-76.0888
G01 X75.2633 Y-76.0520
G01 X75.2866 Y-76.0233
G01 X75.3161 Y-75.9838
G01 X75.3369 Y-75.9533
G01 X75.3566 Y-75.9220
G01 X75.3810 Y-75.8791
G01 X75.4032 Y-75.8351
G01 X75.4184 Y-75.8015
G01 X75.4368 Y-75.7557
G01 X75.4491 Y-75.7209
G01 X75.4601 Y-75.6856
G01 X75.4727 Y-75.6379
G01 X75.4830 Y-75.5897
G01 X75.4891 Y-75.5533
G01 X75.4939 Y-75.5166
G01 X75.4981 Y-75.4675
G01 X75.5000 Y-75.4059
G01 X75.5000 Y-4.7787
G01 X75.4993 Y-4.7421
G01 X75.4963 Y-4.6933
G01 X75.4910 Y-4.6447
G01 X75.4854 Y-4.6085
G01 X75.4759 Y-4.5605
G01 X75.4641 Y-4.5131
G01 X75.4499 Y-4.4663
G01 X75.4379 Y-4.4317
G01 X75.4198 Y-4.3863
G01 X75.4048 Y-4.3528
G01 X75.3829 Y-4.3091
G01 X75.3589 Y-4.2666
G01 X75.3328 Y-4.2252
G01 X75.3120 Y-4.1950
G01 X75.2825 Y-4.1561
G01 X75.2511 Y-4.1186
G01 X75.2180 Y-4.0827
G01 X75.1831 Y-4.0484
G01 X75.1466 Y-4.0159
G01 X75.1182 Y-3.9927
G01 X75.0791 Y-3.9634
G01 X75.0385 Y-3.9361
G01 X74.9967 Y-3.9108
G01 X74.9605 Y-3.8911
G01 X70.5737 Y0.4203
G01 X70.5525 Y0.4635
G01 X70.5287 Y0.5063
G01 X70.5029 Y0.5478
G01 X70.4751 Y0.5881
G01 X70.4454 Y0.6270
G01 X70.4138 Y0.6643
G01 X70.3804 Y0.7001
G01 X70.3453 Y0.7342
G01 X70.3179 Y0.7586
G01 X70.2800 Y0.7896
G01 X70.2506 Y0.8116
G01 X70.2102 Y0.8392
G01 X70.1685 Y0.8648
G01 X70.1364 Y0.8826
G01 X70.0927 Y0.9046
G01 X70.0479 Y0.9243
G01 X70.0023 Y0.9419
G01 X69.9675 Y0.9536
G01 X69.9323 Y0.9640
G01 X69.8848 Y0.9758
G01 X69.8488 Y0.9832
G01 X69.8005 Y0.9910
G01 X69.7519 Y0.9963
G01 X69.7153 Y0.9988
G01 X69.6664 Y1.0000
G01 X-0.0123 Y0.9999
G01 X-0.0613 Y0.9981
G01 X-0.1102 Y0.9939
G01 X-0.1589 Y0.9873
G01 X-0.2071 Y0.9783
G01 X-0.2549 Y0.9670
G01 X-0.3020 Y0.9533
G01 X-0.3484 Y0.9373
G01 X-0.3940 Y0.9191
G01 X-0.4386 Y0.8987
G01 X-0.4822 Y0.8761
G01 X-0.5246 Y0.8514
G01 X-0.5657 Y0.8246
G01 X-0.6055 Y0.7958
G01 X-0.6438 Y0.7652
G01 X-0.6716 Y0.7410
G01 X-0.7071 Y0.7071
G01 X-0.7410 Y0.6716
G01 X-0.7730 Y0.6344
G01 X-0.8032 Y0.5957
G01 X-0.8315 Y0.5556
G01 X-0.8577 Y0.5141
G01 X-0.8819 Y0.4714
G01 X-0.9040 Y0.4276
G01 X-0.9239 Y0.3827
G01 X-0.9415 Y0.3369
G01 X-0.9569 Y0.2903
G01 X-0.9700 Y0.2430
G01 X-0.9808 Y0.1951
G01 X-0.9892 Y0.1467
G01 X-0.9952 Y0.0980
G01 X-0.9988 Y0.0491
G01 X-1.0000 Y-0.0000
G00 X-1.0000 Y-0.0000
G01 F70.00
G01 Z-0.8000
G01 F120.00
G01 X-0.9999 Y-34.9252
G01 X-0.9988 Y-34.9620
G01 X-0.9952 Y-35.0110
G01 X-0.9909 Y-35.0476
G01 X-0.9831 Y-35.0960
G01 X-0.9729 Y-35.1440
G01 X-0.9604 Y-35.1915
G01 X-0.9495 Y-35.2267
G01 X-0.9330 Y-35.2729
G01 X-0.9142 Y-35.3182
G01 X-0.8987 Y-35.3516
G01 X-0.8819 Y-35.3844
G01 X-0.8577 Y-35.4271
G01 X-0.8382 Y-35.4583
G01 X-0.8105 Y-35.4988
G01 X-0.7883 Y-35.5282
G01 X-0.7572 Y-35.5661
G01 X-0.7242 Y-35.6025
G01 X-0.6895 Y-35.6372
G01 X-0.6438 Y-35.6781
G01 X-0.6055 Y-35.7088
G01 X-0.5556 Y-35.7444
G01 X-0.5141 Y-35.7707
G01 X-0.4714 Y-35.7949
G01 X-0.4164 Y-35.8221
G01 X-0.3713 Y-35.8415
G01 X-0.3253 Y-35.8586
G01 X-0.2785 Y-35.8734
G01 X-0.2191 Y-35.8887
G01 X-0.1589 Y-35.9003
G01 X-0.1102 Y-35.9069
G01 X-0.0613 Y-35.9111
G01 X-0.0123 Y-35.9129
G01 X21.7926 Y-35.9130
G01 X21.7926 Y-52.4152
G01 X21.7933 Y-52.4520
G01 X21.7953 Y-52.4887
G01 X21.7987 Y-52.5254
G01 X21.8034 Y-52.5619
G01 X21.8095 Y-52.5982
G01 X21.8169 Y-52.6343
G01 X21.8256 Y-52.6700
G01 X21.8357 Y-52.7055
G01 X21.8470 Y-52.7405
G01 X21.8596 Y-52.7751
G01 X21.8735 Y-52.8092
G01 X21.8886 Y-52.8427
G01 X21.9050 Y-52.8757
G01 X21.9225 Y-52.9081
G01 X21.9413 Y-52.9398
G01 X21.9680 Y-52.9809
G01 X21.9894 Y-53.0109
G01 X22.0119 Y-53.0400
G01 X22.0354 Y-53.0683
G01 X22.0600 Y-53.0958
G01 X22.0855 Y-53.1223
G01 X22.1120 Y-53.1478
G01 X22.1395 Y-53.1724
G01 X22.1678 Y-53.1959
G01 X22.1969 Y-53.2184
G01 X22.2269 Y-53.2398
G01 X22.2576 Y-53.2600
G01 X22.2891 Y-53.2791
G01 X22.3212 Y-53.2971
G01 X22.3540 Y-53.3138
G01 X22.3874 Y-53.3294
G01 X22.4213 Y-53.3437
G01 X22.4557 Y-53.3567
G01 X22.5023 Y-53.3721
G01 X22.5378 Y-53.3822
G01 X22.5855 Y-53.3935
G01 X22.6217 Y-53.4005
G01 X22.6702 Y-53.4077
G01 X22.7068 Y-53.4115
G01 X22.7436 Y-53.4140
G01 X22.7926 Y-53.4152
G01 X49.8120 Y-53.4152
G01 X49.8121 Y-80.6123
G01 X49.8132 Y-80.6491
G01 X49.8157 Y-80.6858
G01 X49.8195 Y-80.7224
G01 X49.8247 Y-80.7589
G01 X49.8312 Y-80.7951
G01 X49.8391 Y-80.8311
G01 X49.8482 Y-80.8667
G01 X49.8625 Y-80.9137
G01 X49.8747 Y-80.9484
G01 X49.8881 Y-80.9827
G01 X49.9029 Y-81.0164
G01 X49.9188 Y-81.0496
G01 X49.9360 Y-81.0822
G01 X49.9543 Y-81.1141
G01 X49.9806 Y-81.1556
G01 X50.0016 Y-81.1858
G01 X50.0390 Y-81.2344
G01 X50.0794 Y-81.2806
G01 X50.1136 Y-81.3157
G01 X50.1589 Y-81.3572
G01 X50.2065 Y-81.3958
G01 X50.2565 Y-81.4315
G01 X50.2979 Y-81.4577
G01 X50.3515 Y-81.4876
G01 X50.4068 Y-81.5142
G01 X50.4636 Y-81.5373
G01 X50.5100 Y-81.5533
G01 X50.5690 Y-81.5700
G01 X50.6290 Y-81.5831
G01 X50.6896 Y-81.5925
G01 X50.7507 Y-81.5981
G01 X50.7998 Y-81.5999
G01 X69.3729 Y-81.5999
G01 X69.4097 Y-81.5988
G01 X69.4586 Y-81.5952
G01 X69.5073 Y-81.5892
G01 X69.5436 Y-81.5831
G01 X69.5797 Y-81.5757
G01 X69.6273 Y-81.5638
G01 X69.6626 Y-81.5533
G01 X69.7090 Y-81.5374
G01 X69.7545 Y-81.5191
G01 X69.7991 Y-81.4987
G01 X69.8427 Y-81.4761
G01 X69.8746 Y-81.4578
G01 X69.9161 Y-81.4315
G01 X69.9463 Y-81.4105
G01 X69.9757 Y-81.3884
G01 X70.0137 Y-81.3573
G01 X70.0500 Y-81.3243
G01 X70.0762 Y-81.2985
G01 X70.1096 Y-81.2625
G01 X70.1453 Y-81.2199
G01 X75.0397 Y-76.2478
G01 X75.0624 Y-76.2328
G01 X75.0926 Y-76.2114
G01 X75.1410 Y-76.1734
G01 X75.1871 Y-76.1325
G01 X75.2305 Y-76.0888
G01 X75.2633 Y-76.0520
G01 X75.2866 Y-76.0233
G01 X75.3161 Y-75.9838
G01 X75.3369 Y-75.9533
G01 X75.3566 Y-75.9220
G01 X75.3810 Y-75.8791
G01 X75.4032 Y-75.8351
G01 X75.4184 Y-75.8015
G01 X75.4368 Y-75.7557
G01 X75.4491 Y-75.7209
G01 X75.4601 Y-75.6856
G01 X75.4727 Y-75.6379
G01 X75.4830 Y-75.5897
G01 X75.4891 Y-75.5533
G01 X75.4939 Y-75.5166
G01 X75.4981 Y-75.4675
G01 X75.5000 Y-75.4059
G01 X75.5000 Y-4.7787
G01 X75.4993 Y-4.7421
G01 X75.4963 Y-4.6933
G01 X75.4910 Y-4.6447
G01 X75.4854 Y-4.6085
G01 X75.4759 Y-4.5605
G01 X75.4641 Y-4.5131
G01 X75.4499 Y-4.4663
G01 X75.4379 Y-4.4317
G01 X75.4198 Y-4.3863
G01 X75.4048 Y-4.3528
G01 X75.3829 Y-4.3091
G01 X75.3589 Y-4.2666
G01 X75.3328 Y-4.2252
G01 X75.3120 Y-4.1950
G01 X75.2825 Y-4.1561
G01 X75.2511 Y-4.1186
G01 X75.2180 Y-4.0827
G01 X75.1831 Y-4.0484
G01 X75.1466 Y-4.0159
G01 X75.1182 Y-3.9927
G01 X75.0791 Y-3.9634
G01 X75.0385 Y-3.9361
G01 X74.9967 Y-3.9108
G01 X74.9605 Y-3.8911
G01 X70.5737 Y0.4203
G01 X70.5525 Y0.4635
G01 X70.5287 Y0.5063
G01 X70.5029 Y0.5478
G01 X70.4751 Y0.5881
G01 X70.4454 Y0.6270
G01 X70.4138 Y0.6643
G01 X70.3804 Y0.7001
G01 X70.3453 Y0.7342
G01 X70.3179 Y0.7586
G01 X70.2800 Y0.7896
G01 X70.2506 Y0.8116
G01 X70.2102 Y0.8392
G01 X70.1685 Y0.8648
G01 X70.1364 Y0.8826
G01 X70.0927 Y0.9046
G01 X70.0479 Y0.9243
G01 X70.0023 Y0.9419
G01 X69.9675 Y0.9536
G01 X69.9323 Y0.9640
G01 X69.8848 Y0.9758
G01 X69.8488 Y0.9832
G01 X69.8005 Y0.9910
G01 X69.7519 Y0.9963
G01 X69.7153 Y0.9988
G01 X69.6664 Y1.0000
G01 X-0.0123 Y0.9999
G01 X-0.0613 Y0.9981
G01 X-0.1102 Y0.9939
G01 X-0.1589 Y0.9873
G01 X-0.2071 Y0.9783
G01 X-0.2549 Y0.9670
G01 X-0.3020 Y0.9533
G01 X-0.3484 Y0.9373
G01 X-0.3940 Y0.9191
G01 X-0.4386 Y0.8987
G01 X-0.4822 Y0.8761
G01 X-0.5246 Y0.8514
G01 X-0.5657 Y0.8246
G01 X-0.6055 Y0.7958
G01 X-0.6438 Y0.7652
G01 X-0.6716 Y0.7410
G01 X-0.7071 Y0.7071
G01 X-0.7410 Y0.6716
G01 X-0.7730 Y0.6344
G01 X-0.8032 Y0.5957
G01 X-0.8315 Y0.5556
G01 X-0.8577 Y0.5141
G01 X-0.8819 Y0.4714
G01 X-0.9040 Y0.4276
G01 X-0.9239 Y0.3827
G01 X-0.9415 Y0.3369
G01 X-0.9569 Y0.2903
G01 X-0.9700 Y0.2430
G01 X-0.9808 Y0.1951
G01 X-0.9892 Y0.1467
G01 X-0.9952 Y0.0980
G01 X-0.9988 Y0.0491
G01 X-1.0000 Y-0.0000
G00 X-1.0000 Y-0.0000
G01 F70.00
G01 Z-0.9000
G01 F120.00
G01 X-0.9999 Y-34.9252
G01 X-0.9988 Y-34.9620
G01 X-0.9952 Y-35.0110
G01 X-0.9909 Y-35.0476
G01 X-0.9831 Y-35.0960
G01 X-0.9729 Y-35.1440
G01 X-0.9604 Y-35.1915
G01 X-0.9495 Y-35.2267
G01 X-0.9330 Y-35.2729
G01 X-0.9142 Y-35.3182
G01 X-0.8987 Y-35.3516
G01 X-0.8819 Y-35.3844
G01 X-0.8577 Y-35.4271
G01 X-0.8382 Y-35.4583
G01 X-0.8105 Y-35.4988
G01 X-0.7883 Y-35.5282
G01 X-0.7572 Y-35.5661
G01 X-0.7242 Y-35.6025
G01 X-0.6895 Y-35.6372
G01 X-0.6438 Y-35.6781
G01 X-0.6055 Y-35.7088
G01 X-0.5556 Y-35.7444
G01 X-0.5141 Y-35.7707
G01 X-0.4714 Y-35.7949
G01 X-0.4164 Y-35.8221
G01 X-0.3713 Y-35.8415
G01 X-0.3253 Y-35.8586
G01 X-0.2785 Y-35.8734
G01 X-0.2191 Y-35.8887
G01 X-0.1589 Y-35.9003
G01 X-0.1102 Y-35.9069
G01 X-0.0613 Y-35.9111
G01 X-0.0123 Y-35.9129
G01 X21.7926 Y-35.9130
G01 X21.7926 Y-52.4152
G01 X21.7933 Y-52.4520
G01 X21.7953 Y-52.4887
G01 X21.7987 Y-52.5254
G01 X21.8034 Y-52.5619
G01 X21.8095 Y-52.5982
G01 X21.8169 Y-52.6343
G01 X21.8256 Y-52.6700
G01 X21.8357 Y-52.7055
G01 X21.8470 Y-52.7405
G01 X21.8596 Y-52.7751
G01 X21.8735 Y-52.8092
G01 X21.8886 Y-52.8427
G01 X21.9050 Y-52.8757
G01 X21.9225 Y-52.9081
G01 X21.9413 Y-52.9398
G01 X21.9680 Y-52.9809
G01 X21.9894 Y-53.0109
G01 X22.0119 Y-53.0400
G01 X22.0354 Y-53.0683
G01 X22.0600 Y-53.0958
G01 X22.0855 Y-53.1223
G01 X22.1120 Y-53.1478
G01 X22.1395 Y-53.1724
G01 X22.1678 Y-53.1959
G01 X22.1969 Y-53.2184
G01 X22.2269 Y-53.2398
G01 X22.2576 Y-53.2600
G01 X22.2891 Y-53.2791
G01 X22.3212 Y-53.2971
G01 X22.3540 Y-53.3138
G01 X22.3874 Y-53.3294
G01 X22.4213 Y-53.3437
G01 X22.4557 Y-53.3567
G01 X22.5023 Y-53.3721
G01 X22.5378 Y-53.3822
G01 X22.5855 Y-53.3935
G01 X22.6217 Y-53.4005
G01 X22.6702 Y-53.4077
G01 X22.7068 Y-53.4115
G01 X22.7436 Y-53.4140
G01 X22.7926 Y-53.4152
G01 X49.8120 Y-53.4152
G01 X49.8121 Y-80.6123
G01 X49.8132 Y-80.6491
G01 X49.8157 Y-80.6858
G01 X49.8195 Y-80.7224
G01 X49.8247 Y-80.7589
G01 X49.8312 Y-80.7951
G01 X49.8391 Y-80.8311
G01 X49.8482 Y-80.8667
G01 X49.8625 Y-80.9137
G01 X49.8747 Y-80.9484
G01 X49.8881 Y-80.9827
G01 X49.9029 Y-81.0164
G01 X49.9188 Y-81.0496
G01 X49.9360 Y-81.0822
G01 X49.9543 Y-81.1141
G01 X49.9806 Y-81.1556
G01 X50.0016 Y-81.1858
G01 X50.0390 Y-81.2344
G01 X50.0794 Y-81.2806
G01 X50.1136 Y-81.3157
G01 X50.1589 Y-81.3572
G01 X50.2065 Y-81.3958
G01 X50.2565 Y-81.4315
G01 X50.2979 Y-81.4577
G01 X50.3515 Y-81.4876
G01 X50.4068 Y-81.5142
G01 X50.4636 Y-81.5373
G01 X50.5100 Y-81.5533
G01 X50.5690 Y-81.5700
G01 X50.6290 Y-81.5831
G01 X50.6896 Y-81.5925
G01 X50.7507 Y-81.5981
G01 X50.7998 Y-81.5999
G01 X69.3729 Y-81.5999
G01 X69.4097 Y-81.5988
G01 X69.4586 Y-81.5952
G01 X69.5073 Y-81.5892
G01 X69.5436 Y-81.5831
G01 X69.5797 Y-81.5757
G01 X69.6273 Y-81.5638
G01 X69.6626 Y-81.5533
G01 X69.7090 Y-81.5374
G01 X69.7545 Y-81.5191
G01 X69.7991 Y-81.4987
G01 X69.8427 Y-81.4761
G01 X69.8746 Y-81.4578
G01 X69.9161 Y-81.4315
G01 X69.9463 Y-81.4105
G01 X69.9757 Y-81.3884
G01 X70.0137 Y-81.3573
G01 X70.0500 Y-81.3243
G01 X70.0762 Y-81.2985
G01 X70.1096 Y-81.2625
G01 X70.1453 Y-81.2199
G01 X75.0397 Y-76.2478
G01 X75.0624 Y-76.2328
G01 X75.0926 Y-76.2114
G01 X75.1410 Y-76.1734
G01 X75.1871 Y-76.1325
G01 X75.2305 Y-76.0888
G01 X75.2633 Y-76.0520
G01 X75.2866 Y-76.0233
G01 X75.3161 Y-75.9838
G01 X75.3369 Y-75.9533
G01 X75.3566 Y-75.9220
G01 X75.3810 Y-75.8791
G01 X75.4032 Y-75.8351
G01 X75.4184 Y-75.8015
G01 X75.4368 Y-75.7557
G01 X75.4491 Y-75.7209
G01 X75.4601 Y-75.6856
G01 X75.4727 Y-75.6379
G01 X75.4830 Y-75.5897
G01 X75.4891 Y-75.5533
G01 X75.4939 Y-75.5166
G01 X75.4981 Y-75.4675
G01 X75.5000 Y-75.4059
G01 X75.5000 Y-4.7787
G01 X75.4993 Y-4.7421
G01 X75.4963 Y-4.6933
G01 X75.4910 Y-4.6447
G01 X75.4854 Y-4.6085
G01 X75.4759 Y-4.5605
G01 X75.4641 Y-4.5131
G01 X75.4499 Y-4.4663
G01 X75.4379 Y-4.4317
G01 X75.4198 Y-4.3863
G01 X75.4048 Y-4.3528
G01 X75.3829 Y-4.3091
G01 X75.3589 Y-4.2666
G01 X75.3328 Y-4.2252
G01 X75.3120 Y-4.1950
G01 X75.2825 Y-4.1561
G01 X75.2511 Y-4.1186
G01 X75.2180 Y-4.0827
G01 X75.1831 Y-4.0484
G01 X75.1466 Y-4.0159
G01 X75.1182 Y-3.9927
G01 X75.0791 Y-3.9634
G01 X75.0385 Y-3.9361
G01 X74.9967 Y-3.9108
G01 X74.9605 Y-3.8911
G01 X70.5737 Y0.4203
G01 X70.5525 Y0.4635
G01 X70.5287 Y0.5063
G01 X70.5029 Y0.5478
G01 X70.4751 Y0.5881
G01 X70.4454 Y0.6270
G01 X70.4138 Y0.6643
G01 X70.3804 Y0.7001
G01 X70.3453 Y0.7342
G01 X70.3179 Y0.7586
G01 X70.2800 Y0.7896
G01 X70.2506 Y0.8116
G01 X70.2102 Y0.8392
G01 X70.1685 Y0.8648
G01 X70.1364 Y0.8826
G01 X70.0927 Y0.9046
G01 X70.0479 Y0.9243
G01 X70.0023 Y0.9419
G01 X69.9675 Y0.9536
G01 X69.9323 Y0.9640
G01 X69.8848 Y0.9758
G01 X69.8488 Y0.9832
G01 X69.8005 Y0.9910
G01 X69.7519 Y0.9963
G01 X69.7153 Y0.9988
G01 X69.6664 Y1.0000
G01 X-0.0123 Y0.9999
G01 X-0.0613 Y0.9981
G01 X-0.1102 Y0.9939
G01 X-0.1589 Y0.9873
G01 X-0.2071 Y0.9783
G01 X-0.2549 Y0.9670
G01 X-0.3020 Y0.9533
G01 X-0.3484 Y0.9373
G01 X-0.3940 Y0.9191
G01 X-0.4386 Y0.8987
G01 X-0.4822 Y0.8761
G01 X-0.5246 Y0.8514
G01 X-0.5657 Y0.8246
G01 X-0.6055 Y0.7958
G01 X-0.6438 Y0.7652
G01 X-0.6716 Y0.7410
G01 X-0.7071 Y0.7071
G01 X-0.7410 Y0.6716
G01 X-0.7730 Y0.6344
G01 X-0.8032 Y0.5957
G01 X-0.8315 Y0.5556
G01 X-0.8577 Y0.5141
G01 X-0.8819 Y0.4714
G01 X-0.9040 Y0.4276
G01 X-0.9239 Y0.3827
G01 X-0.9415 Y0.3369
G01 X-0.9569 Y0.2903
G01 X-0.9700 Y0.2430
G01 X-0.9808 Y0.1951
G01 X-0.9892 Y0.1467
G01 X-0.9952 Y0.0980
G01 X-0.9988 Y0.0491
G01 X-1.0000 Y-0.0000
G00 X-1.0000 Y-0.0000
G01 F70.00
G01 Z-1.0000
G01 F120.00
G01 X-0.9999 Y-34.9252
G01 X-0.9988 Y-34.9620
G01 X-0.9952 Y-35.0110
G01 X-0.9909 Y-35.0476
G01 X-0.9831 Y-35.0960
G01 X-0.9729 Y-35.1440
G01 X-0.9604 Y-35.1915
G01 X-0.9495 Y-35.2267
G01 X-0.9330 Y-35.2729
G01 X-0.9142 Y-35.3182
G01 X-0.8987 Y-35.3516
G01 X-0.8819 Y-35.3844
G01 X-0.8577 Y-35.4271
G01 X-0.8382 Y-35.4583
G01 X-0.8105 Y-35.4988
G01 X-0.7883 Y-35.5282
G01 X-0.7572 Y-35.5661
G01 X-0.7242 Y-35.6025
G01 X-0.6895 Y-35.6372
G01 X-0.6438 Y-35.6781
G01 X-0.6055 Y-35.7088
G01 X-0.5556 Y-35.7444
G01 X-0.5141 Y-35.7707
G01 X-0.4714 Y-35.7949
G01 X-0.4164 Y-35.8221
G01 X-0.3713 Y-35.8415
G01 X-0.3253 Y-35.8586
G01 X-0.2785 Y-35.8734
G01 X-0.2191 Y-35.8887
G01 X-0.1589 Y-35.9003
G01 X-0.1102 Y-35.9069
G01 X-0.0613 Y-35.9111
G01 X-0.0123 Y-35.9129
G01 X21.7926 Y-35.9130
G01 X21.7926 Y-52.4152
G01 X21.7933 Y-52.4520
G01 X21.7953 Y-52.4887
G01 X21.7987 Y-52.5254
G01 X21.8034 Y-52.5619
G01 X21.8095 Y-52.5982
G01 X21.8169 Y-52.6343
G01 X21.8256 Y-52.6700
G01 X21.8357 Y-52.7055
G01 X21.8470 Y-52.7405
G01 X21.8596 Y-52.7751
G01 X21.8735 Y-52.8092
G01 X21.8886 Y-52.8427
G01 X21.9050 Y-52.8757
G01 X21.9225 Y-52.9081
G01 X21.9413 Y-52.9398
G01 X21.9680 Y-52.9809
G01 X21.9894 Y-53.0109
G01 X22.0119 Y-53.0400
G01 X22.0354 Y-53.0683
G01 X22.0600 Y-53.0958
G01 X22.0855 Y-53.1223
G01 X22.1120 Y-53.1478
G01 X22.1395 Y-53.1724
G01 X22.1678 Y-53.1959
G01 X22.1969 Y-53.2184
G01 X22.2269 Y-53.2398
G01 X22.2576 Y-53.2600
G01 X22.2891 Y-53.2791
G01 X22.3212 Y-53.2971
G01 X22.3540 Y-53.3138
G01 X22.3874 Y-53.3294
G01 X22.4213 Y-53.3437
G01 X22.4557 Y-53.3567
G01 X22.5023 Y-53.3721
G01 X22.5378 Y-53.3822
G01 X22.5855 Y-53.3935
G01 X22.6217 Y-53.4005
G01 X22.6702 Y-53.4077
G01 X22.7068 Y-53.4115
G01 X22.7436 Y-53.4140
G01 X22.7926 Y-53.4152
G01 X49.8120 Y-53.4152
G01 X49.8121 Y-80.6123
G01 X49.8132 Y-80.6491
G01 X49.8157 Y-80.6858
G01 X49.8195 Y-80.7224
G01 X49.8247 Y-80.7589
G01 X49.8312 Y-80.7951
G01 X49.8391 Y-80.8311
G01 X49.8482 Y-80.8667
G01 X49.8625 Y-80.9137
G01 X49.8747 Y-80.9484
G01 X49.8881 Y-80.9827
G01 X49.9029 Y-81.0164
G01 X49.9188 Y-81.0496
G01 X49.9360 Y-81.0822
G01 X49.9543 Y-81.1141
G01 X49.9806 Y-81.1556
G01 X50.0016 Y-81.1858
G01 X50.0390 Y-81.2344
G01 X50.0794 Y-81.2806
G01 X50.1136 Y-81.3157
G01 X50.1589 Y-81.3572
G01 X50.2065 Y-81.3958
G01 X50.2565 Y-81.4315
G01 X50.2979 Y-81.4577
G01 X50.3515 Y-81.4876
G01 X50.4068 Y-81.5142
G01 X50.4636 Y-81.5373
G01 X50.5100 Y-81.5533
G01 X50.5690 Y-81.5700
G01 X50.6290 Y-81.5831
G01 X50.6896 Y-81.5925
G01 X50.7507 Y-81.5981
G01 X50.7998 Y-81.5999
G01 X69.3729 Y-81.5999
G01 X69.4097 Y-81.5988
G01 X69.4586 Y-81.5952
G01 X69.5073 Y-81.5892
G01 X69.5436 Y-81.5831
G01 X69.5797 Y-81.5757
G01 X69.6273 Y-81.5638
G01 X69.6626 Y-81.5533
G01 X69.7090 Y-81.5374
G01 X69.7545 Y-81.5191
G01 X69.7991 Y-81.4987
G01 X69.8427 Y-81.4761
G01 X69.8746 Y-81.4578
G01 X69.9161 Y-81.4315
G01 X69.9463 Y-81.4105
G01 X69.9757 Y-81.3884
G01 X70.0137 Y-81.3573
G01 X70.0500 Y-81.3243
G01 X70.0762 Y-81.2985
G01 X70.1096 Y-81.2625
G01 X70.1453 Y-81.2199
G01 X75.0397 Y-76.2478
G01 X75.0624 Y-76.2328
G01 X75.0926 Y-76.2114
G01 X75.1410 Y-76.1734
G01 X75.1871 Y-76.1325
G01 X75.2305 Y-76.0888
G01 X75.2633 Y-76.0520
G01 X75.2866 Y-76.0233
G01 X75.3161 Y-75.9838
G01 X75.3369 Y-75.9533
G01 X75.3566 Y-75.9220
G01 X75.3810 Y-75.8791
G01 X75.4032 Y-75.8351
G01 X75.4184 Y-75.8015
G01 X75.4368 Y-75.7557
G01 X75.4491 Y-75.7209
G01 X75.4601 Y-75.6856
G01 X75.4727 Y-75.6379
G01 X75.4830 Y-75.5897
G01 X75.4891 Y-75.5533
G01 X75.4939 Y-75.5166
G01 X75.4981 Y-75.4675
G01 X75.5000 Y-75.4059
G01 X75.5000 Y-4.7787
G01 X75.4993 Y-4.7421
G01 X75.4963 Y-4.6933
G01 X75.4910 Y-4.6447
G01 X75.4854 Y-4.6085
G01 X75.4759 Y-4.5605
G01 X75.4641 Y-4.5131
G01 X75.4499 Y-4.4663
G01 X75.4379 Y-4.4317
G01 X75.4198 Y-4.3863
G01 X75.4048 Y-4.3528
G01 X75.3829 Y-4.3091
G01 X75.3589 Y-4.2666
G01 X75.3328 Y-4.2252
G01 X75.3120 Y-4.1950
G01 X75.2825 Y-4.1561
G01 X75.2511 Y-4.1186
G01 X75.2180 Y-4.0827
G01 X75.1831 Y-4.0484
G01 X75.1466 Y-4.0159
G01 X75.1182 Y-3.9927
G01 X75.0791 Y-3.9634
G01 X75.0385 Y-3.9361
G01 X74.9967 Y-3.9108
G01 X74.9605 Y-3.8911
G01 X70.5737 Y0.4203
G01 X70.5525 Y0.4635
G01 X70.5287 Y0.5063
G01 X70.5029 Y0.5478
G01 X70.4751 Y0.5881
G01 X70.4454 Y0.6270
G01 X70.4138 Y0.6643
G01 X70.3804 Y0.7001
G01 X70.3453 Y0.7342
G01 X70.3179 Y0.7586
G01 X70.2800 Y0.7896
G01 X70.2506 Y0.8116
G01 X70.2102 Y0.8392
G01 X70.1685 Y0.8648
G01 X70.1364 Y0.8826
G01 X70.0927 Y0.9046
G01 X70.0479 Y0.9243
G01 X70.0023 Y0.9419
G01 X69.9675 Y0.9536
G01 X69.9323 Y0.9640
G01 X69.8848 Y0.9758
G01 X69.8488 Y0.9832
G01 X69.8005 Y0.9910
G01 X69.7519 Y0.9963
G01 X69.7153 Y0.9988
G01 X69.6664 Y1.0000
G01 X-0.0123 Y0.9999
G01 X-0.0613 Y0.9981
G01 X-0.1102 Y0.9939
G01 X-0.1589 Y0.9873
G01 X-0.2071 Y0.9783
G01 X-0.2549 Y0.9670
G01 X-0.3020 Y0.9533
G01 X-0.3484 Y0.9373
G01 X-0.3940 Y0.9191
G01 X-0.4386 Y0.8987
G01 X-0.4822 Y0.8761
G01 X-0.5246 Y0.8514
G01 X-0.5657 Y0.8246
G01 X-0.6055 Y0.7958
G01 X-0.6438 Y0.7652
G01 X-0.6716 Y0.7410
G01 X-0.7071 Y0.7071
G01 X-0.7410 Y0.6716
G01 X-0.7730 Y0.6344
G01 X-0.8032 Y0.5957
G01 X-0.8315 Y0.5556
G01 X-0.8577 Y0.5141
G01 X-0.8819 Y0.4714
G01 X-0.9040 Y0.4276
G01 X-0.9239 Y0.3827
G01 X-0.9415 Y0.3369
G01 X-0.9569 Y0.2903
G01 X-0.9700 Y0.2430
G01 X-0.9808 Y0.1951
G01 X-0.9892 Y0.1467
G01 X-0.9952 Y0.0980
G01 X-0.9988 Y0.0491
G01 X-1.0000 Y-0.0000
G00 X-1.0000 Y-0.0000
G01 F70.00
G01 Z-1.1000
G01 F120.00
G01 X-0.9999 Y-34.9252
G01 X-0.9988 Y-34.9620
G01 X-0.9952 Y-35.0110
G01 X-0.9909 Y-35.0476
G01 X-0.9831 Y-35.0960
G01 X-0.9729 Y-35.1440
G01 X-0.9604 Y-35.1915
G01 X-0.9495 Y-35.2267
G01 X-0.9330 Y-35.2729
G01 X-0.9142 Y-35.3182
G01 X-0.8987 Y-35.3516
G01 X-0.8819 Y-35.3844
G01 X-0.8577 Y-35.4271
G01 X-0.8382 Y-35.4583
G01 X-0.8105 Y-35.4988
G01 X-0.7883 Y-35.5282
G01 X-0.7572 Y-35.5661
G01 X-0.7242 Y-35.6025
G01 X-0.6895 Y-35.6372
G01 X-0.6438 Y-35.6781
G01 X-0.6055 Y-35.7088
G01 X-0.5556 Y-35.7444
G01 X-0.5141 Y-35.7707
G01 X-0.4714 Y-35.7949
G01 X-0.4164 Y-35.8221
G01 X-0.3713 Y-35.8415
G01 X-0.3253 Y-35.8586
G01 X-0.2785 Y-35.8734
G01 X-0.2191 Y-35.8887
G01 X-0.1589 Y-35.9003
G01 X-0.1102 Y-35.9069
G01 X-0.0613 Y-35.9111
G01 X-0.0123 Y-35.9129
G01 X21.7926 Y-35.9130
G01 X21.7926 Y-52.4152
G01 X21.7933 Y-52.4520
G01 X21.7953 Y-52.4887
G01 X21.7987 Y-52.5254
G01 X21.8034 Y-52.5619
G01 X21.8095 Y-52.5982
G01 X21.8169 Y-52.6343
G01 X21.8256 Y-52.6700
G01 X21.8357 Y-52.7055
G01 X21.8470 Y-52.7405
G01 X21.8596 Y-52.7751
G01 X21.8735 Y-52.8092
G01 X21.8886 Y-52.8427
G01 X21.9050 Y-52.8757
G01 X21.9225 Y-52.9081
G01 X21.9413 Y-52.9398
G01 X21.9680 Y-52.9809
G01 X21.9894 Y-53.0109
G01 X22.0119 Y-53.0400
G01 X22.0354 Y-53.0683
G01 X22.0600 Y-53.0958
G01 X22.0855 Y-53.1223
G01 X22.1120 Y-53.1478
G01 X22.1395 Y-53.1724
G01 X22.1678 Y-53.1959
G01 X22.1969 Y-53.2184
G01 X22.2269 Y-53.2398
G01 X22.2576 Y-53.2600
G01 X22.2891 Y-53.2791
G01 X22.3212 Y-53.2971
G01 X22.3540 Y-53.3138
G01 X22.3874 Y-53.3294
G01 X22.4213 Y-53.3437
G01 X22.4557 Y-53.3567
G01 X22.5023 Y-53.3721
G01 X22.5378 Y-53.3822
G01 X22.5855 Y-53.3935
G01 X22.6217 Y-53.4005
G01 X22.6702 Y-53.4077
G01 X22.7068 Y-53.4115
G01 X22.7436 Y-53.4140
G01 X22.7926 Y-53.4152
G01 X49.8120 Y-53.4152
G01 X49.8121 Y-80.6123
G01 X49.8132 Y-80.6491
G01 X49.8157 Y-80.6858
G01 X49.8195 Y-80.7224
G01 X49.8247 Y-80.7589
G01 X49.8312 Y-80.7951
G01 X49.8391 Y-80.8311
G01 X49.8482 Y-80.8667
G01 X49.8625 Y-80.9137
G01 X49.8747 Y-80.9484
G01 X49.8881 Y-80.9827
G01 X49.9029 Y-81.0164
G01 X49.9188 Y-81.0496
G01 X49.9360 Y-81.0822
G01 X49.9543 Y-81.1141
G01 X49.9806 Y-81.1556
G01 X50.0016 Y-81.1858
G01 X50.0390 Y-81.2344
G01 X50.0794 Y-81.2806
G01 X50.1136 Y-81.3157
G01 X50.1589 Y-81.3572
G01 X50.2065 Y-81.3958
G01 X50.2565 Y-81.4315
G01 X50.2979 Y-81.4577
G01 X50.3515 Y-81.4876
G01 X50.4068 Y-81.5142
G01 X50.4636 Y-81.5373
G01 X50.5100 Y-81.5533
G01 X50.5690 Y-81.5700
G01 X50.6290 Y-81.5831
G01 X50.6896 Y-81.5925
G01 X50.7507 Y-81.5981
G01 X50.7998 Y-81.5999
G01 X69.3729 Y-81.5999
G01 X69.4097 Y-81.5988
G01 X69.4586 Y-81.5952
G01 X69.5073 Y-81.5892
G01 X69.5436 Y-81.5831
G01 X69.5797 Y-81.5757
G01 X69.6273 Y-81.5638
G01 X69.6626 Y-81.5533
G01 X69.7090 Y-81.5374
G01 X69.7545 Y-81.5191
G01 X69.7991 Y-81.4987
G01 X69.8427 Y-81.4761
G01 X69.8746 Y-81.4578
G01 X69.9161 Y-81.4315
G01 X69.9463 Y-81.4105
G01 X69.9757 Y-81.3884
G01 X70.0137 Y-81.3573
G01 X70.0500 Y-81.3243
G01 X70.0762 Y-81.2985
G01 X70.1096 Y-81.2625
G01 X70.1453 Y-81.2199
G01 X75.0397 Y-76.2478
G01 X75.0624 Y-76.2328
G01 X75.0926 Y-76.2114
G01 X75.1410 Y-76.1734
G01 X75.1871 Y-76.1325
G01 X75.2305 Y-76.0888
G01 X75.2633 Y-76.0520
G01 X75.2866 Y-76.0233
G01 X75.3161 Y-75.9838
G01 X75.3369 Y-75.9533
G01 X75.3566 Y-75.9220
G01 X75.3810 Y-75.8791
G01 X75.4032 Y-75.8351
G01 X75.4184 Y-75.8015
G01 X75.4368 Y-75.7557
G01 X75.4491 Y-75.7209
G01 X75.4601 Y-75.6856
G01 X75.4727 Y-75.6379
G01 X75.4830 Y-75.5897
G01 X75.4891 Y-75.5533
G01 X75.4939 Y-75.5166
G01 X75.4981 Y-75.4675
G01 X75.5000 Y-75.4059
G01 X75.5000 Y-4.7787
G01 X75.4993 Y-4.7421
G01 X75.4963 Y-4.6933
G01 X75.4910 Y-4.6447
G01 X75.4854 Y-4.6085
G01 X75.4759 Y-4.5605
G01 X75.4641 Y-4.5131
G01 X75.4499 Y-4.4663
G01 X75.4379 Y-4.4317
G01 X75.4198 Y-4.3863
G01 X75.4048 Y-4.3528
G01 X75.3829 Y-4.3091
G01 X75.3589 Y-4.2666
G01 X75.3328 Y-4.2252
G01 X75.3120 Y-4.1950
G01 X75.2825 Y-4.1561
G01 X75.2511 Y-4.1186
G01 X75.2180 Y-4.0827
G01 X75.1831 Y-4.0484
G01 X75.1466 Y-4.0159
G01 X75.1182 Y-3.9927
G01 X75.0791 Y-3.9634
G01 X75.0385 Y-3.9361
G01 X74.9967 Y-3.9108
G01 X74.9605 Y-3.8911
G01 X70.5737 Y0.4203
G01 X70.5525 Y0.4635
G01 X70.5287 Y0.5063
G01 X70.5029 Y0.5478
G01 X70.4751 Y0.5881
G01 X70.4454 Y0.6270
G01 X70.4138 Y0.6643
G01 X70.3804 Y0.7001
G01 X70.3453 Y0.7342
G01 X70.3179 Y0.7586
G01 X70.2800 Y0.7896
G01 X70.2506 Y0.8116
G01 X70.2102 Y0.8392
G01 X70.1685 Y0.8648
G01 X70.1364 Y0.8826
G01 X70.0927 Y0.9046
G01 X70.0479 Y0.9243
G01 X70.0023 Y0.9419
G01 X69.9675 Y0.9536
G01 X69.9323 Y0.9640
G01 X69.8848 Y0.9758
G01 X69.8488 Y0.9832
G01 X69.8005 Y0.9910
G01 X69.7519 Y0.9963
G01 X69.7153 Y0.9988
G01 X69.6664 Y1.0000
G01 X-0.0123 Y0.9999
G01 X-0.0613 Y0.9981
G01 X-0.1102 Y0.9939
G01 X-0.1589 Y0.9873
G01 X-0.2071 Y0.9783
G01 X-0.2549 Y0.9670
G01 X-0.3020 Y0.9533
G01 X-0.3484 Y0.9373
G01 X-0.3940 Y0.9191
G01 X-0.4386 Y0.8987
G01 X-0.4822 Y0.8761
G01 X-0.5246 Y0.8514
G01 X-0.5657 Y0.8246
G01 X-0.6055 Y0.7958
G01 X-0.6438 Y0.7652
G01 X-0.6716 Y0.7410
G01 X-0.7071 Y0.7071
G01 X-0.7410 Y0.6716
G01 X-0.7730 Y0.6344
G01 X-0.8032 Y0.5957
G01 X-0.8315 Y0.5556
G01 X-0.8577 Y0.5141
G01 X-0.8819 Y0.4714
G01 X-0.9040 Y0.4276
G01 X-0.9239 Y0.3827
G01 X-0.9415 Y0.3369
G01 X-0.9569 Y0.2903
G01 X-0.9700 Y0.2430
G01 X-0.9808 Y0.1951
G01 X-0.9892 Y0.1467
G01 X-0.9952 Y0.0980
G01 X-0.9988 Y0.0491
G01 X-1.0000 Y-0.0000
G00 X-1.0000 Y-0.0000
G01 F70.00
G01 Z-1.2000
G01 F120.00
G01 X-0.9999 Y-34.9252
G01 X-0.9988 Y-34.9620
G01 X-0.9952 Y-35.0110
G01 X-0.9909 Y-35.0476
G01 X-0.9831 Y-35.0960
G01 X-0.9729 Y-35.1440
G01 X-0.9604 Y-35.1915
G01 X-0.9495 Y-35.2267
G01 X-0.9330 Y-35.2729
G01 X-0.9142 Y-35.3182
G01 X-0.8987 Y-35.3516
G01 X-0.8819 Y-35.3844
G01 X-0.8577 Y-35.4271
G01 X-0.8382 Y-35.4583
G01 X-0.8105 Y-35.4988
G01 X-0.7883 Y-35.5282
G01 X-0.7572 Y-35.5661
G01 X-0.7242 Y-35.6025
G01 X-0.6895 Y-35.6372
G01 X-0.6438 Y-35.6781
G01 X-0.6055 Y-35.7088
G01 X-0.5556 Y-35.7444
G01 X-0.5141 Y-35.7707
G01 X-0.4714 Y-35.7949
G01 X-0.4164 Y-35.8221
G01 X-0.3713 Y-35.8415
G01 X-0.3253 Y-35.8586
G01 X-0.2785 Y-35.8734
G01 X-0.2191 Y-35.8887
G01 X-0.1589 Y-35.9003
G01 X-0.1102 Y-35.9069
G01 X-0.0613 Y-35.9111
G01 X-0.0123 Y-35.9129
G01 X21.7926 Y-35.9130
G01 X21.7926 Y-52.4152
G01 X21.7933 Y-52.4520
G01 X21.7953 Y-52.4887
G01 X21.7987 Y-52.5254
G01 X21.8034 Y-52.5619
G01 X21.8095 Y-52.5982
G01 X21.8169 Y-52.6343
G01 X21.8256 Y-52.6700
G01 X21.8357 Y-52.7055
G01 X21.8470 Y-52.7405
G01 X21.8596 Y-52.7751
G01 X21.8735 Y-52.8092
G01 X21.8886 Y-52.8427
G01 X21.9050 Y-52.8757
G01 X21.9225 Y-52.9081
G01 X21.9413 Y-52.9398
G01 X21.9680 Y-52.9809
G01 X21.9894 Y-53.0109
G01 X22.0119 Y-53.0400
G01 X22.0354 Y-53.0683
G01 X22.0600 Y-53.0958
G01 X22.0855 Y-53.1223
G01 X22.1120 Y-53.1478
G01 X22.1395 Y-53.1724
G01 X22.1678 Y-53.1959
G01 X22.1969 Y-53.2184
G01 X22.2269 Y-53.2398
G01 X22.2576 Y-53.2600
G01 X22.2891 Y-53.2791
G01 X22.3212 Y-53.2971
G01 X22.3540 Y-53.3138
G01 X22.3874 Y-53.3294
G01 X22.4213 Y-53.3437
G01 X22.4557 Y-53.3567
G01 X22.5023 Y-53.3721
G01 X22.5378 Y-53.3822
G01 X22.5855 Y-53.3935
G01 X22.6217 Y-53.4005
G01 X22.6702 Y-53.4077
G01 X22.7068 Y-53.4115
G01 X22.7436 Y-53.4140
G01 X22.7926 Y-53.4152
G01 X49.8120 Y-53.4152
G01 X49.8121 Y-80.6123
G01 X49.8132 Y-80.6491
G01 X49.8157 Y-80.6858
G01 X49.8195 Y-80.7224
G01 X49.8247 Y-80.7589
G01 X49.8312 Y-80.7951
G01 X49.8391 Y-80.8311
G01 X49.8482 Y-80.8667
G01 X49.8625 Y-80.9137
G01 X49.8747 Y-80.9484
G01 X49.8881 Y-80.9827
G01 X49.9029 Y-81.0164
G01 X49.9188 Y-81.0496
G01 X49.9360 Y-81.0822
G01 X49.9543 Y-81.1141
G01 X49.9806 Y-81.1556
G01 X50.0016 Y-81.1858
G01 X50.0390 Y-81.2344
G01 X50.0794 Y-81.2806
G01 X50.1136 Y-81.3157
G01 X50.1589 Y-81.3572
G01 X50.2065 Y-81.3958
G01 X50.2565 Y-81.4315
G01 X50.2979 Y-81.4577
G01 X50.3515 Y-81.4876
G01 X50.4068 Y-81.5142
G01 X50.4636 Y-81.5373
G01 X50.5100 Y-81.5533
G01 X50.5690 Y-81.5700
G01 X50.6290 Y-81.5831
G01 X50.6896 Y-81.5925
G01 X50.7507 Y-81.5981
G01 X50.7998 Y-81.5999
G01 X69.3729 Y-81.5999
G01 X69.4097 Y-81.5988
G01 X69.4586 Y-81.5952
G01 X69.5073 Y-81.5892
G01 X69.5436 Y-81.5831
G01 X69.5797 Y-81.5757
G01 X69.6273 Y-81.5638
G01 X69.6626 Y-81.5533
G01 X69.7090 Y-81.5374
G01 X69.7545 Y-81.5191
G01 X69.7991 Y-81.4987
G01 X69.8427 Y-81.4761
G01 X69.8746 Y-81.4578
G01 X69.9161 Y-81.4315
G01 X69.9463 Y-81.4105
G01 X69.9757 Y-81.3884
G01 X70.0137 Y-81.3573
G01 X70.0500 Y-81.3243
G01 X70.0762 Y-81.2985
G01 X70.1096 Y-81.2625
G01 X70.1453 Y-81.2199
G01 X75.0397 Y-76.2478
G01 X75.0624 Y-76.2328
G01 X75.0926 Y-76.2114
G01 X75.1410 Y-76.1734
G01 X75.1871 Y-76.1325
G01 X75.2305 Y-76.0888
G01 X75.2633 Y-76.0520
G01 X75.2866 Y-76.0233
G01 X75.3161 Y-75.9838
G01 X75.3369 Y-75.9533
G01 X75.3566 Y-75.9220
G01 X75.3810 Y-75.8791
G01 X75.4032 Y-75.8351
G01 X75.4184 Y-75.8015
G01 X75.4368 Y-75.7557
G01 X75.4491 Y-75.7209
G01 X75.4601 Y-75.6856
G01 X75.4727 Y-75.6379
G01 X75.4830 Y-75.5897
G01 X75.4891 Y-75.5533
G01 X75.4939 Y-75.5166
G01 X75.4981 Y-75.4675
G01 X75.5000 Y-75.4059
G01 X75.5000 Y-4.7787
G01 X75.4993 Y-4.7421
G01 X75.4963 Y-4.6933
G01 X75.4910 Y-4.6447
G01 X75.4854 Y-4.6085
G01 X75.4759 Y-4.5605
G01 X75.4641 Y-4.5131
G01 X75.4499 Y-4.4663
G01 X75.4379 Y-4.4317
G01 X75.4198 Y-4.3863
G01 X75.4048 Y-4.3528
G01 X75.3829 Y-4.3091
G01 X75.3589 Y-4.2666
G01 X75.3328 Y-4.2252
G01 X75.3120 Y-4.1950
G01 X75.2825 Y-4.1561
G01 X75.2511 Y-4.1186
G01 X75.2180 Y-4.0827
G01 X75.1831 Y-4.0484
G01 X75.1466 Y-4.0159
G01 X75.1182 Y-3.9927
G01 X75.0791 Y-3.9634
G01 X75.0385 Y-3.9361
G01 X74.9967 Y-3.9108
G01 X74.9605 Y-3.8911
G01 X70.5737 Y0.4203
G01 X70.5525 Y0.4635
G01 X70.5287 Y0.5063
G01 X70.5029 Y0.5478
G01 X70.4751 Y0.5881
G01 X70.4454 Y0.6270
G01 X70.4138 Y0.6643
G01 X70.3804 Y0.7001
G01 X70.3453 Y0.7342
G01 X70.3179 Y0.7586
G01 X70.2800 Y0.7896
G01 X70.2506 Y0.8116
G01 X70.2102 Y0.8392
G01 X70.1685 Y0.8648
G01 X70.1364 Y0.8826
G01 X70.0927 Y0.9046
G01 X70.0479 Y0.9243
G01 X70.0023 Y0.9419
G01 X69.9675 Y0.9536
G01 X69.9323 Y0.9640
G01 X69.8848 Y0.9758
G01 X69.8488 Y0.9832
G01 X69.8005 Y0.9910
G01 X69.7519 Y0.9963
G01 X69.7153 Y0.9988
G01 X69.6664 Y1.0000
G01 X-0.0123 Y0.9999
G01 X-0.0613 Y0.9981
G01 X-0.1102 Y0.9939
G01 X-0.1589 Y0.9873
G01 X-0.2071 Y0.9783
G01 X-0.2549 Y0.9670
G01 X-0.3020 Y0.9533
G01 X-0.3484 Y0.9373
G01 X-0.3940 Y0.9191
G01 X-0.4386 Y0.8987
G01 X-0.4822 Y0.8761
G01 X-0.5246 Y0.8514
G01 X-0.5657 Y0.8246
G01 X-0.6055 Y0.7958
G01 X-0.6438 Y0.7652
G01 X-0.6716 Y0.7410
G01 X-0.7071 Y0.7071
G01 X-0.7410 Y0.6716
G01 X-0.7730 Y0.6344
G01 X-0.8032 Y0.5957
G01 X-0.8315 Y0.5556
G01 X-0.8577 Y0.5141
G01 X-0.8819 Y0.4714
G01 X-0.9040 Y0.4276
G01 X-0.9239 Y0.3827
G01 X-0.9415 Y0.3369
G01 X-0.9569 Y0.2903
G01 X-0.9700 Y0.2430
G01 X-0.9808 Y0.1951
G01 X-0.9892 Y0.1467
G01 X-0.9952 Y0.0980
G01 X-0.9988 Y0.0491
G01 X-1.0000 Y-0.0000
G00 X-1.0000 Y-0.0000
G01 F70.00
G01 Z-1.3000
G01 F120.00
G01 X-0.9999 Y-34.9252
G01 X-0.9988 Y-34.9620
G01 X-0.9952 Y-35.0110
G01 X-0.9909 Y-35.0476
G01 X-0.9831 Y-35.0960
G01 X-0.9729 Y-35.1440
G01 X-0.9604 Y-35.1915
G01 X-0.9495 Y-35.2267
G01 X-0.9330 Y-35.2729
G01 X-0.9142 Y-35.3182
G01 X-0.8987 Y-35.3516
G01 X-0.8819 Y-35.3844
G01 X-0.8577 Y-35.4271
G01 X-0.8382 Y-35.4583
G01 X-0.8105 Y-35.4988
G01 X-0.7883 Y-35.5282
G01 X-0.7572 Y-35.5661
G01 X-0.7242 Y-35.6025
G01 X-0.6895 Y-35.6372
G01 X-0.6438 Y-35.6781
G01 X-0.6055 Y-35.7088
G01 X-0.5556 Y-35.7444
G01 X-0.5141 Y-35.7707
G01 X-0.4714 Y-35.7949
G01 X-0.4164 Y-35.8221
G01 X-0.3713 Y-35.8415
G01 X-0.3253 Y-35.8586
G01 X-0.2785 Y-35.8734
G01 X-0.2191 Y-35.8887
G01 X-0.1589 Y-35.9003
G01 X-0.1102 Y-35.9069
G01 X-0.0613 Y-35.9111
G01 X-0.0123 Y-35.9129
G01 X21.7926 Y-35.9130
G01 X21.7926 Y-52.4152
G01 X21.7933 Y-52.4520
G01 X21.7953 Y-52.4887
G01 X21.7987 Y-52.5254
G01 X21.8034 Y-52.5619
G01 X21.8095 Y-52.5982
G01 X21.8169 Y-52.6343
G01 X21.8256 Y-52.6700
G01 X21.8357 Y-52.7055
G01 X21.8470 Y-52.7405
G01 X21.8596 Y-52.7751
G01 X21.8735 Y-52.8092
G01 X21.8886 Y-52.8427
G01 X21.9050 Y-52.8757
G01 X21.9225 Y-52.9081
G01 X21.9413 Y-52.9398
G01 X21.9680 Y-52.9809
G01 X21.9894 Y-53.0109
G01 X22.0119 Y-53.0400
G01 X22.0354 Y-53.0683
G01 X22.0600 Y-53.0958
G01 X22.0855 Y-53.1223
G01 X22.1120 Y-53.1478
G01 X22.1395 Y-53.1724
G01 X22.1678 Y-53.1959
G01 X22.1969 Y-53.2184
G01 X22.2269 Y-53.2398
G01 X22.2576 Y-53.2600
G01 X22.2891 Y-53.2791
G01 X22.3212 Y-53.2971
G01 X22.3540 Y-53.3138
G01 X22.3874 Y-53.3294
G01 X22.4213 Y-53.3437
G01 X22.4557 Y-53.3567
G01 X22.5023 Y-53.3721
G01 X22.5378 Y-53.3822
G01 X22.5855 Y-53.3935
G01 X22.6217 Y-53.4005
G01 X22.6702 Y-53.4077
G01 X22.7068 Y-53.4115
G01 X22.7436 Y-53.4140
G01 X22.7926 Y-53.4152
G01 X49.8120 Y-53.4152
G01 X49.8121 Y-80.6123
G01 X49.8132 Y-80.6491
G01 X49.8157 Y-80.6858
G01 X49.8195 Y-80.7224
G01 X49.8247 Y-80.7589
G01 X49.8312 Y-80.7951
G01 X49.8391 Y-80.8311
G01 X49.8482 Y-80.8667
G01 X49.8625 Y-80.9137
G01 X49.8747 Y-80.9484
G01 X49.8881 Y-80.9827
G01 X49.9029 Y-81.0164
G01 X49.9188 Y-81.0496
G01 X49.9360 Y-81.0822
G01 X49.9543 Y-81.1141
G01 X49.9806 Y-81.1556
G01 X50.0016 Y-81.1858
G01 X50.0390 Y-81.2344
G01 X50.0794 Y-81.2806
G01 X50.1136 Y-81.3157
G01 X50.1589 Y-81.3572
G01 X50.2065 Y-81.3958
G01 X50.2565 Y-81.4315
G01 X50.2979 Y-81.4577
G01 X50.3515 Y-81.4876
G01 X50.4068 Y-81.5142
G01 X50.4636 Y-81.5373
G01 X50.5100 Y-81.5533
G01 X50.5690 Y-81.5700
G01 X50.6290 Y-81.5831
G01 X50.6896 Y-81.5925
G01 X50.7507 Y-81.5981
G01 X50.7998 Y-81.5999
G01 X69.3729 Y-81.5999
G01 X69.4097 Y-81.5988
G01 X69.4586 Y-81.5952
G01 X69.5073 Y-81.5892
G01 X69.5436 Y-81.5831
G01 X69.5797 Y-81.5757
G01 X69.6273 Y-81.5638
G01 X69.6626 Y-81.5533
G01 X69.7090 Y-81.5374
G01 X69.7545 Y-81.5191
G01 X69.7991 Y-81.4987
G01 X69.8427 Y-81.4761
G01 X69.8746 Y-81.4578
G01 X69.9161 Y-81.4315
G01 X69.9463 Y-81.4105
G01 X69.9757 Y-81.3884
G01 X70.0137 Y-81.3573
G01 X70.0500 Y-81.3243
G01 X70.0762 Y-81.2985
G01 X70.1096 Y-81.2625
G01 X70.1453 Y-81.2199
G01 X75.0397 Y-76.2478
G01 X75.0624 Y-76.2328
G01 X75.0926 Y-76.2114
G01 X75.1410 Y-76.1734
G01 X75.1871 Y-76.1325
G01 X75.2305 Y-76.0888
G01 X75.2633 Y-76.0520
G01 X75.2866 Y-76.0233
G01 X75.3161 Y-75.9838
G01 X75.3369 Y-75.9533
G01 X75.3566 Y-75.9220
G01 X75.3810 Y-75.8791
G01 X75.4032 Y-75.8351
G01 X75.4184 Y-75.8015
G01 X75.4368 Y-75.7557
G01 X75.4491 Y-75.7209
G01 X75.4601 Y-75.6856
G01 X75.4727 Y-75.6379
G01 X75.4830 Y-75.5897
G01 X75.4891 Y-75.5533
G01 X75.4939 Y-75.5166
G01 X75.4981 Y-75.4675
G01 X75.5000 Y-75.4059
G01 X75.5000 Y-4.7787
G01 X75.4993 Y-4.7421
G01 X75.4963 Y-4.6933
G01 X75.4910 Y-4.6447
G01 X75.4854 Y-4.6085
G01 X75.4759 Y-4.5605
G01 X75.4641 Y-4.5131
G01 X75.4499 Y-4.4663
G01 X75.4379 Y-4.4317
G01 X75.4198 Y-4.3863
G01 X75.4048 Y-4.3528
G01 X75.3829 Y-4.3091
G01 X75.3589 Y-4.2666
G01 X75.3328 Y-4.2252
G01 X75.3120 Y-4.1950
G01 X75.2825 Y-4.1561
G01 X75.2511 Y-4.1186
G01 X75.2180 Y-4.0827
G01 X75.1831 Y-4.0484
G01 X75.1466 Y-4.0159
G01 X75.1182 Y-3.9927
G01 X75.0791 Y-3.9634
G01 X75.0385 Y-3.9361
G01 X74.9967 Y-3.9108
G01 X74.9605 Y-3.8911
G01 X70.5737 Y0.4203
G01 X70.5525 Y0.4635
G01 X70.5287 Y0.5063
G01 X70.5029 Y0.5478
G01 X70.4751 Y0.5881
G01 X70.4454 Y0.6270
G01 X70.4138 Y0.6643
G01 X70.3804 Y0.7001
G01 X70.3453 Y0.7342
G01 X70.3179 Y0.7586
G01 X70.2800 Y0.7896
G01 X70.2506 Y0.8116
G01 X70.2102 Y0.8392
G01 X70.1685 Y0.8648
G01 X70.1364 Y0.8826
G01 X70.0927 Y0.9046
G01 X70.0479 Y0.9243
G01 X70.0023 Y0.9419
G01 X69.9675 Y0.9536
G01 X69.9323 Y0.9640
G01 X69.8848 Y0.9758
G01 X69.8488 Y0.9832
G01 X69.8005 Y0.9910
G01 X69.7519 Y0.9963
G01 X69.7153 Y0.9988
G01 X69.6664 Y1.0000
G01 X-0.0123 Y0.9999
G01 X-0.0613 Y0.9981
G01 X-0.1102 Y0.9939
G01 X-0.1589 Y0.9873
G01 X-0.2071 Y0.9783
G01 X-0.2549 Y0.9670
G01 X-0.3020 Y0.9533
G01 X-0.3484 Y0.9373
G01 X-0.3940 Y0.9191
G01 X-0.4386 Y0.8987
G01 X-0.4822 Y0.8761
G01 X-0.5246 Y0.8514
G01 X-0.5657 Y0.8246
G01 X-0.6055 Y0.7958
G01 X-0.6438 Y0.7652
G01 X-0.6716 Y0.7410
G01 X-0.7071 Y0.7071
G01 X-0.7410 Y0.6716
G01 X-0.7730 Y0.6344
G01 X-0.8032 Y0.5957
G01 X-0.8315 Y0.5556
G01 X-0.8577 Y0.5141
G01 X-0.8819 Y0.4714
G01 X-0.9040 Y0.4276
G01 X-0.9239 Y0.3827
G01 X-0.9415 Y0.3369
G01 X-0.9569 Y0.2903
G01 X-0.9700 Y0.2430
G01 X-0.9808 Y0.1951
G01 X-0.9892 Y0.1467
G01 X-0.9952 Y0.0980
G01 X-0.9988 Y0.0491
G01 X-1.0000 Y-0.0000
G00 X-1.0000 Y-0.0000
G01 F70.00
G01 Z-1.4000
G01 F120.00
G01 X-0.9999 Y-34.9252
G01 X-0.9988 Y-34.9620
G01 X-0.9952 Y-35.0110
G01 X-0.9909 Y-35.0476
G01 X-0.9831 Y-35.0960
G01 X-0.9729 Y-35.1440
G01 X-0.9604 Y-35.1915
G01 X-0.9495 Y-35.2267
G01 X-0.9330 Y-35.2729
G01 X-0.9142 Y-35.3182
G01 X-0.8987 Y-35.3516
G01 X-0.8819 Y-35.3844
G01 X-0.8577 Y-35.4271
G01 X-0.8382 Y-35.4583
G01 X-0.8105 Y-35.4988
G01 X-0.7883 Y-35.5282
G01 X-0.7572 Y-35.5661
G01 X-0.7242 Y-35.6025
G01 X-0.6895 Y-35.6372
G01 X-0.6438 Y-35.6781
G01 X-0.6055 Y-35.7088
G01 X-0.5556 Y-35.7444
G01 X-0.5141 Y-35.7707
G01 X-0.4714 Y-35.7949
G01 X-0.4164 Y-35.8221
G01 X-0.3713 Y-35.8415
G01 X-0.3253 Y-35.8586
G01 X-0.2785 Y-35.8734
G01 X-0.2191 Y-35.8887
G01 X-0.1589 Y-35.9003
G01 X-0.1102 Y-35.9069
G01 X-0.0613 Y-35.9111
G01 X-0.0123 Y-35.9129
G01 X21.7926 Y-35.9130
G01 X21.7926 Y-52.4152
G01 X21.7933 Y-52.4520
G01 X21.7953 Y-52.4887
G01 X21.7987 Y-52.5254
G01 X21.8034 Y-52.5619
G01 X21.8095 Y-52.5982
G01 X21.8169 Y-52.6343
G01 X21.8256 Y-52.6700
G01 X21.8357 Y-52.7055
G01 X21.8470 Y-52.7405
G01 X21.8596 Y-52.7751
G01 X21.8735 Y-52.8092
G01 X21.8886 Y-52.8427
G01 X21.9050 Y-52.8757
G01 X21.9225 Y-52.9081
G01 X21.9413 Y-52.9398
G01 X21.9680 Y-52.9809
G01 X21.9894 Y-53.0109
G01 X22.0119 Y-53.0400
G01 X22.0354 Y-53.0683
G01 X22.0600 Y-53.0958
G01 X22.0855 Y-53.1223
G01 X22.1120 Y-53.1478
G01 X22.1395 Y-53.1724
G01 X22.1678 Y-53.1959
G01 X22.1969 Y-53.2184
G01 X22.2269 Y-53.2398
G01 X22.2576 Y-53.2600
G01 X22.2891 Y-53.2791
G01 X22.3212 Y-53.2971
G01 X22.3540 Y-53.3138
G01 X22.3874 Y-53.3294
G01 X22.4213 Y-53.3437
G01 X22.4557 Y-53.3567
G01 X22.5023 Y-53.3721
G01 X22.5378 Y-53.3822
G01 X22.5855 Y-53.3935
G01 X22.6217 Y-53.4005
G01 X22.6702 Y-53.4077
G01 X22.7068 Y-53.4115
G01 X22.7436 Y-53.4140
G01 X22.7926 Y-53.4152
G01 X49.8120 Y-53.4152
G01 X49.8121 Y-80.6123
G01 X49.8132 Y-80.6491
G01 X49.8157 Y-80.6858
G01 X49.8195 Y-80.7224
G01 X49.8247 Y-80.7589
G01 X49.8312 Y-80.7951
G01 X49.8391 Y-80.8311
G01 X49.8482 Y-80.8667
G01 X49.8625 Y-80.9137
G01 X49.8747 Y-80.9484
G01 X49.8881 Y-80.9827
G01 X49.9029 Y-81.0164
G01 X49.9188 Y-81.0496
G01 X49.9360 Y-81.0822
G01 X49.9543 Y-81.1141
G01 X49.9806 Y-81.1556
G01 X50.0016 Y-81.1858
G01 X50.0390 Y-81.2344
G01 X50.0794 Y-81.2806
G01 X50.1136 Y-81.3157
G01 X50.1589 Y-81.3572
G01 X50.2065 Y-81.3958
G01 X50.2565 Y-81.4315
G01 X50.2979 Y-81.4577
G01 X50.3515 Y-81.4876
G01 X50.4068 Y-81.5142
G01 X50.4636 Y-81.5373
G01 X50.5100 Y-81.5533
G01 X50.5690 Y-81.5700
G01 X50.6290 Y-81.5831
G01 X50.6896 Y-81.5925
G01 X50.7507 Y-81.5981
G01 X50.7998 Y-81.5999
G01 X69.3729 Y-81.5999
G01 X69.4097 Y-81.5988
G01 X69.4586 Y-81.5952
G01 X69.5073 Y-81.5892
G01 X69.5436 Y-81.5831
G01 X69.5797 Y-81.5757
G01 X69.6273 Y-81.5638
G01 X69.6626 Y-81.5533
G01 X69.7090 Y-81.5374
G01 X69.7545 Y-81.5191
G01 X69.7991 Y-81.4987
G01 X69.8427 Y-81.4761
G01 X69.8746 Y-81.4578
G01 X69.9161 Y-81.4315
G01 X69.9463 Y-81.4105
G01 X69.9757 Y-81.3884
G01 X70.0137 Y-81.3573
G01 X70.0500 Y-81.3243
G01 X70.0762 Y-81.2985
G01 X70.1096 Y-81.2625
G01 X70.1453 Y-81.2199
G01 X75.0397 Y-76.2478
G01 X75.0624 Y-76.2328
G01 X75.0926 Y-76.2114
G01 X75.1410 Y-76.1734
G01 X75.1871 Y-76.1325
G01 X75.2305 Y-76.0888
G01 X75.2633 Y-76.0520
G01 X75.2866 Y-76.0233
G01 X75.3161 Y-75.9838
G01 X75.3369 Y-75.9533
G01 X75.3566 Y-75.9220
G01 X75.3810 Y-75.8791
G01 X75.4032 Y-75.8351
G01 X75.4184 Y-75.8015
G01 X75.4368 Y-75.7557
G01 X75.4491 Y-75.7209
G01 X75.4601 Y-75.6856
G01 X75.4727 Y-75.6379
G01 X75.4830 Y-75.5897
G01 X75.4891 Y-75.5533
G01 X75.4939 Y-75.5166
G01 X75.4981 Y-75.4675
G01 X75.5000 Y-75.4059
G01 X75.5000 Y-4.7787
G01 X75.4993 Y-4.7421
G01 X75.4963 Y-4.6933
G01 X75.4910 Y-4.6447
G01 X75.4854 Y-4.6085
G01 X75.4759 Y-4.5605
G01 X75.4641 Y-4.5131
G01 X75.4499 Y-4.4663
G01 X75.4379 Y-4.4317
G01 X75.4198 Y-4.3863
G01 X75.4048 Y-4.3528
G01 X75.3829 Y-4.3091
G01 X75.3589 Y-4.2666
G01 X75.3328 Y-4.2252
G01 X75.3120 Y-4.1950
G01 X75.2825 Y-4.1561
G01 X75.2511 Y-4.1186
G01 X75.2180 Y-4.0827
G01 X75.1831 Y-4.0484
G01 X75.1466 Y-4.0159
G01 X75.1182 Y-3.9927
G01 X75.0791 Y-3.9634
G01 X75.0385 Y-3.9361
G01 X74.9967 Y-3.9108
G01 X74.9605 Y-3.8911
G01 X70.5737 Y0.4203
G01 X70.5525 Y0.4635
G01 X70.5287 Y0.5063
G01 X70.5029 Y0.5478
G01 X70.4751 Y0.5881
G01 X70.4454 Y0.6270
G01 X70.4138 Y0.6643
G01 X70.3804 Y0.7001
G01 X70.3453 Y0.7342
G01 X70.3179 Y0.7586
G01 X70.2800 Y0.7896
G01 X70.2506 Y0.8116
G01 X70.2102 Y0.8392
G01 X70.1685 Y0.8648
G01 X70.1364 Y0.8826
G01 X70.0927 Y0.9046
G01 X70.0479 Y0.9243
G01 X70.0023 Y0.9419
G01 X69.9675 Y0.9536
G01 X69.9323 Y0.9640
G01 X69.8848 Y0.9758
G01 X69.8488 Y0.9832
G01 X69.8005 Y0.9910
G01 X69.7519 Y0.9963
G01 X69.7153 Y0.9988
G01 X69.6664 Y1.0000
G01 X-0.0123 Y0.9999
G01 X-0.0613 Y0.9981
G01 X-0.1102 Y0.9939
G01 X-0.1589 Y0.9873
G01 X-0.2071 Y0.9783
G01 X-0.2549 Y0.9670
G01 X-0.3020 Y0.9533
G01 X-0.3484 Y0.9373
G01 X-0.3940 Y0.9191
G01 X-0.4386 Y0.8987
G01 X-0.4822 Y0.8761
G01 X-0.5246 Y0.8514
G01 X-0.5657 Y0.8246
G01 X-0.6055 Y0.7958
G01 X-0.6438 Y0.7652
G01 X-0.6716 Y0.7410
G01 X-0.7071 Y0.7071
G01 X-0.7410 Y0.6716
G01 X-0.7730 Y0.6344
G01 X-0.8032 Y0.5957
G01 X-0.8315 Y0.5556
G01 X-0.8577 Y0.5141
G01 X-0.8819 Y0.4714
G01 X-0.9040 Y0.4276
G01 X-0.9239 Y0.3827
G01 X-0.9415 Y0.3369
G01 X-0.9569 Y0.2903
G01 X-0.9700 Y0.2430
G01 X-0.9808 Y0.1951
G01 X-0.9892 Y0.1467
G01 X-0.9952 Y0.0980
G01 X-0.9988 Y0.0491
G01 X-1.0000 Y-0.0000
G00 X-1.0000 Y-0.0000
G01 F70.00
G01 Z-1.5000
G01 F120.00
G01 X-0.9999 Y-34.9252
G01 X-0.9988 Y-34.9620
G01 X-0.9952 Y-35.0110
G01 X-0.9909 Y-35.0476
G01 X-0.9831 Y-35.0960
G01 X-0.9729 Y-35.1440
G01 X-0.9604 Y-35.1915
G01 X-0.9495 Y-35.2267
G01 X-0.9330 Y-35.2729
G01 X-0.9142 Y-35.3182
G01 X-0.8987 Y-35.3516
G01 X-0.8819 Y-35.3844
G01 X-0.8577 Y-35.4271
G01 X-0.8382 Y-35.4583
G01 X-0.8105 Y-35.4988
G01 X-0.7883 Y-35.5282
G01 X-0.7572 Y-35.5661
G01 X-0.7242 Y-35.6025
G01 X-0.6895 Y-35.6372
G01 X-0.6438 Y-35.6781
G01 X-0.6055 Y-35.7088
G01 X-0.5556 Y-35.7444
G01 X-0.5141 Y-35.7707
G01 X-0.4714 Y-35.7949
G01 X-0.4164 Y-35.8221
G01 X-0.3713 Y-35.8415
G01 X-0.3253 Y-35.8586
G01 X-0.2785 Y-35.8734
G01 X-0.2191 Y-35.8887
G01 X-0.1589 Y-35.9003
G01 X-0.1102 Y-35.9069
G01 X-0.0613 Y-35.9111
G01 X-0.0123 Y-35.9129
G01 X21.7926 Y-35.9130
G01 X21.7926 Y-52.4152
G01 X21.7933 Y-52.4520
G01 X21.7953 Y-52.4887
G01 X21.7987 Y-52.5254
G01 X21.8034 Y-52.5619
G01 X21.8095 Y-52.5982
G01 X21.8169 Y-52.6343
G01 X21.8256 Y-52.6700
G01 X21.8357 Y-52.7055
G01 X21.8470 Y-52.7405
G01 X21.8596 Y-52.7751
G01 X21.8735 Y-52.8092
G01 X21.8886 Y-52.8427
G01 X21.9050 Y-52.8757
G01 X21.9225 Y-52.9081
G01 X21.9413 Y-52.9398
G01 X21.9680 Y-52.9809
G01 X21.9894 Y-53.0109
G01 X22.0119 Y-53.0400
G01 X22.0354 Y-53.0683
G01 X22.0600 Y-53.0958
G01 X22.0855 Y-53.1223
G01 X22.1120 Y-53.1478
G01 X22.1395 Y-53.1724
G01 X22.1678 Y-53.1959
G01 X22.1969 Y-53.2184
G01 X22.2269 Y-53.2398
G01 X22.2576 Y-53.2600
G01 X22.2891 Y-53.2791
G01 X22.3212 Y-53.2971
G01 X22.3540 Y-53.3138
G01 X22.3874 Y-53.3294
G01 X22.4213 Y-53.3437
G01 X22.4557 Y-53.3567
G01 X22.5023 Y-53.3721
G01 X22.5378 Y-53.3822
G01 X22.5855 Y-53.3935
G01 X22.6217 Y-53.4005
G01 X22.6702 Y-53.4077
G01 X22.7068 Y-53.4115
G01 X22.7436 Y-53.4140
G01 X22.7926 Y-53.4152
G01 X49.8120 Y-53.4152
G01 X49.8121 Y-80.6123
G01 X49.8132 Y-80.6491
G01 X49.8157 Y-80.6858
G01 X49.8195 Y-80.7224
G01 X49.8247 Y-80.7589
G01 X49.8312 Y-80.7951
G01 X49.8391 Y-80.8311
G01 X49.8482 Y-80.8667
G01 X49.8625 Y-80.9137
G01 X49.8747 Y-80.9484
G01 X49.8881 Y-80.9827
G01 X49.9029 Y-81.0164
G01 X49.9188 Y-81.0496
G01 X49.9360 Y-81.0822
G01 X49.9543 Y-81.1141
G01 X49.9806 Y-81.1556
G01 X50.0016 Y-81.1858
G01 X50.0390 Y-81.2344
G01 X50.0794 Y-81.2806
G01 X50.1136 Y-81.3157
G01 X50.1589 Y-81.3572
G01 X50.2065 Y-81.3958
G01 X50.2565 Y-81.4315
G01 X50.2979 Y-81.4577
G01 X50.3515 Y-81.4876
G01 X50.4068 Y-81.5142
G01 X50.4636 Y-81.5373
G01 X50.5100 Y-81.5533
G01 X50.5690 Y-81.5700
G01 X50.6290 Y-81.5831
G01 X50.6896 Y-81.5925
G01 X50.7507 Y-81.5981
G01 X50.7998 Y-81.5999
G01 X69.3729 Y-81.5999
G01 X69.4097 Y-81.5988
G01 X69.4586 Y-81.5952
G01 X69.5073 Y-81.5892
G01 X69.5436 Y-81.5831
G01 X69.5797 Y-81.5757
G01 X69.6273 Y-81.5638
G01 X69.6626 Y-81.5533
G01 X69.7090 Y-81.5374
G01 X69.7545 Y-81.5191
G01 X69.7991 Y-81.4987
G01 X69.8427 Y-81.4761
G01 X69.8746 Y-81.4578
G01 X69.9161 Y-81.4315
G01 X69.9463 Y-81.4105
G01 X69.9757 Y-81.3884
G01 X70.0137 Y-81.3573
G01 X70.0500 Y-81.3243
G01 X70.0762 Y-81.2985
G01 X70.1096 Y-81.2625
G01 X70.1453 Y-81.2199
G01 X75.0397 Y-76.2478
G01 X75.0624 Y-76.2328
G01 X75.0926 Y-76.2114
G01 X75.1410 Y-76.1734
G01 X75.1871 Y-76.1325
G01 X75.2305 Y-76.0888
G01 X75.2633 Y-76.0520
G01 X75.2866 Y-76.0233
G01 X75.3161 Y-75.9838
G01 X75.3369 Y-75.9533
G01 X75.3566 Y-75.9220
G01 X75.3810 Y-75.8791
G01 X75.4032 Y-75.8351
G01 X75.4184 Y-75.8015
G01 X75.4368 Y-75.7557
G01 X75.4491 Y-75.7209
G01 X75.4601 Y-75.6856
G01 X75.4727 Y-75.6379
G01 X75.4830 Y-75.5897
G01 X75.4891 Y-75.5533
G01 X75.4939 Y-75.5166
G01 X75.4981 Y-75.4675
G01 X75.5000 Y-75.4059
G01 X75.5000 Y-4.7787
G01 X75.4993 Y-4.7421
G01 X75.4963 Y-4.6933
G01 X75.4910 Y-4.6447
G01 X75.4854 Y-4.6085
G01 X75.4759 Y-4.5605
G01 X75.4641 Y-4.5131
G01 X75.4499 Y-4.4663
G01 X75.4379 Y-4.4317
G01 X75.4198 Y-4.3863
G01 X75.4048 Y-4.3528
G01 X75.3829 Y-4.3091
G01 X75.3589 Y-4.2666
G01 X75.3328 Y-4.2252
G01 X75.3120 Y-4.1950
G01 X75.2825 Y-4.1561
G01 X75.2511 Y-4.1186
G01 X75.2180 Y-4.0827
G01 X75.1831 Y-4.0484
G01 X75.1466 Y-4.0159
G01 X75.1182 Y-3.9927
G01 X75.0791 Y-3.9634
G01 X75.0385 Y-3.9361
G01 X74.9967 Y-3.9108
G01 X74.9605 Y-3.8911
G01 X70.5737 Y0.4203
G01 X70.5525 Y0.4635
G01 X70.5287 Y0.5063
G01 X70.5029 Y0.5478
G01 X70.4751 Y0.5881
G01 X70.4454 Y0.6270
G01 X70.4138 Y0.6643
G01 X70.3804 Y0.7001
G01 X70.3453 Y0.7342
G01 X70.3179 Y0.7586
G01 X70.2800 Y0.7896
G01 X70.2506 Y0.8116
G01 X70.2102 Y0.8392
G01 X70.1685 Y0.8648
G01 X70.1364 Y0.8826
G01 X70.0927 Y0.9046
G01 X70.0479 Y0.9243
G01 X70.0023 Y0.9419
G01 X69.9675 Y0.9536
G01 X69.9323 Y0.9640
G01 X69.8848 Y0.9758
G01 X69.8488 Y0.9832
G01 X69.8005 Y0.9910
G01 X69.7519 Y0.9963
G01 X69.7153 Y0.9988
G01 X69.6664 Y1.0000
G01 X-0.0123 Y0.9999
G01 X-0.0613 Y0.9981
G01 X-0.1102 Y0.9939
G01 X-0.1589 Y0.9873
G01 X-0.2071 Y0.9783
G01 X-0.2549 Y0.9670
G01 X-0.3020 Y0.9533
G01 X-0.3484 Y0.9373
G01 X-0.3940 Y0.9191
G01 X-0.4386 Y0.8987
G01 X-0.4822 Y0.8761
G01 X-0.5246 Y0.8514
G01 X-0.5657 Y0.8246
G01 X-0.6055 Y0.7958
G01 X-0.6438 Y0.7652
G01 X-0.6716 Y0.7410
G01 X-0.7071 Y0.7071
G01 X-0.7410 Y0.6716
G01 X-0.7730 Y0.6344
G01 X-0.8032 Y0.5957
G01 X-0.8315 Y0.5556
G01 X-0.8577 Y0.5141
G01 X-0.8819 Y0.4714
G01 X-0.9040 Y0.4276
G01 X-0.9239 Y0.3827
G01 X-0.9415 Y0.3369
G01 X-0.9569 Y0.2903
G01 X-0.9700 Y0.2430
G01 X-0.9808 Y0.1951
G01 X-0.9892 Y0.1467
G01 X-0.9952 Y0.0980
G01 X-0.9988 Y0.0491
G01 X-1.0000 Y-0.0000
G00 X-1.0000 Y-0.0000
G01 F70.00
G01 Z-1.6000
G01 F120.00
G01 X-0.9999 Y-34.9252
G01 X-0.9988 Y-34.9620
G01 X-0.9952 Y-35.0110
G01 X-0.9909 Y-35.0476
G01 X-0.9831 Y-35.0960
G01 X-0.9729 Y-35.1440
G01 X-0.9604 Y-35.1915
G01 X-0.9495 Y-35.2267
G01 X-0.9330 Y-35.2729
G01 X-0.9142 Y-35.3182
G01 X-0.8987 Y-35.3516
G01 X-0.8819 Y-35.3844
G01 X-0.8577 Y-35.4271
G01 X-0.8382 Y-35.4583
G01 X-0.8105 Y-35.4988
G01 X-0.7883 Y-35.5282
G01 X-0.7572 Y-35.5661
G01 X-0.7242 Y-35.6025
G01 X-0.6895 Y-35.6372
G01 X-0.6438 Y-35.6781
G01 X-0.6055 Y-35.7088
G01 X-0.5556 Y-35.7444
G01 X-0.5141 Y-35.7707
G01 X-0.4714 Y-35.7949
G01 X-0.4164 Y-35.8221
G01 X-0.3713 Y-35.8415
G01 X-0.3253 Y-35.8586
G01 X-0.2785 Y-35.8734
G01 X-0.2191 Y-35.8887
G01 X-0.1589 Y-35.9003
G01 X-0.1102 Y-35.9069
G01 X-0.0613 Y-35.9111
G01 X-0.0123 Y-35.9129
G01 X21.7926 Y-35.9130
G01 X21.7926 Y-52.4152
G01 X21.7933 Y-52.4520
G01 X21.7953 Y-52.4887
G01 X21.7987 Y-52.5254
G01 X21.8034 Y-52.5619
G01 X21.8095 Y-52.5982
G01 X21.8169 Y-52.6343
G01 X21.8256 Y-52.6700
G01 X21.8357 Y-52.7055
G01 X21.8470 Y-52.7405
G01 X21.8596 Y-52.7751
G01 X21.8735 Y-52.8092
G01 X21.8886 Y-52.8427
G01 X21.9050 Y-52.8757
G01 X21.9225 Y-52.9081
G01 X21.9413 Y-52.9398
G01 X21.9680 Y-52.9809
G01 X21.9894 Y-53.0109
G01 X22.0119 Y-53.0400
G01 X22.0354 Y-53.0683
G01 X22.0600 Y-53.0958
G01 X22.0855 Y-53.1223
G01 X22.1120 Y-53.1478
G01 X22.1395 Y-53.1724
G01 X22.1678 Y-53.1959
G01 X22.1969 Y-53.2184
G01 X22.2269 Y-53.2398
G01 X22.2576 Y-53.2600
G01 X22.2891 Y-53.2791
G01 X22.3212 Y-53.2971
G01 X22.3540 Y-53.3138
G01 X22.3874 Y-53.3294
G01 X22.4213 Y-53.3437
G01 X22.4557 Y-53.3567
G01 X22.5023 Y-53.3721
G01 X22.5378 Y-53.3822
G01 X22.5855 Y-53.3935
G01 X22.6217 Y-53.4005
G01 X22.6702 Y-53.4077
G01 X22.7068 Y-53.4115
G01 X22.7436 Y-53.4140
G01 X22.7926 Y-53.4152
G01 X49.8120 Y-53.4152
G01 X49.8121 Y-80.6123
G01 X49.8132 Y-80.6491
G01 X49.8157 Y-80.6858
G01 X49.8195 Y-80.7224
G01 X49.8247 Y-80.7589
G01 X49.8312 Y-80.7951
G01 X49.8391 Y-80.8311
G01 X49.8482 Y-80.8667
G01 X49.8625 Y-80.9137
G01 X49.8747 Y-80.9484
G01 X49.8881 Y-80.9827
G01 X49.9029 Y-81.0164
G01 X49.9188 Y-81.0496
G01 X49.9360 Y-81.0822
G01 X49.9543 Y-81.1141
G01 X49.9806 Y-81.1556
G01 X50.0016 Y-81.1858
G01 X50.0390 Y-81.2344
G01 X50.0794 Y-81.2806
G01 X50.1136 Y-81.3157
G01 X50.1589 Y-81.3572
G01 X50.2065 Y-81.3958
G01 X50.2565 Y-81.4315
G01 X50.2979 Y-81.4577
G01 X50.3515 Y-81.4876
G01 X50.4068 Y-81.5142
G01 X50.4636 Y-81.5373
G01 X50.5100 Y-81.5533
G01 X50.5690 Y-81.5700
G01 X50.6290 Y-81.5831
G01 X50.6896 Y-81.5925
G01 X50.7507 Y-81.5981
G01 X50.7998 Y-81.5999
G01 X69.3729 Y-81.5999
G01 X69.4097 Y-81.5988
G01 X69.4586 Y-81.5952
G01 X69.5073 Y-81.5892
G01 X69.5436 Y-81.5831
G01 X69.5797 Y-81.5757
G01 X69.6273 Y-81.5638
G01 X69.6626 Y-81.5533
G01 X69.7090 Y-81.5374
G01 X69.7545 Y-81.5191
G01 X69.7991 Y-81.4987
G01 X69.8427 Y-81.4761
G01 X69.8746 Y-81.4578
G01 X69.9161 Y-81.4315
G01 X69.9463 Y-81.4105
G01 X69.9757 Y-81.3884
G01 X70.0137 Y-81.3573
G01 X70.0500 Y-81.3243
G01 X70.0762 Y-81.2985
G01 X70.1096 Y-81.2625
G01 X70.1453 Y-81.2199
G01 X75.0397 Y-76.2478
G01 X75.0624 Y-76.2328
G01 X75.0926 Y-76.2114
G01 X75.1410 Y-76.1734
G01 X75.1871 Y-76.1325
G01 X75.2305 Y-76.0888
G01 X75.2633 Y-76.0520
G01 X75.2866 Y-76.0233
G01 X75.3161 Y-75.9838
G01 X75.3369 Y-75.9533
G01 X75.3566 Y-75.9220
G01 X75.3810 Y-75.8791
G01 X75.4032 Y-75.8351
G01 X75.4184 Y-75.8015
G01 X75.4368 Y-75.7557
G01 X75.4491 Y-75.7209
G01 X75.4601 Y-75.6856
G01 X75.4727 Y-75.6379
G01 X75.4830 Y-75.5897
G01 X75.4891 Y-75.5533
G01 X75.4939 Y-75.5166
G01 X75.4981 Y-75.4675
G01 X75.5000 Y-75.4059
G01 X75.5000 Y-4.7787
G01 X75.4993 Y-4.7421
G01 X75.4963 Y-4.6933
G01 X75.4910 Y-4.6447
G01 X75.4854 Y-4.6085
G01 X75.4759 Y-4.5605
G01 X75.4641 Y-4.5131
G01 X75.4499 Y-4.4663
G01 X75.4379 Y-4.4317
G01 X75.4198 Y-4.3863
G01 X75.4048 Y-4.3528
G01 X75.3829 Y-4.3091
G01 X75.3589 Y-4.2666
G01 X75.3328 Y-4.2252
G01 X75.3120 Y-4.1950
G01 X75.2825 Y-4.1561
G01 X75.2511 Y-4.1186
G01 X75.2180 Y-4.0827
G01 X75.1831 Y-4.0484
G01 X75.1466 Y-4.0159
G01 X75.1182 Y-3.9927
G01 X75.0791 Y-3.9634
G01 X75.0385 Y-3.9361
G01 X74.9967 Y-3.9108
G01 X74.9605 Y-3.8911
G01 X70.5737 Y0.4203
G01 X70.5525 Y0.4635
G01 X70.5287 Y0.5063
G01 X70.5029 Y0.5478
G01 X70.4751 Y0.5881
G01 X70.4454 Y0.6270
G01 X70.4138 Y0.6643
G01 X70.3804 Y0.7001
G01 X70.3453 Y0.7342
G01 X70.3179 Y0.7586
G01 X70.2800 Y0.7896
G01 X70.2506 Y0.8116
G01 X70.2102 Y0.8392
G01 X70.1685 Y0.8648
G01 X70.1364 Y0.8826
G01 X70.0927 Y0.9046
G01 X70.0479 Y0.9243
G01 X70.0023 Y0.9419
G01 X69.9675 Y0.9536
G01 X69.9323 Y0.9640
G01 X69.8848 Y0.9758
G01 X69.8488 Y0.9832
G01 X69.8005 Y0.9910
G01 X69.7519 Y0.9963
G01 X69.7153 Y0.9988
G01 X69.6664 Y1.0000
G01 X-0.0123 Y0.9999
G01 X-0.0613 Y0.9981
G01 X-0.1102 Y0.9939
G01 X-0.1589 Y0.9873
G01 X-0.2071 Y0.9783
G01 X-0.2549 Y0.9670
G01 X-0.3020 Y0.9533
G01 X-0.3484 Y0.9373
G01 X-0.3940 Y0.9191
G01 X-0.4386 Y0.8987
G01 X-0.4822 Y0.8761
G01 X-0.5246 Y0.8514
G01 X-0.5657 Y0.8246
G01 X-0.6055 Y0.7958
G01 X-0.6438 Y0.7652
G01 X-0.6716 Y0.7410
G01 X-0.7071 Y0.7071
G01 X-0.7410 Y0.6716
G01 X-0.7730 Y0.6344
G01 X-0.8032 Y0.5957
G01 X-0.8315 Y0.5556
G01 X-0.8577 Y0.5141
G01 X-0.8819 Y0.4714
G01 X-0.9040 Y0.4276
G01 X-0.9239 Y0.3827
G01 X-0.9415 Y0.3369
G01 X-0.9569 Y0.2903
G01 X-0.9700 Y0.2430
G01 X-0.9808 Y0.1951
G01 X-0.9892 Y0.1467
G01 X-0.9952 Y0.0980
G01 X-0.9988 Y0.0491
G01 X-1.0000 Y-0.0000
G00 X-1.0000 Y-0.0000
G01 F70.00
G01 Z-1.7000
G01 F120.00
G01 X-0.9999 Y-34.9252
G01 X-0.9988 Y-34.9620
G01 X-0.9952 Y-35.0110
G01 X-0.9909 Y-35.0476
G01 X-0.9831 Y-35.0960
G01 X-0.9729 Y-35.1440
G01 X-0.9604 Y-35.1915
G01 X-0.9495 Y-35.2267
G01 X-0.9330 Y-35.2729
G01 X-0.9142 Y-35.3182
G01 X-0.8987 Y-35.3516
G01 X-0.8819 Y-35.3844
G01 X-0.8577 Y-35.4271
G01 X-0.8382 Y-35.4583
G01 X-0.8105 Y-35.4988
G01 X-0.7883 Y-35.5282
G01 X-0.7572 Y-35.5661
G01 X-0.7242 Y-35.6025
G01 X-0.6895 Y-35.6372
G01 X-0.6438 Y-35.6781
G01 X-0.6055 Y-35.7088
G01 X-0.5556 Y-35.7444
G01 X-0.5141 Y-35.7707
G01 X-0.4714 Y-35.7949
G01 X-0.4164 Y-35.8221
G01 X-0.3713 Y-35.8415
G01 X-0.3253 Y-35.8586
G01 X-0.2785 Y-35.8734
G01 X-0.2191 Y-35.8887
G01 X-0.1589 Y-35.9003
G01 X-0.1102 Y-35.9069
G01 X-0.0613 Y-35.9111
G01 X-0.0123 Y-35.9129
G01 X21.7926 Y-35.9130
G01 X21.7926 Y-52.4152
G01 X21.7933 Y-52.4520
G01 X21.7953 Y-52.4887
G01 X21.7987 Y-52.5254
G01 X21.8034 Y-52.5619
G01 X21.8095 Y-52.5982
G01 X21.8169 Y-52.6343
G01 X21.8256 Y-52.6700
G01 X21.8357 Y-52.7055
G01 X21.8470 Y-52.7405
G01 X21.8596 Y-52.7751
G01 X21.8735 Y-52.8092
G01 X21.8886 Y-52.8427
G01 X21.9050 Y-52.8757
G01 X21.9225 Y-52.9081
G01 X21.9413 Y-52.9398
G01 X21.9680 Y-52.9809
G01 X21.9894 Y-53.0109
G01 X22.0119 Y-53.0400
G01 X22.0354 Y-53.0683
G01 X22.0600 Y-53.0958
G01 X22.0855 Y-53.1223
G01 X22.1120 Y-53.1478
G01 X22.1395 Y-53.1724
G01 X22.1678 Y-53.1959
G01 X22.1969 Y-53.2184
G01 X22.2269 Y-53.2398
G01 X22.2576 Y-53.2600
G01 X22.2891 Y-53.2791
G01 X22.3212 Y-53.2971
G01 X22.3540 Y-53.3138
G01 X22.3874 Y-53.3294
G01 X22.4213 Y-53.3437
G01 X22.4557 Y-53.3567
G01 X22.5023 Y-53.3721
G01 X22.5378 Y-53.3822
G01 X22.5855 Y-53.3935
G01 X22.6217 Y-53.4005
G01 X22.6702 Y-53.4077
G01 X22.7068 Y-53.4115
G01 X22.7436 Y-53.4140
G01 X22.7926 Y-53.4152
G01 X49.8120 Y-53.4152
G01 X49.8121 Y-80.6123
G01 X49.8132 Y-80.6491
G01 X49.8157 Y-80.6858
G01 X49.8195 Y-80.7224
G01 X49.8247 Y-80.7589
G01 X49.8312 Y-80.7951
G01 X49.8391 Y-80.8311
G01 X49.8482 Y-80.8667
G01 X49.8625 Y-80.9137
G01 X49.8747 Y-80.9484
G01 X49.8881 Y-80.9827
G01 X49.9029 Y-81.0164
G01 X49.9188 Y-81.0496
G01 X49.9360 Y-81.0822
G01 X49.9543 Y-81.1141
G01 X49.9806 Y-81.1556
G01 X50.0016 Y-81.1858
G01 X50.0390 Y-81.2344
G01 X50.0794 Y-81.2806
G01 X50.1136 Y-81.3157
G01 X50.1589 Y-81.3572
G01 X50.2065 Y-81.3958
G01 X50.2565 Y-81.4315
G01 X50.2979 Y-81.4577
G01 X50.3515 Y-81.4876
G01 X50.4068 Y-81.5142
G01 X50.4636 Y-81.5373
G01 X50.5100 Y-81.5533
G01 X50.5690 Y-81.5700
G01 X50.6290 Y-81.5831
G01 X50.6896 Y-81.5925
G01 X50.7507 Y-81.5981
G01 X50.7998 Y-81.5999
G01 X69.3729 Y-81.5999
G01 X69.4097 Y-81.5988
G01 X69.4586 Y-81.5952
G01 X69.5073 Y-81.5892
G01 X69.5436 Y-81.5831
G01 X69.5797 Y-81.5757
G01 X69.6273 Y-81.5638
G01 X69.6626 Y-81.5533
G01 X69.7090 Y-81.5374
G01 X69.7545 Y-81.5191
G01 X69.7991 Y-81.4987
G01 X69.8427 Y-81.4761
G01 X69.8746 Y-81.4578
G01 X69.9161 Y-81.4315
G01 X69.9463 Y-81.4105
G01 X69.9757 Y-81.3884
G01 X70.0137 Y-81.3573
G01 X70.0500 Y-81.3243
G01 X70.0762 Y-81.2985
G01 X70.1096 Y-81.2625
G01 X70.1453 Y-81.2199
G01 X75.0397 Y-76.2478
G01 X75.0624 Y-76.2328
G01 X75.0926 Y-76.2114
G01 X75.1410 Y-76.1734
G01 X75.1871 Y-76.1325
G01 X75.2305 Y-76.0888
G01 X75.2633 Y-76.0520
G01 X75.2866 Y-76.0233
G01 X75.3161 Y-75.9838
G01 X75.3369 Y-75.9533
G01 X75.3566 Y-75.9220
G01 X75.3810 Y-75.8791
G01 X75.4032 Y-75.8351
G01 X75.4184 Y-75.8015
G01 X75.4368 Y-75.7557
G01 X75.4491 Y-75.7209
G01 X75.4601 Y-75.6856
G01 X75.4727 Y-75.6379
G01 X75.4830 Y-75.5897
G01 X75.4891 Y-75.5533
G01 X75.4939 Y-75.5166
G01 X75.4981 Y-75.4675
G01 X75.5000 Y-75.4059
G01 X75.5000 Y-4.7787
G01 X75.4993 Y-4.7421
G01 X75.4963 Y-4.6933
G01 X75.4910 Y-4.6447
G01 X75.4854 Y-4.6085
G01 X75.4759 Y-4.5605
G01 X75.4641 Y-4.5131
G01 X75.4499 Y-4.4663
G01 X75.4379 Y-4.4317
G01 X75.4198 Y-4.3863
G01 X75.4048 Y-4.3528
G01 X75.3829 Y-4.3091
G01 X75.3589 Y-4.2666
G01 X75.3328 Y-4.2252
G01 X75.3120 Y-4.1950
G01 X75.2825 Y-4.1561
G01 X75.2511 Y-4.1186
G01 X75.2180 Y-4.0827
G01 X75.1831 Y-4.0484
G01 X75.1466 Y-4.0159
G01 X75.1182 Y-3.9927
G01 X75.0791 Y-3.9634
G01 X75.0385 Y-3.9361
G01 X74.9967 Y-3.9108
G01 X74.9605 Y-3.8911
G01 X70.5737 Y0.4203
G01 X70.5525 Y0.4635
G01 X70.5287 Y0.5063
G01 X70.5029 Y0.5478
G01 X70.4751 Y0.5881
G01 X70.4454 Y0.6270
G01 X70.4138 Y0.6643
G01 X70.3804 Y0.7001
G01 X70.3453 Y0.7342
G01 X70.3179 Y0.7586
G01 X70.2800 Y0.7896
G01 X70.2506 Y0.8116
G01 X70.2102 Y0.8392
G01 X70.1685 Y0.8648
G01 X70.1364 Y0.8826
G01 X70.0927 Y0.9046
G01 X70.0479 Y0.9243
G01 X70.0023 Y0.9419
G01 X69.9675 Y0.9536
G01 X69.9323 Y0.9640
G01 X69.8848 Y0.9758
G01 X69.8488 Y0.9832
G01 X69.8005 Y0.9910
G01 X69.7519 Y0.9963
G01 X69.7153 Y0.9988
G01 X69.6664 Y1.0000
G01 X-0.0123 Y0.9999
G01 X-0.0613 Y0.9981
G01 X-0.1102 Y0.9939
G01 X-0.1589 Y0.9873
G01 X-0.2071 Y0.9783
G01 X-0.2549 Y0.9670
G01 X-0.3020 Y0.9533
G01 X-0.3484 Y0.9373
G01 X-0.3940 Y0.9191
G01 X-0.4386 Y0.8987
G01 X-0.4822 Y0.8761
G01 X-0.5246 Y0.8514
G01 X-0.5657 Y0.8246
G01 X-0.6055 Y0.7958
G01 X-0.6438 Y0.7652
G01 X-0.6716 Y0.7410
G01 X-0.7071 Y0.7071
G01 X-0.7410 Y0.6716
G01 X-0.7730 Y0.6344
G01 X-0.8032 Y0.5957
G01 X-0.8315 Y0.5556
G01 X-0.8577 Y0.5141
G01 X-0.8819 Y0.4714
G01 X-0.9040 Y0.4276
G01 X-0.9239 Y0.3827
G01 X-0.9415 Y0.3369
G01 X-0.9569 Y0.2903
G01 X-0.9700 Y0.2430
G01 X-0.9808 Y0.1951
G01 X-0.9892 Y0.1467
G01 X-0.9952 Y0.0980
G01 X-0.9988 Y0.0491
G01 X-1.0000 Y-0.0000
G00 X-1.0000 Y-0.0000
G01 F70.00
G01 Z-1.8000
G01 F120.00
G01 X-0.9999 Y-34.9252
G01 X-0.9988 Y-34.9620
G01 X-0.9952 Y-35.0110
G01 X-0.9909 Y-35.0476
G01 X-0.9831 Y-35.0960
G01 X-0.9729 Y-35.1440
G01 X-0.9604 Y-35.1915
G01 X-0.9495 Y-35.2267
G01 X-0.9330 Y-35.2729
G01 X-0.9142 Y-35.3182
G01 X-0.8987 Y-35.3516
G01 X-0.8819 Y-35.3844
G01 X-0.8577 Y-35.4271
G01 X-0.8382 Y-35.4583
G01 X-0.8105 Y-35.4988
G01 X-0.7883 Y-35.5282
G01 X-0.7572 Y-35.5661
G01 X-0.7242 Y-35.6025
G01 X-0.6895 Y-35.6372
G01 X-0.6438 Y-35.6781
G01 X-0.6055 Y-35.7088
G01 X-0.5556 Y-35.7444
G01 X-0.5141 Y-35.7707
G01 X-0.4714 Y-35.7949
G01 X-0.4164 Y-35.8221
G01 X-0.3713 Y-35.8415
G01 X-0.3253 Y-35.8586
G01 X-0.2785 Y-35.8734
G01 X-0.2191 Y-35.8887
G01 X-0.1589 Y-35.9003
G01 X-0.1102 Y-35.9069
G01 X-0.0613 Y-35.9111
G01 X-0.0123 Y-35.9129
G01 X21.7926 Y-35.9130
G01 X21.7926 Y-52.4152
G01 X21.7933 Y-52.4520
G01 X21.7953 Y-52.4887
G01 X21.7987 Y-52.5254
G01 X21.8034 Y-52.5619
G01 X21.8095 Y-52.5982
G01 X21.8169 Y-52.6343
G01 X21.8256 Y-52.6700
G01 X21.8357 Y-52.7055
G01 X21.8470 Y-52.7405
G01 X21.8596 Y-52.7751
G01 X21.8735 Y-52.8092
G01 X21.8886 Y-52.8427
G01 X21.9050 Y-52.8757
G01 X21.9225 Y-52.9081
G01 X21.9413 Y-52.9398
G01 X21.9680 Y-52.9809
G01 X21.9894 Y-53.0109
G01 X22.0119 Y-53.0400
G01 X22.0354 Y-53.0683
G01 X22.0600 Y-53.0958
G01 X22.0855 Y-53.1223
G01 X22.1120 Y-53.1478
G01 X22.1395 Y-53.1724
G01 X22.1678 Y-53.1959
G01 X22.1969 Y-53.2184
G01 X22.2269 Y-53.2398
G01 X22.2576 Y-53.2600
G01 X22.2891 Y-53.2791
G01 X22.3212 Y-53.2971
G01 X22.3540 Y-53.3138
G01 X22.3874 Y-53.3294
G01 X22.4213 Y-53.3437
G01 X22.4557 Y-53.3567
G01 X22.5023 Y-53.3721
G01 X22.5378 Y-53.3822
G01 X22.5855 Y-53.3935
G01 X22.6217 Y-53.4005
G01 X22.6702 Y-53.4077
G01 X22.7068 Y-53.4115
G01 X22.7436 Y-53.4140
G01 X22.7926 Y-53.4152
G01 X49.8120 Y-53.4152
G01 X49.8121 Y-80.6123
G01 X49.8132 Y-80.6491
G01 X49.8157 Y-80.6858
G01 X49.8195 Y-80.7224
G01 X49.8247 Y-80.7589
G01 X49.8312 Y-80.7951
G01 X49.8391 Y-80.8311
G01 X49.8482 Y-80.8667
G01 X49.8625 Y-80.9137
G01 X49.8747 Y-80.9484
G01 X49.8881 Y-80.9827
G01 X49.9029 Y-81.0164
G01 X49.9188 Y-81.0496
G01 X49.9360 Y-81.0822
G01 X49.9543 Y-81.1141
G01 X49.9806 Y-81.1556
G01 X50.0016 Y-81.1858
G01 X50.0390 Y-81.2344
G01 X50.0794 Y-81.2806
G01 X50.1136 Y-81.3157
G01 X50.1589 Y-81.3572
G01 X50.2065 Y-81.3958
G01 X50.2565 Y-81.4315
G01 X50.2979 Y-81.4577
G01 X50.3515 Y-81.4876
G01 X50.4068 Y-81.5142
G01 X50.4636 Y-81.5373
G01 X50.5100 Y-81.5533
G01 X50.5690 Y-81.5700
G01 X50.6290 Y-81.5831
G01 X50.6896 Y-81.5925
G01 X50.7507 Y-81.5981
G01 X50.7998 Y-81.5999
G01 X69.3729 Y-81.5999
G01 X69.4097 Y-81.5988
G01 X69.4586 Y-81.5952
G01 X69.5073 Y-81.5892
G01 X69.5436 Y-81.5831
G01 X69.5797 Y-81.5757
G01 X69.6273 Y-81.5638
G01 X69.6626 Y-81.5533
G01 X69.7090 Y-81.5374
G01 X69.7545 Y-81.5191
G01 X69.7991 Y-81.4987
G01 X69.8427 Y-81.4761
G01 X69.8746 Y-81.4578
G01 X69.9161 Y-81.4315
G01 X69.9463 Y-81.4105
G01 X69.9757 Y-81.3884
G01 X70.0137 Y-81.3573
G01 X70.0500 Y-81.3243
G01 X70.0762 Y-81.2985
G01 X70.1096 Y-81.2625
G01 X70.1453 Y-81.2199
G01 X75.0397 Y-76.2478
G01 X75.0624 Y-76.2328
G01 X75.0926 Y-76.2114
G01 X75.1410 Y-76.1734
G01 X75.1871 Y-76.1325
G01 X75.2305 Y-76.0888
G01 X75.2633 Y-76.0520
G01 X75.2866 Y-76.0233
G01 X75.3161 Y-75.9838
G01 X75.3369 Y-75.9533
G01 X75.3566 Y-75.9220
G01 X75.3810 Y-75.8791
G01 X75.4032 Y-75.8351
G01 X75.4184 Y-75.8015
G01 X75.4368 Y-75.7557
G01 X75.4491 Y-75.7209
G01 X75.4601 Y-75.6856
G01 X75.4727 Y-75.6379
G01 X75.4830 Y-75.5897
G01 X75.4891 Y-75.5533
G01 X75.4939 Y-75.5166
G01 X75.4981 Y-75.4675
G01 X75.5000 Y-75.4059
G01 X75.5000 Y-4.7787
G01 X75.4993 Y-4.7421
G01 X75.4963 Y-4.6933
G01 X75.4910 Y-4.6447
G01 X75.4854 Y-4.6085
G01 X75.4759 Y-4.5605
G01 X75.4641 Y-4.5131
G01 X75.4499 Y-4.4663
G01 X75.4379 Y-4.4317
G01 X75.4198 Y-4.3863
G01 X75.4048 Y-4.3528
G01 X75.3829 Y-4.3091
G01 X75.3589 Y-4.2666
G01 X75.3328 Y-4.2252
G01 X75.3120 Y-4.1950
G01 X75.2825 Y-4.1561
G01 X75.2511 Y-4.1186
G01 X75.2180 Y-4.0827
G01 X75.1831 Y-4.0484
G01 X75.1466 Y-4.0159
G01 X75.1182 Y-3.9927
G01 X75.0791 Y-3.9634
G01 X75.0385 Y-3.9361
G01 X74.9967 Y-3.9108
G01 X74.9605 Y-3.8911
G01 X70.5737 Y0.4203
G01 X70.5525 Y0.4635
G01 X70.5287 Y0.5063
G01 X70.5029 Y0.5478
G01 X70.4751 Y0.5881
G01 X70.4454 Y0.6270
G01 X70.4138 Y0.6643
G01 X70.3804 Y0.7001
G01 X70.3453 Y0.7342
G01 X70.3179 Y0.7586
G01 X70.2800 Y0.7896
G01 X70.2506 Y0.8116
G01 X70.2102 Y0.8392
G01 X70.1685 Y0.8648
G01 X70.1364 Y0.8826
G01 X70.0927 Y0.9046
G01 X70.0479 Y0.9243
G01 X70.0023 Y0.9419
G01 X69.9675 Y0.9536
G01 X69.9323 Y0.9640
G01 X69.8848 Y0.9758
G01 X69.8488 Y0.9832
G01 X69.8005 Y0.9910
G01 X69.7519 Y0.9963
G01 X69.7153 Y0.9988
G01 X69.6664 Y1.0000
G01 X-0.0123 Y0.9999
G01 X-0.0613 Y0.9981
G01 X-0.1102 Y0.9939
G01 X-0.1589 Y0.9873
G01 X-0.2071 Y0.9783
G01 X-0.2549 Y0.9670
G01 X-0.3020 Y0.9533
G01 X-0.3484 Y0.9373
G01 X-0.3940 Y0.9191
G01 X-0.4386 Y0.8987
G01 X-0.4822 Y0.8761
G01 X-0.5246 Y0.8514
G01 X-0.5657 Y0.8246
G01 X-0.6055 Y0.7958
G01 X-0.6438 Y0.7652
G01 X-0.6716 Y0.7410
G01 X-0.7071 Y0.7071
G01 X-0.7410 Y0.6716
G01 X-0.7730 Y0.6344
G01 X-0.8032 Y0.5957
G01 X-0.8315 Y0.5556
G01 X-0.8577 Y0.5141
G01 X-0.8819 Y0.4714
G01 X-0.9040 Y0.4276
G01 X-0.9239 Y0.3827
G01 X-0.9415 Y0.3369
G01 X-0.9569 Y0.2903
G01 X-0.9700 Y0.2430
G01 X-0.9808 Y0.1951
G01 X-0.9892 Y0.1467
G01 X-0.9952 Y0.0980
G01 X-0.9988 Y0.0491
G01 X-1.0000 Y-0.0000
G00 Z2.0000
M05
G00 Z2.0000
G00 Z25.00

