(G-CODE GENERATED BY FLATCAM v8.993 - www.flatcam.org - Version Date: 2020/06/05)

(Name: A1_RF_PA_Ф2_низ.gbr_iso_combined_cutoff)
(Type: G-code from Geometry)
(Units: MM)

(Created on Tuesday, 08 December 2020 at 23:36)

(This preprocessor is the default preprocessor used by FlatCAM.)
(It is made to work with MACH3 compatible motion controllers.)

(TOOL DIAMETER: 2.0 mm)
(Feedrate_XY: 120.0 mm/min)
(Feedrate_Z: 70.0 mm/min)
(Feedrate rapids 1500.0 mm/min)

(Z_Cut: -1.7 mm)
(DepthPerCut: 0.1 mm <=>17 passes)
(Z_Move: 2.0 mm)
(Z Start: None mm)
(Z End: 25.0 mm)
(Steps per circle: 128)
(Preprocessor Geometry: default)

(X range:  -75.5000 ...    1.0000  mm)
(Y range:  -81.6000 ...    1.0000  mm)

(Spindle Speed: 10000 RPM)
G21
G90
G94



G01 F120.00
G00 Z2.0000

M03 S10000
G00 X-75.0397 Y-76.2478
G01 F70.00
G01 Z-0.1000
G01 F120.00
G01 X-70.1453 Y-81.2199
G01 X-70.1276 Y-81.2416
G01 X-70.1034 Y-81.2695
G01 X-70.0608 Y-81.3140
G01 X-70.0339 Y-81.3393
G01 X-70.0062 Y-81.3637
G01 X-69.9775 Y-81.3870
G01 X-69.9481 Y-81.4093
G01 X-69.8972 Y-81.4439
G01 X-69.8656 Y-81.4631
G01 X-69.8334 Y-81.4812
G01 X-69.8006 Y-81.4980
G01 X-69.7671 Y-81.5137
G01 X-69.7101 Y-81.5369
G01 X-69.6753 Y-81.5492
G01 X-69.6400 Y-81.5602
G01 X-69.6044 Y-81.5698
G01 X-69.5684 Y-81.5782
G01 X-69.5200 Y-81.5872
G01 X-69.4589 Y-81.5952
G01 X-69.4098 Y-81.5988
G01 X-69.3606 Y-81.6000
G01 X-50.4945 Y-81.6000
G01 X-50.4332 Y-81.5981
G01 X-50.3721 Y-81.5925
G01 X-50.3115 Y-81.5831
G01 X-50.2515 Y-81.5700
G01 X-50.1925 Y-81.5533
G01 X-50.1346 Y-81.5330
G01 X-50.0781 Y-81.5092
G01 X-50.0231 Y-81.4819
G01 X-49.9910 Y-81.4640
G01 X-49.9595 Y-81.4449
G01 X-49.9087 Y-81.4105
G01 X-49.8601 Y-81.3730
G01 X-49.8139 Y-81.3327
G01 X-49.7703 Y-81.2895
G01 X-49.7454 Y-81.2624
G01 X-49.7215 Y-81.2344
G01 X-49.6987 Y-81.2055
G01 X-49.6769 Y-81.1758
G01 X-49.6432 Y-81.1246
G01 X-49.6126 Y-81.0714
G01 X-49.5854 Y-81.0164
G01 X-49.5706 Y-80.9827
G01 X-49.5572 Y-80.9484
G01 X-49.5376 Y-80.8903
G01 X-49.5275 Y-80.8549
G01 X-49.5188 Y-80.8191
G01 X-49.5072 Y-80.7589
G01 X-49.5020 Y-80.7224
G01 X-49.4982 Y-80.6858
G01 X-49.4948 Y-80.6245
G01 X-49.4945 Y-53.7327
G01 X-22.4751 Y-53.7327
G01 X-22.4383 Y-53.7320
G01 X-22.3893 Y-53.7290
G01 X-22.3527 Y-53.7252
G01 X-22.3042 Y-53.7180
G01 X-22.2680 Y-53.7110
G01 X-22.2203 Y-53.6997
G01 X-22.1731 Y-53.6860
G01 X-22.1382 Y-53.6742
G01 X-22.1038 Y-53.6612
G01 X-22.0699 Y-53.6469
G01 X-22.0365 Y-53.6313
G01 X-22.0037 Y-53.6146
G01 X-21.9716 Y-53.5966
G01 X-21.9401 Y-53.5775
G01 X-21.9094 Y-53.5573
G01 X-21.8794 Y-53.5359
G01 X-21.8503 Y-53.5134
G01 X-21.8220 Y-53.4899
G01 X-21.7945 Y-53.4653
G01 X-21.7680 Y-53.4398
G01 X-21.7425 Y-53.4133
G01 X-21.7179 Y-53.3858
G01 X-21.6868 Y-53.3479
G01 X-21.6647 Y-53.3185
G01 X-21.6437 Y-53.2882
G01 X-21.6238 Y-53.2573
G01 X-21.6050 Y-53.2256
G01 X-21.5875 Y-53.1932
G01 X-21.5711 Y-53.1602
G01 X-21.5560 Y-53.1267
G01 X-21.5421 Y-53.0926
G01 X-21.5295 Y-53.0580
G01 X-21.5182 Y-53.0230
G01 X-21.5081 Y-52.9875
G01 X-21.4994 Y-52.9518
G01 X-21.4920 Y-52.9157
G01 X-21.4859 Y-52.8794
G01 X-21.4812 Y-52.8429
G01 X-21.4778 Y-52.8062
G01 X-21.4758 Y-52.7695
G01 X-21.4751 Y-52.7327
G01 X-21.4751 Y-36.2305
G01 X0.0123 Y-36.2304
G01 X0.0613 Y-36.2286
G01 X0.1102 Y-36.2244
G01 X0.1589 Y-36.2178
G01 X0.2071 Y-36.2088
G01 X0.2549 Y-36.1975
G01 X0.3020 Y-36.1838
G01 X0.3484 Y-36.1678
G01 X0.3940 Y-36.1496
G01 X0.4386 Y-36.1291
G01 X0.4822 Y-36.1065
G01 X0.5246 Y-36.0818
G01 X0.5657 Y-36.0551
G01 X0.6055 Y-36.0263
G01 X0.6438 Y-35.9956
G01 X0.6806 Y-35.9631
G01 X0.7157 Y-35.9289
G01 X0.7410 Y-35.9020
G01 X0.7730 Y-35.8649
G01 X0.8032 Y-35.8262
G01 X0.8315 Y-35.7860
G01 X0.8577 Y-35.7446
G01 X0.8819 Y-35.7019
G01 X0.9040 Y-35.6580
G01 X0.9239 Y-35.6132
G01 X0.9415 Y-35.5674
G01 X0.9569 Y-35.5208
G01 X0.9670 Y-35.4853
G01 X0.9783 Y-35.4376
G01 X0.9873 Y-35.3893
G01 X0.9939 Y-35.3407
G01 X0.9981 Y-35.2918
G01 X0.9999 Y-35.2427
G01 X1.0000 Y0.0000
G01 X0.9981 Y0.0613
G01 X0.9939 Y0.1102
G01 X0.9873 Y0.1589
G01 X0.9783 Y0.2071
G01 X0.9670 Y0.2549
G01 X0.9533 Y0.3020
G01 X0.9373 Y0.3484
G01 X0.9191 Y0.3940
G01 X0.8987 Y0.4386
G01 X0.8761 Y0.4822
G01 X0.8514 Y0.5246
G01 X0.8246 Y0.5657
G01 X0.7958 Y0.6055
G01 X0.7652 Y0.6438
G01 X0.7327 Y0.6806
G01 X0.6984 Y0.7157
G01 X0.6624 Y0.7491
G01 X0.6249 Y0.7807
G01 X0.5858 Y0.8105
G01 X0.5453 Y0.8382
G01 X0.5035 Y0.8640
G01 X0.4605 Y0.8876
G01 X0.4164 Y0.9092
G01 X0.3713 Y0.9285
G01 X0.3369 Y0.9415
G01 X0.2903 Y0.9569
G01 X0.2430 Y0.9700
G01 X0.1951 Y0.9808
G01 X0.1467 Y0.9892
G01 X0.0980 Y0.9952
G01 X0.0491 Y0.9988
G01 X0.0000 Y1.0000
G01 X-69.7086 Y1.0000
G01 X-69.7698 Y0.9981
G01 X-69.8186 Y0.9939
G01 X-69.8671 Y0.9874
G01 X-69.9152 Y0.9784
G01 X-69.9510 Y0.9702
G01 X-69.9982 Y0.9572
G01 X-70.0332 Y0.9459
G01 X-70.0791 Y0.9289
G01 X-70.1129 Y0.9146
G01 X-70.1462 Y0.8992
G01 X-70.1897 Y0.8767
G01 X-70.2320 Y0.8521
G01 X-70.2630 Y0.8323
G01 X-70.3030 Y0.8042
G01 X-70.3321 Y0.7818
G01 X-70.3697 Y0.7504
G01 X-70.3968 Y0.7256
G01 X-70.4315 Y0.6911
G01 X-70.4724 Y0.6456
G01 X-70.5030 Y0.6074
G01 X-70.5387 Y0.5577
G01 X-70.5713 Y0.5059
G01 X-70.5950 Y0.4630
G01 X-70.6216 Y0.4080
G01 X-70.6420 Y0.3590
G01 X-75.0335 Y-3.9569
G01 X-75.0791 Y-3.9874
G01 X-75.1278 Y-4.0243
G01 X-75.1651 Y-4.0559
G01 X-75.2094 Y-4.0979
G01 X-75.2430 Y-4.1334
G01 X-75.2748 Y-4.1705
G01 X-75.3048 Y-4.2091
G01 X-75.3328 Y-4.2492
G01 X-75.3589 Y-4.2905
G01 X-75.3829 Y-4.3331
G01 X-75.4048 Y-4.3768
G01 X-75.4245 Y-4.4215
G01 X-75.4420 Y-4.4671
G01 X-75.4573 Y-4.5136
G01 X-75.4703 Y-4.5607
G01 X-75.4809 Y-4.6084
G01 X-75.4893 Y-4.6565
G01 X-75.4952 Y-4.7051
G01 X-75.4988 Y-4.7538
G01 X-75.5000 Y-4.8027
G01 X-75.5000 Y-75.4059
G01 X-75.4993 Y-75.4429
G01 X-75.4973 Y-75.4798
G01 X-75.4908 Y-75.5411
G01 X-75.4806 Y-75.6018
G01 X-75.4667 Y-75.6618
G01 X-75.4491 Y-75.7209
G01 X-75.4279 Y-75.7787
G01 X-75.4032 Y-75.8351
G01 X-75.3751 Y-75.8899
G01 X-75.3436 Y-75.9429
G01 X-75.3089 Y-75.9938
G01 X-75.2712 Y-76.0425
G01 X-75.2305 Y-76.0888
G01 X-75.1871 Y-76.1325
G01 X-75.1410 Y-76.1734
G01 X-75.0926 Y-76.2114
G01 X-75.0624 Y-76.2328
G01 X-75.0397 Y-76.2478
G00 X-75.0397 Y-76.2478
G01 F70.00
G01 Z-0.2000
G01 F120.00
G01 X-70.1453 Y-81.2199
G01 X-70.1276 Y-81.2416
G01 X-70.1034 Y-81.2695
G01 X-70.0608 Y-81.3140
G01 X-70.0339 Y-81.3393
G01 X-70.0062 Y-81.3637
G01 X-69.9775 Y-81.3870
G01 X-69.9481 Y-81.4093
G01 X-69.8972 Y-81.4439
G01 X-69.8656 Y-81.4631
G01 X-69.8334 Y-81.4812
G01 X-69.8006 Y-81.4980
G01 X-69.7671 Y-81.5137
G01 X-69.7101 Y-81.5369
G01 X-69.6753 Y-81.5492
G01 X-69.6400 Y-81.5602
G01 X-69.6044 Y-81.5698
G01 X-69.5684 Y-81.5782
G01 X-69.5200 Y-81.5872
G01 X-69.4589 Y-81.5952
G01 X-69.4098 Y-81.5988
G01 X-69.3606 Y-81.6000
G01 X-50.4945 Y-81.6000
G01 X-50.4332 Y-81.5981
G01 X-50.3721 Y-81.5925
G01 X-50.3115 Y-81.5831
G01 X-50.2515 Y-81.5700
G01 X-50.1925 Y-81.5533
G01 X-50.1346 Y-81.5330
G01 X-50.0781 Y-81.5092
G01 X-50.0231 Y-81.4819
G01 X-49.9910 Y-81.4640
G01 X-49.9595 Y-81.4449
G01 X-49.9087 Y-81.4105
G01 X-49.8601 Y-81.3730
G01 X-49.8139 Y-81.3327
G01 X-49.7703 Y-81.2895
G01 X-49.7454 Y-81.2624
G01 X-49.7215 Y-81.2344
G01 X-49.6987 Y-81.2055
G01 X-49.6769 Y-81.1758
G01 X-49.6432 Y-81.1246
G01 X-49.6126 Y-81.0714
G01 X-49.5854 Y-81.0164
G01 X-49.5706 Y-80.9827
G01 X-49.5572 Y-80.9484
G01 X-49.5376 Y-80.8903
G01 X-49.5275 Y-80.8549
G01 X-49.5188 Y-80.8191
G01 X-49.5072 Y-80.7589
G01 X-49.5020 Y-80.7224
G01 X-49.4982 Y-80.6858
G01 X-49.4948 Y-80.6245
G01 X-49.4945 Y-53.7327
G01 X-22.4751 Y-53.7327
G01 X-22.4383 Y-53.7320
G01 X-22.3893 Y-53.7290
G01 X-22.3527 Y-53.7252
G01 X-22.3042 Y-53.7180
G01 X-22.2680 Y-53.7110
G01 X-22.2203 Y-53.6997
G01 X-22.1731 Y-53.6860
G01 X-22.1382 Y-53.6742
G01 X-22.1038 Y-53.6612
G01 X-22.0699 Y-53.6469
G01 X-22.0365 Y-53.6313
G01 X-22.0037 Y-53.6146
G01 X-21.9716 Y-53.5966
G01 X-21.9401 Y-53.5775
G01 X-21.9094 Y-53.5573
G01 X-21.8794 Y-53.5359
G01 X-21.8503 Y-53.5134
G01 X-21.8220 Y-53.4899
G01 X-21.7945 Y-53.4653
G01 X-21.7680 Y-53.4398
G01 X-21.7425 Y-53.4133
G01 X-21.7179 Y-53.3858
G01 X-21.6868 Y-53.3479
G01 X-21.6647 Y-53.3185
G01 X-21.6437 Y-53.2882
G01 X-21.6238 Y-53.2573
G01 X-21.6050 Y-53.2256
G01 X-21.5875 Y-53.1932
G01 X-21.5711 Y-53.1602
G01 X-21.5560 Y-53.1267
G01 X-21.5421 Y-53.0926
G01 X-21.5295 Y-53.0580
G01 X-21.5182 Y-53.0230
G01 X-21.5081 Y-52.9875
G01 X-21.4994 Y-52.9518
G01 X-21.4920 Y-52.9157
G01 X-21.4859 Y-52.8794
G01 X-21.4812 Y-52.8429
G01 X-21.4778 Y-52.8062
G01 X-21.4758 Y-52.7695
G01 X-21.4751 Y-52.7327
G01 X-21.4751 Y-36.2305
G01 X0.0123 Y-36.2304
G01 X0.0613 Y-36.2286
G01 X0.1102 Y-36.2244
G01 X0.1589 Y-36.2178
G01 X0.2071 Y-36.2088
G01 X0.2549 Y-36.1975
G01 X0.3020 Y-36.1838
G01 X0.3484 Y-36.1678
G01 X0.3940 Y-36.1496
G01 X0.4386 Y-36.1291
G01 X0.4822 Y-36.1065
G01 X0.5246 Y-36.0818
G01 X0.5657 Y-36.0551
G01 X0.6055 Y-36.0263
G01 X0.6438 Y-35.9956
G01 X0.6806 Y-35.9631
G01 X0.7157 Y-35.9289
G01 X0.7410 Y-35.9020
G01 X0.7730 Y-35.8649
G01 X0.8032 Y-35.8262
G01 X0.8315 Y-35.7860
G01 X0.8577 Y-35.7446
G01 X0.8819 Y-35.7019
G01 X0.9040 Y-35.6580
G01 X0.9239 Y-35.6132
G01 X0.9415 Y-35.5674
G01 X0.9569 Y-35.5208
G01 X0.9670 Y-35.4853
G01 X0.9783 Y-35.4376
G01 X0.9873 Y-35.3893
G01 X0.9939 Y-35.3407
G01 X0.9981 Y-35.2918
G01 X0.9999 Y-35.2427
G01 X1.0000 Y0.0000
G01 X0.9981 Y0.0613
G01 X0.9939 Y0.1102
G01 X0.9873 Y0.1589
G01 X0.9783 Y0.2071
G01 X0.9670 Y0.2549
G01 X0.9533 Y0.3020
G01 X0.9373 Y0.3484
G01 X0.9191 Y0.3940
G01 X0.8987 Y0.4386
G01 X0.8761 Y0.4822
G01 X0.8514 Y0.5246
G01 X0.8246 Y0.5657
G01 X0.7958 Y0.6055
G01 X0.7652 Y0.6438
G01 X0.7327 Y0.6806
G01 X0.6984 Y0.7157
G01 X0.6624 Y0.7491
G01 X0.6249 Y0.7807
G01 X0.5858 Y0.8105
G01 X0.5453 Y0.8382
G01 X0.5035 Y0.8640
G01 X0.4605 Y0.8876
G01 X0.4164 Y0.9092
G01 X0.3713 Y0.9285
G01 X0.3369 Y0.9415
G01 X0.2903 Y0.9569
G01 X0.2430 Y0.9700
G01 X0.1951 Y0.9808
G01 X0.1467 Y0.9892
G01 X0.0980 Y0.9952
G01 X0.0491 Y0.9988
G01 X0.0000 Y1.0000
G01 X-69.7086 Y1.0000
G01 X-69.7698 Y0.9981
G01 X-69.8186 Y0.9939
G01 X-69.8671 Y0.9874
G01 X-69.9152 Y0.9784
G01 X-69.9510 Y0.9702
G01 X-69.9982 Y0.9572
G01 X-70.0332 Y0.9459
G01 X-70.0791 Y0.9289
G01 X-70.1129 Y0.9146
G01 X-70.1462 Y0.8992
G01 X-70.1897 Y0.8767
G01 X-70.2320 Y0.8521
G01 X-70.2630 Y0.8323
G01 X-70.3030 Y0.8042
G01 X-70.3321 Y0.7818
G01 X-70.3697 Y0.7504
G01 X-70.3968 Y0.7256
G01 X-70.4315 Y0.6911
G01 X-70.4724 Y0.6456
G01 X-70.5030 Y0.6074
G01 X-70.5387 Y0.5577
G01 X-70.5713 Y0.5059
G01 X-70.5950 Y0.4630
G01 X-70.6216 Y0.4080
G01 X-70.6420 Y0.3590
G01 X-75.0335 Y-3.9569
G01 X-75.0791 Y-3.9874
G01 X-75.1278 Y-4.0243
G01 X-75.1651 Y-4.0559
G01 X-75.2094 Y-4.0979
G01 X-75.2430 Y-4.1334
G01 X-75.2748 Y-4.1705
G01 X-75.3048 Y-4.2091
G01 X-75.3328 Y-4.2492
G01 X-75.3589 Y-4.2905
G01 X-75.3829 Y-4.3331
G01 X-75.4048 Y-4.3768
G01 X-75.4245 Y-4.4215
G01 X-75.4420 Y-4.4671
G01 X-75.4573 Y-4.5136
G01 X-75.4703 Y-4.5607
G01 X-75.4809 Y-4.6084
G01 X-75.4893 Y-4.6565
G01 X-75.4952 Y-4.7051
G01 X-75.4988 Y-4.7538
G01 X-75.5000 Y-4.8027
G01 X-75.5000 Y-75.4059
G01 X-75.4993 Y-75.4429
G01 X-75.4973 Y-75.4798
G01 X-75.4908 Y-75.5411
G01 X-75.4806 Y-75.6018
G01 X-75.4667 Y-75.6618
G01 X-75.4491 Y-75.7209
G01 X-75.4279 Y-75.7787
G01 X-75.4032 Y-75.8351
G01 X-75.3751 Y-75.8899
G01 X-75.3436 Y-75.9429
G01 X-75.3089 Y-75.9938
G01 X-75.2712 Y-76.0425
G01 X-75.2305 Y-76.0888
G01 X-75.1871 Y-76.1325
G01 X-75.1410 Y-76.1734
G01 X-75.0926 Y-76.2114
G01 X-75.0624 Y-76.2328
G01 X-75.0397 Y-76.2478
G00 X-75.0397 Y-76.2478
G01 F70.00
G01 Z-0.3000
G01 F120.00
G01 X-70.1453 Y-81.2199
G01 X-70.1276 Y-81.2416
G01 X-70.1034 Y-81.2695
G01 X-70.0608 Y-81.3140
G01 X-70.0339 Y-81.3393
G01 X-70.0062 Y-81.3637
G01 X-69.9775 Y-81.3870
G01 X-69.9481 Y-81.4093
G01 X-69.8972 Y-81.4439
G01 X-69.8656 Y-81.4631
G01 X-69.8334 Y-81.4812
G01 X-69.8006 Y-81.4980
G01 X-69.7671 Y-81.5137
G01 X-69.7101 Y-81.5369
G01 X-69.6753 Y-81.5492
G01 X-69.6400 Y-81.5602
G01 X-69.6044 Y-81.5698
G01 X-69.5684 Y-81.5782
G01 X-69.5200 Y-81.5872
G01 X-69.4589 Y-81.5952
G01 X-69.4098 Y-81.5988
G01 X-69.3606 Y-81.6000
G01 X-50.4945 Y-81.6000
G01 X-50.4332 Y-81.5981
G01 X-50.3721 Y-81.5925
G01 X-50.3115 Y-81.5831
G01 X-50.2515 Y-81.5700
G01 X-50.1925 Y-81.5533
G01 X-50.1346 Y-81.5330
G01 X-50.0781 Y-81.5092
G01 X-50.0231 Y-81.4819
G01 X-49.9910 Y-81.4640
G01 X-49.9595 Y-81.4449
G01 X-49.9087 Y-81.4105
G01 X-49.8601 Y-81.3730
G01 X-49.8139 Y-81.3327
G01 X-49.7703 Y-81.2895
G01 X-49.7454 Y-81.2624
G01 X-49.7215 Y-81.2344
G01 X-49.6987 Y-81.2055
G01 X-49.6769 Y-81.1758
G01 X-49.6432 Y-81.1246
G01 X-49.6126 Y-81.0714
G01 X-49.5854 Y-81.0164
G01 X-49.5706 Y-80.9827
G01 X-49.5572 Y-80.9484
G01 X-49.5376 Y-80.8903
G01 X-49.5275 Y-80.8549
G01 X-49.5188 Y-80.8191
G01 X-49.5072 Y-80.7589
G01 X-49.5020 Y-80.7224
G01 X-49.4982 Y-80.6858
G01 X-49.4948 Y-80.6245
G01 X-49.4945 Y-53.7327
G01 X-22.4751 Y-53.7327
G01 X-22.4383 Y-53.7320
G01 X-22.3893 Y-53.7290
G01 X-22.3527 Y-53.7252
G01 X-22.3042 Y-53.7180
G01 X-22.2680 Y-53.7110
G01 X-22.2203 Y-53.6997
G01 X-22.1731 Y-53.6860
G01 X-22.1382 Y-53.6742
G01 X-22.1038 Y-53.6612
G01 X-22.0699 Y-53.6469
G01 X-22.0365 Y-53.6313
G01 X-22.0037 Y-53.6146
G01 X-21.9716 Y-53.5966
G01 X-21.9401 Y-53.5775
G01 X-21.9094 Y-53.5573
G01 X-21.8794 Y-53.5359
G01 X-21.8503 Y-53.5134
G01 X-21.8220 Y-53.4899
G01 X-21.7945 Y-53.4653
G01 X-21.7680 Y-53.4398
G01 X-21.7425 Y-53.4133
G01 X-21.7179 Y-53.3858
G01 X-21.6868 Y-53.3479
G01 X-21.6647 Y-53.3185
G01 X-21.6437 Y-53.2882
G01 X-21.6238 Y-53.2573
G01 X-21.6050 Y-53.2256
G01 X-21.5875 Y-53.1932
G01 X-21.5711 Y-53.1602
G01 X-21.5560 Y-53.1267
G01 X-21.5421 Y-53.0926
G01 X-21.5295 Y-53.0580
G01 X-21.5182 Y-53.0230
G01 X-21.5081 Y-52.9875
G01 X-21.4994 Y-52.9518
G01 X-21.4920 Y-52.9157
G01 X-21.4859 Y-52.8794
G01 X-21.4812 Y-52.8429
G01 X-21.4778 Y-52.8062
G01 X-21.4758 Y-52.7695
G01 X-21.4751 Y-52.7327
G01 X-21.4751 Y-36.2305
G01 X0.0123 Y-36.2304
G01 X0.0613 Y-36.2286
G01 X0.1102 Y-36.2244
G01 X0.1589 Y-36.2178
G01 X0.2071 Y-36.2088
G01 X0.2549 Y-36.1975
G01 X0.3020 Y-36.1838
G01 X0.3484 Y-36.1678
G01 X0.3940 Y-36.1496
G01 X0.4386 Y-36.1291
G01 X0.4822 Y-36.1065
G01 X0.5246 Y-36.0818
G01 X0.5657 Y-36.0551
G01 X0.6055 Y-36.0263
G01 X0.6438 Y-35.9956
G01 X0.6806 Y-35.9631
G01 X0.7157 Y-35.9289
G01 X0.7410 Y-35.9020
G01 X0.7730 Y-35.8649
G01 X0.8032 Y-35.8262
G01 X0.8315 Y-35.7860
G01 X0.8577 Y-35.7446
G01 X0.8819 Y-35.7019
G01 X0.9040 Y-35.6580
G01 X0.9239 Y-35.6132
G01 X0.9415 Y-35.5674
G01 X0.9569 Y-35.5208
G01 X0.9670 Y-35.4853
G01 X0.9783 Y-35.4376
G01 X0.9873 Y-35.3893
G01 X0.9939 Y-35.3407
G01 X0.9981 Y-35.2918
G01 X0.9999 Y-35.2427
G01 X1.0000 Y0.0000
G01 X0.9981 Y0.0613
G01 X0.9939 Y0.1102
G01 X0.9873 Y0.1589
G01 X0.9783 Y0.2071
G01 X0.9670 Y0.2549
G01 X0.9533 Y0.3020
G01 X0.9373 Y0.3484
G01 X0.9191 Y0.3940
G01 X0.8987 Y0.4386
G01 X0.8761 Y0.4822
G01 X0.8514 Y0.5246
G01 X0.8246 Y0.5657
G01 X0.7958 Y0.6055
G01 X0.7652 Y0.6438
G01 X0.7327 Y0.6806
G01 X0.6984 Y0.7157
G01 X0.6624 Y0.7491
G01 X0.6249 Y0.7807
G01 X0.5858 Y0.8105
G01 X0.5453 Y0.8382
G01 X0.5035 Y0.8640
G01 X0.4605 Y0.8876
G01 X0.4164 Y0.9092
G01 X0.3713 Y0.9285
G01 X0.3369 Y0.9415
G01 X0.2903 Y0.9569
G01 X0.2430 Y0.9700
G01 X0.1951 Y0.9808
G01 X0.1467 Y0.9892
G01 X0.0980 Y0.9952
G01 X0.0491 Y0.9988
G01 X0.0000 Y1.0000
G01 X-69.7086 Y1.0000
G01 X-69.7698 Y0.9981
G01 X-69.8186 Y0.9939
G01 X-69.8671 Y0.9874
G01 X-69.9152 Y0.9784
G01 X-69.9510 Y0.9702
G01 X-69.9982 Y0.9572
G01 X-70.0332 Y0.9459
G01 X-70.0791 Y0.9289
G01 X-70.1129 Y0.9146
G01 X-70.1462 Y0.8992
G01 X-70.1897 Y0.8767
G01 X-70.2320 Y0.8521
G01 X-70.2630 Y0.8323
G01 X-70.3030 Y0.8042
G01 X-70.3321 Y0.7818
G01 X-70.3697 Y0.7504
G01 X-70.3968 Y0.7256
G01 X-70.4315 Y0.6911
G01 X-70.4724 Y0.6456
G01 X-70.5030 Y0.6074
G01 X-70.5387 Y0.5577
G01 X-70.5713 Y0.5059
G01 X-70.5950 Y0.4630
G01 X-70.6216 Y0.4080
G01 X-70.6420 Y0.3590
G01 X-75.0335 Y-3.9569
G01 X-75.0791 Y-3.9874
G01 X-75.1278 Y-4.0243
G01 X-75.1651 Y-4.0559
G01 X-75.2094 Y-4.0979
G01 X-75.2430 Y-4.1334
G01 X-75.2748 Y-4.1705
G01 X-75.3048 Y-4.2091
G01 X-75.3328 Y-4.2492
G01 X-75.3589 Y-4.2905
G01 X-75.3829 Y-4.3331
G01 X-75.4048 Y-4.3768
G01 X-75.4245 Y-4.4215
G01 X-75.4420 Y-4.4671
G01 X-75.4573 Y-4.5136
G01 X-75.4703 Y-4.5607
G01 X-75.4809 Y-4.6084
G01 X-75.4893 Y-4.6565
G01 X-75.4952 Y-4.7051
G01 X-75.4988 Y-4.7538
G01 X-75.5000 Y-4.8027
G01 X-75.5000 Y-75.4059
G01 X-75.4993 Y-75.4429
G01 X-75.4973 Y-75.4798
G01 X-75.4908 Y-75.5411
G01 X-75.4806 Y-75.6018
G01 X-75.4667 Y-75.6618
G01 X-75.4491 Y-75.7209
G01 X-75.4279 Y-75.7787
G01 X-75.4032 Y-75.8351
G01 X-75.3751 Y-75.8899
G01 X-75.3436 Y-75.9429
G01 X-75.3089 Y-75.9938
G01 X-75.2712 Y-76.0425
G01 X-75.2305 Y-76.0888
G01 X-75.1871 Y-76.1325
G01 X-75.1410 Y-76.1734
G01 X-75.0926 Y-76.2114
G01 X-75.0624 Y-76.2328
G01 X-75.0397 Y-76.2478
G00 X-75.0397 Y-76.2478
G01 F70.00
G01 Z-0.4000
G01 F120.00
G01 X-70.1453 Y-81.2199
G01 X-70.1276 Y-81.2416
G01 X-70.1034 Y-81.2695
G01 X-70.0608 Y-81.3140
G01 X-70.0339 Y-81.3393
G01 X-70.0062 Y-81.3637
G01 X-69.9775 Y-81.3870
G01 X-69.9481 Y-81.4093
G01 X-69.8972 Y-81.4439
G01 X-69.8656 Y-81.4631
G01 X-69.8334 Y-81.4812
G01 X-69.8006 Y-81.4980
G01 X-69.7671 Y-81.5137
G01 X-69.7101 Y-81.5369
G01 X-69.6753 Y-81.5492
G01 X-69.6400 Y-81.5602
G01 X-69.6044 Y-81.5698
G01 X-69.5684 Y-81.5782
G01 X-69.5200 Y-81.5872
G01 X-69.4589 Y-81.5952
G01 X-69.4098 Y-81.5988
G01 X-69.3606 Y-81.6000
G01 X-50.4945 Y-81.6000
G01 X-50.4332 Y-81.5981
G01 X-50.3721 Y-81.5925
G01 X-50.3115 Y-81.5831
G01 X-50.2515 Y-81.5700
G01 X-50.1925 Y-81.5533
G01 X-50.1346 Y-81.5330
G01 X-50.0781 Y-81.5092
G01 X-50.0231 Y-81.4819
G01 X-49.9910 Y-81.4640
G01 X-49.9595 Y-81.4449
G01 X-49.9087 Y-81.4105
G01 X-49.8601 Y-81.3730
G01 X-49.8139 Y-81.3327
G01 X-49.7703 Y-81.2895
G01 X-49.7454 Y-81.2624
G01 X-49.7215 Y-81.2344
G01 X-49.6987 Y-81.2055
G01 X-49.6769 Y-81.1758
G01 X-49.6432 Y-81.1246
G01 X-49.6126 Y-81.0714
G01 X-49.5854 Y-81.0164
G01 X-49.5706 Y-80.9827
G01 X-49.5572 Y-80.9484
G01 X-49.5376 Y-80.8903
G01 X-49.5275 Y-80.8549
G01 X-49.5188 Y-80.8191
G01 X-49.5072 Y-80.7589
G01 X-49.5020 Y-80.7224
G01 X-49.4982 Y-80.6858
G01 X-49.4948 Y-80.6245
G01 X-49.4945 Y-53.7327
G01 X-22.4751 Y-53.7327
G01 X-22.4383 Y-53.7320
G01 X-22.3893 Y-53.7290
G01 X-22.3527 Y-53.7252
G01 X-22.3042 Y-53.7180
G01 X-22.2680 Y-53.7110
G01 X-22.2203 Y-53.6997
G01 X-22.1731 Y-53.6860
G01 X-22.1382 Y-53.6742
G01 X-22.1038 Y-53.6612
G01 X-22.0699 Y-53.6469
G01 X-22.0365 Y-53.6313
G01 X-22.0037 Y-53.6146
G01 X-21.9716 Y-53.5966
G01 X-21.9401 Y-53.5775
G01 X-21.9094 Y-53.5573
G01 X-21.8794 Y-53.5359
G01 X-21.8503 Y-53.5134
G01 X-21.8220 Y-53.4899
G01 X-21.7945 Y-53.4653
G01 X-21.7680 Y-53.4398
G01 X-21.7425 Y-53.4133
G01 X-21.7179 Y-53.3858
G01 X-21.6868 Y-53.3479
G01 X-21.6647 Y-53.3185
G01 X-21.6437 Y-53.2882
G01 X-21.6238 Y-53.2573
G01 X-21.6050 Y-53.2256
G01 X-21.5875 Y-53.1932
G01 X-21.5711 Y-53.1602
G01 X-21.5560 Y-53.1267
G01 X-21.5421 Y-53.0926
G01 X-21.5295 Y-53.0580
G01 X-21.5182 Y-53.0230
G01 X-21.5081 Y-52.9875
G01 X-21.4994 Y-52.9518
G01 X-21.4920 Y-52.9157
G01 X-21.4859 Y-52.8794
G01 X-21.4812 Y-52.8429
G01 X-21.4778 Y-52.8062
G01 X-21.4758 Y-52.7695
G01 X-21.4751 Y-52.7327
G01 X-21.4751 Y-36.2305
G01 X0.0123 Y-36.2304
G01 X0.0613 Y-36.2286
G01 X0.1102 Y-36.2244
G01 X0.1589 Y-36.2178
G01 X0.2071 Y-36.2088
G01 X0.2549 Y-36.1975
G01 X0.3020 Y-36.1838
G01 X0.3484 Y-36.1678
G01 X0.3940 Y-36.1496
G01 X0.4386 Y-36.1291
G01 X0.4822 Y-36.1065
G01 X0.5246 Y-36.0818
G01 X0.5657 Y-36.0551
G01 X0.6055 Y-36.0263
G01 X0.6438 Y-35.9956
G01 X0.6806 Y-35.9631
G01 X0.7157 Y-35.9289
G01 X0.7410 Y-35.9020
G01 X0.7730 Y-35.8649
G01 X0.8032 Y-35.8262
G01 X0.8315 Y-35.7860
G01 X0.8577 Y-35.7446
G01 X0.8819 Y-35.7019
G01 X0.9040 Y-35.6580
G01 X0.9239 Y-35.6132
G01 X0.9415 Y-35.5674
G01 X0.9569 Y-35.5208
G01 X0.9670 Y-35.4853
G01 X0.9783 Y-35.4376
G01 X0.9873 Y-35.3893
G01 X0.9939 Y-35.3407
G01 X0.9981 Y-35.2918
G01 X0.9999 Y-35.2427
G01 X1.0000 Y0.0000
G01 X0.9981 Y0.0613
G01 X0.9939 Y0.1102
G01 X0.9873 Y0.1589
G01 X0.9783 Y0.2071
G01 X0.9670 Y0.2549
G01 X0.9533 Y0.3020
G01 X0.9373 Y0.3484
G01 X0.9191 Y0.3940
G01 X0.8987 Y0.4386
G01 X0.8761 Y0.4822
G01 X0.8514 Y0.5246
G01 X0.8246 Y0.5657
G01 X0.7958 Y0.6055
G01 X0.7652 Y0.6438
G01 X0.7327 Y0.6806
G01 X0.6984 Y0.7157
G01 X0.6624 Y0.7491
G01 X0.6249 Y0.7807
G01 X0.5858 Y0.8105
G01 X0.5453 Y0.8382
G01 X0.5035 Y0.8640
G01 X0.4605 Y0.8876
G01 X0.4164 Y0.9092
G01 X0.3713 Y0.9285
G01 X0.3369 Y0.9415
G01 X0.2903 Y0.9569
G01 X0.2430 Y0.9700
G01 X0.1951 Y0.9808
G01 X0.1467 Y0.9892
G01 X0.0980 Y0.9952
G01 X0.0491 Y0.9988
G01 X0.0000 Y1.0000
G01 X-69.7086 Y1.0000
G01 X-69.7698 Y0.9981
G01 X-69.8186 Y0.9939
G01 X-69.8671 Y0.9874
G01 X-69.9152 Y0.9784
G01 X-69.9510 Y0.9702
G01 X-69.9982 Y0.9572
G01 X-70.0332 Y0.9459
G01 X-70.0791 Y0.9289
G01 X-70.1129 Y0.9146
G01 X-70.1462 Y0.8992
G01 X-70.1897 Y0.8767
G01 X-70.2320 Y0.8521
G01 X-70.2630 Y0.8323
G01 X-70.3030 Y0.8042
G01 X-70.3321 Y0.7818
G01 X-70.3697 Y0.7504
G01 X-70.3968 Y0.7256
G01 X-70.4315 Y0.6911
G01 X-70.4724 Y0.6456
G01 X-70.5030 Y0.6074
G01 X-70.5387 Y0.5577
G01 X-70.5713 Y0.5059
G01 X-70.5950 Y0.4630
G01 X-70.6216 Y0.4080
G01 X-70.6420 Y0.3590
G01 X-75.0335 Y-3.9569
G01 X-75.0791 Y-3.9874
G01 X-75.1278 Y-4.0243
G01 X-75.1651 Y-4.0559
G01 X-75.2094 Y-4.0979
G01 X-75.2430 Y-4.1334
G01 X-75.2748 Y-4.1705
G01 X-75.3048 Y-4.2091
G01 X-75.3328 Y-4.2492
G01 X-75.3589 Y-4.2905
G01 X-75.3829 Y-4.3331
G01 X-75.4048 Y-4.3768
G01 X-75.4245 Y-4.4215
G01 X-75.4420 Y-4.4671
G01 X-75.4573 Y-4.5136
G01 X-75.4703 Y-4.5607
G01 X-75.4809 Y-4.6084
G01 X-75.4893 Y-4.6565
G01 X-75.4952 Y-4.7051
G01 X-75.4988 Y-4.7538
G01 X-75.5000 Y-4.8027
G01 X-75.5000 Y-75.4059
G01 X-75.4993 Y-75.4429
G01 X-75.4973 Y-75.4798
G01 X-75.4908 Y-75.5411
G01 X-75.4806 Y-75.6018
G01 X-75.4667 Y-75.6618
G01 X-75.4491 Y-75.7209
G01 X-75.4279 Y-75.7787
G01 X-75.4032 Y-75.8351
G01 X-75.3751 Y-75.8899
G01 X-75.3436 Y-75.9429
G01 X-75.3089 Y-75.9938
G01 X-75.2712 Y-76.0425
G01 X-75.2305 Y-76.0888
G01 X-75.1871 Y-76.1325
G01 X-75.1410 Y-76.1734
G01 X-75.0926 Y-76.2114
G01 X-75.0624 Y-76.2328
G01 X-75.0397 Y-76.2478
G00 X-75.0397 Y-76.2478
G01 F70.00
G01 Z-0.5000
G01 F120.00
G01 X-70.1453 Y-81.2199
G01 X-70.1276 Y-81.2416
G01 X-70.1034 Y-81.2695
G01 X-70.0608 Y-81.3140
G01 X-70.0339 Y-81.3393
G01 X-70.0062 Y-81.3637
G01 X-69.9775 Y-81.3870
G01 X-69.9481 Y-81.4093
G01 X-69.8972 Y-81.4439
G01 X-69.8656 Y-81.4631
G01 X-69.8334 Y-81.4812
G01 X-69.8006 Y-81.4980
G01 X-69.7671 Y-81.5137
G01 X-69.7101 Y-81.5369
G01 X-69.6753 Y-81.5492
G01 X-69.6400 Y-81.5602
G01 X-69.6044 Y-81.5698
G01 X-69.5684 Y-81.5782
G01 X-69.5200 Y-81.5872
G01 X-69.4589 Y-81.5952
G01 X-69.4098 Y-81.5988
G01 X-69.3606 Y-81.6000
G01 X-50.4945 Y-81.6000
G01 X-50.4332 Y-81.5981
G01 X-50.3721 Y-81.5925
G01 X-50.3115 Y-81.5831
G01 X-50.2515 Y-81.5700
G01 X-50.1925 Y-81.5533
G01 X-50.1346 Y-81.5330
G01 X-50.0781 Y-81.5092
G01 X-50.0231 Y-81.4819
G01 X-49.9910 Y-81.4640
G01 X-49.9595 Y-81.4449
G01 X-49.9087 Y-81.4105
G01 X-49.8601 Y-81.3730
G01 X-49.8139 Y-81.3327
G01 X-49.7703 Y-81.2895
G01 X-49.7454 Y-81.2624
G01 X-49.7215 Y-81.2344
G01 X-49.6987 Y-81.2055
G01 X-49.6769 Y-81.1758
G01 X-49.6432 Y-81.1246
G01 X-49.6126 Y-81.0714
G01 X-49.5854 Y-81.0164
G01 X-49.5706 Y-80.9827
G01 X-49.5572 Y-80.9484
G01 X-49.5376 Y-80.8903
G01 X-49.5275 Y-80.8549
G01 X-49.5188 Y-80.8191
G01 X-49.5072 Y-80.7589
G01 X-49.5020 Y-80.7224
G01 X-49.4982 Y-80.6858
G01 X-49.4948 Y-80.6245
G01 X-49.4945 Y-53.7327
G01 X-22.4751 Y-53.7327
G01 X-22.4383 Y-53.7320
G01 X-22.3893 Y-53.7290
G01 X-22.3527 Y-53.7252
G01 X-22.3042 Y-53.7180
G01 X-22.2680 Y-53.7110
G01 X-22.2203 Y-53.6997
G01 X-22.1731 Y-53.6860
G01 X-22.1382 Y-53.6742
G01 X-22.1038 Y-53.6612
G01 X-22.0699 Y-53.6469
G01 X-22.0365 Y-53.6313
G01 X-22.0037 Y-53.6146
G01 X-21.9716 Y-53.5966
G01 X-21.9401 Y-53.5775
G01 X-21.9094 Y-53.5573
G01 X-21.8794 Y-53.5359
G01 X-21.8503 Y-53.5134
G01 X-21.8220 Y-53.4899
G01 X-21.7945 Y-53.4653
G01 X-21.7680 Y-53.4398
G01 X-21.7425 Y-53.4133
G01 X-21.7179 Y-53.3858
G01 X-21.6868 Y-53.3479
G01 X-21.6647 Y-53.3185
G01 X-21.6437 Y-53.2882
G01 X-21.6238 Y-53.2573
G01 X-21.6050 Y-53.2256
G01 X-21.5875 Y-53.1932
G01 X-21.5711 Y-53.1602
G01 X-21.5560 Y-53.1267
G01 X-21.5421 Y-53.0926
G01 X-21.5295 Y-53.0580
G01 X-21.5182 Y-53.0230
G01 X-21.5081 Y-52.9875
G01 X-21.4994 Y-52.9518
G01 X-21.4920 Y-52.9157
G01 X-21.4859 Y-52.8794
G01 X-21.4812 Y-52.8429
G01 X-21.4778 Y-52.8062
G01 X-21.4758 Y-52.7695
G01 X-21.4751 Y-52.7327
G01 X-21.4751 Y-36.2305
G01 X0.0123 Y-36.2304
G01 X0.0613 Y-36.2286
G01 X0.1102 Y-36.2244
G01 X0.1589 Y-36.2178
G01 X0.2071 Y-36.2088
G01 X0.2549 Y-36.1975
G01 X0.3020 Y-36.1838
G01 X0.3484 Y-36.1678
G01 X0.3940 Y-36.1496
G01 X0.4386 Y-36.1291
G01 X0.4822 Y-36.1065
G01 X0.5246 Y-36.0818
G01 X0.5657 Y-36.0551
G01 X0.6055 Y-36.0263
G01 X0.6438 Y-35.9956
G01 X0.6806 Y-35.9631
G01 X0.7157 Y-35.9289
G01 X0.7410 Y-35.9020
G01 X0.7730 Y-35.8649
G01 X0.8032 Y-35.8262
G01 X0.8315 Y-35.7860
G01 X0.8577 Y-35.7446
G01 X0.8819 Y-35.7019
G01 X0.9040 Y-35.6580
G01 X0.9239 Y-35.6132
G01 X0.9415 Y-35.5674
G01 X0.9569 Y-35.5208
G01 X0.9670 Y-35.4853
G01 X0.9783 Y-35.4376
G01 X0.9873 Y-35.3893
G01 X0.9939 Y-35.3407
G01 X0.9981 Y-35.2918
G01 X0.9999 Y-35.2427
G01 X1.0000 Y0.0000
G01 X0.9981 Y0.0613
G01 X0.9939 Y0.1102
G01 X0.9873 Y0.1589
G01 X0.9783 Y0.2071
G01 X0.9670 Y0.2549
G01 X0.9533 Y0.3020
G01 X0.9373 Y0.3484
G01 X0.9191 Y0.3940
G01 X0.8987 Y0.4386
G01 X0.8761 Y0.4822
G01 X0.8514 Y0.5246
G01 X0.8246 Y0.5657
G01 X0.7958 Y0.6055
G01 X0.7652 Y0.6438
G01 X0.7327 Y0.6806
G01 X0.6984 Y0.7157
G01 X0.6624 Y0.7491
G01 X0.6249 Y0.7807
G01 X0.5858 Y0.8105
G01 X0.5453 Y0.8382
G01 X0.5035 Y0.8640
G01 X0.4605 Y0.8876
G01 X0.4164 Y0.9092
G01 X0.3713 Y0.9285
G01 X0.3369 Y0.9415
G01 X0.2903 Y0.9569
G01 X0.2430 Y0.9700
G01 X0.1951 Y0.9808
G01 X0.1467 Y0.9892
G01 X0.0980 Y0.9952
G01 X0.0491 Y0.9988
G01 X0.0000 Y1.0000
G01 X-69.7086 Y1.0000
G01 X-69.7698 Y0.9981
G01 X-69.8186 Y0.9939
G01 X-69.8671 Y0.9874
G01 X-69.9152 Y0.9784
G01 X-69.9510 Y0.9702
G01 X-69.9982 Y0.9572
G01 X-70.0332 Y0.9459
G01 X-70.0791 Y0.9289
G01 X-70.1129 Y0.9146
G01 X-70.1462 Y0.8992
G01 X-70.1897 Y0.8767
G01 X-70.2320 Y0.8521
G01 X-70.2630 Y0.8323
G01 X-70.3030 Y0.8042
G01 X-70.3321 Y0.7818
G01 X-70.3697 Y0.7504
G01 X-70.3968 Y0.7256
G01 X-70.4315 Y0.6911
G01 X-70.4724 Y0.6456
G01 X-70.5030 Y0.6074
G01 X-70.5387 Y0.5577
G01 X-70.5713 Y0.5059
G01 X-70.5950 Y0.4630
G01 X-70.6216 Y0.4080
G01 X-70.6420 Y0.3590
G01 X-75.0335 Y-3.9569
G01 X-75.0791 Y-3.9874
G01 X-75.1278 Y-4.0243
G01 X-75.1651 Y-4.0559
G01 X-75.2094 Y-4.0979
G01 X-75.2430 Y-4.1334
G01 X-75.2748 Y-4.1705
G01 X-75.3048 Y-4.2091
G01 X-75.3328 Y-4.2492
G01 X-75.3589 Y-4.2905
G01 X-75.3829 Y-4.3331
G01 X-75.4048 Y-4.3768
G01 X-75.4245 Y-4.4215
G01 X-75.4420 Y-4.4671
G01 X-75.4573 Y-4.5136
G01 X-75.4703 Y-4.5607
G01 X-75.4809 Y-4.6084
G01 X-75.4893 Y-4.6565
G01 X-75.4952 Y-4.7051
G01 X-75.4988 Y-4.7538
G01 X-75.5000 Y-4.8027
G01 X-75.5000 Y-75.4059
G01 X-75.4993 Y-75.4429
G01 X-75.4973 Y-75.4798
G01 X-75.4908 Y-75.5411
G01 X-75.4806 Y-75.6018
G01 X-75.4667 Y-75.6618
G01 X-75.4491 Y-75.7209
G01 X-75.4279 Y-75.7787
G01 X-75.4032 Y-75.8351
G01 X-75.3751 Y-75.8899
G01 X-75.3436 Y-75.9429
G01 X-75.3089 Y-75.9938
G01 X-75.2712 Y-76.0425
G01 X-75.2305 Y-76.0888
G01 X-75.1871 Y-76.1325
G01 X-75.1410 Y-76.1734
G01 X-75.0926 Y-76.2114
G01 X-75.0624 Y-76.2328
G01 X-75.0397 Y-76.2478
G00 X-75.0397 Y-76.2478
G01 F70.00
G01 Z-0.6000
G01 F120.00
G01 X-70.1453 Y-81.2199
G01 X-70.1276 Y-81.2416
G01 X-70.1034 Y-81.2695
G01 X-70.0608 Y-81.3140
G01 X-70.0339 Y-81.3393
G01 X-70.0062 Y-81.3637
G01 X-69.9775 Y-81.3870
G01 X-69.9481 Y-81.4093
G01 X-69.8972 Y-81.4439
G01 X-69.8656 Y-81.4631
G01 X-69.8334 Y-81.4812
G01 X-69.8006 Y-81.4980
G01 X-69.7671 Y-81.5137
G01 X-69.7101 Y-81.5369
G01 X-69.6753 Y-81.5492
G01 X-69.6400 Y-81.5602
G01 X-69.6044 Y-81.5698
G01 X-69.5684 Y-81.5782
G01 X-69.5200 Y-81.5872
G01 X-69.4589 Y-81.5952
G01 X-69.4098 Y-81.5988
G01 X-69.3606 Y-81.6000
G01 X-50.4945 Y-81.6000
G01 X-50.4332 Y-81.5981
G01 X-50.3721 Y-81.5925
G01 X-50.3115 Y-81.5831
G01 X-50.2515 Y-81.5700
G01 X-50.1925 Y-81.5533
G01 X-50.1346 Y-81.5330
G01 X-50.0781 Y-81.5092
G01 X-50.0231 Y-81.4819
G01 X-49.9910 Y-81.4640
G01 X-49.9595 Y-81.4449
G01 X-49.9087 Y-81.4105
G01 X-49.8601 Y-81.3730
G01 X-49.8139 Y-81.3327
G01 X-49.7703 Y-81.2895
G01 X-49.7454 Y-81.2624
G01 X-49.7215 Y-81.2344
G01 X-49.6987 Y-81.2055
G01 X-49.6769 Y-81.1758
G01 X-49.6432 Y-81.1246
G01 X-49.6126 Y-81.0714
G01 X-49.5854 Y-81.0164
G01 X-49.5706 Y-80.9827
G01 X-49.5572 Y-80.9484
G01 X-49.5376 Y-80.8903
G01 X-49.5275 Y-80.8549
G01 X-49.5188 Y-80.8191
G01 X-49.5072 Y-80.7589
G01 X-49.5020 Y-80.7224
G01 X-49.4982 Y-80.6858
G01 X-49.4948 Y-80.6245
G01 X-49.4945 Y-53.7327
G01 X-22.4751 Y-53.7327
G01 X-22.4383 Y-53.7320
G01 X-22.3893 Y-53.7290
G01 X-22.3527 Y-53.7252
G01 X-22.3042 Y-53.7180
G01 X-22.2680 Y-53.7110
G01 X-22.2203 Y-53.6997
G01 X-22.1731 Y-53.6860
G01 X-22.1382 Y-53.6742
G01 X-22.1038 Y-53.6612
G01 X-22.0699 Y-53.6469
G01 X-22.0365 Y-53.6313
G01 X-22.0037 Y-53.6146
G01 X-21.9716 Y-53.5966
G01 X-21.9401 Y-53.5775
G01 X-21.9094 Y-53.5573
G01 X-21.8794 Y-53.5359
G01 X-21.8503 Y-53.5134
G01 X-21.8220 Y-53.4899
G01 X-21.7945 Y-53.4653
G01 X-21.7680 Y-53.4398
G01 X-21.7425 Y-53.4133
G01 X-21.7179 Y-53.3858
G01 X-21.6868 Y-53.3479
G01 X-21.6647 Y-53.3185
G01 X-21.6437 Y-53.2882
G01 X-21.6238 Y-53.2573
G01 X-21.6050 Y-53.2256
G01 X-21.5875 Y-53.1932
G01 X-21.5711 Y-53.1602
G01 X-21.5560 Y-53.1267
G01 X-21.5421 Y-53.0926
G01 X-21.5295 Y-53.0580
G01 X-21.5182 Y-53.0230
G01 X-21.5081 Y-52.9875
G01 X-21.4994 Y-52.9518
G01 X-21.4920 Y-52.9157
G01 X-21.4859 Y-52.8794
G01 X-21.4812 Y-52.8429
G01 X-21.4778 Y-52.8062
G01 X-21.4758 Y-52.7695
G01 X-21.4751 Y-52.7327
G01 X-21.4751 Y-36.2305
G01 X0.0123 Y-36.2304
G01 X0.0613 Y-36.2286
G01 X0.1102 Y-36.2244
G01 X0.1589 Y-36.2178
G01 X0.2071 Y-36.2088
G01 X0.2549 Y-36.1975
G01 X0.3020 Y-36.1838
G01 X0.3484 Y-36.1678
G01 X0.3940 Y-36.1496
G01 X0.4386 Y-36.1291
G01 X0.4822 Y-36.1065
G01 X0.5246 Y-36.0818
G01 X0.5657 Y-36.0551
G01 X0.6055 Y-36.0263
G01 X0.6438 Y-35.9956
G01 X0.6806 Y-35.9631
G01 X0.7157 Y-35.9289
G01 X0.7410 Y-35.9020
G01 X0.7730 Y-35.8649
G01 X0.8032 Y-35.8262
G01 X0.8315 Y-35.7860
G01 X0.8577 Y-35.7446
G01 X0.8819 Y-35.7019
G01 X0.9040 Y-35.6580
G01 X0.9239 Y-35.6132
G01 X0.9415 Y-35.5674
G01 X0.9569 Y-35.5208
G01 X0.9670 Y-35.4853
G01 X0.9783 Y-35.4376
G01 X0.9873 Y-35.3893
G01 X0.9939 Y-35.3407
G01 X0.9981 Y-35.2918
G01 X0.9999 Y-35.2427
G01 X1.0000 Y0.0000
G01 X0.9981 Y0.0613
G01 X0.9939 Y0.1102
G01 X0.9873 Y0.1589
G01 X0.9783 Y0.2071
G01 X0.9670 Y0.2549
G01 X0.9533 Y0.3020
G01 X0.9373 Y0.3484
G01 X0.9191 Y0.3940
G01 X0.8987 Y0.4386
G01 X0.8761 Y0.4822
G01 X0.8514 Y0.5246
G01 X0.8246 Y0.5657
G01 X0.7958 Y0.6055
G01 X0.7652 Y0.6438
G01 X0.7327 Y0.6806
G01 X0.6984 Y0.7157
G01 X0.6624 Y0.7491
G01 X0.6249 Y0.7807
G01 X0.5858 Y0.8105
G01 X0.5453 Y0.8382
G01 X0.5035 Y0.8640
G01 X0.4605 Y0.8876
G01 X0.4164 Y0.9092
G01 X0.3713 Y0.9285
G01 X0.3369 Y0.9415
G01 X0.2903 Y0.9569
G01 X0.2430 Y0.9700
G01 X0.1951 Y0.9808
G01 X0.1467 Y0.9892
G01 X0.0980 Y0.9952
G01 X0.0491 Y0.9988
G01 X0.0000 Y1.0000
G01 X-69.7086 Y1.0000
G01 X-69.7698 Y0.9981
G01 X-69.8186 Y0.9939
G01 X-69.8671 Y0.9874
G01 X-69.9152 Y0.9784
G01 X-69.9510 Y0.9702
G01 X-69.9982 Y0.9572
G01 X-70.0332 Y0.9459
G01 X-70.0791 Y0.9289
G01 X-70.1129 Y0.9146
G01 X-70.1462 Y0.8992
G01 X-70.1897 Y0.8767
G01 X-70.2320 Y0.8521
G01 X-70.2630 Y0.8323
G01 X-70.3030 Y0.8042
G01 X-70.3321 Y0.7818
G01 X-70.3697 Y0.7504
G01 X-70.3968 Y0.7256
G01 X-70.4315 Y0.6911
G01 X-70.4724 Y0.6456
G01 X-70.5030 Y0.6074
G01 X-70.5387 Y0.5577
G01 X-70.5713 Y0.5059
G01 X-70.5950 Y0.4630
G01 X-70.6216 Y0.4080
G01 X-70.6420 Y0.3590
G01 X-75.0335 Y-3.9569
G01 X-75.0791 Y-3.9874
G01 X-75.1278 Y-4.0243
G01 X-75.1651 Y-4.0559
G01 X-75.2094 Y-4.0979
G01 X-75.2430 Y-4.1334
G01 X-75.2748 Y-4.1705
G01 X-75.3048 Y-4.2091
G01 X-75.3328 Y-4.2492
G01 X-75.3589 Y-4.2905
G01 X-75.3829 Y-4.3331
G01 X-75.4048 Y-4.3768
G01 X-75.4245 Y-4.4215
G01 X-75.4420 Y-4.4671
G01 X-75.4573 Y-4.5136
G01 X-75.4703 Y-4.5607
G01 X-75.4809 Y-4.6084
G01 X-75.4893 Y-4.6565
G01 X-75.4952 Y-4.7051
G01 X-75.4988 Y-4.7538
G01 X-75.5000 Y-4.8027
G01 X-75.5000 Y-75.4059
G01 X-75.4993 Y-75.4429
G01 X-75.4973 Y-75.4798
G01 X-75.4908 Y-75.5411
G01 X-75.4806 Y-75.6018
G01 X-75.4667 Y-75.6618
G01 X-75.4491 Y-75.7209
G01 X-75.4279 Y-75.7787
G01 X-75.4032 Y-75.8351
G01 X-75.3751 Y-75.8899
G01 X-75.3436 Y-75.9429
G01 X-75.3089 Y-75.9938
G01 X-75.2712 Y-76.0425
G01 X-75.2305 Y-76.0888
G01 X-75.1871 Y-76.1325
G01 X-75.1410 Y-76.1734
G01 X-75.0926 Y-76.2114
G01 X-75.0624 Y-76.2328
G01 X-75.0397 Y-76.2478
G00 X-75.0397 Y-76.2478
G01 F70.00
G01 Z-0.7000
G01 F120.00
G01 X-70.1453 Y-81.2199
G01 X-70.1276 Y-81.2416
G01 X-70.1034 Y-81.2695
G01 X-70.0608 Y-81.3140
G01 X-70.0339 Y-81.3393
G01 X-70.0062 Y-81.3637
G01 X-69.9775 Y-81.3870
G01 X-69.9481 Y-81.4093
G01 X-69.8972 Y-81.4439
G01 X-69.8656 Y-81.4631
G01 X-69.8334 Y-81.4812
G01 X-69.8006 Y-81.4980
G01 X-69.7671 Y-81.5137
G01 X-69.7101 Y-81.5369
G01 X-69.6753 Y-81.5492
G01 X-69.6400 Y-81.5602
G01 X-69.6044 Y-81.5698
G01 X-69.5684 Y-81.5782
G01 X-69.5200 Y-81.5872
G01 X-69.4589 Y-81.5952
G01 X-69.4098 Y-81.5988
G01 X-69.3606 Y-81.6000
G01 X-50.4945 Y-81.6000
G01 X-50.4332 Y-81.5981
G01 X-50.3721 Y-81.5925
G01 X-50.3115 Y-81.5831
G01 X-50.2515 Y-81.5700
G01 X-50.1925 Y-81.5533
G01 X-50.1346 Y-81.5330
G01 X-50.0781 Y-81.5092
G01 X-50.0231 Y-81.4819
G01 X-49.9910 Y-81.4640
G01 X-49.9595 Y-81.4449
G01 X-49.9087 Y-81.4105
G01 X-49.8601 Y-81.3730
G01 X-49.8139 Y-81.3327
G01 X-49.7703 Y-81.2895
G01 X-49.7454 Y-81.2624
G01 X-49.7215 Y-81.2344
G01 X-49.6987 Y-81.2055
G01 X-49.6769 Y-81.1758
G01 X-49.6432 Y-81.1246
G01 X-49.6126 Y-81.0714
G01 X-49.5854 Y-81.0164
G01 X-49.5706 Y-80.9827
G01 X-49.5572 Y-80.9484
G01 X-49.5376 Y-80.8903
G01 X-49.5275 Y-80.8549
G01 X-49.5188 Y-80.8191
G01 X-49.5072 Y-80.7589
G01 X-49.5020 Y-80.7224
G01 X-49.4982 Y-80.6858
G01 X-49.4948 Y-80.6245
G01 X-49.4945 Y-53.7327
G01 X-22.4751 Y-53.7327
G01 X-22.4383 Y-53.7320
G01 X-22.3893 Y-53.7290
G01 X-22.3527 Y-53.7252
G01 X-22.3042 Y-53.7180
G01 X-22.2680 Y-53.7110
G01 X-22.2203 Y-53.6997
G01 X-22.1731 Y-53.6860
G01 X-22.1382 Y-53.6742
G01 X-22.1038 Y-53.6612
G01 X-22.0699 Y-53.6469
G01 X-22.0365 Y-53.6313
G01 X-22.0037 Y-53.6146
G01 X-21.9716 Y-53.5966
G01 X-21.9401 Y-53.5775
G01 X-21.9094 Y-53.5573
G01 X-21.8794 Y-53.5359
G01 X-21.8503 Y-53.5134
G01 X-21.8220 Y-53.4899
G01 X-21.7945 Y-53.4653
G01 X-21.7680 Y-53.4398
G01 X-21.7425 Y-53.4133
G01 X-21.7179 Y-53.3858
G01 X-21.6868 Y-53.3479
G01 X-21.6647 Y-53.3185
G01 X-21.6437 Y-53.2882
G01 X-21.6238 Y-53.2573
G01 X-21.6050 Y-53.2256
G01 X-21.5875 Y-53.1932
G01 X-21.5711 Y-53.1602
G01 X-21.5560 Y-53.1267
G01 X-21.5421 Y-53.0926
G01 X-21.5295 Y-53.0580
G01 X-21.5182 Y-53.0230
G01 X-21.5081 Y-52.9875
G01 X-21.4994 Y-52.9518
G01 X-21.4920 Y-52.9157
G01 X-21.4859 Y-52.8794
G01 X-21.4812 Y-52.8429
G01 X-21.4778 Y-52.8062
G01 X-21.4758 Y-52.7695
G01 X-21.4751 Y-52.7327
G01 X-21.4751 Y-36.2305
G01 X0.0123 Y-36.2304
G01 X0.0613 Y-36.2286
G01 X0.1102 Y-36.2244
G01 X0.1589 Y-36.2178
G01 X0.2071 Y-36.2088
G01 X0.2549 Y-36.1975
G01 X0.3020 Y-36.1838
G01 X0.3484 Y-36.1678
G01 X0.3940 Y-36.1496
G01 X0.4386 Y-36.1291
G01 X0.4822 Y-36.1065
G01 X0.5246 Y-36.0818
G01 X0.5657 Y-36.0551
G01 X0.6055 Y-36.0263
G01 X0.6438 Y-35.9956
G01 X0.6806 Y-35.9631
G01 X0.7157 Y-35.9289
G01 X0.7410 Y-35.9020
G01 X0.7730 Y-35.8649
G01 X0.8032 Y-35.8262
G01 X0.8315 Y-35.7860
G01 X0.8577 Y-35.7446
G01 X0.8819 Y-35.7019
G01 X0.9040 Y-35.6580
G01 X0.9239 Y-35.6132
G01 X0.9415 Y-35.5674
G01 X0.9569 Y-35.5208
G01 X0.9670 Y-35.4853
G01 X0.9783 Y-35.4376
G01 X0.9873 Y-35.3893
G01 X0.9939 Y-35.3407
G01 X0.9981 Y-35.2918
G01 X0.9999 Y-35.2427
G01 X1.0000 Y0.0000
G01 X0.9981 Y0.0613
G01 X0.9939 Y0.1102
G01 X0.9873 Y0.1589
G01 X0.9783 Y0.2071
G01 X0.9670 Y0.2549
G01 X0.9533 Y0.3020
G01 X0.9373 Y0.3484
G01 X0.9191 Y0.3940
G01 X0.8987 Y0.4386
G01 X0.8761 Y0.4822
G01 X0.8514 Y0.5246
G01 X0.8246 Y0.5657
G01 X0.7958 Y0.6055
G01 X0.7652 Y0.6438
G01 X0.7327 Y0.6806
G01 X0.6984 Y0.7157
G01 X0.6624 Y0.7491
G01 X0.6249 Y0.7807
G01 X0.5858 Y0.8105
G01 X0.5453 Y0.8382
G01 X0.5035 Y0.8640
G01 X0.4605 Y0.8876
G01 X0.4164 Y0.9092
G01 X0.3713 Y0.9285
G01 X0.3369 Y0.9415
G01 X0.2903 Y0.9569
G01 X0.2430 Y0.9700
G01 X0.1951 Y0.9808
G01 X0.1467 Y0.9892
G01 X0.0980 Y0.9952
G01 X0.0491 Y0.9988
G01 X0.0000 Y1.0000
G01 X-69.7086 Y1.0000
G01 X-69.7698 Y0.9981
G01 X-69.8186 Y0.9939
G01 X-69.8671 Y0.9874
G01 X-69.9152 Y0.9784
G01 X-69.9510 Y0.9702
G01 X-69.9982 Y0.9572
G01 X-70.0332 Y0.9459
G01 X-70.0791 Y0.9289
G01 X-70.1129 Y0.9146
G01 X-70.1462 Y0.8992
G01 X-70.1897 Y0.8767
G01 X-70.2320 Y0.8521
G01 X-70.2630 Y0.8323
G01 X-70.3030 Y0.8042
G01 X-70.3321 Y0.7818
G01 X-70.3697 Y0.7504
G01 X-70.3968 Y0.7256
G01 X-70.4315 Y0.6911
G01 X-70.4724 Y0.6456
G01 X-70.5030 Y0.6074
G01 X-70.5387 Y0.5577
G01 X-70.5713 Y0.5059
G01 X-70.5950 Y0.4630
G01 X-70.6216 Y0.4080
G01 X-70.6420 Y0.3590
G01 X-75.0335 Y-3.9569
G01 X-75.0791 Y-3.9874
G01 X-75.1278 Y-4.0243
G01 X-75.1651 Y-4.0559
G01 X-75.2094 Y-4.0979
G01 X-75.2430 Y-4.1334
G01 X-75.2748 Y-4.1705
G01 X-75.3048 Y-4.2091
G01 X-75.3328 Y-4.2492
G01 X-75.3589 Y-4.2905
G01 X-75.3829 Y-4.3331
G01 X-75.4048 Y-4.3768
G01 X-75.4245 Y-4.4215
G01 X-75.4420 Y-4.4671
G01 X-75.4573 Y-4.5136
G01 X-75.4703 Y-4.5607
G01 X-75.4809 Y-4.6084
G01 X-75.4893 Y-4.6565
G01 X-75.4952 Y-4.7051
G01 X-75.4988 Y-4.7538
G01 X-75.5000 Y-4.8027
G01 X-75.5000 Y-75.4059
G01 X-75.4993 Y-75.4429
G01 X-75.4973 Y-75.4798
G01 X-75.4908 Y-75.5411
G01 X-75.4806 Y-75.6018
G01 X-75.4667 Y-75.6618
G01 X-75.4491 Y-75.7209
G01 X-75.4279 Y-75.7787
G01 X-75.4032 Y-75.8351
G01 X-75.3751 Y-75.8899
G01 X-75.3436 Y-75.9429
G01 X-75.3089 Y-75.9938
G01 X-75.2712 Y-76.0425
G01 X-75.2305 Y-76.0888
G01 X-75.1871 Y-76.1325
G01 X-75.1410 Y-76.1734
G01 X-75.0926 Y-76.2114
G01 X-75.0624 Y-76.2328
G01 X-75.0397 Y-76.2478
G00 X-75.0397 Y-76.2478
G01 F70.00
G01 Z-0.8000
G01 F120.00
G01 X-70.1453 Y-81.2199
G01 X-70.1276 Y-81.2416
G01 X-70.1034 Y-81.2695
G01 X-70.0608 Y-81.3140
G01 X-70.0339 Y-81.3393
G01 X-70.0062 Y-81.3637
G01 X-69.9775 Y-81.3870
G01 X-69.9481 Y-81.4093
G01 X-69.8972 Y-81.4439
G01 X-69.8656 Y-81.4631
G01 X-69.8334 Y-81.4812
G01 X-69.8006 Y-81.4980
G01 X-69.7671 Y-81.5137
G01 X-69.7101 Y-81.5369
G01 X-69.6753 Y-81.5492
G01 X-69.6400 Y-81.5602
G01 X-69.6044 Y-81.5698
G01 X-69.5684 Y-81.5782
G01 X-69.5200 Y-81.5872
G01 X-69.4589 Y-81.5952
G01 X-69.4098 Y-81.5988
G01 X-69.3606 Y-81.6000
G01 X-50.4945 Y-81.6000
G01 X-50.4332 Y-81.5981
G01 X-50.3721 Y-81.5925
G01 X-50.3115 Y-81.5831
G01 X-50.2515 Y-81.5700
G01 X-50.1925 Y-81.5533
G01 X-50.1346 Y-81.5330
G01 X-50.0781 Y-81.5092
G01 X-50.0231 Y-81.4819
G01 X-49.9910 Y-81.4640
G01 X-49.9595 Y-81.4449
G01 X-49.9087 Y-81.4105
G01 X-49.8601 Y-81.3730
G01 X-49.8139 Y-81.3327
G01 X-49.7703 Y-81.2895
G01 X-49.7454 Y-81.2624
G01 X-49.7215 Y-81.2344
G01 X-49.6987 Y-81.2055
G01 X-49.6769 Y-81.1758
G01 X-49.6432 Y-81.1246
G01 X-49.6126 Y-81.0714
G01 X-49.5854 Y-81.0164
G01 X-49.5706 Y-80.9827
G01 X-49.5572 Y-80.9484
G01 X-49.5376 Y-80.8903
G01 X-49.5275 Y-80.8549
G01 X-49.5188 Y-80.8191
G01 X-49.5072 Y-80.7589
G01 X-49.5020 Y-80.7224
G01 X-49.4982 Y-80.6858
G01 X-49.4948 Y-80.6245
G01 X-49.4945 Y-53.7327
G01 X-22.4751 Y-53.7327
G01 X-22.4383 Y-53.7320
G01 X-22.3893 Y-53.7290
G01 X-22.3527 Y-53.7252
G01 X-22.3042 Y-53.7180
G01 X-22.2680 Y-53.7110
G01 X-22.2203 Y-53.6997
G01 X-22.1731 Y-53.6860
G01 X-22.1382 Y-53.6742
G01 X-22.1038 Y-53.6612
G01 X-22.0699 Y-53.6469
G01 X-22.0365 Y-53.6313
G01 X-22.0037 Y-53.6146
G01 X-21.9716 Y-53.5966
G01 X-21.9401 Y-53.5775
G01 X-21.9094 Y-53.5573
G01 X-21.8794 Y-53.5359
G01 X-21.8503 Y-53.5134
G01 X-21.8220 Y-53.4899
G01 X-21.7945 Y-53.4653
G01 X-21.7680 Y-53.4398
G01 X-21.7425 Y-53.4133
G01 X-21.7179 Y-53.3858
G01 X-21.6868 Y-53.3479
G01 X-21.6647 Y-53.3185
G01 X-21.6437 Y-53.2882
G01 X-21.6238 Y-53.2573
G01 X-21.6050 Y-53.2256
G01 X-21.5875 Y-53.1932
G01 X-21.5711 Y-53.1602
G01 X-21.5560 Y-53.1267
G01 X-21.5421 Y-53.0926
G01 X-21.5295 Y-53.0580
G01 X-21.5182 Y-53.0230
G01 X-21.5081 Y-52.9875
G01 X-21.4994 Y-52.9518
G01 X-21.4920 Y-52.9157
G01 X-21.4859 Y-52.8794
G01 X-21.4812 Y-52.8429
G01 X-21.4778 Y-52.8062
G01 X-21.4758 Y-52.7695
G01 X-21.4751 Y-52.7327
G01 X-21.4751 Y-36.2305
G01 X0.0123 Y-36.2304
G01 X0.0613 Y-36.2286
G01 X0.1102 Y-36.2244
G01 X0.1589 Y-36.2178
G01 X0.2071 Y-36.2088
G01 X0.2549 Y-36.1975
G01 X0.3020 Y-36.1838
G01 X0.3484 Y-36.1678
G01 X0.3940 Y-36.1496
G01 X0.4386 Y-36.1291
G01 X0.4822 Y-36.1065
G01 X0.5246 Y-36.0818
G01 X0.5657 Y-36.0551
G01 X0.6055 Y-36.0263
G01 X0.6438 Y-35.9956
G01 X0.6806 Y-35.9631
G01 X0.7157 Y-35.9289
G01 X0.7410 Y-35.9020
G01 X0.7730 Y-35.8649
G01 X0.8032 Y-35.8262
G01 X0.8315 Y-35.7860
G01 X0.8577 Y-35.7446
G01 X0.8819 Y-35.7019
G01 X0.9040 Y-35.6580
G01 X0.9239 Y-35.6132
G01 X0.9415 Y-35.5674
G01 X0.9569 Y-35.5208
G01 X0.9670 Y-35.4853
G01 X0.9783 Y-35.4376
G01 X0.9873 Y-35.3893
G01 X0.9939 Y-35.3407
G01 X0.9981 Y-35.2918
G01 X0.9999 Y-35.2427
G01 X1.0000 Y0.0000
G01 X0.9981 Y0.0613
G01 X0.9939 Y0.1102
G01 X0.9873 Y0.1589
G01 X0.9783 Y0.2071
G01 X0.9670 Y0.2549
G01 X0.9533 Y0.3020
G01 X0.9373 Y0.3484
G01 X0.9191 Y0.3940
G01 X0.8987 Y0.4386
G01 X0.8761 Y0.4822
G01 X0.8514 Y0.5246
G01 X0.8246 Y0.5657
G01 X0.7958 Y0.6055
G01 X0.7652 Y0.6438
G01 X0.7327 Y0.6806
G01 X0.6984 Y0.7157
G01 X0.6624 Y0.7491
G01 X0.6249 Y0.7807
G01 X0.5858 Y0.8105
G01 X0.5453 Y0.8382
G01 X0.5035 Y0.8640
G01 X0.4605 Y0.8876
G01 X0.4164 Y0.9092
G01 X0.3713 Y0.9285
G01 X0.3369 Y0.9415
G01 X0.2903 Y0.9569
G01 X0.2430 Y0.9700
G01 X0.1951 Y0.9808
G01 X0.1467 Y0.9892
G01 X0.0980 Y0.9952
G01 X0.0491 Y0.9988
G01 X0.0000 Y1.0000
G01 X-69.7086 Y1.0000
G01 X-69.7698 Y0.9981
G01 X-69.8186 Y0.9939
G01 X-69.8671 Y0.9874
G01 X-69.9152 Y0.9784
G01 X-69.9510 Y0.9702
G01 X-69.9982 Y0.9572
G01 X-70.0332 Y0.9459
G01 X-70.0791 Y0.9289
G01 X-70.1129 Y0.9146
G01 X-70.1462 Y0.8992
G01 X-70.1897 Y0.8767
G01 X-70.2320 Y0.8521
G01 X-70.2630 Y0.8323
G01 X-70.3030 Y0.8042
G01 X-70.3321 Y0.7818
G01 X-70.3697 Y0.7504
G01 X-70.3968 Y0.7256
G01 X-70.4315 Y0.6911
G01 X-70.4724 Y0.6456
G01 X-70.5030 Y0.6074
G01 X-70.5387 Y0.5577
G01 X-70.5713 Y0.5059
G01 X-70.5950 Y0.4630
G01 X-70.6216 Y0.4080
G01 X-70.6420 Y0.3590
G01 X-75.0335 Y-3.9569
G01 X-75.0791 Y-3.9874
G01 X-75.1278 Y-4.0243
G01 X-75.1651 Y-4.0559
G01 X-75.2094 Y-4.0979
G01 X-75.2430 Y-4.1334
G01 X-75.2748 Y-4.1705
G01 X-75.3048 Y-4.2091
G01 X-75.3328 Y-4.2492
G01 X-75.3589 Y-4.2905
G01 X-75.3829 Y-4.3331
G01 X-75.4048 Y-4.3768
G01 X-75.4245 Y-4.4215
G01 X-75.4420 Y-4.4671
G01 X-75.4573 Y-4.5136
G01 X-75.4703 Y-4.5607
G01 X-75.4809 Y-4.6084
G01 X-75.4893 Y-4.6565
G01 X-75.4952 Y-4.7051
G01 X-75.4988 Y-4.7538
G01 X-75.5000 Y-4.8027
G01 X-75.5000 Y-75.4059
G01 X-75.4993 Y-75.4429
G01 X-75.4973 Y-75.4798
G01 X-75.4908 Y-75.5411
G01 X-75.4806 Y-75.6018
G01 X-75.4667 Y-75.6618
G01 X-75.4491 Y-75.7209
G01 X-75.4279 Y-75.7787
G01 X-75.4032 Y-75.8351
G01 X-75.3751 Y-75.8899
G01 X-75.3436 Y-75.9429
G01 X-75.3089 Y-75.9938
G01 X-75.2712 Y-76.0425
G01 X-75.2305 Y-76.0888
G01 X-75.1871 Y-76.1325
G01 X-75.1410 Y-76.1734
G01 X-75.0926 Y-76.2114
G01 X-75.0624 Y-76.2328
G01 X-75.0397 Y-76.2478
G00 X-75.0397 Y-76.2478
G01 F70.00
G01 Z-0.9000
G01 F120.00
G01 X-70.1453 Y-81.2199
G01 X-70.1276 Y-81.2416
G01 X-70.1034 Y-81.2695
G01 X-70.0608 Y-81.3140
G01 X-70.0339 Y-81.3393
G01 X-70.0062 Y-81.3637
G01 X-69.9775 Y-81.3870
G01 X-69.9481 Y-81.4093
G01 X-69.8972 Y-81.4439
G01 X-69.8656 Y-81.4631
G01 X-69.8334 Y-81.4812
G01 X-69.8006 Y-81.4980
G01 X-69.7671 Y-81.5137
G01 X-69.7101 Y-81.5369
G01 X-69.6753 Y-81.5492
G01 X-69.6400 Y-81.5602
G01 X-69.6044 Y-81.5698
G01 X-69.5684 Y-81.5782
G01 X-69.5200 Y-81.5872
G01 X-69.4589 Y-81.5952
G01 X-69.4098 Y-81.5988
G01 X-69.3606 Y-81.6000
G01 X-50.4945 Y-81.6000
G01 X-50.4332 Y-81.5981
G01 X-50.3721 Y-81.5925
G01 X-50.3115 Y-81.5831
G01 X-50.2515 Y-81.5700
G01 X-50.1925 Y-81.5533
G01 X-50.1346 Y-81.5330
G01 X-50.0781 Y-81.5092
G01 X-50.0231 Y-81.4819
G01 X-49.9910 Y-81.4640
G01 X-49.9595 Y-81.4449
G01 X-49.9087 Y-81.4105
G01 X-49.8601 Y-81.3730
G01 X-49.8139 Y-81.3327
G01 X-49.7703 Y-81.2895
G01 X-49.7454 Y-81.2624
G01 X-49.7215 Y-81.2344
G01 X-49.6987 Y-81.2055
G01 X-49.6769 Y-81.1758
G01 X-49.6432 Y-81.1246
G01 X-49.6126 Y-81.0714
G01 X-49.5854 Y-81.0164
G01 X-49.5706 Y-80.9827
G01 X-49.5572 Y-80.9484
G01 X-49.5376 Y-80.8903
G01 X-49.5275 Y-80.8549
G01 X-49.5188 Y-80.8191
G01 X-49.5072 Y-80.7589
G01 X-49.5020 Y-80.7224
G01 X-49.4982 Y-80.6858
G01 X-49.4948 Y-80.6245
G01 X-49.4945 Y-53.7327
G01 X-22.4751 Y-53.7327
G01 X-22.4383 Y-53.7320
G01 X-22.3893 Y-53.7290
G01 X-22.3527 Y-53.7252
G01 X-22.3042 Y-53.7180
G01 X-22.2680 Y-53.7110
G01 X-22.2203 Y-53.6997
G01 X-22.1731 Y-53.6860
G01 X-22.1382 Y-53.6742
G01 X-22.1038 Y-53.6612
G01 X-22.0699 Y-53.6469
G01 X-22.0365 Y-53.6313
G01 X-22.0037 Y-53.6146
G01 X-21.9716 Y-53.5966
G01 X-21.9401 Y-53.5775
G01 X-21.9094 Y-53.5573
G01 X-21.8794 Y-53.5359
G01 X-21.8503 Y-53.5134
G01 X-21.8220 Y-53.4899
G01 X-21.7945 Y-53.4653
G01 X-21.7680 Y-53.4398
G01 X-21.7425 Y-53.4133
G01 X-21.7179 Y-53.3858
G01 X-21.6868 Y-53.3479
G01 X-21.6647 Y-53.3185
G01 X-21.6437 Y-53.2882
G01 X-21.6238 Y-53.2573
G01 X-21.6050 Y-53.2256
G01 X-21.5875 Y-53.1932
G01 X-21.5711 Y-53.1602
G01 X-21.5560 Y-53.1267
G01 X-21.5421 Y-53.0926
G01 X-21.5295 Y-53.0580
G01 X-21.5182 Y-53.0230
G01 X-21.5081 Y-52.9875
G01 X-21.4994 Y-52.9518
G01 X-21.4920 Y-52.9157
G01 X-21.4859 Y-52.8794
G01 X-21.4812 Y-52.8429
G01 X-21.4778 Y-52.8062
G01 X-21.4758 Y-52.7695
G01 X-21.4751 Y-52.7327
G01 X-21.4751 Y-36.2305
G01 X0.0123 Y-36.2304
G01 X0.0613 Y-36.2286
G01 X0.1102 Y-36.2244
G01 X0.1589 Y-36.2178
G01 X0.2071 Y-36.2088
G01 X0.2549 Y-36.1975
G01 X0.3020 Y-36.1838
G01 X0.3484 Y-36.1678
G01 X0.3940 Y-36.1496
G01 X0.4386 Y-36.1291
G01 X0.4822 Y-36.1065
G01 X0.5246 Y-36.0818
G01 X0.5657 Y-36.0551
G01 X0.6055 Y-36.0263
G01 X0.6438 Y-35.9956
G01 X0.6806 Y-35.9631
G01 X0.7157 Y-35.9289
G01 X0.7410 Y-35.9020
G01 X0.7730 Y-35.8649
G01 X0.8032 Y-35.8262
G01 X0.8315 Y-35.7860
G01 X0.8577 Y-35.7446
G01 X0.8819 Y-35.7019
G01 X0.9040 Y-35.6580
G01 X0.9239 Y-35.6132
G01 X0.9415 Y-35.5674
G01 X0.9569 Y-35.5208
G01 X0.9670 Y-35.4853
G01 X0.9783 Y-35.4376
G01 X0.9873 Y-35.3893
G01 X0.9939 Y-35.3407
G01 X0.9981 Y-35.2918
G01 X0.9999 Y-35.2427
G01 X1.0000 Y0.0000
G01 X0.9981 Y0.0613
G01 X0.9939 Y0.1102
G01 X0.9873 Y0.1589
G01 X0.9783 Y0.2071
G01 X0.9670 Y0.2549
G01 X0.9533 Y0.3020
G01 X0.9373 Y0.3484
G01 X0.9191 Y0.3940
G01 X0.8987 Y0.4386
G01 X0.8761 Y0.4822
G01 X0.8514 Y0.5246
G01 X0.8246 Y0.5657
G01 X0.7958 Y0.6055
G01 X0.7652 Y0.6438
G01 X0.7327 Y0.6806
G01 X0.6984 Y0.7157
G01 X0.6624 Y0.7491
G01 X0.6249 Y0.7807
G01 X0.5858 Y0.8105
G01 X0.5453 Y0.8382
G01 X0.5035 Y0.8640
G01 X0.4605 Y0.8876
G01 X0.4164 Y0.9092
G01 X0.3713 Y0.9285
G01 X0.3369 Y0.9415
G01 X0.2903 Y0.9569
G01 X0.2430 Y0.9700
G01 X0.1951 Y0.9808
G01 X0.1467 Y0.9892
G01 X0.0980 Y0.9952
G01 X0.0491 Y0.9988
G01 X0.0000 Y1.0000
G01 X-69.7086 Y1.0000
G01 X-69.7698 Y0.9981
G01 X-69.8186 Y0.9939
G01 X-69.8671 Y0.9874
G01 X-69.9152 Y0.9784
G01 X-69.9510 Y0.9702
G01 X-69.9982 Y0.9572
G01 X-70.0332 Y0.9459
G01 X-70.0791 Y0.9289
G01 X-70.1129 Y0.9146
G01 X-70.1462 Y0.8992
G01 X-70.1897 Y0.8767
G01 X-70.2320 Y0.8521
G01 X-70.2630 Y0.8323
G01 X-70.3030 Y0.8042
G01 X-70.3321 Y0.7818
G01 X-70.3697 Y0.7504
G01 X-70.3968 Y0.7256
G01 X-70.4315 Y0.6911
G01 X-70.4724 Y0.6456
G01 X-70.5030 Y0.6074
G01 X-70.5387 Y0.5577
G01 X-70.5713 Y0.5059
G01 X-70.5950 Y0.4630
G01 X-70.6216 Y0.4080
G01 X-70.6420 Y0.3590
G01 X-75.0335 Y-3.9569
G01 X-75.0791 Y-3.9874
G01 X-75.1278 Y-4.0243
G01 X-75.1651 Y-4.0559
G01 X-75.2094 Y-4.0979
G01 X-75.2430 Y-4.1334
G01 X-75.2748 Y-4.1705
G01 X-75.3048 Y-4.2091
G01 X-75.3328 Y-4.2492
G01 X-75.3589 Y-4.2905
G01 X-75.3829 Y-4.3331
G01 X-75.4048 Y-4.3768
G01 X-75.4245 Y-4.4215
G01 X-75.4420 Y-4.4671
G01 X-75.4573 Y-4.5136
G01 X-75.4703 Y-4.5607
G01 X-75.4809 Y-4.6084
G01 X-75.4893 Y-4.6565
G01 X-75.4952 Y-4.7051
G01 X-75.4988 Y-4.7538
G01 X-75.5000 Y-4.8027
G01 X-75.5000 Y-75.4059
G01 X-75.4993 Y-75.4429
G01 X-75.4973 Y-75.4798
G01 X-75.4908 Y-75.5411
G01 X-75.4806 Y-75.6018
G01 X-75.4667 Y-75.6618
G01 X-75.4491 Y-75.7209
G01 X-75.4279 Y-75.7787
G01 X-75.4032 Y-75.8351
G01 X-75.3751 Y-75.8899
G01 X-75.3436 Y-75.9429
G01 X-75.3089 Y-75.9938
G01 X-75.2712 Y-76.0425
G01 X-75.2305 Y-76.0888
G01 X-75.1871 Y-76.1325
G01 X-75.1410 Y-76.1734
G01 X-75.0926 Y-76.2114
G01 X-75.0624 Y-76.2328
G01 X-75.0397 Y-76.2478
G00 X-75.0397 Y-76.2478
G01 F70.00
G01 Z-1.0000
G01 F120.00
G01 X-70.1453 Y-81.2199
G01 X-70.1276 Y-81.2416
G01 X-70.1034 Y-81.2695
G01 X-70.0608 Y-81.3140
G01 X-70.0339 Y-81.3393
G01 X-70.0062 Y-81.3637
G01 X-69.9775 Y-81.3870
G01 X-69.9481 Y-81.4093
G01 X-69.8972 Y-81.4439
G01 X-69.8656 Y-81.4631
G01 X-69.8334 Y-81.4812
G01 X-69.8006 Y-81.4980
G01 X-69.7671 Y-81.5137
G01 X-69.7101 Y-81.5369
G01 X-69.6753 Y-81.5492
G01 X-69.6400 Y-81.5602
G01 X-69.6044 Y-81.5698
G01 X-69.5684 Y-81.5782
G01 X-69.5200 Y-81.5872
G01 X-69.4589 Y-81.5952
G01 X-69.4098 Y-81.5988
G01 X-69.3606 Y-81.6000
G01 X-50.4945 Y-81.6000
G01 X-50.4332 Y-81.5981
G01 X-50.3721 Y-81.5925
G01 X-50.3115 Y-81.5831
G01 X-50.2515 Y-81.5700
G01 X-50.1925 Y-81.5533
G01 X-50.1346 Y-81.5330
G01 X-50.0781 Y-81.5092
G01 X-50.0231 Y-81.4819
G01 X-49.9910 Y-81.4640
G01 X-49.9595 Y-81.4449
G01 X-49.9087 Y-81.4105
G01 X-49.8601 Y-81.3730
G01 X-49.8139 Y-81.3327
G01 X-49.7703 Y-81.2895
G01 X-49.7454 Y-81.2624
G01 X-49.7215 Y-81.2344
G01 X-49.6987 Y-81.2055
G01 X-49.6769 Y-81.1758
G01 X-49.6432 Y-81.1246
G01 X-49.6126 Y-81.0714
G01 X-49.5854 Y-81.0164
G01 X-49.5706 Y-80.9827
G01 X-49.5572 Y-80.9484
G01 X-49.5376 Y-80.8903
G01 X-49.5275 Y-80.8549
G01 X-49.5188 Y-80.8191
G01 X-49.5072 Y-80.7589
G01 X-49.5020 Y-80.7224
G01 X-49.4982 Y-80.6858
G01 X-49.4948 Y-80.6245
G01 X-49.4945 Y-53.7327
G01 X-22.4751 Y-53.7327
G01 X-22.4383 Y-53.7320
G01 X-22.3893 Y-53.7290
G01 X-22.3527 Y-53.7252
G01 X-22.3042 Y-53.7180
G01 X-22.2680 Y-53.7110
G01 X-22.2203 Y-53.6997
G01 X-22.1731 Y-53.6860
G01 X-22.1382 Y-53.6742
G01 X-22.1038 Y-53.6612
G01 X-22.0699 Y-53.6469
G01 X-22.0365 Y-53.6313
G01 X-22.0037 Y-53.6146
G01 X-21.9716 Y-53.5966
G01 X-21.9401 Y-53.5775
G01 X-21.9094 Y-53.5573
G01 X-21.8794 Y-53.5359
G01 X-21.8503 Y-53.5134
G01 X-21.8220 Y-53.4899
G01 X-21.7945 Y-53.4653
G01 X-21.7680 Y-53.4398
G01 X-21.7425 Y-53.4133
G01 X-21.7179 Y-53.3858
G01 X-21.6868 Y-53.3479
G01 X-21.6647 Y-53.3185
G01 X-21.6437 Y-53.2882
G01 X-21.6238 Y-53.2573
G01 X-21.6050 Y-53.2256
G01 X-21.5875 Y-53.1932
G01 X-21.5711 Y-53.1602
G01 X-21.5560 Y-53.1267
G01 X-21.5421 Y-53.0926
G01 X-21.5295 Y-53.0580
G01 X-21.5182 Y-53.0230
G01 X-21.5081 Y-52.9875
G01 X-21.4994 Y-52.9518
G01 X-21.4920 Y-52.9157
G01 X-21.4859 Y-52.8794
G01 X-21.4812 Y-52.8429
G01 X-21.4778 Y-52.8062
G01 X-21.4758 Y-52.7695
G01 X-21.4751 Y-52.7327
G01 X-21.4751 Y-36.2305
G01 X0.0123 Y-36.2304
G01 X0.0613 Y-36.2286
G01 X0.1102 Y-36.2244
G01 X0.1589 Y-36.2178
G01 X0.2071 Y-36.2088
G01 X0.2549 Y-36.1975
G01 X0.3020 Y-36.1838
G01 X0.3484 Y-36.1678
G01 X0.3940 Y-36.1496
G01 X0.4386 Y-36.1291
G01 X0.4822 Y-36.1065
G01 X0.5246 Y-36.0818
G01 X0.5657 Y-36.0551
G01 X0.6055 Y-36.0263
G01 X0.6438 Y-35.9956
G01 X0.6806 Y-35.9631
G01 X0.7157 Y-35.9289
G01 X0.7410 Y-35.9020
G01 X0.7730 Y-35.8649
G01 X0.8032 Y-35.8262
G01 X0.8315 Y-35.7860
G01 X0.8577 Y-35.7446
G01 X0.8819 Y-35.7019
G01 X0.9040 Y-35.6580
G01 X0.9239 Y-35.6132
G01 X0.9415 Y-35.5674
G01 X0.9569 Y-35.5208
G01 X0.9670 Y-35.4853
G01 X0.9783 Y-35.4376
G01 X0.9873 Y-35.3893
G01 X0.9939 Y-35.3407
G01 X0.9981 Y-35.2918
G01 X0.9999 Y-35.2427
G01 X1.0000 Y0.0000
G01 X0.9981 Y0.0613
G01 X0.9939 Y0.1102
G01 X0.9873 Y0.1589
G01 X0.9783 Y0.2071
G01 X0.9670 Y0.2549
G01 X0.9533 Y0.3020
G01 X0.9373 Y0.3484
G01 X0.9191 Y0.3940
G01 X0.8987 Y0.4386
G01 X0.8761 Y0.4822
G01 X0.8514 Y0.5246
G01 X0.8246 Y0.5657
G01 X0.7958 Y0.6055
G01 X0.7652 Y0.6438
G01 X0.7327 Y0.6806
G01 X0.6984 Y0.7157
G01 X0.6624 Y0.7491
G01 X0.6249 Y0.7807
G01 X0.5858 Y0.8105
G01 X0.5453 Y0.8382
G01 X0.5035 Y0.8640
G01 X0.4605 Y0.8876
G01 X0.4164 Y0.9092
G01 X0.3713 Y0.9285
G01 X0.3369 Y0.9415
G01 X0.2903 Y0.9569
G01 X0.2430 Y0.9700
G01 X0.1951 Y0.9808
G01 X0.1467 Y0.9892
G01 X0.0980 Y0.9952
G01 X0.0491 Y0.9988
G01 X0.0000 Y1.0000
G01 X-69.7086 Y1.0000
G01 X-69.7698 Y0.9981
G01 X-69.8186 Y0.9939
G01 X-69.8671 Y0.9874
G01 X-69.9152 Y0.9784
G01 X-69.9510 Y0.9702
G01 X-69.9982 Y0.9572
G01 X-70.0332 Y0.9459
G01 X-70.0791 Y0.9289
G01 X-70.1129 Y0.9146
G01 X-70.1462 Y0.8992
G01 X-70.1897 Y0.8767
G01 X-70.2320 Y0.8521
G01 X-70.2630 Y0.8323
G01 X-70.3030 Y0.8042
G01 X-70.3321 Y0.7818
G01 X-70.3697 Y0.7504
G01 X-70.3968 Y0.7256
G01 X-70.4315 Y0.6911
G01 X-70.4724 Y0.6456
G01 X-70.5030 Y0.6074
G01 X-70.5387 Y0.5577
G01 X-70.5713 Y0.5059
G01 X-70.5950 Y0.4630
G01 X-70.6216 Y0.4080
G01 X-70.6420 Y0.3590
G01 X-75.0335 Y-3.9569
G01 X-75.0791 Y-3.9874
G01 X-75.1278 Y-4.0243
G01 X-75.1651 Y-4.0559
G01 X-75.2094 Y-4.0979
G01 X-75.2430 Y-4.1334
G01 X-75.2748 Y-4.1705
G01 X-75.3048 Y-4.2091
G01 X-75.3328 Y-4.2492
G01 X-75.3589 Y-4.2905
G01 X-75.3829 Y-4.3331
G01 X-75.4048 Y-4.3768
G01 X-75.4245 Y-4.4215
G01 X-75.4420 Y-4.4671
G01 X-75.4573 Y-4.5136
G01 X-75.4703 Y-4.5607
G01 X-75.4809 Y-4.6084
G01 X-75.4893 Y-4.6565
G01 X-75.4952 Y-4.7051
G01 X-75.4988 Y-4.7538
G01 X-75.5000 Y-4.8027
G01 X-75.5000 Y-75.4059
G01 X-75.4993 Y-75.4429
G01 X-75.4973 Y-75.4798
G01 X-75.4908 Y-75.5411
G01 X-75.4806 Y-75.6018
G01 X-75.4667 Y-75.6618
G01 X-75.4491 Y-75.7209
G01 X-75.4279 Y-75.7787
G01 X-75.4032 Y-75.8351
G01 X-75.3751 Y-75.8899
G01 X-75.3436 Y-75.9429
G01 X-75.3089 Y-75.9938
G01 X-75.2712 Y-76.0425
G01 X-75.2305 Y-76.0888
G01 X-75.1871 Y-76.1325
G01 X-75.1410 Y-76.1734
G01 X-75.0926 Y-76.2114
G01 X-75.0624 Y-76.2328
G01 X-75.0397 Y-76.2478
G00 X-75.0397 Y-76.2478
G01 F70.00
G01 Z-1.1000
G01 F120.00
G01 X-70.1453 Y-81.2199
G01 X-70.1276 Y-81.2416
G01 X-70.1034 Y-81.2695
G01 X-70.0608 Y-81.3140
G01 X-70.0339 Y-81.3393
G01 X-70.0062 Y-81.3637
G01 X-69.9775 Y-81.3870
G01 X-69.9481 Y-81.4093
G01 X-69.8972 Y-81.4439
G01 X-69.8656 Y-81.4631
G01 X-69.8334 Y-81.4812
G01 X-69.8006 Y-81.4980
G01 X-69.7671 Y-81.5137
G01 X-69.7101 Y-81.5369
G01 X-69.6753 Y-81.5492
G01 X-69.6400 Y-81.5602
G01 X-69.6044 Y-81.5698
G01 X-69.5684 Y-81.5782
G01 X-69.5200 Y-81.5872
G01 X-69.4589 Y-81.5952
G01 X-69.4098 Y-81.5988
G01 X-69.3606 Y-81.6000
G01 X-50.4945 Y-81.6000
G01 X-50.4332 Y-81.5981
G01 X-50.3721 Y-81.5925
G01 X-50.3115 Y-81.5831
G01 X-50.2515 Y-81.5700
G01 X-50.1925 Y-81.5533
G01 X-50.1346 Y-81.5330
G01 X-50.0781 Y-81.5092
G01 X-50.0231 Y-81.4819
G01 X-49.9910 Y-81.4640
G01 X-49.9595 Y-81.4449
G01 X-49.9087 Y-81.4105
G01 X-49.8601 Y-81.3730
G01 X-49.8139 Y-81.3327
G01 X-49.7703 Y-81.2895
G01 X-49.7454 Y-81.2624
G01 X-49.7215 Y-81.2344
G01 X-49.6987 Y-81.2055
G01 X-49.6769 Y-81.1758
G01 X-49.6432 Y-81.1246
G01 X-49.6126 Y-81.0714
G01 X-49.5854 Y-81.0164
G01 X-49.5706 Y-80.9827
G01 X-49.5572 Y-80.9484
G01 X-49.5376 Y-80.8903
G01 X-49.5275 Y-80.8549
G01 X-49.5188 Y-80.8191
G01 X-49.5072 Y-80.7589
G01 X-49.5020 Y-80.7224
G01 X-49.4982 Y-80.6858
G01 X-49.4948 Y-80.6245
G01 X-49.4945 Y-53.7327
G01 X-22.4751 Y-53.7327
G01 X-22.4383 Y-53.7320
G01 X-22.3893 Y-53.7290
G01 X-22.3527 Y-53.7252
G01 X-22.3042 Y-53.7180
G01 X-22.2680 Y-53.7110
G01 X-22.2203 Y-53.6997
G01 X-22.1731 Y-53.6860
G01 X-22.1382 Y-53.6742
G01 X-22.1038 Y-53.6612
G01 X-22.0699 Y-53.6469
G01 X-22.0365 Y-53.6313
G01 X-22.0037 Y-53.6146
G01 X-21.9716 Y-53.5966
G01 X-21.9401 Y-53.5775
G01 X-21.9094 Y-53.5573
G01 X-21.8794 Y-53.5359
G01 X-21.8503 Y-53.5134
G01 X-21.8220 Y-53.4899
G01 X-21.7945 Y-53.4653
G01 X-21.7680 Y-53.4398
G01 X-21.7425 Y-53.4133
G01 X-21.7179 Y-53.3858
G01 X-21.6868 Y-53.3479
G01 X-21.6647 Y-53.3185
G01 X-21.6437 Y-53.2882
G01 X-21.6238 Y-53.2573
G01 X-21.6050 Y-53.2256
G01 X-21.5875 Y-53.1932
G01 X-21.5711 Y-53.1602
G01 X-21.5560 Y-53.1267
G01 X-21.5421 Y-53.0926
G01 X-21.5295 Y-53.0580
G01 X-21.5182 Y-53.0230
G01 X-21.5081 Y-52.9875
G01 X-21.4994 Y-52.9518
G01 X-21.4920 Y-52.9157
G01 X-21.4859 Y-52.8794
G01 X-21.4812 Y-52.8429
G01 X-21.4778 Y-52.8062
G01 X-21.4758 Y-52.7695
G01 X-21.4751 Y-52.7327
G01 X-21.4751 Y-36.2305
G01 X0.0123 Y-36.2304
G01 X0.0613 Y-36.2286
G01 X0.1102 Y-36.2244
G01 X0.1589 Y-36.2178
G01 X0.2071 Y-36.2088
G01 X0.2549 Y-36.1975
G01 X0.3020 Y-36.1838
G01 X0.3484 Y-36.1678
G01 X0.3940 Y-36.1496
G01 X0.4386 Y-36.1291
G01 X0.4822 Y-36.1065
G01 X0.5246 Y-36.0818
G01 X0.5657 Y-36.0551
G01 X0.6055 Y-36.0263
G01 X0.6438 Y-35.9956
G01 X0.6806 Y-35.9631
G01 X0.7157 Y-35.9289
G01 X0.7410 Y-35.9020
G01 X0.7730 Y-35.8649
G01 X0.8032 Y-35.8262
G01 X0.8315 Y-35.7860
G01 X0.8577 Y-35.7446
G01 X0.8819 Y-35.7019
G01 X0.9040 Y-35.6580
G01 X0.9239 Y-35.6132
G01 X0.9415 Y-35.5674
G01 X0.9569 Y-35.5208
G01 X0.9670 Y-35.4853
G01 X0.9783 Y-35.4376
G01 X0.9873 Y-35.3893
G01 X0.9939 Y-35.3407
G01 X0.9981 Y-35.2918
G01 X0.9999 Y-35.2427
G01 X1.0000 Y0.0000
G01 X0.9981 Y0.0613
G01 X0.9939 Y0.1102
G01 X0.9873 Y0.1589
G01 X0.9783 Y0.2071
G01 X0.9670 Y0.2549
G01 X0.9533 Y0.3020
G01 X0.9373 Y0.3484
G01 X0.9191 Y0.3940
G01 X0.8987 Y0.4386
G01 X0.8761 Y0.4822
G01 X0.8514 Y0.5246
G01 X0.8246 Y0.5657
G01 X0.7958 Y0.6055
G01 X0.7652 Y0.6438
G01 X0.7327 Y0.6806
G01 X0.6984 Y0.7157
G01 X0.6624 Y0.7491
G01 X0.6249 Y0.7807
G01 X0.5858 Y0.8105
G01 X0.5453 Y0.8382
G01 X0.5035 Y0.8640
G01 X0.4605 Y0.8876
G01 X0.4164 Y0.9092
G01 X0.3713 Y0.9285
G01 X0.3369 Y0.9415
G01 X0.2903 Y0.9569
G01 X0.2430 Y0.9700
G01 X0.1951 Y0.9808
G01 X0.1467 Y0.9892
G01 X0.0980 Y0.9952
G01 X0.0491 Y0.9988
G01 X0.0000 Y1.0000
G01 X-69.7086 Y1.0000
G01 X-69.7698 Y0.9981
G01 X-69.8186 Y0.9939
G01 X-69.8671 Y0.9874
G01 X-69.9152 Y0.9784
G01 X-69.9510 Y0.9702
G01 X-69.9982 Y0.9572
G01 X-70.0332 Y0.9459
G01 X-70.0791 Y0.9289
G01 X-70.1129 Y0.9146
G01 X-70.1462 Y0.8992
G01 X-70.1897 Y0.8767
G01 X-70.2320 Y0.8521
G01 X-70.2630 Y0.8323
G01 X-70.3030 Y0.8042
G01 X-70.3321 Y0.7818
G01 X-70.3697 Y0.7504
G01 X-70.3968 Y0.7256
G01 X-70.4315 Y0.6911
G01 X-70.4724 Y0.6456
G01 X-70.5030 Y0.6074
G01 X-70.5387 Y0.5577
G01 X-70.5713 Y0.5059
G01 X-70.5950 Y0.4630
G01 X-70.6216 Y0.4080
G01 X-70.6420 Y0.3590
G01 X-75.0335 Y-3.9569
G01 X-75.0791 Y-3.9874
G01 X-75.1278 Y-4.0243
G01 X-75.1651 Y-4.0559
G01 X-75.2094 Y-4.0979
G01 X-75.2430 Y-4.1334
G01 X-75.2748 Y-4.1705
G01 X-75.3048 Y-4.2091
G01 X-75.3328 Y-4.2492
G01 X-75.3589 Y-4.2905
G01 X-75.3829 Y-4.3331
G01 X-75.4048 Y-4.3768
G01 X-75.4245 Y-4.4215
G01 X-75.4420 Y-4.4671
G01 X-75.4573 Y-4.5136
G01 X-75.4703 Y-4.5607
G01 X-75.4809 Y-4.6084
G01 X-75.4893 Y-4.6565
G01 X-75.4952 Y-4.7051
G01 X-75.4988 Y-4.7538
G01 X-75.5000 Y-4.8027
G01 X-75.5000 Y-75.4059
G01 X-75.4993 Y-75.4429
G01 X-75.4973 Y-75.4798
G01 X-75.4908 Y-75.5411
G01 X-75.4806 Y-75.6018
G01 X-75.4667 Y-75.6618
G01 X-75.4491 Y-75.7209
G01 X-75.4279 Y-75.7787
G01 X-75.4032 Y-75.8351
G01 X-75.3751 Y-75.8899
G01 X-75.3436 Y-75.9429
G01 X-75.3089 Y-75.9938
G01 X-75.2712 Y-76.0425
G01 X-75.2305 Y-76.0888
G01 X-75.1871 Y-76.1325
G01 X-75.1410 Y-76.1734
G01 X-75.0926 Y-76.2114
G01 X-75.0624 Y-76.2328
G01 X-75.0397 Y-76.2478
G00 X-75.0397 Y-76.2478
G01 F70.00
G01 Z-1.2000
G01 F120.00
G01 X-70.1453 Y-81.2199
G01 X-70.1276 Y-81.2416
G01 X-70.1034 Y-81.2695
G01 X-70.0608 Y-81.3140
G01 X-70.0339 Y-81.3393
G01 X-70.0062 Y-81.3637
G01 X-69.9775 Y-81.3870
G01 X-69.9481 Y-81.4093
G01 X-69.8972 Y-81.4439
G01 X-69.8656 Y-81.4631
G01 X-69.8334 Y-81.4812
G01 X-69.8006 Y-81.4980
G01 X-69.7671 Y-81.5137
G01 X-69.7101 Y-81.5369
G01 X-69.6753 Y-81.5492
G01 X-69.6400 Y-81.5602
G01 X-69.6044 Y-81.5698
G01 X-69.5684 Y-81.5782
G01 X-69.5200 Y-81.5872
G01 X-69.4589 Y-81.5952
G01 X-69.4098 Y-81.5988
G01 X-69.3606 Y-81.6000
G01 X-50.4945 Y-81.6000
G01 X-50.4332 Y-81.5981
G01 X-50.3721 Y-81.5925
G01 X-50.3115 Y-81.5831
G01 X-50.2515 Y-81.5700
G01 X-50.1925 Y-81.5533
G01 X-50.1346 Y-81.5330
G01 X-50.0781 Y-81.5092
G01 X-50.0231 Y-81.4819
G01 X-49.9910 Y-81.4640
G01 X-49.9595 Y-81.4449
G01 X-49.9087 Y-81.4105
G01 X-49.8601 Y-81.3730
G01 X-49.8139 Y-81.3327
G01 X-49.7703 Y-81.2895
G01 X-49.7454 Y-81.2624
G01 X-49.7215 Y-81.2344
G01 X-49.6987 Y-81.2055
G01 X-49.6769 Y-81.1758
G01 X-49.6432 Y-81.1246
G01 X-49.6126 Y-81.0714
G01 X-49.5854 Y-81.0164
G01 X-49.5706 Y-80.9827
G01 X-49.5572 Y-80.9484
G01 X-49.5376 Y-80.8903
G01 X-49.5275 Y-80.8549
G01 X-49.5188 Y-80.8191
G01 X-49.5072 Y-80.7589
G01 X-49.5020 Y-80.7224
G01 X-49.4982 Y-80.6858
G01 X-49.4948 Y-80.6245
G01 X-49.4945 Y-53.7327
G01 X-22.4751 Y-53.7327
G01 X-22.4383 Y-53.7320
G01 X-22.3893 Y-53.7290
G01 X-22.3527 Y-53.7252
G01 X-22.3042 Y-53.7180
G01 X-22.2680 Y-53.7110
G01 X-22.2203 Y-53.6997
G01 X-22.1731 Y-53.6860
G01 X-22.1382 Y-53.6742
G01 X-22.1038 Y-53.6612
G01 X-22.0699 Y-53.6469
G01 X-22.0365 Y-53.6313
G01 X-22.0037 Y-53.6146
G01 X-21.9716 Y-53.5966
G01 X-21.9401 Y-53.5775
G01 X-21.9094 Y-53.5573
G01 X-21.8794 Y-53.5359
G01 X-21.8503 Y-53.5134
G01 X-21.8220 Y-53.4899
G01 X-21.7945 Y-53.4653
G01 X-21.7680 Y-53.4398
G01 X-21.7425 Y-53.4133
G01 X-21.7179 Y-53.3858
G01 X-21.6868 Y-53.3479
G01 X-21.6647 Y-53.3185
G01 X-21.6437 Y-53.2882
G01 X-21.6238 Y-53.2573
G01 X-21.6050 Y-53.2256
G01 X-21.5875 Y-53.1932
G01 X-21.5711 Y-53.1602
G01 X-21.5560 Y-53.1267
G01 X-21.5421 Y-53.0926
G01 X-21.5295 Y-53.0580
G01 X-21.5182 Y-53.0230
G01 X-21.5081 Y-52.9875
G01 X-21.4994 Y-52.9518
G01 X-21.4920 Y-52.9157
G01 X-21.4859 Y-52.8794
G01 X-21.4812 Y-52.8429
G01 X-21.4778 Y-52.8062
G01 X-21.4758 Y-52.7695
G01 X-21.4751 Y-52.7327
G01 X-21.4751 Y-36.2305
G01 X0.0123 Y-36.2304
G01 X0.0613 Y-36.2286
G01 X0.1102 Y-36.2244
G01 X0.1589 Y-36.2178
G01 X0.2071 Y-36.2088
G01 X0.2549 Y-36.1975
G01 X0.3020 Y-36.1838
G01 X0.3484 Y-36.1678
G01 X0.3940 Y-36.1496
G01 X0.4386 Y-36.1291
G01 X0.4822 Y-36.1065
G01 X0.5246 Y-36.0818
G01 X0.5657 Y-36.0551
G01 X0.6055 Y-36.0263
G01 X0.6438 Y-35.9956
G01 X0.6806 Y-35.9631
G01 X0.7157 Y-35.9289
G01 X0.7410 Y-35.9020
G01 X0.7730 Y-35.8649
G01 X0.8032 Y-35.8262
G01 X0.8315 Y-35.7860
G01 X0.8577 Y-35.7446
G01 X0.8819 Y-35.7019
G01 X0.9040 Y-35.6580
G01 X0.9239 Y-35.6132
G01 X0.9415 Y-35.5674
G01 X0.9569 Y-35.5208
G01 X0.9670 Y-35.4853
G01 X0.9783 Y-35.4376
G01 X0.9873 Y-35.3893
G01 X0.9939 Y-35.3407
G01 X0.9981 Y-35.2918
G01 X0.9999 Y-35.2427
G01 X1.0000 Y0.0000
G01 X0.9981 Y0.0613
G01 X0.9939 Y0.1102
G01 X0.9873 Y0.1589
G01 X0.9783 Y0.2071
G01 X0.9670 Y0.2549
G01 X0.9533 Y0.3020
G01 X0.9373 Y0.3484
G01 X0.9191 Y0.3940
G01 X0.8987 Y0.4386
G01 X0.8761 Y0.4822
G01 X0.8514 Y0.5246
G01 X0.8246 Y0.5657
G01 X0.7958 Y0.6055
G01 X0.7652 Y0.6438
G01 X0.7327 Y0.6806
G01 X0.6984 Y0.7157
G01 X0.6624 Y0.7491
G01 X0.6249 Y0.7807
G01 X0.5858 Y0.8105
G01 X0.5453 Y0.8382
G01 X0.5035 Y0.8640
G01 X0.4605 Y0.8876
G01 X0.4164 Y0.9092
G01 X0.3713 Y0.9285
G01 X0.3369 Y0.9415
G01 X0.2903 Y0.9569
G01 X0.2430 Y0.9700
G01 X0.1951 Y0.9808
G01 X0.1467 Y0.9892
G01 X0.0980 Y0.9952
G01 X0.0491 Y0.9988
G01 X0.0000 Y1.0000
G01 X-69.7086 Y1.0000
G01 X-69.7698 Y0.9981
G01 X-69.8186 Y0.9939
G01 X-69.8671 Y0.9874
G01 X-69.9152 Y0.9784
G01 X-69.9510 Y0.9702
G01 X-69.9982 Y0.9572
G01 X-70.0332 Y0.9459
G01 X-70.0791 Y0.9289
G01 X-70.1129 Y0.9146
G01 X-70.1462 Y0.8992
G01 X-70.1897 Y0.8767
G01 X-70.2320 Y0.8521
G01 X-70.2630 Y0.8323
G01 X-70.3030 Y0.8042
G01 X-70.3321 Y0.7818
G01 X-70.3697 Y0.7504
G01 X-70.3968 Y0.7256
G01 X-70.4315 Y0.6911
G01 X-70.4724 Y0.6456
G01 X-70.5030 Y0.6074
G01 X-70.5387 Y0.5577
G01 X-70.5713 Y0.5059
G01 X-70.5950 Y0.4630
G01 X-70.6216 Y0.4080
G01 X-70.6420 Y0.3590
G01 X-75.0335 Y-3.9569
G01 X-75.0791 Y-3.9874
G01 X-75.1278 Y-4.0243
G01 X-75.1651 Y-4.0559
G01 X-75.2094 Y-4.0979
G01 X-75.2430 Y-4.1334
G01 X-75.2748 Y-4.1705
G01 X-75.3048 Y-4.2091
G01 X-75.3328 Y-4.2492
G01 X-75.3589 Y-4.2905
G01 X-75.3829 Y-4.3331
G01 X-75.4048 Y-4.3768
G01 X-75.4245 Y-4.4215
G01 X-75.4420 Y-4.4671
G01 X-75.4573 Y-4.5136
G01 X-75.4703 Y-4.5607
G01 X-75.4809 Y-4.6084
G01 X-75.4893 Y-4.6565
G01 X-75.4952 Y-4.7051
G01 X-75.4988 Y-4.7538
G01 X-75.5000 Y-4.8027
G01 X-75.5000 Y-75.4059
G01 X-75.4993 Y-75.4429
G01 X-75.4973 Y-75.4798
G01 X-75.4908 Y-75.5411
G01 X-75.4806 Y-75.6018
G01 X-75.4667 Y-75.6618
G01 X-75.4491 Y-75.7209
G01 X-75.4279 Y-75.7787
G01 X-75.4032 Y-75.8351
G01 X-75.3751 Y-75.8899
G01 X-75.3436 Y-75.9429
G01 X-75.3089 Y-75.9938
G01 X-75.2712 Y-76.0425
G01 X-75.2305 Y-76.0888
G01 X-75.1871 Y-76.1325
G01 X-75.1410 Y-76.1734
G01 X-75.0926 Y-76.2114
G01 X-75.0624 Y-76.2328
G01 X-75.0397 Y-76.2478
G00 X-75.0397 Y-76.2478
G01 F70.00
G01 Z-1.3000
G01 F120.00
G01 X-70.1453 Y-81.2199
G01 X-70.1276 Y-81.2416
G01 X-70.1034 Y-81.2695
G01 X-70.0608 Y-81.3140
G01 X-70.0339 Y-81.3393
G01 X-70.0062 Y-81.3637
G01 X-69.9775 Y-81.3870
G01 X-69.9481 Y-81.4093
G01 X-69.8972 Y-81.4439
G01 X-69.8656 Y-81.4631
G01 X-69.8334 Y-81.4812
G01 X-69.8006 Y-81.4980
G01 X-69.7671 Y-81.5137
G01 X-69.7101 Y-81.5369
G01 X-69.6753 Y-81.5492
G01 X-69.6400 Y-81.5602
G01 X-69.6044 Y-81.5698
G01 X-69.5684 Y-81.5782
G01 X-69.5200 Y-81.5872
G01 X-69.4589 Y-81.5952
G01 X-69.4098 Y-81.5988
G01 X-69.3606 Y-81.6000
G01 X-50.4945 Y-81.6000
G01 X-50.4332 Y-81.5981
G01 X-50.3721 Y-81.5925
G01 X-50.3115 Y-81.5831
G01 X-50.2515 Y-81.5700
G01 X-50.1925 Y-81.5533
G01 X-50.1346 Y-81.5330
G01 X-50.0781 Y-81.5092
G01 X-50.0231 Y-81.4819
G01 X-49.9910 Y-81.4640
G01 X-49.9595 Y-81.4449
G01 X-49.9087 Y-81.4105
G01 X-49.8601 Y-81.3730
G01 X-49.8139 Y-81.3327
G01 X-49.7703 Y-81.2895
G01 X-49.7454 Y-81.2624
G01 X-49.7215 Y-81.2344
G01 X-49.6987 Y-81.2055
G01 X-49.6769 Y-81.1758
G01 X-49.6432 Y-81.1246
G01 X-49.6126 Y-81.0714
G01 X-49.5854 Y-81.0164
G01 X-49.5706 Y-80.9827
G01 X-49.5572 Y-80.9484
G01 X-49.5376 Y-80.8903
G01 X-49.5275 Y-80.8549
G01 X-49.5188 Y-80.8191
G01 X-49.5072 Y-80.7589
G01 X-49.5020 Y-80.7224
G01 X-49.4982 Y-80.6858
G01 X-49.4948 Y-80.6245
G01 X-49.4945 Y-53.7327
G01 X-22.4751 Y-53.7327
G01 X-22.4383 Y-53.7320
G01 X-22.3893 Y-53.7290
G01 X-22.3527 Y-53.7252
G01 X-22.3042 Y-53.7180
G01 X-22.2680 Y-53.7110
G01 X-22.2203 Y-53.6997
G01 X-22.1731 Y-53.6860
G01 X-22.1382 Y-53.6742
G01 X-22.1038 Y-53.6612
G01 X-22.0699 Y-53.6469
G01 X-22.0365 Y-53.6313
G01 X-22.0037 Y-53.6146
G01 X-21.9716 Y-53.5966
G01 X-21.9401 Y-53.5775
G01 X-21.9094 Y-53.5573
G01 X-21.8794 Y-53.5359
G01 X-21.8503 Y-53.5134
G01 X-21.8220 Y-53.4899
G01 X-21.7945 Y-53.4653
G01 X-21.7680 Y-53.4398
G01 X-21.7425 Y-53.4133
G01 X-21.7179 Y-53.3858
G01 X-21.6868 Y-53.3479
G01 X-21.6647 Y-53.3185
G01 X-21.6437 Y-53.2882
G01 X-21.6238 Y-53.2573
G01 X-21.6050 Y-53.2256
G01 X-21.5875 Y-53.1932
G01 X-21.5711 Y-53.1602
G01 X-21.5560 Y-53.1267
G01 X-21.5421 Y-53.0926
G01 X-21.5295 Y-53.0580
G01 X-21.5182 Y-53.0230
G01 X-21.5081 Y-52.9875
G01 X-21.4994 Y-52.9518
G01 X-21.4920 Y-52.9157
G01 X-21.4859 Y-52.8794
G01 X-21.4812 Y-52.8429
G01 X-21.4778 Y-52.8062
G01 X-21.4758 Y-52.7695
G01 X-21.4751 Y-52.7327
G01 X-21.4751 Y-36.2305
G01 X0.0123 Y-36.2304
G01 X0.0613 Y-36.2286
G01 X0.1102 Y-36.2244
G01 X0.1589 Y-36.2178
G01 X0.2071 Y-36.2088
G01 X0.2549 Y-36.1975
G01 X0.3020 Y-36.1838
G01 X0.3484 Y-36.1678
G01 X0.3940 Y-36.1496
G01 X0.4386 Y-36.1291
G01 X0.4822 Y-36.1065
G01 X0.5246 Y-36.0818
G01 X0.5657 Y-36.0551
G01 X0.6055 Y-36.0263
G01 X0.6438 Y-35.9956
G01 X0.6806 Y-35.9631
G01 X0.7157 Y-35.9289
G01 X0.7410 Y-35.9020
G01 X0.7730 Y-35.8649
G01 X0.8032 Y-35.8262
G01 X0.8315 Y-35.7860
G01 X0.8577 Y-35.7446
G01 X0.8819 Y-35.7019
G01 X0.9040 Y-35.6580
G01 X0.9239 Y-35.6132
G01 X0.9415 Y-35.5674
G01 X0.9569 Y-35.5208
G01 X0.9670 Y-35.4853
G01 X0.9783 Y-35.4376
G01 X0.9873 Y-35.3893
G01 X0.9939 Y-35.3407
G01 X0.9981 Y-35.2918
G01 X0.9999 Y-35.2427
G01 X1.0000 Y0.0000
G01 X0.9981 Y0.0613
G01 X0.9939 Y0.1102
G01 X0.9873 Y0.1589
G01 X0.9783 Y0.2071
G01 X0.9670 Y0.2549
G01 X0.9533 Y0.3020
G01 X0.9373 Y0.3484
G01 X0.9191 Y0.3940
G01 X0.8987 Y0.4386
G01 X0.8761 Y0.4822
G01 X0.8514 Y0.5246
G01 X0.8246 Y0.5657
G01 X0.7958 Y0.6055
G01 X0.7652 Y0.6438
G01 X0.7327 Y0.6806
G01 X0.6984 Y0.7157
G01 X0.6624 Y0.7491
G01 X0.6249 Y0.7807
G01 X0.5858 Y0.8105
G01 X0.5453 Y0.8382
G01 X0.5035 Y0.8640
G01 X0.4605 Y0.8876
G01 X0.4164 Y0.9092
G01 X0.3713 Y0.9285
G01 X0.3369 Y0.9415
G01 X0.2903 Y0.9569
G01 X0.2430 Y0.9700
G01 X0.1951 Y0.9808
G01 X0.1467 Y0.9892
G01 X0.0980 Y0.9952
G01 X0.0491 Y0.9988
G01 X0.0000 Y1.0000
G01 X-69.7086 Y1.0000
G01 X-69.7698 Y0.9981
G01 X-69.8186 Y0.9939
G01 X-69.8671 Y0.9874
G01 X-69.9152 Y0.9784
G01 X-69.9510 Y0.9702
G01 X-69.9982 Y0.9572
G01 X-70.0332 Y0.9459
G01 X-70.0791 Y0.9289
G01 X-70.1129 Y0.9146
G01 X-70.1462 Y0.8992
G01 X-70.1897 Y0.8767
G01 X-70.2320 Y0.8521
G01 X-70.2630 Y0.8323
G01 X-70.3030 Y0.8042
G01 X-70.3321 Y0.7818
G01 X-70.3697 Y0.7504
G01 X-70.3968 Y0.7256
G01 X-70.4315 Y0.6911
G01 X-70.4724 Y0.6456
G01 X-70.5030 Y0.6074
G01 X-70.5387 Y0.5577
G01 X-70.5713 Y0.5059
G01 X-70.5950 Y0.4630
G01 X-70.6216 Y0.4080
G01 X-70.6420 Y0.3590
G01 X-75.0335 Y-3.9569
G01 X-75.0791 Y-3.9874
G01 X-75.1278 Y-4.0243
G01 X-75.1651 Y-4.0559
G01 X-75.2094 Y-4.0979
G01 X-75.2430 Y-4.1334
G01 X-75.2748 Y-4.1705
G01 X-75.3048 Y-4.2091
G01 X-75.3328 Y-4.2492
G01 X-75.3589 Y-4.2905
G01 X-75.3829 Y-4.3331
G01 X-75.4048 Y-4.3768
G01 X-75.4245 Y-4.4215
G01 X-75.4420 Y-4.4671
G01 X-75.4573 Y-4.5136
G01 X-75.4703 Y-4.5607
G01 X-75.4809 Y-4.6084
G01 X-75.4893 Y-4.6565
G01 X-75.4952 Y-4.7051
G01 X-75.4988 Y-4.7538
G01 X-75.5000 Y-4.8027
G01 X-75.5000 Y-75.4059
G01 X-75.4993 Y-75.4429
G01 X-75.4973 Y-75.4798
G01 X-75.4908 Y-75.5411
G01 X-75.4806 Y-75.6018
G01 X-75.4667 Y-75.6618
G01 X-75.4491 Y-75.7209
G01 X-75.4279 Y-75.7787
G01 X-75.4032 Y-75.8351
G01 X-75.3751 Y-75.8899
G01 X-75.3436 Y-75.9429
G01 X-75.3089 Y-75.9938
G01 X-75.2712 Y-76.0425
G01 X-75.2305 Y-76.0888
G01 X-75.1871 Y-76.1325
G01 X-75.1410 Y-76.1734
G01 X-75.0926 Y-76.2114
G01 X-75.0624 Y-76.2328
G01 X-75.0397 Y-76.2478
G00 X-75.0397 Y-76.2478
G01 F70.00
G01 Z-1.4000
G01 F120.00
G01 X-70.1453 Y-81.2199
G01 X-70.1276 Y-81.2416
G01 X-70.1034 Y-81.2695
G01 X-70.0608 Y-81.3140
G01 X-70.0339 Y-81.3393
G01 X-70.0062 Y-81.3637
G01 X-69.9775 Y-81.3870
G01 X-69.9481 Y-81.4093
G01 X-69.8972 Y-81.4439
G01 X-69.8656 Y-81.4631
G01 X-69.8334 Y-81.4812
G01 X-69.8006 Y-81.4980
G01 X-69.7671 Y-81.5137
G01 X-69.7101 Y-81.5369
G01 X-69.6753 Y-81.5492
G01 X-69.6400 Y-81.5602
G01 X-69.6044 Y-81.5698
G01 X-69.5684 Y-81.5782
G01 X-69.5200 Y-81.5872
G01 X-69.4589 Y-81.5952
G01 X-69.4098 Y-81.5988
G01 X-69.3606 Y-81.6000
G01 X-50.4945 Y-81.6000
G01 X-50.4332 Y-81.5981
G01 X-50.3721 Y-81.5925
G01 X-50.3115 Y-81.5831
G01 X-50.2515 Y-81.5700
G01 X-50.1925 Y-81.5533
G01 X-50.1346 Y-81.5330
G01 X-50.0781 Y-81.5092
G01 X-50.0231 Y-81.4819
G01 X-49.9910 Y-81.4640
G01 X-49.9595 Y-81.4449
G01 X-49.9087 Y-81.4105
G01 X-49.8601 Y-81.3730
G01 X-49.8139 Y-81.3327
G01 X-49.7703 Y-81.2895
G01 X-49.7454 Y-81.2624
G01 X-49.7215 Y-81.2344
G01 X-49.6987 Y-81.2055
G01 X-49.6769 Y-81.1758
G01 X-49.6432 Y-81.1246
G01 X-49.6126 Y-81.0714
G01 X-49.5854 Y-81.0164
G01 X-49.5706 Y-80.9827
G01 X-49.5572 Y-80.9484
G01 X-49.5376 Y-80.8903
G01 X-49.5275 Y-80.8549
G01 X-49.5188 Y-80.8191
G01 X-49.5072 Y-80.7589
G01 X-49.5020 Y-80.7224
G01 X-49.4982 Y-80.6858
G01 X-49.4948 Y-80.6245
G01 X-49.4945 Y-53.7327
G01 X-22.4751 Y-53.7327
G01 X-22.4383 Y-53.7320
G01 X-22.3893 Y-53.7290
G01 X-22.3527 Y-53.7252
G01 X-22.3042 Y-53.7180
G01 X-22.2680 Y-53.7110
G01 X-22.2203 Y-53.6997
G01 X-22.1731 Y-53.6860
G01 X-22.1382 Y-53.6742
G01 X-22.1038 Y-53.6612
G01 X-22.0699 Y-53.6469
G01 X-22.0365 Y-53.6313
G01 X-22.0037 Y-53.6146
G01 X-21.9716 Y-53.5966
G01 X-21.9401 Y-53.5775
G01 X-21.9094 Y-53.5573
G01 X-21.8794 Y-53.5359
G01 X-21.8503 Y-53.5134
G01 X-21.8220 Y-53.4899
G01 X-21.7945 Y-53.4653
G01 X-21.7680 Y-53.4398
G01 X-21.7425 Y-53.4133
G01 X-21.7179 Y-53.3858
G01 X-21.6868 Y-53.3479
G01 X-21.6647 Y-53.3185
G01 X-21.6437 Y-53.2882
G01 X-21.6238 Y-53.2573
G01 X-21.6050 Y-53.2256
G01 X-21.5875 Y-53.1932
G01 X-21.5711 Y-53.1602
G01 X-21.5560 Y-53.1267
G01 X-21.5421 Y-53.0926
G01 X-21.5295 Y-53.0580
G01 X-21.5182 Y-53.0230
G01 X-21.5081 Y-52.9875
G01 X-21.4994 Y-52.9518
G01 X-21.4920 Y-52.9157
G01 X-21.4859 Y-52.8794
G01 X-21.4812 Y-52.8429
G01 X-21.4778 Y-52.8062
G01 X-21.4758 Y-52.7695
G01 X-21.4751 Y-52.7327
G01 X-21.4751 Y-36.2305
G01 X0.0123 Y-36.2304
G01 X0.0613 Y-36.2286
G01 X0.1102 Y-36.2244
G01 X0.1589 Y-36.2178
G01 X0.2071 Y-36.2088
G01 X0.2549 Y-36.1975
G01 X0.3020 Y-36.1838
G01 X0.3484 Y-36.1678
G01 X0.3940 Y-36.1496
G01 X0.4386 Y-36.1291
G01 X0.4822 Y-36.1065
G01 X0.5246 Y-36.0818
G01 X0.5657 Y-36.0551
G01 X0.6055 Y-36.0263
G01 X0.6438 Y-35.9956
G01 X0.6806 Y-35.9631
G01 X0.7157 Y-35.9289
G01 X0.7410 Y-35.9020
G01 X0.7730 Y-35.8649
G01 X0.8032 Y-35.8262
G01 X0.8315 Y-35.7860
G01 X0.8577 Y-35.7446
G01 X0.8819 Y-35.7019
G01 X0.9040 Y-35.6580
G01 X0.9239 Y-35.6132
G01 X0.9415 Y-35.5674
G01 X0.9569 Y-35.5208
G01 X0.9670 Y-35.4853
G01 X0.9783 Y-35.4376
G01 X0.9873 Y-35.3893
G01 X0.9939 Y-35.3407
G01 X0.9981 Y-35.2918
G01 X0.9999 Y-35.2427
G01 X1.0000 Y0.0000
G01 X0.9981 Y0.0613
G01 X0.9939 Y0.1102
G01 X0.9873 Y0.1589
G01 X0.9783 Y0.2071
G01 X0.9670 Y0.2549
G01 X0.9533 Y0.3020
G01 X0.9373 Y0.3484
G01 X0.9191 Y0.3940
G01 X0.8987 Y0.4386
G01 X0.8761 Y0.4822
G01 X0.8514 Y0.5246
G01 X0.8246 Y0.5657
G01 X0.7958 Y0.6055
G01 X0.7652 Y0.6438
G01 X0.7327 Y0.6806
G01 X0.6984 Y0.7157
G01 X0.6624 Y0.7491
G01 X0.6249 Y0.7807
G01 X0.5858 Y0.8105
G01 X0.5453 Y0.8382
G01 X0.5035 Y0.8640
G01 X0.4605 Y0.8876
G01 X0.4164 Y0.9092
G01 X0.3713 Y0.9285
G01 X0.3369 Y0.9415
G01 X0.2903 Y0.9569
G01 X0.2430 Y0.9700
G01 X0.1951 Y0.9808
G01 X0.1467 Y0.9892
G01 X0.0980 Y0.9952
G01 X0.0491 Y0.9988
G01 X0.0000 Y1.0000
G01 X-69.7086 Y1.0000
G01 X-69.7698 Y0.9981
G01 X-69.8186 Y0.9939
G01 X-69.8671 Y0.9874
G01 X-69.9152 Y0.9784
G01 X-69.9510 Y0.9702
G01 X-69.9982 Y0.9572
G01 X-70.0332 Y0.9459
G01 X-70.0791 Y0.9289
G01 X-70.1129 Y0.9146
G01 X-70.1462 Y0.8992
G01 X-70.1897 Y0.8767
G01 X-70.2320 Y0.8521
G01 X-70.2630 Y0.8323
G01 X-70.3030 Y0.8042
G01 X-70.3321 Y0.7818
G01 X-70.3697 Y0.7504
G01 X-70.3968 Y0.7256
G01 X-70.4315 Y0.6911
G01 X-70.4724 Y0.6456
G01 X-70.5030 Y0.6074
G01 X-70.5387 Y0.5577
G01 X-70.5713 Y0.5059
G01 X-70.5950 Y0.4630
G01 X-70.6216 Y0.4080
G01 X-70.6420 Y0.3590
G01 X-75.0335 Y-3.9569
G01 X-75.0791 Y-3.9874
G01 X-75.1278 Y-4.0243
G01 X-75.1651 Y-4.0559
G01 X-75.2094 Y-4.0979
G01 X-75.2430 Y-4.1334
G01 X-75.2748 Y-4.1705
G01 X-75.3048 Y-4.2091
G01 X-75.3328 Y-4.2492
G01 X-75.3589 Y-4.2905
G01 X-75.3829 Y-4.3331
G01 X-75.4048 Y-4.3768
G01 X-75.4245 Y-4.4215
G01 X-75.4420 Y-4.4671
G01 X-75.4573 Y-4.5136
G01 X-75.4703 Y-4.5607
G01 X-75.4809 Y-4.6084
G01 X-75.4893 Y-4.6565
G01 X-75.4952 Y-4.7051
G01 X-75.4988 Y-4.7538
G01 X-75.5000 Y-4.8027
G01 X-75.5000 Y-75.4059
G01 X-75.4993 Y-75.4429
G01 X-75.4973 Y-75.4798
G01 X-75.4908 Y-75.5411
G01 X-75.4806 Y-75.6018
G01 X-75.4667 Y-75.6618
G01 X-75.4491 Y-75.7209
G01 X-75.4279 Y-75.7787
G01 X-75.4032 Y-75.8351
G01 X-75.3751 Y-75.8899
G01 X-75.3436 Y-75.9429
G01 X-75.3089 Y-75.9938
G01 X-75.2712 Y-76.0425
G01 X-75.2305 Y-76.0888
G01 X-75.1871 Y-76.1325
G01 X-75.1410 Y-76.1734
G01 X-75.0926 Y-76.2114
G01 X-75.0624 Y-76.2328
G01 X-75.0397 Y-76.2478
G00 X-75.0397 Y-76.2478
G01 F70.00
G01 Z-1.5000
G01 F120.00
G01 X-70.1453 Y-81.2199
G01 X-70.1276 Y-81.2416
G01 X-70.1034 Y-81.2695
G01 X-70.0608 Y-81.3140
G01 X-70.0339 Y-81.3393
G01 X-70.0062 Y-81.3637
G01 X-69.9775 Y-81.3870
G01 X-69.9481 Y-81.4093
G01 X-69.8972 Y-81.4439
G01 X-69.8656 Y-81.4631
G01 X-69.8334 Y-81.4812
G01 X-69.8006 Y-81.4980
G01 X-69.7671 Y-81.5137
G01 X-69.7101 Y-81.5369
G01 X-69.6753 Y-81.5492
G01 X-69.6400 Y-81.5602
G01 X-69.6044 Y-81.5698
G01 X-69.5684 Y-81.5782
G01 X-69.5200 Y-81.5872
G01 X-69.4589 Y-81.5952
G01 X-69.4098 Y-81.5988
G01 X-69.3606 Y-81.6000
G01 X-50.4945 Y-81.6000
G01 X-50.4332 Y-81.5981
G01 X-50.3721 Y-81.5925
G01 X-50.3115 Y-81.5831
G01 X-50.2515 Y-81.5700
G01 X-50.1925 Y-81.5533
G01 X-50.1346 Y-81.5330
G01 X-50.0781 Y-81.5092
G01 X-50.0231 Y-81.4819
G01 X-49.9910 Y-81.4640
G01 X-49.9595 Y-81.4449
G01 X-49.9087 Y-81.4105
G01 X-49.8601 Y-81.3730
G01 X-49.8139 Y-81.3327
G01 X-49.7703 Y-81.2895
G01 X-49.7454 Y-81.2624
G01 X-49.7215 Y-81.2344
G01 X-49.6987 Y-81.2055
G01 X-49.6769 Y-81.1758
G01 X-49.6432 Y-81.1246
G01 X-49.6126 Y-81.0714
G01 X-49.5854 Y-81.0164
G01 X-49.5706 Y-80.9827
G01 X-49.5572 Y-80.9484
G01 X-49.5376 Y-80.8903
G01 X-49.5275 Y-80.8549
G01 X-49.5188 Y-80.8191
G01 X-49.5072 Y-80.7589
G01 X-49.5020 Y-80.7224
G01 X-49.4982 Y-80.6858
G01 X-49.4948 Y-80.6245
G01 X-49.4945 Y-53.7327
G01 X-22.4751 Y-53.7327
G01 X-22.4383 Y-53.7320
G01 X-22.3893 Y-53.7290
G01 X-22.3527 Y-53.7252
G01 X-22.3042 Y-53.7180
G01 X-22.2680 Y-53.7110
G01 X-22.2203 Y-53.6997
G01 X-22.1731 Y-53.6860
G01 X-22.1382 Y-53.6742
G01 X-22.1038 Y-53.6612
G01 X-22.0699 Y-53.6469
G01 X-22.0365 Y-53.6313
G01 X-22.0037 Y-53.6146
G01 X-21.9716 Y-53.5966
G01 X-21.9401 Y-53.5775
G01 X-21.9094 Y-53.5573
G01 X-21.8794 Y-53.5359
G01 X-21.8503 Y-53.5134
G01 X-21.8220 Y-53.4899
G01 X-21.7945 Y-53.4653
G01 X-21.7680 Y-53.4398
G01 X-21.7425 Y-53.4133
G01 X-21.7179 Y-53.3858
G01 X-21.6868 Y-53.3479
G01 X-21.6647 Y-53.3185
G01 X-21.6437 Y-53.2882
G01 X-21.6238 Y-53.2573
G01 X-21.6050 Y-53.2256
G01 X-21.5875 Y-53.1932
G01 X-21.5711 Y-53.1602
G01 X-21.5560 Y-53.1267
G01 X-21.5421 Y-53.0926
G01 X-21.5295 Y-53.0580
G01 X-21.5182 Y-53.0230
G01 X-21.5081 Y-52.9875
G01 X-21.4994 Y-52.9518
G01 X-21.4920 Y-52.9157
G01 X-21.4859 Y-52.8794
G01 X-21.4812 Y-52.8429
G01 X-21.4778 Y-52.8062
G01 X-21.4758 Y-52.7695
G01 X-21.4751 Y-52.7327
G01 X-21.4751 Y-36.2305
G01 X0.0123 Y-36.2304
G01 X0.0613 Y-36.2286
G01 X0.1102 Y-36.2244
G01 X0.1589 Y-36.2178
G01 X0.2071 Y-36.2088
G01 X0.2549 Y-36.1975
G01 X0.3020 Y-36.1838
G01 X0.3484 Y-36.1678
G01 X0.3940 Y-36.1496
G01 X0.4386 Y-36.1291
G01 X0.4822 Y-36.1065
G01 X0.5246 Y-36.0818
G01 X0.5657 Y-36.0551
G01 X0.6055 Y-36.0263
G01 X0.6438 Y-35.9956
G01 X0.6806 Y-35.9631
G01 X0.7157 Y-35.9289
G01 X0.7410 Y-35.9020
G01 X0.7730 Y-35.8649
G01 X0.8032 Y-35.8262
G01 X0.8315 Y-35.7860
G01 X0.8577 Y-35.7446
G01 X0.8819 Y-35.7019
G01 X0.9040 Y-35.6580
G01 X0.9239 Y-35.6132
G01 X0.9415 Y-35.5674
G01 X0.9569 Y-35.5208
G01 X0.9670 Y-35.4853
G01 X0.9783 Y-35.4376
G01 X0.9873 Y-35.3893
G01 X0.9939 Y-35.3407
G01 X0.9981 Y-35.2918
G01 X0.9999 Y-35.2427
G01 X1.0000 Y0.0000
G01 X0.9981 Y0.0613
G01 X0.9939 Y0.1102
G01 X0.9873 Y0.1589
G01 X0.9783 Y0.2071
G01 X0.9670 Y0.2549
G01 X0.9533 Y0.3020
G01 X0.9373 Y0.3484
G01 X0.9191 Y0.3940
G01 X0.8987 Y0.4386
G01 X0.8761 Y0.4822
G01 X0.8514 Y0.5246
G01 X0.8246 Y0.5657
G01 X0.7958 Y0.6055
G01 X0.7652 Y0.6438
G01 X0.7327 Y0.6806
G01 X0.6984 Y0.7157
G01 X0.6624 Y0.7491
G01 X0.6249 Y0.7807
G01 X0.5858 Y0.8105
G01 X0.5453 Y0.8382
G01 X0.5035 Y0.8640
G01 X0.4605 Y0.8876
G01 X0.4164 Y0.9092
G01 X0.3713 Y0.9285
G01 X0.3369 Y0.9415
G01 X0.2903 Y0.9569
G01 X0.2430 Y0.9700
G01 X0.1951 Y0.9808
G01 X0.1467 Y0.9892
G01 X0.0980 Y0.9952
G01 X0.0491 Y0.9988
G01 X0.0000 Y1.0000
G01 X-69.7086 Y1.0000
G01 X-69.7698 Y0.9981
G01 X-69.8186 Y0.9939
G01 X-69.8671 Y0.9874
G01 X-69.9152 Y0.9784
G01 X-69.9510 Y0.9702
G01 X-69.9982 Y0.9572
G01 X-70.0332 Y0.9459
G01 X-70.0791 Y0.9289
G01 X-70.1129 Y0.9146
G01 X-70.1462 Y0.8992
G01 X-70.1897 Y0.8767
G01 X-70.2320 Y0.8521
G01 X-70.2630 Y0.8323
G01 X-70.3030 Y0.8042
G01 X-70.3321 Y0.7818
G01 X-70.3697 Y0.7504
G01 X-70.3968 Y0.7256
G01 X-70.4315 Y0.6911
G01 X-70.4724 Y0.6456
G01 X-70.5030 Y0.6074
G01 X-70.5387 Y0.5577
G01 X-70.5713 Y0.5059
G01 X-70.5950 Y0.4630
G01 X-70.6216 Y0.4080
G01 X-70.6420 Y0.3590
G01 X-75.0335 Y-3.9569
G01 X-75.0791 Y-3.9874
G01 X-75.1278 Y-4.0243
G01 X-75.1651 Y-4.0559
G01 X-75.2094 Y-4.0979
G01 X-75.2430 Y-4.1334
G01 X-75.2748 Y-4.1705
G01 X-75.3048 Y-4.2091
G01 X-75.3328 Y-4.2492
G01 X-75.3589 Y-4.2905
G01 X-75.3829 Y-4.3331
G01 X-75.4048 Y-4.3768
G01 X-75.4245 Y-4.4215
G01 X-75.4420 Y-4.4671
G01 X-75.4573 Y-4.5136
G01 X-75.4703 Y-4.5607
G01 X-75.4809 Y-4.6084
G01 X-75.4893 Y-4.6565
G01 X-75.4952 Y-4.7051
G01 X-75.4988 Y-4.7538
G01 X-75.5000 Y-4.8027
G01 X-75.5000 Y-75.4059
G01 X-75.4993 Y-75.4429
G01 X-75.4973 Y-75.4798
G01 X-75.4908 Y-75.5411
G01 X-75.4806 Y-75.6018
G01 X-75.4667 Y-75.6618
G01 X-75.4491 Y-75.7209
G01 X-75.4279 Y-75.7787
G01 X-75.4032 Y-75.8351
G01 X-75.3751 Y-75.8899
G01 X-75.3436 Y-75.9429
G01 X-75.3089 Y-75.9938
G01 X-75.2712 Y-76.0425
G01 X-75.2305 Y-76.0888
G01 X-75.1871 Y-76.1325
G01 X-75.1410 Y-76.1734
G01 X-75.0926 Y-76.2114
G01 X-75.0624 Y-76.2328
G01 X-75.0397 Y-76.2478
G00 X-75.0397 Y-76.2478
G01 F70.00
G01 Z-1.6000
G01 F120.00
G01 X-70.1453 Y-81.2199
G01 X-70.1276 Y-81.2416
G01 X-70.1034 Y-81.2695
G01 X-70.0608 Y-81.3140
G01 X-70.0339 Y-81.3393
G01 X-70.0062 Y-81.3637
G01 X-69.9775 Y-81.3870
G01 X-69.9481 Y-81.4093
G01 X-69.8972 Y-81.4439
G01 X-69.8656 Y-81.4631
G01 X-69.8334 Y-81.4812
G01 X-69.8006 Y-81.4980
G01 X-69.7671 Y-81.5137
G01 X-69.7101 Y-81.5369
G01 X-69.6753 Y-81.5492
G01 X-69.6400 Y-81.5602
G01 X-69.6044 Y-81.5698
G01 X-69.5684 Y-81.5782
G01 X-69.5200 Y-81.5872
G01 X-69.4589 Y-81.5952
G01 X-69.4098 Y-81.5988
G01 X-69.3606 Y-81.6000
G01 X-50.4945 Y-81.6000
G01 X-50.4332 Y-81.5981
G01 X-50.3721 Y-81.5925
G01 X-50.3115 Y-81.5831
G01 X-50.2515 Y-81.5700
G01 X-50.1925 Y-81.5533
G01 X-50.1346 Y-81.5330
G01 X-50.0781 Y-81.5092
G01 X-50.0231 Y-81.4819
G01 X-49.9910 Y-81.4640
G01 X-49.9595 Y-81.4449
G01 X-49.9087 Y-81.4105
G01 X-49.8601 Y-81.3730
G01 X-49.8139 Y-81.3327
G01 X-49.7703 Y-81.2895
G01 X-49.7454 Y-81.2624
G01 X-49.7215 Y-81.2344
G01 X-49.6987 Y-81.2055
G01 X-49.6769 Y-81.1758
G01 X-49.6432 Y-81.1246
G01 X-49.6126 Y-81.0714
G01 X-49.5854 Y-81.0164
G01 X-49.5706 Y-80.9827
G01 X-49.5572 Y-80.9484
G01 X-49.5376 Y-80.8903
G01 X-49.5275 Y-80.8549
G01 X-49.5188 Y-80.8191
G01 X-49.5072 Y-80.7589
G01 X-49.5020 Y-80.7224
G01 X-49.4982 Y-80.6858
G01 X-49.4948 Y-80.6245
G01 X-49.4945 Y-53.7327
G01 X-22.4751 Y-53.7327
G01 X-22.4383 Y-53.7320
G01 X-22.3893 Y-53.7290
G01 X-22.3527 Y-53.7252
G01 X-22.3042 Y-53.7180
G01 X-22.2680 Y-53.7110
G01 X-22.2203 Y-53.6997
G01 X-22.1731 Y-53.6860
G01 X-22.1382 Y-53.6742
G01 X-22.1038 Y-53.6612
G01 X-22.0699 Y-53.6469
G01 X-22.0365 Y-53.6313
G01 X-22.0037 Y-53.6146
G01 X-21.9716 Y-53.5966
G01 X-21.9401 Y-53.5775
G01 X-21.9094 Y-53.5573
G01 X-21.8794 Y-53.5359
G01 X-21.8503 Y-53.5134
G01 X-21.8220 Y-53.4899
G01 X-21.7945 Y-53.4653
G01 X-21.7680 Y-53.4398
G01 X-21.7425 Y-53.4133
G01 X-21.7179 Y-53.3858
G01 X-21.6868 Y-53.3479
G01 X-21.6647 Y-53.3185
G01 X-21.6437 Y-53.2882
G01 X-21.6238 Y-53.2573
G01 X-21.6050 Y-53.2256
G01 X-21.5875 Y-53.1932
G01 X-21.5711 Y-53.1602
G01 X-21.5560 Y-53.1267
G01 X-21.5421 Y-53.0926
G01 X-21.5295 Y-53.0580
G01 X-21.5182 Y-53.0230
G01 X-21.5081 Y-52.9875
G01 X-21.4994 Y-52.9518
G01 X-21.4920 Y-52.9157
G01 X-21.4859 Y-52.8794
G01 X-21.4812 Y-52.8429
G01 X-21.4778 Y-52.8062
G01 X-21.4758 Y-52.7695
G01 X-21.4751 Y-52.7327
G01 X-21.4751 Y-36.2305
G01 X0.0123 Y-36.2304
G01 X0.0613 Y-36.2286
G01 X0.1102 Y-36.2244
G01 X0.1589 Y-36.2178
G01 X0.2071 Y-36.2088
G01 X0.2549 Y-36.1975
G01 X0.3020 Y-36.1838
G01 X0.3484 Y-36.1678
G01 X0.3940 Y-36.1496
G01 X0.4386 Y-36.1291
G01 X0.4822 Y-36.1065
G01 X0.5246 Y-36.0818
G01 X0.5657 Y-36.0551
G01 X0.6055 Y-36.0263
G01 X0.6438 Y-35.9956
G01 X0.6806 Y-35.9631
G01 X0.7157 Y-35.9289
G01 X0.7410 Y-35.9020
G01 X0.7730 Y-35.8649
G01 X0.8032 Y-35.8262
G01 X0.8315 Y-35.7860
G01 X0.8577 Y-35.7446
G01 X0.8819 Y-35.7019
G01 X0.9040 Y-35.6580
G01 X0.9239 Y-35.6132
G01 X0.9415 Y-35.5674
G01 X0.9569 Y-35.5208
G01 X0.9670 Y-35.4853
G01 X0.9783 Y-35.4376
G01 X0.9873 Y-35.3893
G01 X0.9939 Y-35.3407
G01 X0.9981 Y-35.2918
G01 X0.9999 Y-35.2427
G01 X1.0000 Y0.0000
G01 X0.9981 Y0.0613
G01 X0.9939 Y0.1102
G01 X0.9873 Y0.1589
G01 X0.9783 Y0.2071
G01 X0.9670 Y0.2549
G01 X0.9533 Y0.3020
G01 X0.9373 Y0.3484
G01 X0.9191 Y0.3940
G01 X0.8987 Y0.4386
G01 X0.8761 Y0.4822
G01 X0.8514 Y0.5246
G01 X0.8246 Y0.5657
G01 X0.7958 Y0.6055
G01 X0.7652 Y0.6438
G01 X0.7327 Y0.6806
G01 X0.6984 Y0.7157
G01 X0.6624 Y0.7491
G01 X0.6249 Y0.7807
G01 X0.5858 Y0.8105
G01 X0.5453 Y0.8382
G01 X0.5035 Y0.8640
G01 X0.4605 Y0.8876
G01 X0.4164 Y0.9092
G01 X0.3713 Y0.9285
G01 X0.3369 Y0.9415
G01 X0.2903 Y0.9569
G01 X0.2430 Y0.9700
G01 X0.1951 Y0.9808
G01 X0.1467 Y0.9892
G01 X0.0980 Y0.9952
G01 X0.0491 Y0.9988
G01 X0.0000 Y1.0000
G01 X-69.7086 Y1.0000
G01 X-69.7698 Y0.9981
G01 X-69.8186 Y0.9939
G01 X-69.8671 Y0.9874
G01 X-69.9152 Y0.9784
G01 X-69.9510 Y0.9702
G01 X-69.9982 Y0.9572
G01 X-70.0332 Y0.9459
G01 X-70.0791 Y0.9289
G01 X-70.1129 Y0.9146
G01 X-70.1462 Y0.8992
G01 X-70.1897 Y0.8767
G01 X-70.2320 Y0.8521
G01 X-70.2630 Y0.8323
G01 X-70.3030 Y0.8042
G01 X-70.3321 Y0.7818
G01 X-70.3697 Y0.7504
G01 X-70.3968 Y0.7256
G01 X-70.4315 Y0.6911
G01 X-70.4724 Y0.6456
G01 X-70.5030 Y0.6074
G01 X-70.5387 Y0.5577
G01 X-70.5713 Y0.5059
G01 X-70.5950 Y0.4630
G01 X-70.6216 Y0.4080
G01 X-70.6420 Y0.3590
G01 X-75.0335 Y-3.9569
G01 X-75.0791 Y-3.9874
G01 X-75.1278 Y-4.0243
G01 X-75.1651 Y-4.0559
G01 X-75.2094 Y-4.0979
G01 X-75.2430 Y-4.1334
G01 X-75.2748 Y-4.1705
G01 X-75.3048 Y-4.2091
G01 X-75.3328 Y-4.2492
G01 X-75.3589 Y-4.2905
G01 X-75.3829 Y-4.3331
G01 X-75.4048 Y-4.3768
G01 X-75.4245 Y-4.4215
G01 X-75.4420 Y-4.4671
G01 X-75.4573 Y-4.5136
G01 X-75.4703 Y-4.5607
G01 X-75.4809 Y-4.6084
G01 X-75.4893 Y-4.6565
G01 X-75.4952 Y-4.7051
G01 X-75.4988 Y-4.7538
G01 X-75.5000 Y-4.8027
G01 X-75.5000 Y-75.4059
G01 X-75.4993 Y-75.4429
G01 X-75.4973 Y-75.4798
G01 X-75.4908 Y-75.5411
G01 X-75.4806 Y-75.6018
G01 X-75.4667 Y-75.6618
G01 X-75.4491 Y-75.7209
G01 X-75.4279 Y-75.7787
G01 X-75.4032 Y-75.8351
G01 X-75.3751 Y-75.8899
G01 X-75.3436 Y-75.9429
G01 X-75.3089 Y-75.9938
G01 X-75.2712 Y-76.0425
G01 X-75.2305 Y-76.0888
G01 X-75.1871 Y-76.1325
G01 X-75.1410 Y-76.1734
G01 X-75.0926 Y-76.2114
G01 X-75.0624 Y-76.2328
G01 X-75.0397 Y-76.2478
G00 X-75.0397 Y-76.2478
G01 F70.00
G01 Z-1.7000
G01 F120.00
G01 X-70.1453 Y-81.2199
G01 X-70.1276 Y-81.2416
G01 X-70.1034 Y-81.2695
G01 X-70.0608 Y-81.3140
G01 X-70.0339 Y-81.3393
G01 X-70.0062 Y-81.3637
G01 X-69.9775 Y-81.3870
G01 X-69.9481 Y-81.4093
G01 X-69.8972 Y-81.4439
G01 X-69.8656 Y-81.4631
G01 X-69.8334 Y-81.4812
G01 X-69.8006 Y-81.4980
G01 X-69.7671 Y-81.5137
G01 X-69.7101 Y-81.5369
G01 X-69.6753 Y-81.5492
G01 X-69.6400 Y-81.5602
G01 X-69.6044 Y-81.5698
G01 X-69.5684 Y-81.5782
G01 X-69.5200 Y-81.5872
G01 X-69.4589 Y-81.5952
G01 X-69.4098 Y-81.5988
G01 X-69.3606 Y-81.6000
G01 X-50.4945 Y-81.6000
G01 X-50.4332 Y-81.5981
G01 X-50.3721 Y-81.5925
G01 X-50.3115 Y-81.5831
G01 X-50.2515 Y-81.5700
G01 X-50.1925 Y-81.5533
G01 X-50.1346 Y-81.5330
G01 X-50.0781 Y-81.5092
G01 X-50.0231 Y-81.4819
G01 X-49.9910 Y-81.4640
G01 X-49.9595 Y-81.4449
G01 X-49.9087 Y-81.4105
G01 X-49.8601 Y-81.3730
G01 X-49.8139 Y-81.3327
G01 X-49.7703 Y-81.2895
G01 X-49.7454 Y-81.2624
G01 X-49.7215 Y-81.2344
G01 X-49.6987 Y-81.2055
G01 X-49.6769 Y-81.1758
G01 X-49.6432 Y-81.1246
G01 X-49.6126 Y-81.0714
G01 X-49.5854 Y-81.0164
G01 X-49.5706 Y-80.9827
G01 X-49.5572 Y-80.9484
G01 X-49.5376 Y-80.8903
G01 X-49.5275 Y-80.8549
G01 X-49.5188 Y-80.8191
G01 X-49.5072 Y-80.7589
G01 X-49.5020 Y-80.7224
G01 X-49.4982 Y-80.6858
G01 X-49.4948 Y-80.6245
G01 X-49.4945 Y-53.7327
G01 X-22.4751 Y-53.7327
G01 X-22.4383 Y-53.7320
G01 X-22.3893 Y-53.7290
G01 X-22.3527 Y-53.7252
G01 X-22.3042 Y-53.7180
G01 X-22.2680 Y-53.7110
G01 X-22.2203 Y-53.6997
G01 X-22.1731 Y-53.6860
G01 X-22.1382 Y-53.6742
G01 X-22.1038 Y-53.6612
G01 X-22.0699 Y-53.6469
G01 X-22.0365 Y-53.6313
G01 X-22.0037 Y-53.6146
G01 X-21.9716 Y-53.5966
G01 X-21.9401 Y-53.5775
G01 X-21.9094 Y-53.5573
G01 X-21.8794 Y-53.5359
G01 X-21.8503 Y-53.5134
G01 X-21.8220 Y-53.4899
G01 X-21.7945 Y-53.4653
G01 X-21.7680 Y-53.4398
G01 X-21.7425 Y-53.4133
G01 X-21.7179 Y-53.3858
G01 X-21.6868 Y-53.3479
G01 X-21.6647 Y-53.3185
G01 X-21.6437 Y-53.2882
G01 X-21.6238 Y-53.2573
G01 X-21.6050 Y-53.2256
G01 X-21.5875 Y-53.1932
G01 X-21.5711 Y-53.1602
G01 X-21.5560 Y-53.1267
G01 X-21.5421 Y-53.0926
G01 X-21.5295 Y-53.0580
G01 X-21.5182 Y-53.0230
G01 X-21.5081 Y-52.9875
G01 X-21.4994 Y-52.9518
G01 X-21.4920 Y-52.9157
G01 X-21.4859 Y-52.8794
G01 X-21.4812 Y-52.8429
G01 X-21.4778 Y-52.8062
G01 X-21.4758 Y-52.7695
G01 X-21.4751 Y-52.7327
G01 X-21.4751 Y-36.2305
G01 X0.0123 Y-36.2304
G01 X0.0613 Y-36.2286
G01 X0.1102 Y-36.2244
G01 X0.1589 Y-36.2178
G01 X0.2071 Y-36.2088
G01 X0.2549 Y-36.1975
G01 X0.3020 Y-36.1838
G01 X0.3484 Y-36.1678
G01 X0.3940 Y-36.1496
G01 X0.4386 Y-36.1291
G01 X0.4822 Y-36.1065
G01 X0.5246 Y-36.0818
G01 X0.5657 Y-36.0551
G01 X0.6055 Y-36.0263
G01 X0.6438 Y-35.9956
G01 X0.6806 Y-35.9631
G01 X0.7157 Y-35.9289
G01 X0.7410 Y-35.9020
G01 X0.7730 Y-35.8649
G01 X0.8032 Y-35.8262
G01 X0.8315 Y-35.7860
G01 X0.8577 Y-35.7446
G01 X0.8819 Y-35.7019
G01 X0.9040 Y-35.6580
G01 X0.9239 Y-35.6132
G01 X0.9415 Y-35.5674
G01 X0.9569 Y-35.5208
G01 X0.9670 Y-35.4853
G01 X0.9783 Y-35.4376
G01 X0.9873 Y-35.3893
G01 X0.9939 Y-35.3407
G01 X0.9981 Y-35.2918
G01 X0.9999 Y-35.2427
G01 X1.0000 Y0.0000
G01 X0.9981 Y0.0613
G01 X0.9939 Y0.1102
G01 X0.9873 Y0.1589
G01 X0.9783 Y0.2071
G01 X0.9670 Y0.2549
G01 X0.9533 Y0.3020
G01 X0.9373 Y0.3484
G01 X0.9191 Y0.3940
G01 X0.8987 Y0.4386
G01 X0.8761 Y0.4822
G01 X0.8514 Y0.5246
G01 X0.8246 Y0.5657
G01 X0.7958 Y0.6055
G01 X0.7652 Y0.6438
G01 X0.7327 Y0.6806
G01 X0.6984 Y0.7157
G01 X0.6624 Y0.7491
G01 X0.6249 Y0.7807
G01 X0.5858 Y0.8105
G01 X0.5453 Y0.8382
G01 X0.5035 Y0.8640
G01 X0.4605 Y0.8876
G01 X0.4164 Y0.9092
G01 X0.3713 Y0.9285
G01 X0.3369 Y0.9415
G01 X0.2903 Y0.9569
G01 X0.2430 Y0.9700
G01 X0.1951 Y0.9808
G01 X0.1467 Y0.9892
G01 X0.0980 Y0.9952
G01 X0.0491 Y0.9988
G01 X0.0000 Y1.0000
G01 X-69.7086 Y1.0000
G01 X-69.7698 Y0.9981
G01 X-69.8186 Y0.9939
G01 X-69.8671 Y0.9874
G01 X-69.9152 Y0.9784
G01 X-69.9510 Y0.9702
G01 X-69.9982 Y0.9572
G01 X-70.0332 Y0.9459
G01 X-70.0791 Y0.9289
G01 X-70.1129 Y0.9146
G01 X-70.1462 Y0.8992
G01 X-70.1897 Y0.8767
G01 X-70.2320 Y0.8521
G01 X-70.2630 Y0.8323
G01 X-70.3030 Y0.8042
G01 X-70.3321 Y0.7818
G01 X-70.3697 Y0.7504
G01 X-70.3968 Y0.7256
G01 X-70.4315 Y0.6911
G01 X-70.4724 Y0.6456
G01 X-70.5030 Y0.6074
G01 X-70.5387 Y0.5577
G01 X-70.5713 Y0.5059
G01 X-70.5950 Y0.4630
G01 X-70.6216 Y0.4080
G01 X-70.6420 Y0.3590
G01 X-75.0335 Y-3.9569
G01 X-75.0791 Y-3.9874
G01 X-75.1278 Y-4.0243
G01 X-75.1651 Y-4.0559
G01 X-75.2094 Y-4.0979
G01 X-75.2430 Y-4.1334
G01 X-75.2748 Y-4.1705
G01 X-75.3048 Y-4.2091
G01 X-75.3328 Y-4.2492
G01 X-75.3589 Y-4.2905
G01 X-75.3829 Y-4.3331
G01 X-75.4048 Y-4.3768
G01 X-75.4245 Y-4.4215
G01 X-75.4420 Y-4.4671
G01 X-75.4573 Y-4.5136
G01 X-75.4703 Y-4.5607
G01 X-75.4809 Y-4.6084
G01 X-75.4893 Y-4.6565
G01 X-75.4952 Y-4.7051
G01 X-75.4988 Y-4.7538
G01 X-75.5000 Y-4.8027
G01 X-75.5000 Y-75.4059
G01 X-75.4993 Y-75.4429
G01 X-75.4973 Y-75.4798
G01 X-75.4908 Y-75.5411
G01 X-75.4806 Y-75.6018
G01 X-75.4667 Y-75.6618
G01 X-75.4491 Y-75.7209
G01 X-75.4279 Y-75.7787
G01 X-75.4032 Y-75.8351
G01 X-75.3751 Y-75.8899
G01 X-75.3436 Y-75.9429
G01 X-75.3089 Y-75.9938
G01 X-75.2712 Y-76.0425
G01 X-75.2305 Y-76.0888
G01 X-75.1871 Y-76.1325
G01 X-75.1410 Y-76.1734
G01 X-75.0926 Y-76.2114
G01 X-75.0624 Y-76.2328
G01 X-75.0397 Y-76.2478
G00 Z2.0000
M05
G00 Z2.0000
G00 Z25.00

