(G-CODE GENERATED BY FLATCAM v8.993 - www.flatcam.org - Version Date: 2020/06/05)

(Name: A1_RF_PA.drl_cnc)
(Type: G-code from Excellon)
(Units: MM)

(Created on Tuesday, 08 December 2020 at 22:11)

(This preprocessor is the default preprocessor used by FlatCAM.)
(It is made to work with MACH3 compatible motion controllers.)


(TOOLS DIAMETER: )
(Tool: 1 -> Dia: 0.5)
(Tool: 2 -> Dia: 0.6)
(Tool: 3 -> Dia: 0.8)
(Tool: 4 -> Dia: 0.9)
(Tool: 5 -> Dia: 2.0)
(Tool: 6 -> Dia: 3.0)

(FEEDRATE Z: )
(Tool: 1 -> Feedrate: 70.0)
(Tool: 2 -> Feedrate: 70.0)
(Tool: 3 -> Feedrate: 70.0)
(Tool: 4 -> Feedrate: 70.0)
(Tool: 5 -> Feedrate: 70.0)
(Tool: 6 -> Feedrate: 70.0)

(FEEDRATE RAPIDS: )
(Tool: 1 -> Feedrate Rapids: 1500)
(Tool: 2 -> Feedrate Rapids: 1500)
(Tool: 3 -> Feedrate Rapids: 1500)
(Tool: 4 -> Feedrate Rapids: 1500)
(Tool: 5 -> Feedrate Rapids: 1500)
(Tool: 6 -> Feedrate Rapids: 1500)

(Z_CUT: )
(Tool: 1 -> Z_Cut: -1.9)
(Tool: 2 -> Z_Cut: -1.9)
(Tool: 3 -> Z_Cut: -1.9)
(Tool: 4 -> Z_Cut: -1.9)
(Tool: 5 -> Z_Cut: -1.9)
(Tool: 6 -> Z_Cut: -1.9)

(Tools Offset: )
(Tool: 1 -> Offset Z: -0.0)
(Tool: 2 -> Offset Z: -0.0)
(Tool: 3 -> Offset Z: -0.0)
(Tool: 4 -> Offset Z: -0.0)
(Tool: 5 -> Offset Z: -0.0)
(Tool: 6 -> Offset Z: -0.0)

(Z_MOVE: )
(Tool: 1 -> Z_Move: 2.0)
(Tool: 2 -> Z_Move: 2.0)
(Tool: 3 -> Z_Move: 2.0)
(Tool: 4 -> Z_Move: 2.0)
(Tool: 5 -> Z_Move: 2.0)
(Tool: 6 -> Z_Move: 2.0)

(Z Toolchange: 30.0 mm)
(X,Y Toolchange: 0.00, 0.00 mm)
(Z Start: None mm)
(Z End: 2.0 mm)
(Steps per circle: 128)
(Preprocessor Excellon: default)

(X range:  -73.0000 ...   -1.7000  mm)
(Y range:  -77.3000 ...   -1.5200  mm)

(Spindle Speed: 10000.0 RPM)
G21
G90
G94



G01 F70.00

M5
G00 Z30.0000
T1
G00 X0.0000 Y0.0000                
M6
(MSG, Change to Tool Dia = 0.50 ||| Total drills for tool T1 = 24)
M0
G00 Z30.0000

M03 S10000
G00 X-21.3900 Y-23.4500
G01 Z-1.9000
G01 Z0
G00 Z2.0000
G00 X-23.9300 Y-23.4500
G01 Z-1.9000
G01 Z0
G00 Z2.0000
G00 X-26.4700 Y-23.4500
G01 Z-1.9000
G01 Z0
G00 Z2.0000
G00 X-57.7400 Y-33.2200
G01 Z-1.9000
G01 Z0
G00 Z2.0000
G00 X-57.7400 Y-38.3000
G01 Z-1.9000
G01 Z0
G00 Z2.0000
G00 X-57.7800 Y-44.4500
G01 Z-1.9000
G01 Z0
G00 Z2.0000
G00 X-57.7800 Y-49.5300
G01 Z-1.9000
G01 Z0
G00 Z2.0000
G00 X-62.8600 Y-49.5300
G01 Z-1.9000
G01 Z0
G00 Z2.0000
G00 X-62.8600 Y-44.4500
G01 Z-1.9000
G01 Z0
G00 Z2.0000
G00 X-62.8200 Y-38.3000
G01 Z-1.9000
G01 Z0
G00 Z2.0000
G00 X-62.8200 Y-33.2200
G01 Z-1.9000
G01 Z0
G00 Z2.0000
G00 X-65.2100 Y-16.0700
G01 Z-1.9000
G01 Z0
G00 Z2.0000
G00 X-70.2900 Y-16.0700
G01 Z-1.9000
G01 Z0
G00 Z2.0000
G00 X-70.2900 Y-10.9900
G01 Z-1.9000
G01 Z0
G00 Z2.0000
G00 X-65.2100 Y-10.9900
G01 Z-1.9000
G01 Z0
G00 Z2.0000
G00 X-44.7300 Y-8.0600
G01 Z-1.9000
G01 Z0
G00 Z2.0000
G00 X-42.1900 Y-8.0600
G01 Z-1.9000
G01 Z0
G00 Z2.0000
G00 X-39.6500 Y-8.0600
G01 Z-1.9000
G01 Z0
G00 Z2.0000
G00 X-44.7300 Y-13.1400
G01 Z-1.9000
G01 Z0
G00 Z2.0000
G00 X-42.1900 Y-13.1400
G01 Z-1.9000
G01 Z0
G00 Z2.0000
G00 X-39.6500 Y-13.1400
G01 Z-1.9000
G01 Z0
G00 Z2.0000
G00 X-26.4700 Y-18.3700
G01 Z-1.9000
G01 Z0
G00 Z2.0000
G00 X-23.9300 Y-18.3700
G01 Z-1.9000
G01 Z0
G00 Z2.0000
G00 X-21.3900 Y-18.3700
G01 Z-1.9000
G01 Z0
G00 Z2.0000
G01 F70.00

M5
G00 Z30.0000
T2
G00 X0.0000 Y0.0000                
M6
(MSG, Change to Tool Dia = 0.60 ||| Total drills for tool T2 = 53)
M0
G00 Z30.0000

M03 S10000
G00 X-24.4500 Y-50.4900
G01 Z-1.9000
G01 Z0
G00 Z2.0000
G00 X-24.4500 Y-42.3900
G01 Z-1.9000
G01 Z0
G00 Z2.0000
G00 X-23.9700 Y-25.5600
G01 Z-1.9000
G01 Z0
G00 Z2.0000
G00 X-15.5600 Y-23.4100
G01 Z-1.9000
G01 Z0
G00 Z2.0000
G00 X-6.6600 Y-22.2200
G01 Z-1.9000
G01 Z0
G00 Z2.0000
G00 X-8.2500 Y-12.0600
G01 Z-1.9000
G01 Z0
G00 Z2.0000
G00 X-6.1900 Y-10.0000
G01 Z-1.9000
G01 Z0
G00 Z2.0000
G00 X-5.4000 Y-7.3800
G01 Z-1.9000
G01 Z0
G00 Z2.0000
G00 X-2.0000 Y-2.0000
G01 Z-1.9000
G01 Z0
G00 Z2.0000
G00 X-8.7300 Y-5.1600
G01 Z-1.9000
G01 Z0
G00 Z2.0000
G00 X-12.5400 Y-6.4300
G01 Z-1.9000
G01 Z0
G00 Z2.0000
G00 X-15.7100 Y-5.7100
G01 Z-1.9000
G01 Z0
G00 Z2.0000
G00 X-18.7300 Y-3.8100
G01 Z-1.9000
G01 Z0
G00 Z2.0000
G00 X-18.7300 Y-5.7200
G01 Z-1.9000
G01 Z0
G00 Z2.0000
G00 X-18.7300 Y-7.6200
G01 Z-1.9000
G01 Z0
G00 Z2.0000
G00 X-21.6700 Y-5.7200
G01 Z-1.9000
G01 Z0
G00 Z2.0000
G00 X-28.1000 Y-6.0300
G01 Z-1.9000
G01 Z0
G00 Z2.0000
G00 X-33.4900 Y-3.0100
G01 Z-1.9000
G01 Z0
G00 Z2.0000
G00 X-38.1800 Y-1.8200
G01 Z-1.9000
G01 Z0
G00 Z2.0000
G00 X-45.4000 Y-3.8900
G01 Z-1.9000
G01 Z0
G00 Z2.0000
G00 X-49.1300 Y-4.2800
G01 Z-1.9000
G01 Z0
G00 Z2.0000
G00 X-70.0000 Y-2.0000
G01 Z-1.9000
G01 Z0
G00 Z2.0000
G00 X-70.3200 Y-8.7300
G01 Z-1.9000
G01 Z0
G00 Z2.0000
G00 X-72.7000 Y-38.8900
G01 Z-1.9000
G01 Z0
G00 Z2.0000
G00 X-63.0200 Y-41.2700
G01 Z-1.9000
G01 Z0
G00 Z2.0000
G00 X-58.0200 Y-55.4000
G01 Z-1.9000
G01 Z0
G00 Z2.0000
G00 X-62.3600 Y-55.2200
G01 Z-1.9000
G01 Z0
G00 Z2.0000
G00 X-62.3600 Y-57.7200
G01 Z-1.9000
G01 Z0
G00 Z2.0000
G00 X-62.3600 Y-60.2200
G01 Z-1.9000
G01 Z0
G00 Z2.0000
G00 X-72.2300 Y-72.3100
G01 Z-1.9000
G01 Z0
G00 Z2.0000
G00 X-58.0200 Y-59.7700
G01 Z-1.9000
G01 Z0
G00 Z2.0000
G00 X-53.3400 Y-59.7700
G01 Z-1.9000
G01 Z0
G00 Z2.0000
G00 X-53.3400 Y-57.5800
G01 Z-1.9000
G01 Z0
G00 Z2.0000
G00 X-53.3400 Y-55.4000
G01 Z-1.9000
G01 Z0
G00 Z2.0000
G00 X-53.9700 Y-41.9900
G01 Z-1.9000
G01 Z0
G00 Z2.0000
G00 X-57.3900 Y-29.8400
G01 Z-1.9000
G01 Z0
G00 Z2.0000
G00 X-60.2400 Y-23.6500
G01 Z-1.9000
G01 Z0
G00 Z2.0000
G00 X-58.8600 Y-18.8900
G01 Z-1.9000
G01 Z0
G00 Z2.0000
G00 X-61.3600 Y-18.8900
G01 Z-1.9000
G01 Z0
G00 Z2.0000
G00 X-62.5400 Y-16.1900
G01 Z-1.9000
G01 Z0
G00 Z2.0000
G00 X-56.1200 Y-15.7900
G01 Z-1.9000
G01 Z0
G00 Z2.0000
G00 X-56.3600 Y-18.8900
G01 Z-1.9000
G01 Z0
G00 Z2.0000
G00 X-57.7400 Y-23.6500
G01 Z-1.9000
G01 Z0
G00 Z2.0000
G00 X-55.2400 Y-23.6500
G01 Z-1.9000
G01 Z0
G00 Z2.0000
G00 X-48.2600 Y-20.5600
G01 Z-1.9000
G01 Z0
G00 Z2.0000
G00 X-47.9400 Y-16.5900
G01 Z-1.9000
G01 Z0
G00 Z2.0000
G00 X-44.6100 Y-18.1000
G01 Z-1.9000
G01 Z0
G00 Z2.0000
G00 X-39.5300 Y-18.2500
G01 Z-1.9000
G01 Z0
G00 Z2.0000
G00 X-28.8400 Y-14.8400
G01 Z-1.9000
G01 Z0
G00 Z2.0000
G00 X-28.8100 Y-18.8100
G01 Z-1.9000
G01 Z0
G00 Z2.0000
G00 X-35.4000 Y-30.1600
G01 Z-1.9000
G01 Z0
G00 Z2.0000
G00 X-39.1300 Y-35.4000
G01 Z-1.9000
G01 Z0
G00 Z2.0000
G00 X-36.6700 Y-37.4600
G01 Z-1.9000
G01 Z0
G00 Z2.0000
G01 F70.00

M5
G00 Z30.0000
T3
G00 X0.0000 Y0.0000                
M6
(MSG, Change to Tool Dia = 0.80 ||| Total drills for tool T3 = 28)
M0
G00 Z30.0000

M03 S10000
G00 X-36.2000 Y-49.0500
G01 Z-1.9000
G01 Z0
G00 Z2.0000
G00 X-33.0300 Y-40.3000
G01 Z-1.9000
G01 Z0
G00 Z2.0000
G00 X-28.0300 Y-40.3000
G01 Z-1.9000
G01 Z0
G00 Z2.0000
G00 X-27.0700 Y-31.2400
G01 Z-1.9000
G01 Z0
G00 Z2.0000
G00 X-24.5300 Y-31.2400
G01 Z-1.9000
G01 Z0
G00 Z2.0000
G00 X-10.4000 Y-32.1500
G01 Z-1.9000
G01 Z0
G00 Z2.0000
G00 X-4.8500 Y-32.4300
G01 Z-1.9000
G01 Z0
G00 Z2.0000
G00 X-2.3100 Y-32.4300
G01 Z-1.9000
G01 Z0
G00 Z2.0000
G00 X-3.2500 Y-23.7300
G01 Z-1.9000
G01 Z0
G00 Z2.0000
G00 X-3.3900 Y-19.7400
G01 Z-1.9000
G01 Z0
G00 Z2.0000
G00 X-3.3900 Y-4.7000
G01 Z-1.9000
G01 Z0
G00 Z2.0000
G00 X-24.6800 Y-5.2600
G01 Z-1.9000
G01 Z0
G00 Z2.0000
G00 X-24.6800 Y-13.0200
G01 Z-1.9000
G01 Z0
G00 Z2.0000
G00 X-48.3400 Y-10.2400
G01 Z-1.9000
G01 Z0
G00 Z2.0000
G00 X-52.0600 Y-9.6200
G01 Z-1.9000
G01 Z0
G00 Z2.0000
G00 X-52.0600 Y-17.3700
G01 Z-1.9000
G01 Z0
G00 Z2.0000
G00 X-48.3400 Y-25.2800
G01 Z-1.9000
G01 Z0
G00 Z2.0000
G00 X-50.0100 Y-33.2600
G01 Z-1.9000
G01 Z0
G00 Z2.0000
G00 X-52.5500 Y-33.2600
G01 Z-1.9000
G01 Z0
G00 Z2.0000
G00 X-52.5500 Y-35.8000
G01 Z-1.9000
G01 Z0
G00 Z2.0000
G00 X-50.0100 Y-35.8000
G01 Z-1.9000
G01 Z0
G00 Z2.0000
G00 X-42.6100 Y-38.4000
G01 Z-1.9000
G01 Z0
G00 Z2.0000
G00 X-46.1500 Y-41.9400
G01 Z-1.9000
G01 Z0
G00 Z2.0000
G00 X-66.4200 Y-55.7400
G01 Z-1.9000
G01 Z0
G00 Z2.0000
G00 X-71.9900 Y-59.2900
G01 Z-1.9000
G01 Z0
G00 Z2.0000
G00 X-66.4200 Y-63.4900
G01 Z-1.9000
G01 Z0
G00 Z2.0000
G00 X-59.6900 Y-76.8400
G01 Z-1.9000
G01 Z0
G00 Z2.0000
G00 X-53.3400 Y-65.3300
G01 Z-1.9000
G01 Z0
G00 Z2.0000
G01 F70.00

M5
G00 Z30.0000
T4
G00 X0.0000 Y0.0000                
M6
(MSG, Change to Tool Dia = 0.90 ||| Total drills for tool T4 = 6)
M0
G00 Z30.0000

M03 S10000
G00 X-70.7400 Y-54.9900
G01 Z-1.9000
G01 Z0
G00 Z2.0000
G00 X-70.7400 Y-52.4500
G01 Z-1.9000
G01 Z0
G00 Z2.0000
G00 X-70.7400 Y-49.9100
G01 Z-1.9000
G01 Z0
G00 Z2.0000
G00 X-70.7400 Y-30.8600
G01 Z-1.9000
G01 Z0
G00 Z2.0000
G00 X-70.7400 Y-28.3200
G01 Z-1.9000
G01 Z0
G00 Z2.0000
G00 X-70.7400 Y-25.7800
G01 Z-1.9000
G01 Z0
G00 Z2.0000
G01 F70.00

M5
G00 Z30.0000
T5
G00 X0.0000 Y0.0000                
M6
(MSG, Change to Tool Dia = 2.00 ||| Total drills for tool T5 = 4)
M0
G00 Z30.0000

M03 S10000
G00 X-15.0800 Y-32.1100
G01 Z-1.9000
G01 Z0
G00 Z2.0000
G00 X-4.9200 Y-27.3400
G01 Z-1.9000
G01 Z0
G00 Z2.0000
G00 X-37.4600 Y-41.9500
G01 Z-1.9000
G01 Z0
G00 Z2.0000
G00 X-55.0900 Y-69.2500
G01 Z-1.9000
G01 Z0
G00 Z2.0000
G01 F70.00

M5
G00 Z30.0000
T6
G00 X0.0000 Y0.0000                
M6
(MSG, Change to Tool Dia = 3.00 ||| Total drills for tool T6 = 2)
M0
G00 Z30.0000

M03 S10000
G00 X-66.3600 Y-75.8000
G01 Z-1.9000
G01 Z0
G00 Z2.0000
G00 X-66.3600 Y-4.4800
G01 Z-1.9000
G01 Z0
G00 Z2.0000
M05
G00 Z2.00
G00 X0.0 Y0.0

