(G-CODE GENERATED BY FLATCAM v8.993 - www.flatcam.org - Version Date: 2020/06/05)

(Name: A1_RF_PA.drl_cnc)
(Type: G-code from Excellon)
(Units: MM)

(Created on Tuesday, 17 November 2020 at 22:13)

(This preprocessor is the default preprocessor used by FlatCAM.)
(It is made to work with MACH3 compatible motion controllers.)


(TOOLS DIAMETER: )
(Tool: 1 -> Dia: 0.5)
(Tool: 2 -> Dia: 0.6)
(Tool: 3 -> Dia: 0.8)
(Tool: 4 -> Dia: 0.9)
(Tool: 5 -> Dia: 1.5)
(Tool: 6 -> Dia: 3.0)

(FEEDRATE Z: )
(Tool: 1 -> Feedrate: 70.0)
(Tool: 2 -> Feedrate: 70.0)
(Tool: 3 -> Feedrate: 70.0)
(Tool: 4 -> Feedrate: 70.0)
(Tool: 5 -> Feedrate: 70.0)
(Tool: 6 -> Feedrate: 70.0)

(FEEDRATE RAPIDS: )
(Tool: 1 -> Feedrate Rapids: 1500)
(Tool: 2 -> Feedrate Rapids: 1500)
(Tool: 3 -> Feedrate Rapids: 1500)
(Tool: 4 -> Feedrate Rapids: 1500)
(Tool: 5 -> Feedrate Rapids: 1500)
(Tool: 6 -> Feedrate Rapids: 1500)

(Z_CUT: )
(Tool: 1 -> Z_Cut: -1.9000000000000001)
(Tool: 2 -> Z_Cut: -1.9000000000000001)
(Tool: 3 -> Z_Cut: -1.9000000000000001)
(Tool: 4 -> Z_Cut: -1.9000000000000001)
(Tool: 5 -> Z_Cut: -1.9000000000000001)
(Tool: 6 -> Z_Cut: -1.9000000000000001)

(Tools Offset: )
(Tool: 1 -> Offset Z: -0.0)
(Tool: 2 -> Offset Z: -0.0)
(Tool: 3 -> Offset Z: -0.0)
(Tool: 4 -> Offset Z: -0.0)
(Tool: 5 -> Offset Z: -0.0)
(Tool: 6 -> Offset Z: -0.0)

(Z_MOVE: )
(Tool: 1 -> Z_Move: 2)
(Tool: 2 -> Z_Move: 2)
(Tool: 3 -> Z_Move: 2)
(Tool: 4 -> Z_Move: 2)
(Tool: 5 -> Z_Move: 2)
(Tool: 6 -> Z_Move: 2)

(Z Toolchange: 25.0 mm)
(X,Y Toolchange: 0.00, 0.00 mm)
(Z Start: None mm)
(Z End: 2.0 mm)
(Steps per circle: 128)
(Preprocessor Excellon: default)

(X range:    2.7500 ...   72.8600  mm)
(Y range:  -60.6000 ...   -2.5500  mm)

(Spindle Speed: 10000.0 RPM)
G21
G90
G94



G01 F70.00

M5
G00 Z25.0000
T1
G00 X0.0000 Y0.0000                
M6
(MSG, Change to Tool Dia = 0.50 ||| Total drills for tool T1 = 10)
M0
G00 Z25.0000

M03 S10000
G00 X23.0600 Y-40.9600
G01 Z-1.9000
G01 Z0
G00 Z2.0000
G00 X23.0600 Y-35.8800
G01 Z-1.9000
G01 Z0
G00 Z2.0000
G00 X28.1400 Y-35.8800
G01 Z-1.9000
G01 Z0
G00 Z2.0000
G00 X40.2800 Y-35.8400
G01 Z-1.9000
G01 Z0
G00 Z2.0000
G00 X42.8200 Y-35.8400
G01 Z-1.9000
G01 Z0
G00 Z2.0000
G00 X45.3600 Y-35.8400
G01 Z-1.9000
G01 Z0
G00 Z2.0000
G00 X45.3600 Y-40.9200
G01 Z-1.9000
G01 Z0
G00 Z2.0000
G00 X42.8200 Y-40.9200
G01 Z-1.9000
G01 Z0
G00 Z2.0000
G00 X40.2800 Y-40.9200
G01 Z-1.9000
G01 Z0
G00 Z2.0000
G00 X28.1400 Y-40.9600
G01 Z-1.9000
G01 Z0
G00 Z2.0000
G01 F70.00

M5
G00 Z25.0000
T2
G00 X0.0000 Y0.0000                
M6
(MSG, Change to Tool Dia = 0.60 ||| Total drills for tool T2 = 57)
M0
G00 Z25.0000

M03 S10000
G00 X3.1400 Y-51.8700
G01 Z-1.9000
G01 Z0
G00 Z2.0000
G00 X5.3200 Y-51.8700
G01 Z-1.9000
G01 Z0
G00 Z2.0000
G00 X7.5000 Y-51.8700
G01 Z-1.9000
G01 Z0
G00 Z2.0000
G00 X7.5000 Y-47.1900
G01 Z-1.9000
G01 Z0
G00 Z2.0000
G00 X13.9300 Y-47.1900
G01 Z-1.9000
G01 Z0
G00 Z2.0000
G00 X13.9300 Y-51.8700
G01 Z-1.9000
G01 Z0
G00 Z2.0000
G00 X16.1100 Y-51.8700
G01 Z-1.9000
G01 Z0
G00 Z2.0000
G00 X16.2700 Y-55.2100
G01 Z-1.9000
G01 Z0
G00 Z2.0000
G00 X18.2900 Y-51.8700
G01 Z-1.9000
G01 Z0
G00 Z2.0000
G00 X18.2900 Y-47.1900
G01 Z-1.9000
G01 Z0
G00 Z2.0000
G00 X22.9800 Y-44.8900
G01 Z-1.9000
G01 Z0
G00 Z2.0000
G00 X32.7800 Y-45.2800
G01 Z-1.9000
G01 Z0
G00 Z2.0000
G00 X35.9200 Y-43.1000
G01 Z-1.9000
G01 Z0
G00 Z2.0000
G00 X45.4000 Y-43.9300
G01 Z-1.9000
G01 Z0
G00 Z2.0000
G00 X45.4000 Y-46.1200
G01 Z-1.9000
G01 Z0
G00 Z2.0000
G00 X45.4000 Y-48.3000
G01 Z-1.9000
G01 Z0
G00 Z2.0000
G00 X50.0900 Y-48.3000
G01 Z-1.9000
G01 Z0
G00 Z2.0000
G00 X50.0900 Y-43.9300
G01 Z-1.9000
G01 Z0
G00 Z2.0000
G00 X56.2000 Y-47.0300
G01 Z-1.9000
G01 Z0
G00 Z2.0000
G00 X64.3700 Y-35.4000
G01 Z-1.9000
G01 Z0
G00 Z2.0000
G00 X61.9900 Y-32.9400
G01 Z-1.9000
G01 Z0
G00 Z2.0000
G00 X64.3700 Y-32.8600
G01 Z-1.9000
G01 Z0
G00 Z2.0000
G00 X64.3700 Y-30.3200
G01 Z-1.9000
G01 Z0
G00 Z2.0000
G00 X61.7500 Y-24.6900
G01 Z-1.9000
G01 Z0
G00 Z2.0000
G00 X61.7500 Y-22.1500
G01 Z-1.9000
G01 Z0
G00 Z2.0000
G00 X61.7500 Y-19.6100
G01 Z-1.9000
G01 Z0
G00 Z2.0000
G00 X61.7500 Y-17.0700
G01 Z-1.9000
G01 Z0
G00 Z2.0000
G00 X61.7500 Y-14.5300
G01 Z-1.9000
G01 Z0
G00 Z2.0000
G00 X61.7500 Y-11.9900
G01 Z-1.9000
G01 Z0
G00 Z2.0000
G00 X61.7500 Y-9.4500
G01 Z-1.9000
G01 Z0
G00 Z2.0000
G00 X68.7800 Y-4.3700
G01 Z-1.9000
G01 Z0
G00 Z2.0000
G00 X61.7500 Y-4.3700
G01 Z-1.9000
G01 Z0
G00 Z2.0000
G00 X61.7500 Y-6.9100
G01 Z-1.9000
G01 Z0
G00 Z2.0000
G00 X48.5800 Y-12.7800
G01 Z-1.9000
G01 Z0
G00 Z2.0000
G00 X53.7000 Y-15.1600
G01 Z-1.9000
G01 Z0
G00 Z2.0000
G00 X53.7000 Y-20.2400
G01 Z-1.9000
G01 Z0
G00 Z2.0000
G00 X54.0500 Y-29.9200
G01 Z-1.9000
G01 Z0
G00 Z2.0000
G00 X45.3600 Y-32.7400
G01 Z-1.9000
G01 Z0
G00 Z2.0000
G00 X35.9200 Y-33.5000
G01 Z-1.9000
G01 Z0
G00 Z2.0000
G00 X37.6600 Y-38.6200
G01 Z-1.9000
G01 Z0
G00 Z2.0000
G00 X31.1500 Y-40.4800
G01 Z-1.9000
G01 Z0
G00 Z2.0000
G00 X32.7800 Y-38.5400
G01 Z-1.9000
G01 Z0
G00 Z2.0000
G00 X31.1500 Y-35.3600
G01 Z-1.9000
G01 Z0
G00 Z2.0000
G00 X32.7800 Y-33.1000
G01 Z-1.9000
G01 Z0
G00 Z2.0000
G00 X29.8100 Y-26.1100
G01 Z-1.9000
G01 Z0
G00 Z2.0000
G00 X23.0200 Y-26.7500
G01 Z-1.9000
G01 Z0
G00 Z2.0000
G00 X12.9800 Y-7.5800
G01 Z-1.9000
G01 Z0
G00 Z2.0000
G00 X12.9800 Y-30.2800
G01 Z-1.9000
G01 Z0
G00 Z2.0000
G00 X18.6100 Y-36.3900
G01 Z-1.9000
G01 Z0
G00 Z2.0000
G00 X18.6100 Y-40.7600
G01 Z-1.9000
G01 Z0
G00 Z2.0000
G00 X13.9300 Y-40.7600
G01 Z-1.9000
G01 Z0
G00 Z2.0000
G00 X13.9300 Y-38.5800
G01 Z-1.9000
G01 Z0
G00 Z2.0000
G00 X13.9300 Y-36.3900
G01 Z-1.9000
G01 Z0
G00 Z2.0000
G00 X10.6400 Y-38.6600
G01 Z-1.9000
G01 Z0
G00 Z2.0000
G00 X3.1400 Y-36.5100
G01 Z-1.9000
G01 Z0
G00 Z2.0000
G00 X3.1400 Y-41.5900
G01 Z-1.9000
G01 Z0
G00 Z2.0000
G00 X3.1400 Y-47.1900
G01 Z-1.9000
G01 Z0
G00 Z2.0000
G01 F70.00

M5
G00 Z25.0000
T3
G00 X0.0000 Y0.0000                
M6
(MSG, Change to Tool Dia = 0.80 ||| Total drills for tool T3 = 6)
M0
G00 Z25.0000

M03 S10000
G00 X45.9500 Y-59.7000
G01 Z-1.9000
G01 Z0
G00 Z2.0000
G00 X48.4900 Y-59.7000
G01 Z-1.9000
G01 Z0
G00 Z2.0000
G00 X69.9200 Y-59.6200
G01 Z-1.9000
G01 Z0
G00 Z2.0000
G00 X72.4600 Y-59.6200
G01 Z-1.9000
G01 Z0
G00 Z2.0000
G00 X57.3500 Y-25.3600
G01 Z-1.9000
G01 Z0
G00 Z2.0000
G00 X57.3500 Y-10.1200
G01 Z-1.9000
G01 Z0
G00 Z2.0000
G01 F70.00

M5
G00 Z25.0000
T4
G00 X0.0000 Y0.0000                
M6
(MSG, Change to Tool Dia = 0.90 ||| Total drills for tool T4 = 3)
M0
G00 Z25.0000

M03 S10000
G00 X23.2800 Y-21.8200
G01 Z-1.9000
G01 Z0
G00 Z2.0000
G00 X23.2800 Y-19.2800
G01 Z-1.9000
G01 Z0
G00 Z2.0000
G00 X23.2800 Y-16.7400
G01 Z-1.9000
G01 Z0
G00 Z2.0000
G01 F70.00

M5
G00 Z25.0000
T5
G00 X0.0000 Y0.0000                
M6
(MSG, Change to Tool Dia = 1.50 ||| Total drills for tool T5 = 6)
M0
G00 Z25.0000

M03 S10000
G00 X7.4600 Y-41.0000
G01 Z-1.9000
G01 Z0
G00 Z2.0000
G00 X35.6800 Y-59.8500
G01 Z-1.9000
G01 Z0
G00 Z2.0000
G00 X40.8400 Y-59.8500
G01 Z-1.9000
G01 Z0
G00 Z2.0000
G00 X46.0000 Y-52.4700
G01 Z-1.9000
G01 Z0
G00 Z2.0000
G00 X48.5400 Y-8.4100
G01 Z-1.9000
G01 Z0
G00 Z2.0000
G00 X19.4900 Y-8.4100
G01 Z-1.9000
G01 Z0
G00 Z2.0000
G01 F70.00

M5
G00 Z25.0000
T6
G00 X0.0000 Y0.0000                
M6
(MSG, Change to Tool Dia = 3.00 ||| Total drills for tool T6 = 2)
M0
G00 Z25.0000

M03 S10000
G00 X4.2500 Y-58.9800
G01 Z-1.9000
G01 Z0
G00 Z2.0000
G00 X6.4700 Y-4.0500
G01 Z-1.9000
G01 Z0
G00 Z2.0000
M05
G00 Z2.00

