(G-CODE GENERATED BY FLATCAM v8.993 - www.flatcam.org - Version Date: 2020/06/05)

(Name: A1_RF_PA_Ф1_верх.gbr_iso_combined_cnc)
(Type: G-code from Geometry)
(Units: MM)

(Created on Tuesday, 17 November 2020 at 19:44)

(This preprocessor is the default preprocessor used by FlatCAM.)
(It is made to work with MACH3 compatible motion controllers.)

(TOOL DIAMETER: 0.15 mm)
(Feedrate_XY: 120.0 mm/min)
(Feedrate_Z: 70.0 mm/min)
(Feedrate rapids 1500.0 mm/min)

(Z_Cut: -0.07 mm)
(Z_Move: 2.0 mm)
(Z Start: None mm)
(Z End: 25.0 mm)
(Steps per circle: 128)
(Preprocessor Geometry: default)

(X range:   -0.3000 ...   75.3000  mm)
(Y range:  -63.3000 ...    0.3000  mm)

(Spindle Speed: 10000 RPM)
G21
G90
G94



G01 F120.00
G00 Z2.0000

M03 S10000
G00 X2.8766 Y-6.8453
G01 F70.00
G01 Z-0.0700
G01 F120.00
G01 X-0.0074 Y-6.8455
G01 X-0.0202 Y-6.8467
G01 X-0.0347 Y-6.8494
G01 X-0.0488 Y-6.8535
G01 X-0.0608 Y-6.8582
G01 X-0.0723 Y-6.8639
G01 X-0.0849 Y-6.8716
G01 X-0.0966 Y-6.8806
G01 X-0.1061 Y-6.8893
G01 X-0.1160 Y-6.9002
G01 X-0.1237 Y-6.9105
G01 X-0.1314 Y-6.9230
G01 X-0.1371 Y-6.9345
G01 X-0.1424 Y-6.9483
G01 X-0.1459 Y-6.9607
G01 X-0.1486 Y-6.9751
G01 X-0.1498 Y-6.9880
G01 X-0.1500 Y-63.0000
G01 X-0.1491 Y-63.0165
G01 X-0.1459 Y-63.0347
G01 X-0.1412 Y-63.0505
G01 X-0.1348 Y-63.0658
G01 X-0.1267 Y-63.0802
G01 X-0.1160 Y-63.0952
G01 X-0.1048 Y-63.1074
G01 X-0.0923 Y-63.1183
G01 X-0.0723 Y-63.1314
G01 X-0.0608 Y-63.1371
G01 X-0.0488 Y-63.1418
G01 X-0.0364 Y-63.1455
G01 X-0.0238 Y-63.1481
G01 X0.0000 Y-63.1500
G01 X38.1971 Y-63.1500
G01 X38.2154 Y-63.1489
G01 X38.2317 Y-63.1459
G01 X38.2493 Y-63.1406
G01 X38.2661 Y-63.1331
G01 X38.2804 Y-63.1247
G01 X38.2936 Y-63.1148
G01 X38.3070 Y-63.1021
G01 X38.3175 Y-63.0894
G01 X38.3267 Y-63.0755
G01 X38.3342 Y-63.0608
G01 X38.3401 Y-63.0453
G01 X38.3442 Y-63.0293
G01 X38.3465 Y-63.0129
G01 X38.3470 Y-62.9963
G01 X38.3454 Y-62.9780
G01 X38.3421 Y-62.9618
G01 X38.3370 Y-62.9460
G01 X38.3302 Y-62.9309
G01 X38.3218 Y-62.9167
G01 X38.3118 Y-62.9034
G01 X38.3031 Y-62.8939
G01 X36.7739 Y-61.3647
G01 X36.7601 Y-61.3526
G01 X36.7450 Y-61.3421
G01 X36.7320 Y-61.3352
G01 X36.7184 Y-61.3296
G01 X36.7025 Y-61.3249
G01 X36.6880 Y-61.3222
G01 X36.6715 Y-61.3209
G01 X36.6568 Y-61.3212
G01 X36.6422 Y-61.3230
G01 X36.6261 Y-61.3267
G01 X36.6122 Y-61.3315
G01 X36.5988 Y-61.3377
G01 X36.5040 Y-61.3920
G01 X36.4273 Y-61.4306
G01 X36.3488 Y-61.4654
G01 X36.2686 Y-61.4964
G01 X36.1871 Y-61.5233
G01 X36.1043 Y-61.5462
G01 X36.0205 Y-61.5650
G01 X35.9359 Y-61.5797
G01 X35.8506 Y-61.5902
G01 X35.7650 Y-61.5965
G01 X35.6791 Y-61.5987
G01 X35.5932 Y-61.5965
G01 X35.5076 Y-61.5902
G01 X35.4223 Y-61.5797
G01 X35.3377 Y-61.5650
G01 X35.2539 Y-61.5462
G01 X35.1711 Y-61.5233
G01 X35.0896 Y-61.4964
G01 X35.0094 Y-61.4654
G01 X34.9309 Y-61.4306
G01 X34.8542 Y-61.3920
G01 X34.7794 Y-61.3497
G01 X34.7069 Y-61.3037
G01 X34.6367 Y-61.2543
G01 X34.5689 Y-61.2014
G01 X34.5039 Y-61.1453
G01 X34.4417 Y-61.0861
G01 X34.3825 Y-61.0239
G01 X34.3264 Y-60.9589
G01 X34.2735 Y-60.8911
G01 X34.2241 Y-60.8209
G01 X34.1781 Y-60.7484
G01 X34.1358 Y-60.6736
G01 X34.0972 Y-60.5969
G01 X34.0624 Y-60.5184
G01 X34.0314 Y-60.4382
G01 X34.0045 Y-60.3567
G01 X33.9816 Y-60.2739
G01 X33.9628 Y-60.1901
G01 X33.9481 Y-60.1055
G01 X33.9376 Y-60.0202
G01 X33.9313 Y-59.9346
G01 X33.9291 Y-59.8487
G01 X33.9313 Y-59.7628
G01 X33.9376 Y-59.6772
G01 X33.9481 Y-59.5919
G01 X33.9628 Y-59.5073
G01 X33.9816 Y-59.4235
G01 X34.0045 Y-59.3407
G01 X34.0314 Y-59.2592
G01 X34.0624 Y-59.1790
G01 X34.0972 Y-59.1005
G01 X34.1358 Y-59.0238
G01 X34.1781 Y-58.9490
G01 X34.2241 Y-58.8765
G01 X34.2735 Y-58.8063
G01 X34.3264 Y-58.7385
G01 X34.3825 Y-58.6735
G01 X34.4417 Y-58.6113
G01 X34.5039 Y-58.5521
G01 X34.5689 Y-58.4960
G01 X34.6367 Y-58.4431
G01 X34.7069 Y-58.3937
G01 X34.7794 Y-58.3477
G01 X34.8542 Y-58.3054
G01 X34.9309 Y-58.2668
G01 X35.0094 Y-58.2320
G01 X35.0896 Y-58.2010
G01 X35.1711 Y-58.1741
G01 X35.2539 Y-58.1512
G01 X35.3377 Y-58.1324
G01 X35.4223 Y-58.1177
G01 X35.5076 Y-58.1072
G01 X35.5932 Y-58.1009
G01 X35.6791 Y-58.0987
G01 X35.7650 Y-58.1009
G01 X35.8506 Y-58.1072
G01 X35.9359 Y-58.1177
G01 X36.0205 Y-58.1324
G01 X36.1043 Y-58.1512
G01 X36.1871 Y-58.1741
G01 X36.2686 Y-58.2010
G01 X36.3488 Y-58.2320
G01 X36.4273 Y-58.2668
G01 X36.5040 Y-58.3054
G01 X36.5788 Y-58.3477
G01 X36.6513 Y-58.3937
G01 X36.7215 Y-58.4431
G01 X36.7893 Y-58.4960
G01 X36.8543 Y-58.5521
G01 X36.9165 Y-58.6113
G01 X36.9757 Y-58.6735
G01 X37.0318 Y-58.7385
G01 X37.0847 Y-58.8063
G01 X37.1341 Y-58.8765
G01 X37.1801 Y-58.9490
G01 X37.2224 Y-59.0238
G01 X37.2610 Y-59.1005
G01 X37.2958 Y-59.1790
G01 X37.3268 Y-59.2592
G01 X37.3537 Y-59.3407
G01 X37.3766 Y-59.4235
G01 X37.3954 Y-59.5073
G01 X37.4101 Y-59.5919
G01 X37.4206 Y-59.6772
G01 X37.4269 Y-59.7628
G01 X37.4291 Y-59.8487
G01 X37.4269 Y-59.9346
G01 X37.4206 Y-60.0202
G01 X37.4101 Y-60.1055
G01 X37.3954 Y-60.1901
G01 X37.3766 Y-60.2739
G01 X37.3685 Y-60.3040
G01 X37.3652 Y-60.3258
G01 X37.3654 Y-60.3497
G01 X37.3689 Y-60.3715
G01 X37.3755 Y-60.3926
G01 X37.3862 Y-60.4140
G01 X37.3966 Y-60.4292
G01 X37.4088 Y-60.4429
G01 X38.9600 Y-61.9942
G01 X38.9754 Y-62.0073
G01 X38.9909 Y-62.0174
G01 X39.0074 Y-62.0254
G01 X39.0266 Y-62.0319
G01 X39.0464 Y-62.0357
G01 X39.0648 Y-62.0368
G01 X50.7480 Y-62.0368
G01 X50.7609 Y-62.0363
G01 X50.7755 Y-62.0343
G01 X50.7880 Y-62.0314
G01 X50.8003 Y-62.0275
G01 X50.8138 Y-62.0217
G01 X50.8251 Y-62.0155
G01 X50.8359 Y-62.0084
G01 X50.8460 Y-62.0004
G01 X66.9141 Y-45.9329
G01 X66.9274 Y-45.9176
G01 X66.9403 Y-45.8975
G01 X66.9459 Y-45.8859
G01 X66.9505 Y-45.8739
G01 X66.9561 Y-45.8506
G01 X66.9580 Y-45.8268
G01 X66.9580 Y-40.0068
G01 X66.9588 Y-39.9780
G01 X66.9607 Y-39.9511
G01 X66.9641 Y-39.9243
G01 X66.9687 Y-39.8976
G01 X66.9746 Y-39.8713
G01 X66.9818 Y-39.8453
G01 X66.9903 Y-39.8196
G01 X67.0000 Y-39.7944
G01 X67.0109 Y-39.7697
G01 X67.0231 Y-39.7456
G01 X67.0364 Y-39.7221
G01 X67.0508 Y-39.6993
G01 X67.0664 Y-39.6772
G01 X67.0830 Y-39.6559
G01 X67.1007 Y-39.6354
G01 X67.1205 Y-39.6145
G01 X70.1288 Y-36.6063
G01 X70.1410 Y-36.5925
G01 X70.1514 Y-36.5773
G01 X70.1599 Y-36.5610
G01 X70.1663 Y-36.5437
G01 X70.1711 Y-36.5222
G01 X70.1727 Y-36.5002
G01 X70.1726 Y-6.5949
G01 X70.1716 Y-6.5820
G01 X70.1691 Y-6.5675
G01 X70.1652 Y-6.5533
G01 X70.1606 Y-6.5413
G01 X70.1550 Y-6.5297
G01 X70.1485 Y-6.5186
G01 X70.1410 Y-6.5081
G01 X70.1314 Y-6.4970
G01 X69.1635 Y-5.5290
G01 X69.1453 Y-5.5135
G01 X69.1248 Y-5.5011
G01 X69.1045 Y-5.4926
G01 X69.0830 Y-5.4873
G01 X69.0611 Y-5.4851
G01 X69.0482 Y-5.4853
G01 X69.0336 Y-5.4869
G01 X69.0028 Y-5.4936
G01 X68.9472 Y-5.5032
G01 X68.8912 Y-5.5101
G01 X68.8349 Y-5.5143
G01 X68.7785 Y-5.5157
G01 X68.7221 Y-5.5143
G01 X68.6658 Y-5.5101
G01 X68.6098 Y-5.5032
G01 X68.5542 Y-5.4936
G01 X68.4991 Y-5.4812
G01 X68.4447 Y-5.4661
G01 X68.3911 Y-5.4484
G01 X68.3384 Y-5.4281
G01 X68.2868 Y-5.4052
G01 X68.2364 Y-5.3799
G01 X68.1873 Y-5.3520
G01 X68.1396 Y-5.3219
G01 X68.0935 Y-5.2894
G01 X68.0490 Y-5.2546
G01 X68.0062 Y-5.2178
G01 X67.9654 Y-5.1788
G01 X67.9264 Y-5.1380
G01 X67.8896 Y-5.0952
G01 X67.8548 Y-5.0507
G01 X67.8223 Y-5.0046
G01 X67.7922 Y-4.9569
G01 X67.7643 Y-4.9078
G01 X67.7390 Y-4.8574
G01 X67.7161 Y-4.8058
G01 X67.6958 Y-4.7531
G01 X67.6781 Y-4.6995
G01 X67.6630 Y-4.6451
G01 X67.6506 Y-4.5900
G01 X67.6410 Y-4.5344
G01 X67.6341 Y-4.4784
G01 X67.6299 Y-4.4221
G01 X67.6285 Y-4.3657
G01 X67.6299 Y-4.3093
G01 X67.6341 Y-4.2530
G01 X67.6410 Y-4.1970
G01 X67.6506 Y-4.1414
G01 X67.6630 Y-4.0863
G01 X67.6781 Y-4.0319
G01 X67.6958 Y-3.9783
G01 X67.7161 Y-3.9256
G01 X67.7390 Y-3.8740
G01 X67.7643 Y-3.8236
G01 X67.7922 Y-3.7745
G01 X67.8223 Y-3.7268
G01 X67.8548 Y-3.6807
G01 X67.8896 Y-3.6362
G01 X67.9264 Y-3.5934
G01 X67.9654 Y-3.5526
G01 X68.0062 Y-3.5136
G01 X68.0490 Y-3.4768
G01 X68.0935 Y-3.4420
G01 X68.1396 Y-3.4095
G01 X68.1873 Y-3.3794
G01 X68.2364 Y-3.3515
G01 X68.2868 Y-3.3262
G01 X68.3384 Y-3.3033
G01 X68.3911 Y-3.2830
G01 X68.4447 Y-3.2653
G01 X68.4991 Y-3.2502
G01 X68.5542 Y-3.2378
G01 X68.6098 Y-3.2282
G01 X68.6658 Y-3.2213
G01 X68.7221 Y-3.2171
G01 X68.7785 Y-3.2157
G01 X68.8349 Y-3.2171
G01 X68.8912 Y-3.2213
G01 X68.9472 Y-3.2282
G01 X69.0028 Y-3.2378
G01 X69.0579 Y-3.2502
G01 X69.1123 Y-3.2653
G01 X69.1659 Y-3.2830
G01 X69.2186 Y-3.3033
G01 X69.2702 Y-3.3262
G01 X69.3206 Y-3.3515
G01 X69.3697 Y-3.3794
G01 X69.4174 Y-3.4095
G01 X69.4635 Y-3.4420
G01 X69.5080 Y-3.4768
G01 X69.5508 Y-3.5136
G01 X69.5916 Y-3.5526
G01 X69.6306 Y-3.5934
G01 X69.6674 Y-3.6362
G01 X69.7022 Y-3.6807
G01 X69.7347 Y-3.7268
G01 X69.7648 Y-3.7745
G01 X69.7927 Y-3.8236
G01 X69.8180 Y-3.8740
G01 X69.8409 Y-3.9256
G01 X69.8612 Y-3.9783
G01 X69.8789 Y-4.0319
G01 X69.8940 Y-4.0863
G01 X69.9064 Y-4.1414
G01 X69.9160 Y-4.1970
G01 X69.9229 Y-4.2530
G01 X69.9271 Y-4.3093
G01 X69.9285 Y-4.3657
G01 X69.9271 Y-4.4221
G01 X69.9229 Y-4.4784
G01 X69.9160 Y-4.5344
G01 X69.9064 Y-4.5900
G01 X69.9001 Y-4.6190
G01 X69.8979 Y-4.6409
G01 X69.8990 Y-4.6630
G01 X69.9028 Y-4.6828
G01 X69.9100 Y-4.7037
G01 X69.9192 Y-4.7217
G01 X69.9296 Y-4.7369
G01 X69.9418 Y-4.7507
G01 X71.1110 Y-5.9198
G01 X71.1308 Y-5.9407
G01 X71.1485 Y-5.9612
G01 X71.1651 Y-5.9825
G01 X71.1807 Y-6.0046
G01 X71.1951 Y-6.0274
G01 X71.2084 Y-6.0509
G01 X71.2206 Y-6.0750
G01 X71.2315 Y-6.0997
G01 X71.2412 Y-6.1249
G01 X71.2497 Y-6.1506
G01 X71.2569 Y-6.1766
G01 X71.2628 Y-6.2029
G01 X71.2674 Y-6.2296
G01 X71.2708 Y-6.2564
G01 X71.2727 Y-6.2833
G01 X71.2735 Y-6.3121
G01 X71.2735 Y-36.7885
G01 X71.2727 Y-36.8173
G01 X71.2708 Y-36.8442
G01 X71.2674 Y-36.8710
G01 X71.2628 Y-36.8977
G01 X71.2569 Y-36.9240
G01 X71.2497 Y-36.9500
G01 X71.2412 Y-36.9757
G01 X71.2315 Y-37.0009
G01 X71.2206 Y-37.0256
G01 X71.2084 Y-37.0497
G01 X71.1951 Y-37.0732
G01 X71.1807 Y-37.0960
G01 X71.1651 Y-37.1181
G01 X71.1485 Y-37.1394
G01 X71.1308 Y-37.1599
G01 X71.1110 Y-37.1808
G01 X68.1027 Y-40.1890
G01 X68.0916 Y-40.2014
G01 X68.0810 Y-40.2164
G01 X68.0732 Y-40.2310
G01 X68.0669 Y-40.2463
G01 X68.0632 Y-40.2586
G01 X68.0607 Y-40.2713
G01 X68.0588 Y-40.2951
G01 X68.0588 Y-46.1151
G01 X68.0580 Y-46.1439
G01 X68.0561 Y-46.1708
G01 X68.0527 Y-46.1976
G01 X68.0481 Y-46.2243
G01 X68.0422 Y-46.2506
G01 X68.0350 Y-46.2766
G01 X68.0265 Y-46.3023
G01 X68.0168 Y-46.3275
G01 X68.0059 Y-46.3522
G01 X67.9937 Y-46.3763
G01 X67.9804 Y-46.3998
G01 X67.9660 Y-46.4226
G01 X67.9504 Y-46.4447
G01 X67.9338 Y-46.4660
G01 X67.9161 Y-46.4865
G01 X67.8963 Y-46.5074
G01 X51.5097 Y-62.8939
G01 X51.4986 Y-62.9063
G01 X51.4890 Y-62.9198
G01 X51.4809 Y-62.9342
G01 X51.4745 Y-62.9495
G01 X51.4698 Y-62.9653
G01 X51.4669 Y-62.9816
G01 X51.4657 Y-63.0000
G01 X51.4667 Y-63.0165
G01 X51.4690 Y-63.0311
G01 X51.4722 Y-63.0435
G01 X51.4765 Y-63.0557
G01 X51.4818 Y-63.0674
G01 X51.4880 Y-63.0787
G01 X51.4964 Y-63.0908
G01 X51.5058 Y-63.1021
G01 X51.5150 Y-63.1111
G01 X51.5249 Y-63.1194
G01 X51.5371 Y-63.1277
G01 X51.5500 Y-63.1348
G01 X51.5618 Y-63.1399
G01 X51.5740 Y-63.1441
G01 X51.5883 Y-63.1475
G01 X51.6029 Y-63.1494
G01 X51.6157 Y-63.1500
G01 X75.0000 Y-63.1500
G01 X75.0184 Y-63.1489
G01 X75.0347 Y-63.1459
G01 X75.0505 Y-63.1412
G01 X75.0658 Y-63.1348
G01 X75.0802 Y-63.1267
G01 X75.0952 Y-63.1160
G01 X75.1074 Y-63.1048
G01 X75.1183 Y-63.0923
G01 X75.1257 Y-63.0818
G01 X75.1323 Y-63.0707
G01 X75.1418 Y-63.0488
G01 X75.1455 Y-63.0364
G01 X75.1481 Y-63.0238
G01 X75.1500 Y-63.0000
G01 X75.1500 Y-0.0000
G01 X75.1489 Y0.0184
G01 X75.1459 Y0.0347
G01 X75.1412 Y0.0505
G01 X75.1348 Y0.0658
G01 X75.1267 Y0.0802
G01 X75.1171 Y0.0937
G01 X75.1048 Y0.1074
G01 X75.0923 Y0.1183
G01 X75.0723 Y0.1314
G01 X75.0608 Y0.1371
G01 X75.0488 Y0.1418
G01 X75.0256 Y0.1478
G01 X75.0129 Y0.1494
G01 X75.0000 Y0.1500
G01 X3.0266 Y0.1500
G01 X3.0119 Y0.1493
G01 X2.9992 Y0.1475
G01 X2.9848 Y0.1441
G01 X2.9726 Y0.1399
G01 X2.9608 Y0.1348
G01 X2.9495 Y0.1287
G01 X2.9373 Y0.1205
G01 X2.9273 Y0.1124
G01 X2.9167 Y0.1021
G01 X2.9072 Y0.0908
G01 X2.8999 Y0.0802
G01 X2.8926 Y0.0674
G01 X2.8873 Y0.0557
G01 X2.8831 Y0.0435
G01 X2.8799 Y0.0311
G01 X2.8778 Y0.0184
G01 X2.8767 Y0.0037
G01 X2.8766 Y-6.8453
G00 Z2.0000
G00 X2.9516 Y-6.9203
G01 F70.00
G01 Z-0.0700
G01 F120.00
G01 X-0.0018 Y-6.9203
G01 X-0.0155 Y-6.9220
G01 X-0.0295 Y-6.9264
G01 X-0.0417 Y-6.9330
G01 X-0.0524 Y-6.9416
G01 X-0.0613 Y-6.9521
G01 X-0.0686 Y-6.9649
G01 X-0.0730 Y-6.9780
G01 X-0.0749 Y-6.9916
G01 X-0.0750 Y-63.0000
G01 X-0.0732 Y-63.0164
G01 X-0.0709 Y-63.0244
G01 X-0.0674 Y-63.0329
G01 X-0.0634 Y-63.0401
G01 X-0.0580 Y-63.0476
G01 X-0.0461 Y-63.0591
G01 X-0.0354 Y-63.0661
G01 X-0.0244 Y-63.0709
G01 X-0.0119 Y-63.0740
G01 X0.0000 Y-63.0750
G01 X38.1971 Y-63.0750
G01 X38.2053 Y-63.0745
G01 X38.2144 Y-63.0730
G01 X38.2223 Y-63.0706
G01 X38.2308 Y-63.0670
G01 X38.2446 Y-63.0580
G01 X38.2507 Y-63.0524
G01 X38.2567 Y-63.0454
G01 X38.2619 Y-63.0378
G01 X38.2656 Y-63.0304
G01 X38.2686 Y-63.0227
G01 X38.2708 Y-63.0137
G01 X38.2719 Y-63.0055
G01 X38.2720 Y-62.9963
G01 X38.2711 Y-62.9881
G01 X38.2691 Y-62.9791
G01 X38.2660 Y-62.9705
G01 X38.2623 Y-62.9630
G01 X38.2573 Y-62.9553
G01 X38.2520 Y-62.9490
G01 X36.7209 Y-61.4178
G01 X36.7133 Y-61.4111
G01 X36.7048 Y-61.4056
G01 X36.6896 Y-61.3990
G01 X36.6734 Y-61.3960
G01 X36.6569 Y-61.3966
G01 X36.6409 Y-61.4008
G01 X36.6309 Y-61.4056
G01 X36.6173 Y-61.4140
G01 X36.5394 Y-61.4582
G01 X36.4594 Y-61.4985
G01 X36.3775 Y-61.5348
G01 X36.2939 Y-61.5670
G01 X36.2089 Y-61.5951
G01 X36.1225 Y-61.6190
G01 X36.0351 Y-61.6386
G01 X35.9469 Y-61.6539
G01 X35.8580 Y-61.6649
G01 X35.7686 Y-61.6715
G01 X35.6791 Y-61.6737
G01 X35.5896 Y-61.6715
G01 X35.5002 Y-61.6649
G01 X35.4113 Y-61.6539
G01 X35.3231 Y-61.6386
G01 X35.2357 Y-61.6190
G01 X35.1493 Y-61.5951
G01 X35.0643 Y-61.5670
G01 X34.9807 Y-61.5348
G01 X34.8988 Y-61.4985
G01 X34.8188 Y-61.4582
G01 X34.7409 Y-61.4140
G01 X34.6652 Y-61.3661
G01 X34.5920 Y-61.3145
G01 X34.5213 Y-61.2594
G01 X34.4535 Y-61.2009
G01 X34.3886 Y-61.1392
G01 X34.3269 Y-61.0743
G01 X34.2684 Y-61.0065
G01 X34.2133 Y-60.9358
G01 X34.1617 Y-60.8626
G01 X34.1138 Y-60.7869
G01 X34.0696 Y-60.7090
G01 X34.0293 Y-60.6290
G01 X33.9930 Y-60.5471
G01 X33.9608 Y-60.4635
G01 X33.9327 Y-60.3785
G01 X33.9088 Y-60.2921
G01 X33.8892 Y-60.2047
G01 X33.8739 Y-60.1165
G01 X33.8629 Y-60.0276
G01 X33.8563 Y-59.9382
G01 X33.8541 Y-59.8487
G01 X33.8563 Y-59.7592
G01 X33.8629 Y-59.6698
G01 X33.8739 Y-59.5809
G01 X33.8892 Y-59.4927
G01 X33.9088 Y-59.4053
G01 X33.9327 Y-59.3189
G01 X33.9608 Y-59.2339
G01 X33.9930 Y-59.1503
G01 X34.0293 Y-59.0684
G01 X34.0696 Y-58.9884
G01 X34.1138 Y-58.9105
G01 X34.1617 Y-58.8348
G01 X34.2133 Y-58.7616
G01 X34.2684 Y-58.6909
G01 X34.3269 Y-58.6231
G01 X34.3886 Y-58.5582
G01 X34.4535 Y-58.4965
G01 X34.5213 Y-58.4380
G01 X34.5920 Y-58.3829
G01 X34.6652 Y-58.3313
G01 X34.7409 Y-58.2834
G01 X34.8188 Y-58.2392
G01 X34.8988 Y-58.1989
G01 X34.9807 Y-58.1626
G01 X35.0643 Y-58.1304
G01 X35.1493 Y-58.1023
G01 X35.2357 Y-58.0784
G01 X35.3231 Y-58.0588
G01 X35.4113 Y-58.0435
G01 X35.5002 Y-58.0325
G01 X35.5896 Y-58.0259
G01 X35.6791 Y-58.0237
G01 X35.7686 Y-58.0259
G01 X35.8580 Y-58.0325
G01 X35.9469 Y-58.0435
G01 X36.0351 Y-58.0588
G01 X36.1225 Y-58.0784
G01 X36.2089 Y-58.1023
G01 X36.2939 Y-58.1304
G01 X36.3775 Y-58.1626
G01 X36.4594 Y-58.1989
G01 X36.5394 Y-58.2392
G01 X36.6173 Y-58.2834
G01 X36.6930 Y-58.3313
G01 X36.7662 Y-58.3829
G01 X36.8369 Y-58.4380
G01 X36.9047 Y-58.4965
G01 X36.9696 Y-58.5582
G01 X37.0313 Y-58.6231
G01 X37.0898 Y-58.6909
G01 X37.1449 Y-58.7616
G01 X37.1965 Y-58.8348
G01 X37.2444 Y-58.9105
G01 X37.2886 Y-58.9884
G01 X37.3289 Y-59.0684
G01 X37.3652 Y-59.1503
G01 X37.3974 Y-59.2339
G01 X37.4255 Y-59.3189
G01 X37.4494 Y-59.4053
G01 X37.4690 Y-59.4927
G01 X37.4843 Y-59.5809
G01 X37.4953 Y-59.6698
G01 X37.5019 Y-59.7592
G01 X37.5041 Y-59.8487
G01 X37.5019 Y-59.9382
G01 X37.4953 Y-60.0276
G01 X37.4843 Y-60.1165
G01 X37.4690 Y-60.2047
G01 X37.4494 Y-60.2921
G01 X37.4419 Y-60.3195
G01 X37.4402 Y-60.3295
G01 X37.4400 Y-60.3415
G01 X37.4416 Y-60.3533
G01 X37.4452 Y-60.3647
G01 X37.4505 Y-60.3754
G01 X37.4557 Y-60.3830
G01 X37.4618 Y-60.3899
G01 X39.0118 Y-61.9399
G01 X39.0187 Y-61.9460
G01 X39.0270 Y-61.9516
G01 X39.0361 Y-61.9561
G01 X39.0457 Y-61.9594
G01 X39.0556 Y-61.9613
G01 X39.0648 Y-61.9618
G01 X50.7480 Y-61.9618
G01 X50.7617 Y-61.9606
G01 X50.7741 Y-61.9572
G01 X50.7858 Y-61.9516
G01 X50.7970 Y-61.9436
G01 X66.8611 Y-45.8798
G01 X66.8677 Y-45.8722
G01 X66.8746 Y-45.8613
G01 X66.8793 Y-45.8503
G01 X66.8821 Y-45.8387
G01 X66.8830 Y-45.8268
G01 X66.8830 Y-40.0059
G01 X66.8838 Y-39.9743
G01 X66.8861 Y-39.9437
G01 X66.8898 Y-39.9132
G01 X66.8951 Y-39.8830
G01 X66.9018 Y-39.8531
G01 X66.9100 Y-39.8235
G01 X66.9196 Y-39.7943
G01 X66.9307 Y-39.7657
G01 X66.9431 Y-39.7376
G01 X66.9569 Y-39.7102
G01 X66.9720 Y-39.6835
G01 X66.9885 Y-39.6576
G01 X67.0061 Y-39.6325
G01 X67.0250 Y-39.6083
G01 X67.0451 Y-39.5851
G01 X67.0669 Y-39.5622
G01 X70.0758 Y-36.5532
G01 X70.0819 Y-36.5463
G01 X70.0871 Y-36.5388
G01 X70.0913 Y-36.5306
G01 X70.0945 Y-36.5220
G01 X70.0969 Y-36.5112
G01 X70.0977 Y-36.5002
G01 X70.0975 Y-6.5949
G01 X70.0953 Y-6.5813
G01 X70.0909 Y-6.5692
G01 X70.0846 Y-6.5580
G01 X70.0764 Y-6.5480
G01 X69.1104 Y-5.5820
G01 X69.1035 Y-5.5759
G01 X69.0967 Y-5.5712
G01 X69.0869 Y-5.5661
G01 X69.0765 Y-5.5625
G01 X69.0657 Y-5.5605
G01 X69.0537 Y-5.5601
G01 X69.0437 Y-5.5613
G01 X69.0175 Y-5.5671
G01 X68.9582 Y-5.5774
G01 X68.8986 Y-5.5848
G01 X68.8386 Y-5.5892
G01 X68.7785 Y-5.5907
G01 X68.7184 Y-5.5892
G01 X68.6584 Y-5.5848
G01 X68.5988 Y-5.5774
G01 X68.5395 Y-5.5671
G01 X68.4809 Y-5.5540
G01 X68.4229 Y-5.5379
G01 X68.3658 Y-5.5191
G01 X68.3097 Y-5.4974
G01 X68.2548 Y-5.4731
G01 X68.2010 Y-5.4460
G01 X68.1487 Y-5.4164
G01 X68.0979 Y-5.3842
G01 X68.0488 Y-5.3496
G01 X68.0014 Y-5.3126
G01 X67.9559 Y-5.2733
G01 X67.9123 Y-5.2319
G01 X67.8709 Y-5.1883
G01 X67.8316 Y-5.1428
G01 X67.7946 Y-5.0954
G01 X67.7600 Y-5.0463
G01 X67.7278 Y-4.9955
G01 X67.6982 Y-4.9432
G01 X67.6711 Y-4.8894
G01 X67.6468 Y-4.8345
G01 X67.6251 Y-4.7784
G01 X67.6063 Y-4.7213
G01 X67.5902 Y-4.6633
G01 X67.5771 Y-4.6047
G01 X67.5668 Y-4.5454
G01 X67.5594 Y-4.4858
G01 X67.5550 Y-4.4258
G01 X67.5535 Y-4.3657
G01 X67.5550 Y-4.3056
G01 X67.5594 Y-4.2456
G01 X67.5668 Y-4.1860
G01 X67.5771 Y-4.1267
G01 X67.5902 Y-4.0681
G01 X67.6063 Y-4.0101
G01 X67.6251 Y-3.9530
G01 X67.6468 Y-3.8969
G01 X67.6711 Y-3.8420
G01 X67.6982 Y-3.7882
G01 X67.7278 Y-3.7359
G01 X67.7600 Y-3.6851
G01 X67.7946 Y-3.6360
G01 X67.8316 Y-3.5886
G01 X67.8709 Y-3.5431
G01 X67.9123 Y-3.4995
G01 X67.9559 Y-3.4581
G01 X68.0014 Y-3.4188
G01 X68.0488 Y-3.3818
G01 X68.0979 Y-3.3472
G01 X68.1487 Y-3.3150
G01 X68.2010 Y-3.2854
G01 X68.2548 Y-3.2583
G01 X68.3097 Y-3.2340
G01 X68.3658 Y-3.2123
G01 X68.4229 Y-3.1935
G01 X68.4809 Y-3.1774
G01 X68.5395 Y-3.1643
G01 X68.5988 Y-3.1540
G01 X68.6584 Y-3.1466
G01 X68.7184 Y-3.1422
G01 X68.7785 Y-3.1407
G01 X68.8386 Y-3.1422
G01 X68.8986 Y-3.1466
G01 X68.9582 Y-3.1540
G01 X69.0175 Y-3.1643
G01 X69.0761 Y-3.1774
G01 X69.1341 Y-3.1935
G01 X69.1912 Y-3.2123
G01 X69.2473 Y-3.2340
G01 X69.3022 Y-3.2583
G01 X69.3560 Y-3.2854
G01 X69.4083 Y-3.3150
G01 X69.4591 Y-3.3472
G01 X69.5082 Y-3.3818
G01 X69.5556 Y-3.4188
G01 X69.6011 Y-3.4581
G01 X69.6447 Y-3.4995
G01 X69.6861 Y-3.5431
G01 X69.7254 Y-3.5886
G01 X69.7624 Y-3.6360
G01 X69.7970 Y-3.6851
G01 X69.8292 Y-3.7359
G01 X69.8588 Y-3.7882
G01 X69.8859 Y-3.8420
G01 X69.9102 Y-3.8969
G01 X69.9319 Y-3.9530
G01 X69.9507 Y-4.0101
G01 X69.9668 Y-4.0681
G01 X69.9799 Y-4.1267
G01 X69.9902 Y-4.1860
G01 X69.9976 Y-4.2456
G01 X70.0020 Y-4.3056
G01 X70.0035 Y-4.3657
G01 X70.0020 Y-4.4258
G01 X69.9976 Y-4.4858
G01 X69.9902 Y-4.5454
G01 X69.9799 Y-4.6047
G01 X69.9741 Y-4.6309
G01 X69.9729 Y-4.6409
G01 X69.9732 Y-4.6520
G01 X69.9751 Y-4.6628
G01 X69.9789 Y-4.6741
G01 X69.9840 Y-4.6839
G01 X69.9893 Y-4.6915
G01 X69.9948 Y-4.6976
G01 X71.1646 Y-5.8675
G01 X71.1864 Y-5.8904
G01 X71.2065 Y-5.9136
G01 X71.2254 Y-5.9378
G01 X71.2430 Y-5.9629
G01 X71.2595 Y-5.9888
G01 X71.2746 Y-6.0155
G01 X71.2884 Y-6.0429
G01 X71.3008 Y-6.0710
G01 X71.3119 Y-6.0996
G01 X71.3215 Y-6.1288
G01 X71.3297 Y-6.1584
G01 X71.3364 Y-6.1883
G01 X71.3417 Y-6.2185
G01 X71.3454 Y-6.2490
G01 X71.3477 Y-6.2796
G01 X71.3485 Y-6.3112
G01 X71.3485 Y-36.7894
G01 X71.3477 Y-36.8210
G01 X71.3454 Y-36.8516
G01 X71.3417 Y-36.8821
G01 X71.3364 Y-36.9123
G01 X71.3297 Y-36.9422
G01 X71.3215 Y-36.9718
G01 X71.3119 Y-37.0010
G01 X71.3008 Y-37.0296
G01 X71.2884 Y-37.0577
G01 X71.2746 Y-37.0851
G01 X71.2595 Y-37.1118
G01 X71.2430 Y-37.1377
G01 X71.2254 Y-37.1628
G01 X71.2065 Y-37.1870
G01 X71.1864 Y-37.2102
G01 X71.1646 Y-37.2331
G01 X68.1557 Y-40.2421
G01 X68.1454 Y-40.2550
G01 X68.1410 Y-40.2630
G01 X68.1378 Y-40.2707
G01 X68.1347 Y-40.2832
G01 X68.1338 Y-40.2951
G01 X68.1338 Y-46.1160
G01 X68.1330 Y-46.1476
G01 X68.1307 Y-46.1782
G01 X68.1270 Y-46.2087
G01 X68.1217 Y-46.2389
G01 X68.1150 Y-46.2688
G01 X68.1068 Y-46.2984
G01 X68.0972 Y-46.3276
G01 X68.0861 Y-46.3562
G01 X68.0737 Y-46.3843
G01 X68.0599 Y-46.4117
G01 X68.0448 Y-46.4384
G01 X68.0283 Y-46.4643
G01 X68.0107 Y-46.4894
G01 X67.9918 Y-46.5136
G01 X67.9717 Y-46.5368
G01 X67.9499 Y-46.5597
G01 X51.5627 Y-62.9470
G01 X51.5524 Y-62.9599
G01 X51.5451 Y-62.9747
G01 X51.5428 Y-62.9827
G01 X51.5412 Y-62.9917
G01 X51.5412 Y-63.0083
G01 X51.5440 Y-63.0218
G01 X51.5488 Y-63.0337
G01 X51.5561 Y-63.0454
G01 X51.5654 Y-63.0556
G01 X51.5764 Y-63.0639
G01 X51.5888 Y-63.0700
G01 X51.6020 Y-63.0737
G01 X51.6157 Y-63.0750
G01 X75.0000 Y-63.0750
G01 X75.0092 Y-63.0744
G01 X75.0173 Y-63.0730
G01 X75.0329 Y-63.0674
G01 X75.0409 Y-63.0629
G01 X75.0476 Y-63.0580
G01 X75.0591 Y-63.0461
G01 X75.0657 Y-63.0362
G01 X75.0709 Y-63.0244
G01 X75.0740 Y-63.0119
G01 X75.0750 Y-63.0000
G01 X75.0750 Y-0.0000
G01 X75.0744 Y0.0092
G01 X75.0730 Y0.0173
G01 X75.0674 Y0.0329
G01 X75.0629 Y0.0409
G01 X75.0580 Y0.0476
G01 X75.0461 Y0.0591
G01 X75.0354 Y0.0661
G01 X75.0244 Y0.0709
G01 X75.0128 Y0.0739
G01 X75.0000 Y0.0750
G01 X3.0193 Y0.0746
G01 X3.0057 Y0.0720
G01 X2.9929 Y0.0670
G01 X2.9812 Y0.0597
G01 X2.9711 Y0.0504
G01 X2.9628 Y0.0393
G01 X2.9567 Y0.0270
G01 X2.9529 Y0.0137
G01 X2.9516 Y0.0009
G01 X2.9516 Y-6.9203
G00 Z2.0000
G00 X1.3973 Y-12.3332
G01 F70.00
G01 Z-0.0700
G01 F120.00
G01 X1.3973 Y-25.8675
G01 X1.3989 Y-25.9015
G01 X1.4013 Y-25.9216
G01 X1.4081 Y-25.9560
G01 X1.4140 Y-25.9773
G01 X1.4251 Y-26.0085
G01 X1.4341 Y-26.0287
G01 X1.4506 Y-26.0595
G01 X1.4700 Y-26.0886
G01 X1.4836 Y-26.1060
G01 X1.5071 Y-26.1319
G01 X1.5218 Y-26.1458
G01 X1.5489 Y-26.1679
G01 X1.5655 Y-26.1795
G01 X1.5956 Y-26.1975
G01 X1.6271 Y-26.2125
G01 X1.6469 Y-26.2201
G01 X1.6812 Y-26.2305
G01 X1.7155 Y-26.2374
G01 X1.7375 Y-26.2401
G01 X1.7724 Y-26.2417
G01 X12.0631 Y-26.2418
G01 X12.0633 Y-27.2462
G01 X12.0656 Y-27.2598
G01 X12.0703 Y-27.2728
G01 X12.0779 Y-27.2854
G01 X12.0871 Y-27.2956
G01 X12.0980 Y-27.3041
G01 X12.1103 Y-27.3103
G01 X12.1244 Y-27.3144
G01 X12.1381 Y-27.3157
G01 X13.7390 Y-27.3157
G01 X13.7491 Y-27.3149
G01 X13.7599 Y-27.3125
G01 X13.7693 Y-27.3089
G01 X13.7782 Y-27.3041
G01 X13.7857 Y-27.2987
G01 X13.7924 Y-27.2924
G01 X13.7978 Y-27.2861
G01 X13.8029 Y-27.2785
G01 X13.8070 Y-27.2702
G01 X13.8101 Y-27.2616
G01 X13.8121 Y-27.2526
G01 X13.8130 Y-27.2435
G01 X13.8131 Y-26.2417
G01 X18.6005 Y-26.2418
G01 X18.6296 Y-26.2734
G01 X19.5124 Y-27.1562
G01 X19.5322 Y-27.1750
G01 X19.5543 Y-27.1941
G01 X19.5765 Y-27.2114
G01 X19.5996 Y-27.2277
G01 X19.6251 Y-27.2437
G01 X19.6480 Y-27.2567
G01 X19.6716 Y-27.2686
G01 X19.6974 Y-27.2801
G01 X19.7254 Y-27.2910
G01 X19.7513 Y-27.2996
G01 X19.7812 Y-27.3078
G01 X19.8070 Y-27.3136
G01 X19.8348 Y-27.3184
G01 X19.8646 Y-27.3220
G01 X19.8910 Y-27.3240
G01 X19.9183 Y-27.3246
G01 X22.2316 Y-27.3247
G01 X22.2650 Y-27.3679
G01 X22.2975 Y-27.4055
G01 X22.3293 Y-27.4388
G01 X22.3626 Y-27.4706
G01 X22.4016 Y-27.5042
G01 X22.4379 Y-27.5325
G01 X22.4755 Y-27.5590
G01 X22.5174 Y-27.5857
G01 X22.5591 Y-27.6093
G01 X22.6002 Y-27.6300
G01 X22.6456 Y-27.6502
G01 X22.6902 Y-27.6674
G01 X22.7339 Y-27.6819
G01 X22.7818 Y-27.6952
G01 X22.8303 Y-27.7060
G01 X22.8756 Y-27.7138
G01 X22.9213 Y-27.7195
G01 X22.9727 Y-27.7233
G01 X23.0187 Y-27.7244
G01 X23.0647 Y-27.7233
G01 X23.1143 Y-27.7197
G01 X23.1685 Y-27.7127
G01 X24.8933 Y-29.4375
G01 X24.7947 Y-29.4376
G01 X24.7820 Y-29.4393
G01 X24.7697 Y-29.4432
G01 X24.7606 Y-29.4477
G01 X24.7523 Y-29.4534
G01 X24.7447 Y-29.4601
G01 X24.7376 Y-29.4686
G01 X24.7323 Y-29.4771
G01 X24.7281 Y-29.4864
G01 X24.7252 Y-29.4961
G01 X24.7236 Y-29.5070
G01 X24.7235 Y-30.8162
G01 X24.7252 Y-30.8289
G01 X24.7295 Y-30.8420
G01 X24.7360 Y-30.8542
G01 X24.7441 Y-30.8642
G01 X24.7545 Y-30.8733
G01 X24.7655 Y-30.8799
G01 X24.7784 Y-30.8848
G01 X24.7920 Y-30.8872
G01 X26.3984 Y-30.8875
G01 X26.4148 Y-30.8857
G01 X26.4254 Y-30.8825
G01 X26.4354 Y-30.8778
G01 X26.4445 Y-30.8716
G01 X26.4533 Y-30.8635
G01 X26.4602 Y-30.8549
G01 X26.4662 Y-30.8446
G01 X26.4702 Y-30.8343
G01 X26.4726 Y-30.8235
G01 X26.4734 Y-30.8125
G01 X26.4734 Y-30.4997
G01 X50.3219 Y-30.4997
G01 X50.3220 Y-31.1743
G01 X50.3233 Y-31.1843
G01 X50.3260 Y-31.1941
G01 X50.3299 Y-31.2034
G01 X50.3351 Y-31.2121
G01 X50.3413 Y-31.2201
G01 X50.3493 Y-31.2277
G01 X50.3576 Y-31.2336
G01 X50.3665 Y-31.2383
G01 X50.3814 Y-31.2431
G01 X50.3969 Y-31.2447
G01 X51.9978 Y-31.2447
G01 X52.0115 Y-31.2433
G01 X52.0247 Y-31.2393
G01 X52.0370 Y-31.2331
G01 X52.0479 Y-31.2246
G01 X52.0571 Y-31.2144
G01 X52.0643 Y-31.2026
G01 X52.0692 Y-31.1897
G01 X52.0715 Y-31.1771
G01 X52.0719 Y-30.4997
G01 X53.2673 Y-30.4997
G01 X53.3007 Y-30.5429
G01 X53.3320 Y-30.5792
G01 X53.3650 Y-30.6138
G01 X53.4010 Y-30.6480
G01 X53.4359 Y-30.6781
G01 X53.4721 Y-30.7064
G01 X53.5112 Y-30.7340
G01 X53.5531 Y-30.7607
G01 X53.6004 Y-30.7871
G01 X53.6125 Y-48.9266
G01 X53.2881 Y-48.9266
G01 X53.2780 Y-48.9273
G01 X53.2681 Y-48.9293
G01 X53.2577 Y-48.9330
G01 X53.2480 Y-48.9382
G01 X53.2391 Y-48.9448
G01 X53.2313 Y-48.9526
G01 X53.2247 Y-48.9615
G01 X53.2199 Y-48.9704
G01 X53.2161 Y-48.9807
G01 X53.2138 Y-48.9915
G01 X53.2131 Y-49.0016
G01 X53.2133 Y-50.3071
G01 X53.2156 Y-50.3207
G01 X53.2203 Y-50.3337
G01 X53.2273 Y-50.3455
G01 X53.2364 Y-50.3559
G01 X53.2472 Y-50.3645
G01 X53.2594 Y-50.3709
G01 X53.2726 Y-50.3750
G01 X53.2863 Y-50.3766
G01 X54.6899 Y-50.3766
G01 X54.6982 Y-50.3759
G01 X54.7072 Y-50.3741
G01 X54.7151 Y-50.3716
G01 X54.7235 Y-50.3677
G01 X54.7305 Y-50.3634
G01 X54.7378 Y-50.3578
G01 X54.7443 Y-50.3513
G01 X54.7494 Y-50.3448
G01 X54.7555 Y-50.3345
G01 X54.7596 Y-50.3243
G01 X54.7621 Y-50.3135
G01 X54.7631 Y-50.3025
G01 X54.7631 Y-49.0016
G01 X54.7624 Y-48.9915
G01 X54.7604 Y-48.9816
G01 X54.7567 Y-48.9712
G01 X54.7515 Y-48.9615
G01 X54.7449 Y-48.9526
G01 X54.7371 Y-48.9448
G01 X54.7282 Y-48.9382
G01 X54.7185 Y-48.9330
G01 X54.7090 Y-48.9296
G01 X54.6982 Y-48.9273
G01 X54.6881 Y-48.9266
G01 X54.3628 Y-48.9266
G01 X54.3507 Y-30.8531
G01 X54.3829 Y-30.8424
G01 X54.4275 Y-30.8252
G01 X54.4713 Y-30.8058
G01 X54.5124 Y-30.7851
G01 X54.5572 Y-30.7597
G01 X54.5961 Y-30.7351
G01 X54.6345 Y-30.7081
G01 X54.6743 Y-30.6769
G01 X54.7092 Y-30.6468
G01 X54.7438 Y-30.6138
G01 X54.7768 Y-30.5792
G01 X54.8069 Y-30.5443
G01 X54.8381 Y-30.5045
G01 X54.8651 Y-30.4661
G01 X54.8897 Y-30.4272
G01 X54.9151 Y-30.3824
G01 X54.9358 Y-30.3413
G01 X54.9552 Y-30.2975
G01 X54.9724 Y-30.2529
G01 X54.9869 Y-30.2092
G01 X55.0006 Y-30.1595
G01 X55.0107 Y-30.1146
G01 X55.0188 Y-30.0675
G01 X55.0249 Y-30.0181
G01 X55.0282 Y-29.9722
G01 X55.0294 Y-29.9244
G01 X55.0282 Y-29.8766
G01 X55.0245 Y-29.8270
G01 X55.0188 Y-29.7813
G01 X55.0110 Y-29.7360
G01 X55.0002 Y-29.6875
G01 X54.9874 Y-29.6414
G01 X54.9718 Y-29.5942
G01 X54.9545 Y-29.5496
G01 X54.9358 Y-29.5075
G01 X54.9151 Y-29.4664
G01 X54.8907 Y-29.4231
G01 X54.8651 Y-29.3827
G01 X54.8375 Y-29.3436
G01 X54.8069 Y-29.3045
G01 X54.7756 Y-29.2683
G01 X54.7438 Y-29.2350
G01 X54.7105 Y-29.2032
G01 X54.6729 Y-29.1707
G01 X54.6337 Y-29.1402
G01 X54.5961 Y-29.1137
G01 X54.5557 Y-29.0881
G01 X54.5140 Y-29.0645
G01 X54.4713 Y-29.0430
G01 X54.4275 Y-29.0236
G01 X54.3829 Y-29.0064
G01 X54.3374 Y-28.9914
G01 X54.2913 Y-28.9786
G01 X54.2446 Y-28.9681
G01 X54.1975 Y-28.9600
G01 X54.1500 Y-28.9541
G01 X54.1022 Y-28.9506
G01 X54.0544 Y-28.9494
G01 X54.0066 Y-28.9506
G01 X53.9588 Y-28.9541
G01 X53.9113 Y-28.9600
G01 X53.8642 Y-28.9681
G01 X53.8175 Y-28.9786
G01 X53.7714 Y-28.9914
G01 X53.7259 Y-29.0064
G01 X53.6813 Y-29.0236
G01 X53.6375 Y-29.0430
G01 X53.5948 Y-29.0645
G01 X53.5531 Y-29.0881
G01 X53.5127 Y-29.1137
G01 X53.4736 Y-29.1413
G01 X53.4359 Y-29.1707
G01 X53.3996 Y-29.2020
G01 X53.3650 Y-29.2350
G01 X53.3320 Y-29.2696
G01 X53.3007 Y-29.3059
G01 X53.2673 Y-29.3491
G01 X26.4320 Y-29.3491
G01 X23.9820 Y-26.8992
G01 X23.9892 Y-26.8431
G01 X23.9925 Y-26.7972
G01 X23.9937 Y-26.7494
G01 X23.9924 Y-26.6997
G01 X23.9890 Y-26.6538
G01 X23.9831 Y-26.6063
G01 X23.9750 Y-26.5592
G01 X23.9649 Y-26.5143
G01 X23.9517 Y-26.4664
G01 X23.9367 Y-26.4209
G01 X23.9202 Y-26.3780
G01 X23.8993 Y-26.3309
G01 X23.8786 Y-26.2898
G01 X23.8550 Y-26.2481
G01 X23.8294 Y-26.2077
G01 X23.8029 Y-26.1701
G01 X23.7712 Y-26.1295
G01 X23.7411 Y-26.0946
G01 X23.7094 Y-26.0613
G01 X23.6721 Y-26.0258
G01 X23.6372 Y-25.9957
G01 X23.5995 Y-25.9663
G01 X23.5588 Y-25.9377
G01 X23.5200 Y-25.9131
G01 X23.4791 Y-25.8900
G01 X23.4356 Y-25.8680
G01 X23.3918 Y-25.8486
G01 X23.3472 Y-25.8314
G01 X23.3035 Y-25.8169
G01 X23.2538 Y-25.8032
G01 X23.2089 Y-25.7931
G01 X23.1599 Y-25.7847
G01 X23.1143 Y-25.7791
G01 X23.0665 Y-25.7756
G01 X23.0187 Y-25.7744
G01 X22.9709 Y-25.7756
G01 X22.9231 Y-25.7791
G01 X22.8756 Y-25.7850
G01 X22.8285 Y-25.7931
G01 X22.7836 Y-25.8032
G01 X22.7339 Y-25.8169
G01 X22.6902 Y-25.8314
G01 X22.6439 Y-25.8493
G01 X22.6018 Y-25.8680
G01 X22.5591 Y-25.8895
G01 X22.5174 Y-25.9131
G01 X22.4770 Y-25.9387
G01 X22.4379 Y-25.9663
G01 X22.4002 Y-25.9957
G01 X22.3639 Y-26.0270
G01 X22.3306 Y-26.0587
G01 X22.2963 Y-26.0946
G01 X22.2662 Y-26.1295
G01 X22.2316 Y-26.1741
G01 X20.1575 Y-26.1741
G01 X19.4432 Y-25.4598
G01 X19.4115 Y-25.4307
G01 X19.4116 Y-20.5041
G01 X24.4330 Y-20.5041
G01 X24.4931 Y-20.5026
G01 X24.5550 Y-20.4980
G01 X24.6128 Y-20.4908
G01 X24.6703 Y-20.4809
G01 X24.7308 Y-20.4673
G01 X24.7905 Y-20.4507
G01 X24.8459 Y-20.4324
G01 X24.9020 Y-20.4108
G01 X24.9570 Y-20.3864
G01 X25.0091 Y-20.3602
G01 X25.0631 Y-20.3297
G01 X25.1154 Y-20.2965
G01 X25.1631 Y-20.2629
G01 X25.2098 Y-20.2265
G01 X25.2574 Y-20.1853
G01 X25.2996 Y-20.1451
G01 X25.3411 Y-20.1015
G01 X25.3815 Y-20.0546
G01 X25.4174 Y-20.0086
G01 X25.4515 Y-19.9602
G01 X25.4851 Y-19.9070
G01 X25.5139 Y-19.8562
G01 X25.5405 Y-19.8033
G01 X25.5656 Y-19.7467
G01 X25.5869 Y-19.6914
G01 X25.5994 Y-19.6536
G01 X26.5950 Y-19.6537
G01 X26.6225 Y-19.6811
G01 X26.6226 Y-20.5802
G01 X26.6236 Y-20.5884
G01 X26.6257 Y-20.5974
G01 X26.6286 Y-20.6051
G01 X26.6327 Y-20.6134
G01 X26.6373 Y-20.6203
G01 X26.6432 Y-20.6273
G01 X26.6492 Y-20.6330
G01 X26.6566 Y-20.6385
G01 X26.6654 Y-20.6434
G01 X26.6757 Y-20.6474
G01 X26.6856 Y-20.6496
G01 X26.6966 Y-20.6506
G01 X28.0975 Y-20.6506
G01 X28.1085 Y-20.6498
G01 X28.1210 Y-20.6468
G01 X28.1329 Y-20.6417
G01 X28.1436 Y-20.6347
G01 X28.1531 Y-20.6260
G01 X28.1609 Y-20.6157
G01 X28.1671 Y-20.6034
G01 X28.1709 Y-20.5911
G01 X28.1724 Y-20.5784
G01 X28.1725 Y-19.2756
G01 X28.1711 Y-19.2610
G01 X28.1668 Y-19.2469
G01 X28.1623 Y-19.2378
G01 X28.1561 Y-19.2287
G01 X28.1492 Y-19.2213
G01 X28.1407 Y-19.2143
G01 X28.1320 Y-19.2090
G01 X28.1219 Y-19.2047
G01 X28.1112 Y-19.2019
G01 X28.1012 Y-19.2007
G01 X27.2030 Y-19.2006
G01 X27.0150 Y-19.0126
G01 X26.9898 Y-18.9897
G01 X26.9739 Y-18.9772
G01 X26.9588 Y-18.9666
G01 X26.9417 Y-18.9558
G01 X26.9125 Y-18.9402
G01 X26.8940 Y-18.9319
G01 X26.8750 Y-18.9247
G01 X26.8433 Y-18.9151
G01 X26.8236 Y-18.9106
G01 X26.8045 Y-18.9073
G01 X26.7706 Y-18.9039
G01 X26.7504 Y-18.9034
G01 X25.5994 Y-18.9033
G01 X25.5869 Y-18.8656
G01 X25.5656 Y-18.8103
G01 X25.5405 Y-18.7537
G01 X25.5139 Y-18.7008
G01 X25.4851 Y-18.6500
G01 X25.4515 Y-18.5968
G01 X25.4174 Y-18.5484
G01 X25.3815 Y-18.5024
G01 X25.3411 Y-18.4555
G01 X25.2983 Y-18.4106
G01 X25.2560 Y-18.3704
G01 X25.2112 Y-18.3317
G01 X25.1616 Y-18.2930
G01 X25.1139 Y-18.2595
G01 X25.0646 Y-18.2283
G01 X25.0107 Y-18.1976
G01 X24.9553 Y-18.1698
G01 X24.9020 Y-18.1462
G01 X24.8476 Y-18.1252
G01 X24.7888 Y-18.1057
G01 X24.7308 Y-18.0897
G01 X24.6739 Y-18.0769
G01 X24.6119 Y-18.0661
G01 X24.5531 Y-18.0588
G01 X24.4950 Y-18.0545
G01 X24.4330 Y-18.0529
G01 X19.4115 Y-18.0529
G01 X19.4112 Y-12.3166
G01 X19.4097 Y-12.2964
G01 X19.4072 Y-12.2763
G01 X19.4040 Y-12.2582
G01 X19.3959 Y-12.2261
G01 X19.3896 Y-12.2068
G01 X19.3830 Y-12.1896
G01 X19.3755 Y-12.1728
G01 X19.3664 Y-12.1547
G01 X19.3493 Y-12.1263
G01 X19.3388 Y-12.1112
G01 X19.3264 Y-12.0952
G01 X19.3144 Y-12.0813
G01 X19.3017 Y-12.0679
G01 X19.2870 Y-12.0540
G01 X19.2613 Y-12.0330
G01 X19.2456 Y-12.0218
G01 X19.2277 Y-12.0105
G01 X19.1968 Y-11.9941
G01 X19.1783 Y-11.9859
G01 X19.1453 Y-11.9742
G01 X19.1258 Y-11.9689
G01 X19.0914 Y-11.9621
G01 X19.0713 Y-11.9597
G01 X19.0373 Y-11.9581
G01 X13.8925 Y-11.9580
G01 X13.8924 Y-11.1285
G01 X13.8912 Y-11.1185
G01 X13.8890 Y-11.1095
G01 X13.8853 Y-11.1001
G01 X13.8809 Y-11.0921
G01 X13.8755 Y-11.0846
G01 X13.8685 Y-11.0773
G01 X13.8607 Y-11.0709
G01 X13.8529 Y-11.0661
G01 X13.8445 Y-11.0622
G01 X13.8357 Y-11.0594
G01 X13.8267 Y-11.0578
G01 X13.8175 Y-11.0572
G01 X12.2166 Y-11.0572
G01 X12.2029 Y-11.0586
G01 X12.1897 Y-11.0626
G01 X12.1774 Y-11.0688
G01 X12.1665 Y-11.0773
G01 X12.1573 Y-11.0875
G01 X12.1501 Y-11.0993
G01 X12.1452 Y-11.1122
G01 X12.1428 Y-11.1258
G01 X12.1425 Y-11.9581
G01 X1.7549 Y-11.9585
G01 X1.7174 Y-11.9621
G01 X1.6812 Y-11.9693
G01 X1.6460 Y-11.9800
G01 X1.6137 Y-11.9933
G01 X1.5866 Y-12.0074
G01 X1.5625 Y-12.0223
G01 X1.5344 Y-12.0432
G01 X1.5205 Y-12.0552
G01 X1.5058 Y-12.0692
G01 X1.4824 Y-12.0952
G01 X1.4605 Y-12.1248
G01 X1.4415 Y-12.1564
G01 X1.4258 Y-12.1896
G01 X1.4134 Y-12.2243
G01 X1.4045 Y-12.2600
G01 X1.3991 Y-12.2964
G01 X1.3973 Y-12.3332
G00 Z2.0000
G00 X1.3223 Y-12.3332
G01 F70.00
G01 Z-0.0700
G01 F120.00
G01 X1.3223 Y-25.8703
G01 X1.3241 Y-25.9071
G01 X1.3274 Y-25.9345
G01 X1.3353 Y-25.9742
G01 X1.3427 Y-26.0008
G01 X1.3558 Y-26.0372
G01 X1.3671 Y-26.0624
G01 X1.3863 Y-26.0980
G01 X1.4087 Y-26.1318
G01 X1.4268 Y-26.1550
G01 X1.4541 Y-26.1849
G01 X1.4729 Y-26.2026
G01 X1.5042 Y-26.2282
G01 X1.5254 Y-26.2429
G01 X1.5602 Y-26.2636
G01 X1.5968 Y-26.2810
G01 X1.6207 Y-26.2904
G01 X1.6595 Y-26.3023
G01 X1.6882 Y-26.3088
G01 X1.7283 Y-26.3146
G01 X1.7503 Y-26.3162
G01 X1.7724 Y-26.3167
G01 X11.9881 Y-26.3168
G01 X11.9881 Y-27.2407
G01 X11.9895 Y-27.2609
G01 X11.9917 Y-27.2736
G01 X11.9957 Y-27.2878
G01 X12.0010 Y-27.3015
G01 X12.0067 Y-27.3130
G01 X12.0134 Y-27.3240
G01 X12.0210 Y-27.3344
G01 X12.0307 Y-27.3455
G01 X12.0401 Y-27.3543
G01 X12.0502 Y-27.3623
G01 X12.0610 Y-27.3694
G01 X12.0723 Y-27.3755
G01 X12.0858 Y-27.3813
G01 X12.0999 Y-27.3857
G01 X12.1125 Y-27.3885
G01 X12.1252 Y-27.3901
G01 X12.1381 Y-27.3907
G01 X13.7399 Y-27.3907
G01 X13.7601 Y-27.3891
G01 X13.7799 Y-27.3848
G01 X13.7989 Y-27.3778
G01 X13.8168 Y-27.3684
G01 X13.8318 Y-27.3578
G01 X13.8442 Y-27.3468
G01 X13.8552 Y-27.3344
G01 X13.8658 Y-27.3194
G01 X13.8737 Y-27.3048
G01 X13.8805 Y-27.2878
G01 X13.8852 Y-27.2700
G01 X13.8877 Y-27.2517
G01 X13.8881 Y-26.3167
G01 X18.5674 Y-26.3168
G01 X19.4594 Y-27.2092
G01 X19.4825 Y-27.2312
G01 X19.5067 Y-27.2521
G01 X19.5318 Y-27.2717
G01 X19.5579 Y-27.2901
G01 X19.5881 Y-27.3090
G01 X19.6127 Y-27.3229
G01 X19.6379 Y-27.3356
G01 X19.6670 Y-27.3487
G01 X19.7001 Y-27.3616
G01 X19.7287 Y-27.3711
G01 X19.7648 Y-27.3810
G01 X19.7923 Y-27.3872
G01 X19.8238 Y-27.3926
G01 X19.8591 Y-27.3968
G01 X19.8873 Y-27.3989
G01 X19.9174 Y-27.3996
G01 X22.1946 Y-27.3997
G01 X22.2082 Y-27.4169
G01 X22.2395 Y-27.4532
G01 X22.2775 Y-27.4932
G01 X22.3136 Y-27.5274
G01 X22.3498 Y-27.5587
G01 X22.3917 Y-27.5917
G01 X22.4354 Y-27.6224
G01 X22.4821 Y-27.6519
G01 X22.5237 Y-27.6754
G01 X22.5665 Y-27.6970
G01 X22.6169 Y-27.7195
G01 X22.6684 Y-27.7392
G01 X22.7139 Y-27.7542
G01 X22.7600 Y-27.7670
G01 X22.8139 Y-27.7792
G01 X22.8665 Y-27.7883
G01 X22.9158 Y-27.7943
G01 X22.9635 Y-27.7979
G01 X23.0169 Y-27.7994
G01 X23.0721 Y-27.7980
G01 X23.1198 Y-27.7945
G01 X23.1416 Y-27.7919
G01 X24.7292 Y-29.3794
G01 X24.7120 Y-29.3899
G01 X24.6977 Y-29.4014
G01 X24.6836 Y-29.4159
G01 X24.6727 Y-29.4307
G01 X24.6628 Y-29.4484
G01 X24.6560 Y-29.4654
G01 X24.6513 Y-29.4832
G01 X24.6487 Y-29.5033
G01 X24.6485 Y-30.8180
G01 X24.6495 Y-30.8309
G01 X24.6517 Y-30.8436
G01 X24.6554 Y-30.8578
G01 X24.6598 Y-30.8699
G01 X24.6653 Y-30.8816
G01 X24.6727 Y-30.8943
G01 X24.6813 Y-30.9062
G01 X24.6898 Y-30.9159
G01 X24.7004 Y-30.9261
G01 X24.7105 Y-30.9341
G01 X24.7213 Y-30.9412
G01 X24.7326 Y-30.9473
G01 X24.7444 Y-30.9524
G01 X24.7584 Y-30.9571
G01 X24.7728 Y-30.9603
G01 X24.7855 Y-30.9619
G01 X24.7984 Y-30.9625
G01 X26.3984 Y-30.9625
G01 X26.4149 Y-30.9616
G01 X26.4313 Y-30.9589
G01 X26.4507 Y-30.9531
G01 X26.4691 Y-30.9448
G01 X26.4848 Y-30.9351
G01 X26.5005 Y-30.9224
G01 X26.5144 Y-30.9077
G01 X26.5251 Y-30.8927
G01 X26.5348 Y-30.8750
G01 X26.5419 Y-30.8560
G01 X26.5465 Y-30.8363
G01 X26.5484 Y-30.8162
G01 X26.5484 Y-30.5747
G01 X50.2469 Y-30.5747
G01 X50.2469 Y-31.1697
G01 X50.2480 Y-31.1881
G01 X50.2514 Y-31.2061
G01 X50.2576 Y-31.2254
G01 X50.2664 Y-31.2436
G01 X50.2775 Y-31.2605
G01 X50.2908 Y-31.2758
G01 X50.3046 Y-31.2880
G01 X50.3198 Y-31.2984
G01 X50.3378 Y-31.3076
G01 X50.3516 Y-31.3127
G01 X50.3658 Y-31.3164
G01 X50.3804 Y-31.3188
G01 X50.3951 Y-31.3197
G01 X51.9987 Y-31.3197
G01 X52.0116 Y-31.3190
G01 X52.0244 Y-31.3172
G01 X52.0369 Y-31.3143
G01 X52.0492 Y-31.3103
G01 X52.0610 Y-31.3053
G01 X52.0724 Y-31.2993
G01 X52.0833 Y-31.2923
G01 X52.0935 Y-31.2845
G01 X52.1030 Y-31.2758
G01 X52.1117 Y-31.2663
G01 X52.1195 Y-31.2561
G01 X52.1265 Y-31.2452
G01 X52.1325 Y-31.2338
G01 X52.1375 Y-31.2220
G01 X52.1440 Y-31.1990
G01 X52.1462 Y-31.1844
G01 X52.1469 Y-31.1697
G01 X52.1469 Y-30.5747
G01 X53.2303 Y-30.5747
G01 X53.2439 Y-30.5919
G01 X53.2776 Y-30.6309
G01 X53.3119 Y-30.6669
G01 X53.3520 Y-30.7048
G01 X53.3883 Y-30.7361
G01 X53.4304 Y-30.7689
G01 X53.4726 Y-30.7985
G01 X53.5254 Y-30.8312
G01 X53.5374 Y-48.8516
G01 X53.2844 Y-48.8516
G01 X53.2661 Y-48.8532
G01 X53.2481 Y-48.8570
G01 X53.2307 Y-48.8630
G01 X53.2126 Y-48.8720
G01 X53.1958 Y-48.8833
G01 X53.1820 Y-48.8955
G01 X53.1698 Y-48.9093
G01 X53.1585 Y-48.9261
G01 X53.1502 Y-48.9425
G01 X53.1435 Y-48.9616
G01 X53.1395 Y-48.9814
G01 X53.1381 Y-49.0016
G01 X53.1385 Y-50.3126
G01 X53.1400 Y-50.3254
G01 X53.1431 Y-50.3398
G01 X53.1475 Y-50.3539
G01 X53.1525 Y-50.3657
G01 X53.1594 Y-50.3787
G01 X53.1665 Y-50.3895
G01 X53.1745 Y-50.3996
G01 X53.1833 Y-50.4090
G01 X53.1929 Y-50.4176
G01 X53.2032 Y-50.4253
G01 X53.2142 Y-50.4321
G01 X53.2273 Y-50.4387
G01 X53.2410 Y-50.4440
G01 X53.2534 Y-50.4475
G01 X53.2679 Y-50.4502
G01 X53.2807 Y-50.4514
G01 X54.6936 Y-50.4515
G01 X54.7101 Y-50.4500
G01 X54.7281 Y-50.4462
G01 X54.7438 Y-50.4409
G01 X54.7604 Y-50.4330
G01 X54.7760 Y-50.4232
G01 X54.7888 Y-50.4127
G01 X54.8005 Y-50.4010
G01 X54.8107 Y-50.3880
G01 X54.8221 Y-50.3690
G01 X54.8305 Y-50.3487
G01 X54.8359 Y-50.3272
G01 X54.8381 Y-50.3034
G01 X54.8381 Y-49.0016
G01 X54.8370 Y-48.9832
G01 X54.8340 Y-48.9669
G01 X54.8280 Y-48.9476
G01 X54.8204 Y-48.9309
G01 X54.8097 Y-48.9137
G01 X54.7967 Y-48.8982
G01 X54.7818 Y-48.8845
G01 X54.7652 Y-48.8729
G01 X54.7472 Y-48.8637
G01 X54.7299 Y-48.8575
G01 X54.7101 Y-48.8532
G01 X54.6918 Y-48.8516
G01 X54.4377 Y-48.8516
G01 X54.4258 Y-30.9063
G01 X54.4579 Y-30.8938
G01 X54.5050 Y-30.8728
G01 X54.5494 Y-30.8504
G01 X54.5926 Y-30.8260
G01 X54.6408 Y-30.7954
G01 X54.6799 Y-30.7678
G01 X54.7191 Y-30.7372
G01 X54.7622 Y-30.6999
G01 X54.7969 Y-30.6669
G01 X54.8324 Y-30.6295
G01 X54.8684 Y-30.5876
G01 X54.8978 Y-30.5499
G01 X54.9264 Y-30.5093
G01 X54.9569 Y-30.4610
G01 X54.9804 Y-30.4194
G01 X55.0036 Y-30.3733
G01 X55.0245 Y-30.3262
G01 X55.0417 Y-30.2816
G01 X55.0592 Y-30.2292
G01 X55.0729 Y-30.1795
G01 X55.0835 Y-30.1328
G01 X55.0930 Y-30.0785
G01 X55.0993 Y-30.0273
G01 X55.1029 Y-29.9796
G01 X55.1044 Y-29.9226
G01 X55.1029 Y-29.8692
G01 X55.0993 Y-29.8215
G01 X55.0935 Y-29.7740
G01 X55.0842 Y-29.7196
G01 X55.0729 Y-29.6693
G01 X55.0592 Y-29.6196
G01 X55.0417 Y-29.5672
G01 X55.0230 Y-29.5192
G01 X55.0036 Y-29.4755
G01 X54.9821 Y-29.4327
G01 X54.9550 Y-29.3846
G01 X54.9274 Y-29.3411
G01 X54.8978 Y-29.2989
G01 X54.8637 Y-29.2555
G01 X54.8299 Y-29.2166
G01 X54.7969 Y-29.1819
G01 X54.7622 Y-29.1489
G01 X54.7205 Y-29.1127
G01 X54.6769 Y-29.0789
G01 X54.6377 Y-29.0514
G01 X54.5942 Y-29.0238
G01 X54.5494 Y-28.9984
G01 X54.5066 Y-28.9768
G01 X54.4528 Y-28.9530
G01 X54.4081 Y-28.9358
G01 X54.3627 Y-28.9207
G01 X54.3059 Y-28.9050
G01 X54.2592 Y-28.8946
G01 X54.2085 Y-28.8858
G01 X54.1573 Y-28.8795
G01 X54.1096 Y-28.8759
G01 X54.0526 Y-28.8744
G01 X54.0029 Y-28.8757
G01 X53.9478 Y-28.8799
G01 X53.8967 Y-28.8863
G01 X53.8496 Y-28.8946
G01 X53.8029 Y-28.9050
G01 X53.7496 Y-28.9196
G01 X53.7007 Y-28.9358
G01 X53.6526 Y-28.9543
G01 X53.6038 Y-28.9760
G01 X53.5562 Y-29.0002
G01 X53.5146 Y-29.0238
G01 X53.4741 Y-29.0493
G01 X53.4289 Y-29.0810
G01 X53.3897 Y-29.1116
G01 X53.3493 Y-29.1464
G01 X53.3106 Y-29.1832
G01 X53.2752 Y-29.2206
G01 X53.2439 Y-29.2569
G01 X53.2303 Y-29.2741
G01 X26.4630 Y-29.2741
G01 X24.0612 Y-26.8723
G01 X24.0638 Y-26.8505
G01 X24.0675 Y-26.7991
G01 X24.0687 Y-26.7494
G01 X24.0675 Y-26.6997
G01 X24.0632 Y-26.6428
G01 X24.0573 Y-26.5953
G01 X24.0489 Y-26.5464
G01 X24.0363 Y-26.4907
G01 X24.0235 Y-26.4446
G01 X24.0073 Y-26.3957
G01 X23.9873 Y-26.3442
G01 X23.9679 Y-26.3005
G01 X23.9456 Y-26.2561
G01 X23.9174 Y-26.2065
G01 X23.8917 Y-26.1661
G01 X23.8621 Y-26.1239
G01 X23.8304 Y-26.0833
G01 X23.7991 Y-26.0470
G01 X23.7612 Y-26.0069
G01 X23.7238 Y-25.9714
G01 X23.6876 Y-25.9401
G01 X23.6442 Y-25.9060
G01 X23.6020 Y-25.8764
G01 X23.5616 Y-25.8507
G01 X23.5104 Y-25.8217
G01 X23.4676 Y-25.8002
G01 X23.4205 Y-25.7793
G01 X23.3724 Y-25.7608
G01 X23.3270 Y-25.7457
G01 X23.2702 Y-25.7300
G01 X23.2235 Y-25.7196
G01 X23.1728 Y-25.7108
G01 X23.1216 Y-25.7045
G01 X23.0702 Y-25.7007
G01 X23.0187 Y-25.6994
G01 X22.9709 Y-25.7005
G01 X22.9121 Y-25.7049
G01 X22.8646 Y-25.7108
G01 X22.8121 Y-25.7199
G01 X22.7636 Y-25.7309
G01 X22.7139 Y-25.7446
G01 X22.6650 Y-25.7608
G01 X22.6203 Y-25.7780
G01 X22.5665 Y-25.8018
G01 X22.5237 Y-25.8234
G01 X22.4773 Y-25.8497
G01 X22.4354 Y-25.8764
G01 X22.3932 Y-25.9060
G01 X22.3526 Y-25.9377
G01 X22.3149 Y-25.9702
G01 X22.2762 Y-26.0069
G01 X22.2419 Y-26.0429
G01 X22.2082 Y-26.0819
G01 X22.1946 Y-26.0991
G01 X20.1885 Y-26.0991
G01 X19.4865 Y-25.3976
G01 X19.4866 Y-20.5791
G01 X21.7397 Y-20.5791
G01 X21.6948 Y-20.5940
G01 X21.6353 Y-20.6169
G01 X21.5769 Y-20.6428
G01 X21.5232 Y-20.6698
G01 X21.4612 Y-20.7049
G01 X21.4104 Y-20.7371
G01 X21.3582 Y-20.7739
G01 X21.3079 Y-20.8131
G01 X21.2623 Y-20.8524
G01 X21.2108 Y-20.9015
G01 X21.1693 Y-20.9451
G01 X21.1276 Y-20.9934
G01 X21.0884 Y-21.0437
G01 X21.0537 Y-21.0929
G01 X21.0156 Y-21.1531
G01 X20.9860 Y-21.2054
G01 X20.9573 Y-21.2624
G01 X20.9314 Y-21.3208
G01 X20.9097 Y-21.3769
G01 X20.8874 Y-21.4445
G01 X20.8714 Y-21.5025
G01 X20.8574 Y-21.5648
G01 X20.8465 Y-21.6277
G01 X20.8391 Y-21.6874
G01 X20.8339 Y-21.7584
G01 X20.8324 Y-21.8185
G01 X20.8339 Y-21.8805
G01 X20.8391 Y-21.9496
G01 X20.8465 Y-22.0093
G01 X20.8574 Y-22.0722
G01 X20.8714 Y-22.1345
G01 X20.8874 Y-22.1925
G01 X20.9097 Y-22.2601
G01 X20.9314 Y-22.3162
G01 X20.9573 Y-22.3746
G01 X20.9860 Y-22.4316
G01 X21.0156 Y-22.4839
G01 X21.0537 Y-22.5441
G01 X21.0884 Y-22.5933
G01 X21.1276 Y-22.6436
G01 X21.1693 Y-22.6919
G01 X21.2108 Y-22.7355
G01 X21.2623 Y-22.7846
G01 X21.3079 Y-22.8239
G01 X21.3582 Y-22.8631
G01 X21.4104 Y-22.8999
G01 X21.4612 Y-22.9321
G01 X21.5232 Y-22.9672
G01 X21.5769 Y-22.9942
G01 X21.6353 Y-23.0201
G01 X21.6948 Y-23.0430
G01 X21.7520 Y-23.0620
G01 X21.8188 Y-23.0805
G01 X21.8829 Y-23.0948
G01 X21.9422 Y-23.1050
G01 X22.0019 Y-23.1124
G01 X22.0692 Y-23.1175
G01 X22.1312 Y-23.1191
G01 X24.4330 Y-23.1191
G01 X24.4968 Y-23.1175
G01 X24.5568 Y-23.1131
G01 X24.6275 Y-23.1044
G01 X24.6867 Y-23.0941
G01 X24.7454 Y-23.0809
G01 X24.8105 Y-23.0631
G01 X24.8746 Y-23.0418
G01 X24.9307 Y-23.0201
G01 X24.9857 Y-22.9957
G01 X25.0461 Y-22.9655
G01 X25.1048 Y-22.9321
G01 X25.1556 Y-22.8999
G01 X25.2048 Y-22.8653
G01 X25.2566 Y-22.8250
G01 X25.3064 Y-22.7822
G01 X25.3552 Y-22.7355
G01 X25.3967 Y-22.6919
G01 X25.4360 Y-22.6464
G01 X25.4787 Y-22.5918
G01 X25.5164 Y-22.5380
G01 X25.5485 Y-22.4871
G01 X25.5791 Y-22.4332
G01 X25.6095 Y-22.3729
G01 X25.6346 Y-22.3162
G01 X25.6502 Y-22.2757
G01 X26.5475 Y-22.2758
G01 X26.5475 Y-22.4774
G01 X26.5494 Y-22.4994
G01 X26.5520 Y-22.5120
G01 X26.5557 Y-22.5244
G01 X26.5604 Y-22.5364
G01 X26.5661 Y-22.5479
G01 X26.5728 Y-22.5589
G01 X26.5804 Y-22.5693
G01 X26.5968 Y-22.5867
G01 X26.6157 Y-22.6013
G01 X26.6367 Y-22.6127
G01 X26.6575 Y-22.6202
G01 X26.6810 Y-22.6247
G01 X26.6975 Y-22.6256
G01 X26.9343 Y-22.6256
G01 X26.9342 Y-23.3300
G01 X26.5826 Y-23.3300
G01 X26.5642 Y-23.3314
G01 X26.5480 Y-23.3345
G01 X26.5270 Y-23.3414
G01 X26.5073 Y-23.3513
G01 X26.4892 Y-23.3640
G01 X26.4745 Y-23.3779
G01 X26.4607 Y-23.3951
G01 X26.4496 Y-23.4142
G01 X26.4414 Y-23.4347
G01 X26.4363 Y-23.4562
G01 X26.4344 Y-23.4800
G01 X26.4344 Y-24.7800
G01 X26.4351 Y-24.7947
G01 X26.4369 Y-24.8075
G01 X26.4403 Y-24.8218
G01 X26.4445 Y-24.8340
G01 X26.4496 Y-24.8458
G01 X26.4557 Y-24.8571
G01 X26.4628 Y-24.8679
G01 X26.4708 Y-24.8780
G01 X26.4796 Y-24.8874
G01 X26.4892 Y-24.8960
G01 X26.4995 Y-24.9037
G01 X26.5105 Y-24.9105
G01 X26.5236 Y-24.9171
G01 X26.5356 Y-24.9218
G01 X26.5497 Y-24.9259
G01 X26.5624 Y-24.9284
G01 X26.5752 Y-24.9297
G01 X28.1881 Y-24.9300
G01 X28.2009 Y-24.9291
G01 X28.2137 Y-24.9271
G01 X28.2262 Y-24.9241
G01 X28.2384 Y-24.9199
G01 X28.2502 Y-24.9148
G01 X28.2615 Y-24.9087
G01 X28.2723 Y-24.9016
G01 X28.2824 Y-24.8936
G01 X28.2930 Y-24.8834
G01 X28.3027 Y-24.8723
G01 X28.3121 Y-24.8587
G01 X28.3192 Y-24.8458
G01 X28.3250 Y-24.8323
G01 X28.3299 Y-24.8164
G01 X28.3328 Y-24.8020
G01 X28.3343 Y-24.7855
G01 X28.3344 Y-23.4800
G01 X28.3337 Y-23.4653
G01 X28.3315 Y-23.4507
G01 X28.3256 Y-23.4295
G01 X28.3175 Y-23.4109
G01 X28.3070 Y-23.3936
G01 X28.2930 Y-23.3766
G01 X28.2781 Y-23.3629
G01 X28.2599 Y-23.3504
G01 X28.2401 Y-23.3407
G01 X28.2191 Y-23.3341
G01 X28.2028 Y-23.3311
G01 X28.1862 Y-23.3300
G01 X27.8345 Y-23.3300
G01 X27.8346 Y-22.6256
G01 X28.0975 Y-22.6256
G01 X28.1104 Y-22.6250
G01 X28.1304 Y-22.6220
G01 X28.1515 Y-22.6155
G01 X28.1698 Y-22.6070
G01 X28.1883 Y-22.5950
G01 X28.1982 Y-22.5867
G01 X28.2074 Y-22.5777
G01 X28.2158 Y-22.5679
G01 X28.2242 Y-22.5558
G01 X28.2306 Y-22.5447
G01 X28.2361 Y-22.5330
G01 X28.2405 Y-22.5209
G01 X28.2442 Y-22.5067
G01 X28.2466 Y-22.4921
G01 X28.2475 Y-22.4774
G01 X28.2475 Y-22.3129
G01 X29.1537 Y-22.3130
G01 X29.1538 Y-22.5183
G01 X29.1562 Y-22.5403
G01 X29.1619 Y-22.5616
G01 X29.1689 Y-22.5786
G01 X29.1790 Y-22.5961
G01 X29.1913 Y-22.6122
G01 X29.2043 Y-22.6252
G01 X29.2204 Y-22.6375
G01 X29.2363 Y-22.6468
G01 X29.2549 Y-22.6546
G01 X29.2726 Y-22.6595
G01 X29.2872 Y-22.6619
G01 X29.3037 Y-22.6628
G01 X30.7055 Y-22.6628
G01 X30.7221 Y-22.6617
G01 X30.7384 Y-22.6587
G01 X30.7542 Y-22.6540
G01 X30.7678 Y-22.6484
G01 X30.7855 Y-22.6385
G01 X30.8017 Y-22.6264
G01 X30.8161 Y-22.6122
G01 X30.8284 Y-22.5961
G01 X30.8385 Y-22.5786
G01 X30.8455 Y-22.5616
G01 X30.8508 Y-22.5421
G01 X30.8534 Y-22.5220
G01 X30.8537 Y-21.2110
G01 X30.8528 Y-21.1963
G01 X30.8508 Y-21.1835
G01 X30.8472 Y-21.1693
G01 X30.8430 Y-21.1571
G01 X30.8368 Y-21.1437
G01 X30.8304 Y-21.1326
G01 X30.8231 Y-21.1220
G01 X30.8148 Y-21.1121
G01 X30.8044 Y-21.1017
G01 X30.7945 Y-21.0934
G01 X30.7824 Y-21.0851
G01 X30.7711 Y-21.0788
G01 X30.7594 Y-21.0735
G01 X30.7455 Y-21.0687
G01 X30.7312 Y-21.0653
G01 X30.7184 Y-21.0635
G01 X30.7037 Y-21.0628
G01 X29.2927 Y-21.0632
G01 X29.2708 Y-21.0664
G01 X29.2514 Y-21.0722
G01 X29.2330 Y-21.0805
G01 X29.2143 Y-21.0923
G01 X29.1989 Y-21.1054
G01 X29.1843 Y-21.1220
G01 X29.1732 Y-21.1389
G01 X29.1644 Y-21.1571
G01 X29.1602 Y-21.1693
G01 X29.1570 Y-21.1817
G01 X29.1548 Y-21.1944
G01 X29.1538 Y-21.2073
G01 X29.1537 Y-21.4127
G01 X28.2475 Y-21.4126
G01 X28.2475 Y-21.1719
G01 X28.2456 Y-21.1518
G01 X28.2410 Y-21.1321
G01 X28.2346 Y-21.1148
G01 X28.2252 Y-21.0969
G01 X28.2146 Y-21.0819
G01 X28.2009 Y-21.0670
G01 X28.1854 Y-21.0540
G01 X28.1698 Y-21.0442
G01 X28.1532 Y-21.0363
G01 X28.1339 Y-21.0301
G01 X28.1159 Y-21.0267
G01 X28.0975 Y-21.0256
G01 X26.6920 Y-21.0257
G01 X26.6719 Y-21.0278
G01 X26.6504 Y-21.0332
G01 X26.6301 Y-21.0416
G01 X26.6111 Y-21.0530
G01 X26.5954 Y-21.0657
G01 X26.5804 Y-21.0819
G01 X26.5688 Y-21.0985
G01 X26.5589 Y-21.1182
G01 X26.5545 Y-21.1303
G01 X26.5511 Y-21.1427
G01 X26.5489 Y-21.1554
G01 X26.5477 Y-21.1682
G01 X26.5475 Y-21.3755
G01 X25.6557 Y-21.3754
G01 X25.6346 Y-21.3208
G01 X25.6102 Y-21.2658
G01 X25.5817 Y-21.2087
G01 X25.5485 Y-21.1499
G01 X25.5144 Y-21.0959
G01 X25.4754 Y-21.0408
G01 X25.4384 Y-20.9934
G01 X25.3991 Y-20.9478
G01 X25.3526 Y-20.8989
G01 X25.3050 Y-20.8536
G01 X25.2552 Y-20.8108
G01 X25.2078 Y-20.7739
G01 X25.1586 Y-20.7392
G01 X25.1016 Y-20.7030
G01 X25.0445 Y-20.6706
G01 X24.9891 Y-20.6428
G01 X24.9341 Y-20.6184
G01 X24.8729 Y-20.5946
G01 X24.8088 Y-20.5734
G01 X24.7490 Y-20.5569
G01 X24.7118 Y-20.5485
G01 X24.7490 Y-20.5401
G01 X24.8088 Y-20.5236
G01 X24.8729 Y-20.5024
G01 X24.9307 Y-20.4801
G01 X24.9857 Y-20.4557
G01 X25.0445 Y-20.4264
G01 X25.1016 Y-20.3940
G01 X25.1586 Y-20.3578
G01 X25.2107 Y-20.3209
G01 X25.2581 Y-20.2839
G01 X25.3037 Y-20.2446
G01 X25.3526 Y-20.1981
G01 X25.3991 Y-20.1492
G01 X25.4384 Y-20.1036
G01 X25.4754 Y-20.0562
G01 X25.5144 Y-20.0011
G01 X25.5485 Y-19.9471
G01 X25.5817 Y-19.8883
G01 X25.6102 Y-19.8312
G01 X25.6346 Y-19.7762
G01 X25.6530 Y-19.7286
G01 X26.5475 Y-19.7286
G01 X26.5479 Y-20.5866
G01 X26.5504 Y-20.6049
G01 X26.5545 Y-20.6209
G01 X26.5611 Y-20.6381
G01 X26.5688 Y-20.6527
G01 X26.5792 Y-20.6679
G01 X26.5901 Y-20.6804
G01 X26.6038 Y-20.6927
G01 X26.6188 Y-20.7033
G01 X26.6367 Y-20.7127
G01 X26.6557 Y-20.7197
G01 X26.6755 Y-20.7240
G01 X26.6957 Y-20.7256
G01 X28.0993 Y-20.7256
G01 X28.1122 Y-20.7249
G01 X28.1250 Y-20.7231
G01 X28.1375 Y-20.7202
G01 X28.1498 Y-20.7162
G01 X28.1698 Y-20.7070
G01 X28.1883 Y-20.6950
G01 X28.2049 Y-20.6804
G01 X28.2180 Y-20.6650
G01 X28.2298 Y-20.6463
G01 X28.2387 Y-20.6261
G01 X28.2442 Y-20.6067
G01 X28.2472 Y-20.5848
G01 X28.2475 Y-19.2756
G01 X28.2469 Y-19.2627
G01 X28.2453 Y-19.2500
G01 X28.2393 Y-19.2268
G01 X28.2306 Y-19.2065
G01 X28.2201 Y-19.1892
G01 X28.2061 Y-19.1722
G01 X28.1912 Y-19.1585
G01 X28.1730 Y-19.1460
G01 X28.1532 Y-19.1363
G01 X28.1339 Y-19.1301
G01 X28.1122 Y-19.1263
G01 X28.0975 Y-19.1256
G01 X27.2341 Y-19.1256
G01 X27.0554 Y-18.9475
G01 X27.0345 Y-18.9294
G01 X27.0035 Y-18.9063
G01 X26.9818 Y-18.8924
G01 X26.9626 Y-18.8815
G01 X26.9429 Y-18.8716
G01 X26.9192 Y-18.8612
G01 X26.8846 Y-18.8488
G01 X26.8633 Y-18.8428
G01 X26.8382 Y-18.8370
G01 X26.8165 Y-18.8332
G01 X26.7909 Y-18.8302
G01 X26.7504 Y-18.8284
G01 X25.6530 Y-18.8283
G01 X25.6346 Y-18.7808
G01 X25.6102 Y-18.7258
G01 X25.5817 Y-18.6687
G01 X25.5485 Y-18.6099
G01 X25.5144 Y-18.5559
G01 X25.4754 Y-18.5008
G01 X25.4384 Y-18.4534
G01 X25.3991 Y-18.4078
G01 X25.3526 Y-18.3589
G01 X25.3037 Y-18.3124
G01 X25.2581 Y-18.2731
G01 X25.2107 Y-18.2361
G01 X25.1586 Y-18.1992
G01 X25.1016 Y-18.1630
G01 X25.0445 Y-18.1306
G01 X24.9891 Y-18.1028
G01 X24.9341 Y-18.0784
G01 X24.8729 Y-18.0546
G01 X24.8088 Y-18.0334
G01 X24.7490 Y-18.0169
G01 X24.7118 Y-18.0085
G01 X24.7508 Y-17.9996
G01 X24.8123 Y-17.9825
G01 X24.8712 Y-17.9630
G01 X24.9324 Y-17.9394
G01 X24.9891 Y-17.9142
G01 X25.0461 Y-17.8855
G01 X25.1016 Y-17.8540
G01 X25.1540 Y-17.8209
G01 X25.2078 Y-17.7831
G01 X25.2552 Y-17.7462
G01 X25.3091 Y-17.6997
G01 X25.3526 Y-17.6581
G01 X25.3967 Y-17.6119
G01 X25.4384 Y-17.5636
G01 X25.4765 Y-17.5147
G01 X25.5144 Y-17.4611
G01 X25.5466 Y-17.4103
G01 X25.5817 Y-17.3483
G01 X25.6087 Y-17.2946
G01 X25.6346 Y-17.2362
G01 X25.6575 Y-17.1767
G01 X25.6776 Y-17.1160
G01 X25.6946 Y-17.0545
G01 X25.7078 Y-16.9958
G01 X25.7200 Y-16.9257
G01 X25.7273 Y-16.8660
G01 X25.7320 Y-16.8023
G01 X25.7336 Y-16.7385
G01 X25.7320 Y-16.6747
G01 X25.7273 Y-16.6110
G01 X25.7189 Y-16.5440
G01 X25.7078 Y-16.4812
G01 X25.6946 Y-16.4225
G01 X25.6786 Y-16.3645
G01 X25.6575 Y-16.3003
G01 X25.6346 Y-16.2408
G01 X25.6087 Y-16.1824
G01 X25.5782 Y-16.1222
G01 X25.5485 Y-16.0699
G01 X25.5164 Y-16.0190
G01 X25.4798 Y-15.9667
G01 X25.4384 Y-15.9134
G01 X25.3967 Y-15.8651
G01 X25.3526 Y-15.8189
G01 X25.3037 Y-15.7724
G01 X25.2581 Y-15.7331
G01 X25.2107 Y-15.6961
G01 X25.1571 Y-15.6581
G01 X25.1016 Y-15.6230
G01 X25.0461 Y-15.5915
G01 X24.9891 Y-15.5628
G01 X24.9307 Y-15.5369
G01 X24.8712 Y-15.5140
G01 X24.8105 Y-15.4939
G01 X24.7490 Y-15.4769
G01 X24.6849 Y-15.4626
G01 X24.6238 Y-15.4520
G01 X24.5641 Y-15.4446
G01 X24.4950 Y-15.4394
G01 X24.4330 Y-15.4379
G01 X23.9333 Y-15.4379
G01 X23.9333 Y-14.4016
G01 X24.1530 Y-14.4015
G01 X24.1768 Y-14.3987
G01 X24.1893 Y-14.3957
G01 X24.2015 Y-14.3915
G01 X24.2198 Y-14.3830
G01 X24.2383 Y-14.3710
G01 X24.2549 Y-14.3564
G01 X24.2680 Y-14.3410
G01 X24.2798 Y-14.3223
G01 X24.2881 Y-14.3039
G01 X24.2939 Y-14.2845
G01 X24.2971 Y-14.2626
G01 X24.2974 Y-12.6516
G01 X24.2955 Y-12.6278
G01 X24.2909 Y-12.6081
G01 X24.2838 Y-12.5891
G01 X24.2741 Y-12.5713
G01 X24.2622 Y-12.5550
G01 X24.2481 Y-12.5405
G01 X24.2323 Y-12.5279
G01 X24.2148 Y-12.5176
G01 X24.1962 Y-12.5098
G01 X24.1749 Y-12.5041
G01 X24.1529 Y-12.5017
G01 X23.9333 Y-12.5016
G01 X23.9333 Y-11.9410
G01 X24.1908 Y-11.9410
G01 X24.2109 Y-11.9391
G01 X24.2306 Y-11.9345
G01 X24.2496 Y-11.9274
G01 X24.2673 Y-11.9177
G01 X24.2837 Y-11.9058
G01 X24.2982 Y-11.8917
G01 X24.3108 Y-11.8759
G01 X24.3202 Y-11.8601
G01 X24.3283 Y-11.8415
G01 X24.3338 Y-11.8221
G01 X24.3364 Y-11.8057
G01 X24.3371 Y-11.7910
G01 X24.3371 Y-10.1910
G01 X24.3364 Y-10.1763
G01 X24.3338 Y-10.1599
G01 X24.3301 Y-10.1457
G01 X24.3250 Y-10.1319
G01 X24.3167 Y-10.1155
G01 X24.3076 Y-10.1016
G01 X24.2970 Y-10.0889
G01 X24.2837 Y-10.0762
G01 X24.2689 Y-10.0653
G01 X24.2545 Y-10.0570
G01 X24.2376 Y-10.0498
G01 X24.2218 Y-10.0451
G01 X24.2055 Y-10.0421
G01 X24.1889 Y-10.0410
G01 X23.9333 Y-10.0410
G01 X23.9333 Y-9.3924
G01 X23.9325 Y-9.3605
G01 X23.9301 Y-9.3287
G01 X23.9262 Y-9.2970
G01 X23.9208 Y-9.2655
G01 X23.9138 Y-9.2344
G01 X23.9041 Y-9.2001
G01 X23.8952 Y-9.1733
G01 X23.8851 Y-9.1470
G01 X23.8724 Y-9.1177
G01 X23.8565 Y-9.0859
G01 X23.8417 Y-9.0597
G01 X23.8237 Y-9.0311
G01 X23.8031 Y-9.0021
G01 X23.7857 Y-8.9799
G01 X23.7672 Y-8.9585
G01 X23.7441 Y-8.9339
G01 X22.7642 Y-7.9540
G01 X22.7383 Y-7.9296
G01 X22.7169 Y-7.9112
G01 X22.6932 Y-7.8926
G01 X22.6626 Y-7.8711
G01 X22.6387 Y-7.8561
G01 X22.6109 Y-7.8403
G01 X22.5791 Y-7.8245
G01 X22.5533 Y-7.8131
G01 X22.5269 Y-7.8028
G01 X22.4896 Y-7.7905
G01 X22.4624 Y-7.7830
G01 X22.4349 Y-7.7768
G01 X22.3998 Y-7.7706
G01 X22.3645 Y-7.7664
G01 X22.3363 Y-7.7643
G01 X22.3044 Y-7.7635
G01 X21.0027 Y-7.7635
G01 X20.9782 Y-7.7082
G01 X20.9435 Y-7.6392
G01 X20.9037 Y-7.5686
G01 X20.8585 Y-7.4970
G01 X20.8140 Y-7.4338
G01 X20.7621 Y-7.3670
G01 X20.7092 Y-7.3056
G01 X20.6533 Y-7.2470
G01 X20.5947 Y-7.1911
G01 X20.5333 Y-7.1382
G01 X20.4695 Y-7.0884
G01 X20.4033 Y-7.0418
G01 X20.3317 Y-6.9966
G01 X20.2644 Y-6.9585
G01 X20.1954 Y-6.9237
G01 X20.1214 Y-6.8907
G01 X20.0425 Y-6.8602
G01 X19.9673 Y-6.8353
G01 X19.8875 Y-6.8131
G01 X19.8049 Y-6.7947
G01 X19.7287 Y-6.7816
G01 X19.6520 Y-6.7721
G01 X19.5676 Y-6.7657
G01 X19.4866 Y-6.7637
G01 X19.4020 Y-6.7659
G01 X19.3249 Y-6.7716
G01 X19.2481 Y-6.7811
G01 X19.1647 Y-6.7954
G01 X19.0857 Y-6.8131
G01 X19.0041 Y-6.8359
G01 X18.9307 Y-6.8602
G01 X18.8586 Y-6.8879
G01 X18.7811 Y-6.9221
G01 X18.7056 Y-6.9603
G01 X18.6383 Y-6.9984
G01 X18.5730 Y-7.0398
G01 X18.5037 Y-7.0884
G01 X18.4370 Y-7.1406
G01 X18.3785 Y-7.1911
G01 X18.3225 Y-7.2444
G01 X18.2640 Y-7.3056
G01 X18.2088 Y-7.3698
G01 X18.1613 Y-7.4308
G01 X18.1168 Y-7.4940
G01 X18.0713 Y-7.5654
G01 X18.0297 Y-7.6392
G01 X17.9950 Y-7.7082
G01 X17.9636 Y-7.7789
G01 X17.9343 Y-7.8544
G01 X17.9076 Y-7.9347
G01 X17.8852 Y-8.0164
G01 X17.8683 Y-8.0918
G01 X17.8550 Y-8.1680
G01 X17.8445 Y-8.2520
G01 X17.8385 Y-8.3364
G01 X17.8366 Y-8.4137
G01 X17.8385 Y-8.4910
G01 X17.8445 Y-8.5754
G01 X17.8547 Y-8.6576
G01 X17.8683 Y-8.7356
G01 X17.8852 Y-8.8110
G01 X17.9076 Y-8.8927
G01 X17.9331 Y-8.9696
G01 X17.9608 Y-9.0417
G01 X17.9950 Y-9.1192
G01 X18.0332 Y-9.1947
G01 X18.0713 Y-9.2620
G01 X18.1147 Y-9.3304
G01 X18.1613 Y-9.3966
G01 X18.2088 Y-9.4576
G01 X18.2665 Y-9.5245
G01 X18.3199 Y-9.5804
G01 X18.3785 Y-9.6363
G01 X18.4399 Y-9.6892
G01 X18.5008 Y-9.7368
G01 X18.5730 Y-9.7876
G01 X18.6383 Y-9.8290
G01 X18.7056 Y-9.8671
G01 X18.7845 Y-9.9068
G01 X18.8552 Y-9.9381
G01 X18.9307 Y-9.9672
G01 X19.0112 Y-9.9937
G01 X19.0857 Y-10.0143
G01 X19.1629 Y-10.0316
G01 X19.2445 Y-10.0458
G01 X19.3212 Y-10.0553
G01 X19.4093 Y-10.0618
G01 X19.4866 Y-10.0637
G01 X19.5676 Y-10.0617
G01 X19.6483 Y-10.0558
G01 X19.7287 Y-10.0458
G01 X19.8085 Y-10.0320
G01 X19.8839 Y-10.0151
G01 X19.9691 Y-9.9915
G01 X20.0425 Y-9.9672
G01 X20.1180 Y-9.9381
G01 X20.1921 Y-9.9053
G01 X20.2628 Y-9.8697
G01 X20.3349 Y-9.8290
G01 X20.4002 Y-9.7876
G01 X20.4724 Y-9.7368
G01 X20.5333 Y-9.6892
G01 X20.5947 Y-9.6363
G01 X20.6533 Y-9.5804
G01 X20.7079 Y-9.5231
G01 X20.7621 Y-9.4604
G01 X20.8097 Y-9.3995
G01 X20.8595 Y-9.3289
G01 X20.9019 Y-9.2620
G01 X20.9418 Y-9.1915
G01 X20.9782 Y-9.1192
G01 X21.0027 Y-9.0640
G01 X22.0350 Y-9.0640
G01 X22.6327 Y-9.6617
G01 X22.6327 Y-15.4379
G01 X22.1330 Y-15.4379
G01 X22.0710 Y-15.4394
G01 X22.0019 Y-15.4446
G01 X21.9422 Y-15.4520
G01 X21.8829 Y-15.4622
G01 X21.8170 Y-15.4769
G01 X21.7555 Y-15.4939
G01 X21.6948 Y-15.5140
G01 X21.6353 Y-15.5369
G01 X21.5769 Y-15.5628
G01 X21.5199 Y-15.5915
G01 X21.4644 Y-15.6230
G01 X21.4120 Y-15.6561
G01 X21.3582 Y-15.6939
G01 X21.3079 Y-15.7331
G01 X21.2596 Y-15.7748
G01 X21.2108 Y-15.8215
G01 X21.1669 Y-15.8678
G01 X21.1276 Y-15.9134
G01 X21.0906 Y-15.9608
G01 X21.0516 Y-16.0159
G01 X21.0175 Y-16.0699
G01 X20.9860 Y-16.1254
G01 X20.9573 Y-16.1824
G01 X20.9314 Y-16.2408
G01 X20.9073 Y-16.3038
G01 X20.8884 Y-16.3610
G01 X20.8723 Y-16.4189
G01 X20.8582 Y-16.4812
G01 X20.8465 Y-16.5477
G01 X20.8389 Y-16.6092
G01 X20.8340 Y-16.6747
G01 X20.8325 Y-16.7348
G01 X20.8342 Y-16.8060
G01 X20.8387 Y-16.8660
G01 X20.8465 Y-16.9293
G01 X20.8574 Y-16.9922
G01 X20.8714 Y-17.0545
G01 X20.8884 Y-17.1160
G01 X20.9073 Y-17.1732
G01 X20.9329 Y-17.2396
G01 X20.9573 Y-17.2946
G01 X20.9860 Y-17.3516
G01 X21.0175 Y-17.4071
G01 X21.0506 Y-17.4595
G01 X21.0884 Y-17.5133
G01 X21.1253 Y-17.5607
G01 X21.1718 Y-17.6146
G01 X21.2134 Y-17.6581
G01 X21.2596 Y-17.7022
G01 X21.3079 Y-17.7439
G01 X21.3568 Y-17.7820
G01 X21.4135 Y-17.8219
G01 X21.4644 Y-17.8540
G01 X21.5215 Y-17.8864
G01 X21.5769 Y-17.9142
G01 X21.6353 Y-17.9401
G01 X21.6948 Y-17.9630
G01 X21.7397 Y-17.9779
G01 X19.4865 Y-17.9779
G01 X19.4865 Y-12.3332
G01 X19.4859 Y-12.3093
G01 X19.4819 Y-12.2690
G01 X19.4771 Y-12.2418
G01 X19.4672 Y-12.2025
G01 X19.4537 Y-12.1644
G01 X19.4417 Y-12.1374
G01 X19.4225 Y-12.1018
G01 X19.4001 Y-12.0680
G01 X19.3844 Y-12.0476
G01 X19.3573 Y-12.0175
G01 X19.3387 Y-11.9997
G01 X19.3075 Y-11.9739
G01 X19.2834 Y-11.9569
G01 X19.2486 Y-11.9362
G01 X19.2120 Y-11.9188
G01 X19.1863 Y-11.9088
G01 X19.1493 Y-11.8975
G01 X19.1242 Y-11.8917
G01 X19.0988 Y-11.8874
G01 X19.0622 Y-11.8838
G01 X19.0364 Y-11.8831
G01 X13.9675 Y-11.8830
G01 X13.9675 Y-11.1322
G01 X13.9669 Y-11.1193
G01 X13.9642 Y-11.1011
G01 X13.9593 Y-11.0834
G01 X13.9523 Y-11.0664
G01 X13.9422 Y-11.0489
G01 X13.9311 Y-11.0342
G01 X13.9182 Y-11.0211
G01 X13.9024 Y-11.0085
G01 X13.8866 Y-10.9991
G01 X13.8698 Y-10.9916
G01 X13.8539 Y-10.9867
G01 X13.8377 Y-10.9836
G01 X13.8193 Y-10.9822
G01 X12.2138 Y-10.9822
G01 X12.2010 Y-10.9831
G01 X12.1882 Y-10.9851
G01 X12.1757 Y-10.9881
G01 X12.1635 Y-10.9923
G01 X12.1517 Y-10.9974
G01 X12.1404 Y-11.0035
G01 X12.1296 Y-11.0106
G01 X12.1195 Y-11.0186
G01 X12.1101 Y-11.0274
G01 X12.1015 Y-11.0370
G01 X12.0928 Y-11.0489
G01 X12.0861 Y-11.0599
G01 X12.0804 Y-11.0714
G01 X12.0757 Y-11.0834
G01 X12.0720 Y-11.0958
G01 X12.0694 Y-11.1084
G01 X12.0675 Y-11.1322
G01 X12.0675 Y-11.8831
G01 X1.7522 Y-11.8835
G01 X1.7283 Y-11.8852
G01 X1.7063 Y-11.8879
G01 X1.6846 Y-11.8917
G01 X1.6630 Y-11.8965
G01 X1.6417 Y-11.9024
G01 X1.6207 Y-11.9094
G01 X1.5833 Y-11.9247
G01 X1.5496 Y-11.9422
G01 X1.5193 Y-11.9610
G01 X1.5042 Y-11.9716
G01 X1.4854 Y-11.9864
G01 X1.4687 Y-12.0009
G01 X1.4515 Y-12.0175
G01 X1.4244 Y-12.0476
G01 X1.4108 Y-12.0650
G01 X1.3981 Y-12.0831
G01 X1.3863 Y-12.1018
G01 X1.3754 Y-12.1210
G01 X1.3655 Y-12.1407
G01 X1.3565 Y-12.1609
G01 X1.3486 Y-12.1815
G01 X1.3416 Y-12.2025
G01 X1.3357 Y-12.2238
G01 X1.3309 Y-12.2454
G01 X1.3271 Y-12.2671
G01 X1.3244 Y-12.2891
G01 X1.3228 Y-12.3111
G01 X1.3223 Y-12.3332
G00 Z2.0000
G00 X11.9925 Y-11.7743
G01 F70.00
G01 Z-0.0700
G01 F120.00
G01 X11.9766 Y-11.7919
G01 X11.9587 Y-11.8081
G01 X11.9925 Y-11.8081
G01 X11.9925 Y-11.7743
G00 Z2.0000
G00 X12.0761 Y-10.9572
G01 F70.00
G01 Z-0.0700
G01 F120.00
G01 X12.0425 Y-10.9572
G01 X12.0425 Y-10.9908
G01 X12.0584 Y-10.9731
G01 X12.0761 Y-10.9572
G00 Z2.0000
G00 X13.9925 Y-10.9908
G01 F70.00
G01 Z-0.0700
G01 F120.00
G01 X13.9925 Y-10.9572
G01 X13.9589 Y-10.9572
G01 X13.9766 Y-10.9731
G01 X13.9925 Y-10.9908
G00 Z2.0000
G00 X14.0763 Y-11.8080
G01 F70.00
G01 Z-0.0700
G01 F120.00
G01 X14.0584 Y-11.7919
G01 X14.0425 Y-11.7743
G01 X14.0425 Y-11.8080
G01 X14.0763 Y-11.8080
G00 Z2.0000
G00 X17.9116 Y-8.4155
G01 F70.00
G01 Z-0.0700
G01 F120.00
G01 X17.9135 Y-8.4910
G01 X17.9192 Y-8.5681
G01 X17.9286 Y-8.6448
G01 X17.9415 Y-8.7192
G01 X17.9593 Y-8.7982
G01 X17.9794 Y-8.8709
G01 X18.0037 Y-8.9443
G01 X18.0315 Y-9.0164
G01 X18.0621 Y-9.0854
G01 X18.0985 Y-9.1578
G01 X18.1357 Y-9.2234
G01 X18.1770 Y-9.2887
G01 X18.2215 Y-9.3519
G01 X18.2680 Y-9.4114
G01 X18.3209 Y-9.4728
G01 X18.3729 Y-9.5274
G01 X18.4289 Y-9.5807
G01 X18.4874 Y-9.6312
G01 X18.5469 Y-9.6776
G01 X18.6131 Y-9.7243
G01 X18.6769 Y-9.7646
G01 X18.7442 Y-9.8027
G01 X18.8132 Y-9.8375
G01 X18.8822 Y-9.8681
G01 X18.9577 Y-9.8972
G01 X19.0294 Y-9.9209
G01 X19.1039 Y-9.9415
G01 X19.1793 Y-9.9584
G01 X19.2555 Y-9.9717
G01 X19.3322 Y-9.9811
G01 X19.4075 Y-9.9867
G01 X19.4866 Y-9.9887
G01 X19.5620 Y-9.9869
G01 X19.6428 Y-9.9809
G01 X19.7177 Y-9.9717
G01 X19.7939 Y-9.9584
G01 X19.8693 Y-9.9415
G01 X19.9438 Y-9.9209
G01 X20.0172 Y-9.8966
G01 X20.0893 Y-9.8688
G01 X20.1600 Y-9.8375
G01 X20.2282 Y-9.8032
G01 X20.2963 Y-9.7646
G01 X20.3601 Y-9.7243
G01 X20.4263 Y-9.6776
G01 X20.4858 Y-9.6312
G01 X20.5443 Y-9.5807
G01 X20.6003 Y-9.5274
G01 X20.6542 Y-9.4707
G01 X20.7041 Y-9.4129
G01 X20.7517 Y-9.3519
G01 X20.7962 Y-9.2887
G01 X20.8370 Y-9.2242
G01 X20.8756 Y-9.1561
G01 X20.9100 Y-9.0879
G01 X20.9414 Y-9.0173
G01 X20.9523 Y-8.9890
G01 X22.0661 Y-8.9890
G01 X22.7077 Y-9.6307
G01 X22.7077 Y-15.5129
G01 X22.1330 Y-15.5129
G01 X22.0719 Y-15.5145
G01 X22.0110 Y-15.5190
G01 X21.9532 Y-15.5262
G01 X21.8957 Y-15.5361
G01 X21.8352 Y-15.5497
G01 X21.7764 Y-15.5660
G01 X21.7201 Y-15.5846
G01 X21.6657 Y-15.6055
G01 X21.6090 Y-15.6306
G01 X21.5553 Y-15.6576
G01 X21.5045 Y-15.6864
G01 X21.4506 Y-15.7205
G01 X21.4029 Y-15.7541
G01 X21.3555 Y-15.7911
G01 X21.3100 Y-15.8304
G01 X21.2677 Y-15.8706
G01 X21.2237 Y-15.9168
G01 X21.1856 Y-15.9610
G01 X21.1492 Y-16.0077
G01 X21.1140 Y-16.0576
G01 X21.0828 Y-16.1069
G01 X21.0513 Y-16.1624
G01 X21.0251 Y-16.2145
G01 X21.0007 Y-16.2695
G01 X20.9791 Y-16.3256
G01 X20.9608 Y-16.3810
G01 X20.9437 Y-16.4425
G01 X20.9310 Y-16.4994
G01 X20.9207 Y-16.5587
G01 X20.9133 Y-16.6184
G01 X20.9090 Y-16.6765
G01 X20.9074 Y-16.7403
G01 X20.9089 Y-16.7986
G01 X20.9133 Y-16.8586
G01 X20.9207 Y-16.9183
G01 X20.9306 Y-16.9758
G01 X20.9446 Y-17.0381
G01 X20.9602 Y-17.0943
G01 X20.9791 Y-17.1514
G01 X21.0007 Y-17.2075
G01 X21.0243 Y-17.2608
G01 X21.0530 Y-17.3178
G01 X21.0818 Y-17.3686
G01 X21.1140 Y-17.4194
G01 X21.1486 Y-17.4686
G01 X21.1845 Y-17.5146
G01 X21.2249 Y-17.5615
G01 X21.2664 Y-17.6051
G01 X21.3100 Y-17.6466
G01 X21.3555 Y-17.6859
G01 X21.4029 Y-17.7229
G01 X21.4521 Y-17.7575
G01 X21.5029 Y-17.7897
G01 X21.5569 Y-17.8202
G01 X21.6090 Y-17.8464
G01 X21.6657 Y-17.8715
G01 X21.7201 Y-17.8924
G01 X21.7755 Y-17.9107
G01 X21.8334 Y-17.9269
G01 X21.8939 Y-17.9405
G01 X21.9532 Y-17.9508
G01 X22.0129 Y-17.9582
G01 X22.0738 Y-17.9626
G01 X22.1330 Y-17.9641
G01 X24.4330 Y-17.9641
G01 X24.4931 Y-17.9626
G01 X24.5522 Y-17.9583
G01 X24.6146 Y-17.9505
G01 X24.6721 Y-17.9405
G01 X24.7308 Y-17.9273
G01 X24.7905 Y-17.9107
G01 X24.8459 Y-17.8924
G01 X24.9020 Y-17.8708
G01 X24.9570 Y-17.8464
G01 X25.0091 Y-17.8202
G01 X25.0631 Y-17.7897
G01 X25.1154 Y-17.7565
G01 X25.1631 Y-17.7229
G01 X25.2091 Y-17.6870
G01 X25.2574 Y-17.6453
G01 X25.2996 Y-17.6051
G01 X25.3423 Y-17.5602
G01 X25.3804 Y-17.5160
G01 X25.4174 Y-17.4686
G01 X25.4520 Y-17.4194
G01 X25.4842 Y-17.3686
G01 X25.5139 Y-17.3162
G01 X25.5409 Y-17.2625
G01 X25.5653 Y-17.2075
G01 X25.5863 Y-17.1531
G01 X25.6058 Y-17.0943
G01 X25.6214 Y-17.0381
G01 X25.6354 Y-16.9758
G01 X25.6453 Y-16.9183
G01 X25.6527 Y-16.8586
G01 X25.6571 Y-16.7986
G01 X25.6586 Y-16.7385
G01 X25.6571 Y-16.6784
G01 X25.6527 Y-16.6184
G01 X25.6453 Y-16.5587
G01 X25.6354 Y-16.5012
G01 X25.6218 Y-16.4407
G01 X25.6063 Y-16.3845
G01 X25.5863 Y-16.3239
G01 X25.5653 Y-16.2695
G01 X25.5409 Y-16.2145
G01 X25.5139 Y-16.1608
G01 X25.4837 Y-16.1076
G01 X25.4520 Y-16.0576
G01 X25.4174 Y-16.0084
G01 X25.3804 Y-15.9610
G01 X25.3423 Y-15.9168
G01 X25.2983 Y-15.8706
G01 X25.2560 Y-15.8304
G01 X25.2105 Y-15.7911
G01 X25.1631 Y-15.7541
G01 X25.1154 Y-15.7205
G01 X25.0615 Y-15.6864
G01 X25.0107 Y-15.6576
G01 X24.9570 Y-15.6306
G01 X24.9020 Y-15.6062
G01 X24.8467 Y-15.5849
G01 X24.7870 Y-15.5652
G01 X24.7308 Y-15.5497
G01 X24.6721 Y-15.5365
G01 X24.6110 Y-15.5259
G01 X24.5531 Y-15.5188
G01 X24.4950 Y-15.5145
G01 X24.4330 Y-15.5129
G01 X23.8583 Y-15.5129
G01 X23.8583 Y-14.3266
G01 X24.1475 Y-14.3266
G01 X24.1630 Y-14.3250
G01 X24.1753 Y-14.3212
G01 X24.1868 Y-14.3155
G01 X24.1972 Y-14.3078
G01 X24.2061 Y-14.2985
G01 X24.2128 Y-14.2886
G01 X24.2181 Y-14.2769
G01 X24.2214 Y-14.2644
G01 X24.2225 Y-14.2516
G01 X24.2224 Y-12.6516
G01 X24.2216 Y-12.6406
G01 X24.2192 Y-12.6298
G01 X24.2148 Y-12.6187
G01 X24.2087 Y-12.6084
G01 X24.2011 Y-12.5992
G01 X24.1921 Y-12.5914
G01 X24.1819 Y-12.5850
G01 X24.1718 Y-12.5807
G01 X24.1602 Y-12.5777
G01 X24.1474 Y-12.5766
G01 X23.8583 Y-12.5766
G01 X23.8583 Y-11.8660
G01 X24.1871 Y-11.8660
G01 X24.1981 Y-11.8652
G01 X24.2089 Y-11.8628
G01 X24.2192 Y-11.8588
G01 X24.2288 Y-11.8534
G01 X24.2375 Y-11.8466
G01 X24.2451 Y-11.8386
G01 X24.2514 Y-11.8296
G01 X24.2567 Y-11.8188
G01 X24.2601 Y-11.8083
G01 X24.2615 Y-11.8002
G01 X24.2621 Y-11.7910
G01 X24.2621 Y-10.1892
G01 X24.2608 Y-10.1773
G01 X24.2574 Y-10.1649
G01 X24.2519 Y-10.1532
G01 X24.2445 Y-10.1427
G01 X24.2354 Y-10.1336
G01 X24.2249 Y-10.1262
G01 X24.2132 Y-10.1207
G01 X24.2008 Y-10.1173
G01 X24.1871 Y-10.1160
G01 X23.8583 Y-10.1160
G01 X23.8583 Y-9.3924
G01 X23.8576 Y-9.3642
G01 X23.8553 Y-9.3342
G01 X23.8520 Y-9.3080
G01 X23.8475 Y-9.2820
G01 X23.8410 Y-9.2526
G01 X23.8329 Y-9.2237
G01 X23.8246 Y-9.1986
G01 X23.8145 Y-9.1723
G01 X23.8022 Y-9.1448
G01 X23.7903 Y-9.1212
G01 X23.7764 Y-9.0967
G01 X23.7603 Y-9.0713
G01 X23.7450 Y-9.0497
G01 X23.7288 Y-9.0289
G01 X23.7092 Y-9.0061
G01 X23.6898 Y-8.9856
G01 X22.7105 Y-8.0064
G01 X22.6907 Y-7.9876
G01 X22.6707 Y-7.9703
G01 X22.6471 Y-7.9518
G01 X22.6240 Y-7.9355
G01 X22.6017 Y-7.9214
G01 X22.5756 Y-7.9065
G01 X22.5504 Y-7.8938
G01 X22.5228 Y-7.8817
G01 X22.4982 Y-7.8722
G01 X22.4732 Y-7.8639
G01 X22.4460 Y-7.8563
G01 X22.4166 Y-7.8496
G01 X22.3888 Y-7.8448
G01 X22.3608 Y-7.8413
G01 X22.3317 Y-7.8392
G01 X22.3044 Y-7.8385
G01 X20.9524 Y-7.8385
G01 X20.9414 Y-7.8101
G01 X20.9108 Y-7.7411
G01 X20.8752 Y-7.6704
G01 X20.8375 Y-7.6040
G01 X20.7972 Y-7.5402
G01 X20.7511 Y-7.4747
G01 X20.7041 Y-7.4145
G01 X20.6548 Y-7.3574
G01 X20.6003 Y-7.3000
G01 X20.5429 Y-7.2455
G01 X20.4858 Y-7.1962
G01 X20.4256 Y-7.1492
G01 X20.3601 Y-7.1031
G01 X20.2963 Y-7.0628
G01 X20.2307 Y-7.0256
G01 X20.1600 Y-6.9899
G01 X20.0876 Y-6.9579
G01 X20.0172 Y-6.9308
G01 X19.9456 Y-6.9071
G01 X19.8693 Y-6.8859
G01 X19.7921 Y-6.8686
G01 X19.7177 Y-6.8557
G01 X19.6419 Y-6.8464
G01 X19.5639 Y-6.8406
G01 X19.4866 Y-6.8387
G01 X19.4093 Y-6.8406
G01 X19.3322 Y-6.8463
G01 X19.2555 Y-6.8557
G01 X19.1793 Y-6.8690
G01 X19.1039 Y-6.8859
G01 X19.0276 Y-6.9071
G01 X18.9560 Y-6.9308
G01 X18.8822 Y-6.9593
G01 X18.8132 Y-6.9899
G01 X18.7458 Y-7.0238
G01 X18.6785 Y-7.0619
G01 X18.6116 Y-7.1041
G01 X18.5484 Y-7.1486
G01 X18.4874 Y-7.1962
G01 X18.4289 Y-7.2467
G01 X18.3729 Y-7.3000
G01 X18.3196 Y-7.3560
G01 X18.2691 Y-7.4145
G01 X18.2205 Y-7.4770
G01 X18.1770 Y-7.5387
G01 X18.1348 Y-7.6056
G01 X18.0976 Y-7.6713
G01 X18.0636 Y-7.7386
G01 X18.0322 Y-7.8093
G01 X18.0037 Y-7.8831
G01 X17.9794 Y-7.9565
G01 X17.9588 Y-8.0310
G01 X17.9419 Y-8.1064
G01 X17.9286 Y-8.1826
G01 X17.9192 Y-8.2593
G01 X17.9135 Y-8.3364
G01 X17.9116 Y-8.4155
G00 Z2.0000
G00 X17.0570 Y-4.3065
G01 F70.00
G01 Z-0.0700
G01 F120.00
G01 X17.8583 Y-4.3064
G01 X17.8689 Y-4.3045
G01 X17.8787 Y-4.3002
G01 X17.8872 Y-4.2935
G01 X17.8949 Y-4.2832
G01 X17.8982 Y-4.2752
G01 X17.9001 Y-4.2646
G01 X17.8993 Y-4.2538
G01 X17.8959 Y-4.2436
G01 X17.8901 Y-4.2345
G01 X17.8823 Y-4.2270
G01 X17.8730 Y-4.2217
G01 X17.8647 Y-4.2192
G01 X17.8552 Y-4.2183
G01 X17.2090 Y-4.2180
G01 X17.1964 Y-4.2156
G01 X17.1843 Y-4.2111
G01 X17.1732 Y-4.2047
G01 X17.1634 Y-4.1964
G01 X17.1545 Y-4.1858
G01 X17.1482 Y-4.1746
G01 X17.1439 Y-4.1624
G01 X17.1417 Y-4.1498
G01 X17.1415 Y-4.1396
G01 X17.1427 Y-4.1296
G01 X17.1452 Y-4.1198
G01 X17.1490 Y-4.1104
G01 X17.1845 Y-4.0508
G01 X17.1900 Y-4.0432
G01 X17.1963 Y-4.0364
G01 X17.7874 Y-3.5434
G01 X17.7943 Y-3.5343
G01 X17.8949 Y-3.3665
G01 X17.8988 Y-3.3564
G01 X17.9002 Y-3.3448
G01 X17.9002 Y-3.1799
G01 X17.8997 Y-3.1725
G01 X17.8982 Y-3.1662
G01 X17.8934 Y-3.1555
G01 X17.7943 Y-2.9905
G01 X17.7873 Y-2.9813
G01 X17.7769 Y-2.9736
G01 X17.5739 Y-2.8887
G01 X17.5647 Y-2.8858
G01 X17.5552 Y-2.8849
G01 X17.3570 Y-2.8849
G01 X17.3453 Y-2.8863
G01 X17.1400 Y-2.9714
G01 X17.1334 Y-2.9747
G01 X17.1281 Y-2.9784
G01 X17.1221 Y-2.9845
G01 X17.1179 Y-2.9905
G01 X17.0173 Y-3.1582
G01 X17.0129 Y-3.1704
G01 X17.0123 Y-3.1833
G01 X17.0154 Y-3.1958
G01 X17.0220 Y-3.2069
G01 X17.0316 Y-3.2156
G01 X17.0433 Y-3.2211
G01 X17.0518 Y-3.2228
G01 X17.0582 Y-3.2230
G01 X17.0709 Y-3.2205
G01 X17.0823 Y-3.2144
G01 X17.0915 Y-3.2053
G01 X17.1757 Y-3.0655
G01 X17.1812 Y-3.0582
G01 X17.1876 Y-3.0517
G01 X17.1948 Y-3.0460
G01 X17.2026 Y-3.0412
G01 X17.3519 Y-2.9785
G01 X17.3652 Y-2.9745
G01 X17.3790 Y-2.9731
G01 X17.5369 Y-2.9732
G01 X17.5488 Y-2.9749
G01 X17.5611 Y-2.9788
G01 X17.7047 Y-3.0387
G01 X17.7144 Y-3.0439
G01 X17.7232 Y-3.0505
G01 X17.7310 Y-3.0582
G01 X17.7375 Y-3.0671
G01 X17.8023 Y-3.1750
G01 X17.8063 Y-3.1833
G01 X17.8091 Y-3.1911
G01 X17.8111 Y-3.2001
G01 X17.8120 Y-3.2092
G01 X17.8120 Y-3.3146
G01 X17.8109 Y-3.3256
G01 X17.8082 Y-3.3363
G01 X17.8014 Y-3.3513
G01 X17.7282 Y-3.4732
G01 X17.7204 Y-3.4837
G01 X17.7124 Y-3.4915
G01 X17.1286 Y-3.9780
G01 X17.1233 Y-3.9830
G01 X17.1195 Y-3.9880
G01 X17.0188 Y-4.1556
G01 X17.0154 Y-4.1622
G01 X17.0129 Y-4.1705
G01 X17.0120 Y-4.1800
G01 X17.0120 Y-4.2615
G01 X17.0125 Y-4.2689
G01 X17.0140 Y-4.2752
G01 X17.0173 Y-4.2832
G01 X17.0207 Y-4.2886
G01 X17.0299 Y-4.2978
G01 X17.0373 Y-4.3022
G01 X17.0433 Y-4.3045
G01 X17.0496 Y-4.3060
G01 X17.0570 Y-4.3065
G00 Z2.0000
G00 X17.0870 Y-4.2315
G01 F70.00
G01 Z-0.0700
G01 F120.00
G01 X17.0950 Y-4.2315
G01 X17.0870 Y-4.2193
G01 X17.0870 Y-4.2315
G00 Z2.0000
G00 X16.4939 Y-3.0683
G01 F70.00
G01 Z-0.0700
G01 F120.00
G01 X16.5103 Y-3.0719
G01 X16.5277 Y-3.0779
G01 X16.5443 Y-3.0859
G01 X16.5585 Y-3.0950
G01 X16.5585 Y-3.0037
G01 X16.4939 Y-3.0683
G00 Z2.0000
G00 X16.5576 Y-2.8985
G01 F70.00
G01 Z-0.0700
G01 F120.00
G01 X16.0589 Y-3.3972
G01 X16.0528 Y-3.4045
G01 X16.0487 Y-3.4121
G01 X16.0462 Y-3.4204
G01 X16.0454 Y-3.4290
G01 X16.0467 Y-3.4397
G01 X16.0516 Y-3.4516
G01 X16.0583 Y-3.4601
G01 X16.0686 Y-3.4678
G01 X16.0808 Y-3.4722
G01 X16.0937 Y-3.4728
G01 X16.1063 Y-3.4697
G01 X16.1156 Y-3.4644
G01 X16.4180 Y-3.1628
G01 X16.4264 Y-3.1557
G01 X16.4358 Y-3.1499
G01 X16.4495 Y-3.1444
G01 X16.4630 Y-3.1418
G01 X16.4768 Y-3.1417
G01 X16.4903 Y-3.1442
G01 X16.5032 Y-3.1490
G01 X16.5150 Y-3.1562
G01 X16.5259 Y-3.1661
G01 X16.5342 Y-3.1771
G01 X16.5389 Y-3.1860
G01 X16.5424 Y-3.1955
G01 X16.5445 Y-3.2054
G01 X16.5453 Y-3.2155
G01 X16.5454 Y-4.2646
G01 X16.5462 Y-4.2710
G01 X16.5487 Y-4.2793
G01 X16.5528 Y-4.2869
G01 X16.5583 Y-4.2935
G01 X16.5649 Y-4.2990
G01 X16.5725 Y-4.3031
G01 X16.5808 Y-4.3056
G01 X16.5894 Y-4.3064
G01 X16.5980 Y-4.3056
G01 X16.6063 Y-4.3031
G01 X16.6139 Y-4.2990
G01 X16.6190 Y-4.2950
G01 X16.6248 Y-4.2886
G01 X16.6292 Y-4.2812
G01 X16.6321 Y-4.2731
G01 X16.6334 Y-4.2646
G01 X16.6335 Y-2.9299
G01 X16.6330 Y-2.9225
G01 X16.6315 Y-2.9162
G01 X16.6260 Y-2.9045
G01 X16.6173 Y-2.8950
G01 X16.6063 Y-2.8883
G01 X16.5937 Y-2.8852
G01 X16.5808 Y-2.8858
G01 X16.5686 Y-2.8902
G01 X16.5632 Y-2.8936
G01 X16.5576 Y-2.8985
G00 Z2.0000
G00 X15.2227 Y-3.7068
G01 F70.00
G01 Z-0.0700
G01 F120.00
G01 X15.2357 Y-3.6920
G01 X15.2505 Y-3.6790
G01 X15.2357 Y-3.6660
G01 X15.2227 Y-3.6512
G01 X15.2097 Y-3.6660
G01 X15.1949 Y-3.6790
G01 X15.2097 Y-3.6920
G01 X15.2227 Y-3.7068
G00 Z2.0000
G00 X15.2668 Y-4.0115
G01 F70.00
G01 Z-0.0700
G01 F120.00
G01 X15.2671 Y-3.7907
G01 X15.2700 Y-3.7763
G01 X15.2752 Y-3.7635
G01 X15.2832 Y-3.7512
G01 X15.2935 Y-3.7407
G01 X15.3032 Y-3.7337
G01 X15.3139 Y-3.7284
G01 X15.3262 Y-3.7247
G01 X15.3381 Y-3.7231
G01 X15.6292 Y-3.7226
G01 X15.6355 Y-3.7211
G01 X15.6435 Y-3.7178
G01 X15.6506 Y-3.7130
G01 X15.6567 Y-3.7069
G01 X15.6615 Y-3.6998
G01 X15.6648 Y-3.6918
G01 X15.6665 Y-3.6833
G01 X15.6667 Y-3.6768
G01 X15.6654 Y-3.6683
G01 X15.6634 Y-3.6621
G01 X15.6605 Y-3.6564
G01 X15.6553 Y-3.6494
G01 X15.6506 Y-3.6450
G01 X15.6435 Y-3.6402
G01 X15.6375 Y-3.6375
G01 X15.6292 Y-3.6354
G01 X15.3381 Y-3.6349
G01 X15.3262 Y-3.6333
G01 X15.3139 Y-3.6296
G01 X15.3032 Y-3.6243
G01 X15.2935 Y-3.6173
G01 X15.2832 Y-3.6068
G01 X15.2752 Y-3.5945
G01 X15.2697 Y-3.5808
G01 X15.2671 Y-3.5673
G01 X15.2668 Y-3.3466
G01 X15.2654 Y-3.3350
G01 X15.2634 Y-3.3288
G01 X15.2593 Y-3.3212
G01 X15.2553 Y-3.3161
G01 X15.2489 Y-3.3103
G01 X15.2435 Y-3.3069
G01 X15.2355 Y-3.3036
G01 X15.2270 Y-3.3019
G01 X15.2205 Y-3.3017
G01 X15.2120 Y-3.3030
G01 X15.2058 Y-3.3050
G01 X15.1948 Y-3.3117
G01 X15.1901 Y-3.3161
G01 X15.1849 Y-3.3231
G01 X15.1820 Y-3.3288
G01 X15.1795 Y-3.3371
G01 X15.1786 Y-3.3466
G01 X15.1783 Y-3.5673
G01 X15.1754 Y-3.5817
G01 X15.1702 Y-3.5945
G01 X15.1628 Y-3.6061
G01 X15.1526 Y-3.6167
G01 X15.1430 Y-3.6238
G01 X15.1323 Y-3.6292
G01 X15.1201 Y-3.6331
G01 X15.1082 Y-3.6348
G01 X14.8162 Y-3.6354
G01 X14.8079 Y-3.6375
G01 X14.8019 Y-3.6402
G01 X14.7948 Y-3.6450
G01 X14.7887 Y-3.6511
G01 X14.7839 Y-3.6582
G01 X14.7806 Y-3.6662
G01 X14.7789 Y-3.6747
G01 X14.7787 Y-3.6812
G01 X14.7800 Y-3.6897
G01 X14.7820 Y-3.6959
G01 X14.7849 Y-3.7016
G01 X14.7901 Y-3.7086
G01 X14.7948 Y-3.7130
G01 X14.8019 Y-3.7178
G01 X14.8079 Y-3.7205
G01 X14.8162 Y-3.7226
G01 X15.1064 Y-3.7231
G01 X15.1165 Y-3.7242
G01 X15.1263 Y-3.7266
G01 X15.1365 Y-3.7307
G01 X15.1453 Y-3.7357
G01 X15.1573 Y-3.7457
G01 X15.1675 Y-3.7587
G01 X15.1743 Y-3.7728
G01 X15.1781 Y-3.7889
G01 X15.1786 Y-3.7981
G01 X15.1786 Y-4.0115
G01 X15.1795 Y-4.0210
G01 X15.1820 Y-4.0293
G01 X15.1861 Y-4.0369
G01 X15.1901 Y-4.0420
G01 X15.1965 Y-4.0478
G01 X15.2019 Y-4.0512
G01 X15.2079 Y-4.0539
G01 X15.2162 Y-4.0560
G01 X15.2227 Y-4.0564
G01 X15.2313 Y-4.0556
G01 X15.2375 Y-4.0539
G01 X15.2453 Y-4.0502
G01 X15.2506 Y-4.0464
G01 X15.2567 Y-4.0403
G01 X15.2615 Y-4.0332
G01 X15.2642 Y-4.0272
G01 X15.2663 Y-4.0189
G01 X15.2668 Y-4.0115
G00 Z2.0000
G00 X18.7022 Y-4.1580
G01 F70.00
G01 Z-0.0700
G01 F120.00
G01 X18.7228 Y-4.1967
G01 X18.7434 Y-4.1580
G01 X18.7228 Y-4.1594
G01 X18.7022 Y-4.1580
G00 Z2.0000
G00 X18.7890 Y-4.0447
G01 F70.00
G01 Z-0.0700
G01 F120.00
G01 X18.7847 Y-4.0518
G01 X18.7790 Y-4.0590
G01 X18.7725 Y-4.0656
G01 X18.7653 Y-4.0712
G01 X18.7574 Y-4.0760
G01 X18.7490 Y-4.0797
G01 X18.7401 Y-4.0824
G01 X18.7311 Y-4.0839
G01 X18.7219 Y-4.0844
G01 X18.7127 Y-4.0837
G01 X18.7037 Y-4.0819
G01 X18.6958 Y-4.0794
G01 X18.6882 Y-4.0760
G01 X18.6803 Y-4.0712
G01 X18.6731 Y-4.0656
G01 X18.6666 Y-4.0590
G01 X18.6614 Y-4.0525
G01 X18.6566 Y-4.0447
G01 X18.3594 Y-3.4880
G01 X18.3524 Y-3.4798
G01 X18.3455 Y-3.4746
G01 X18.3377 Y-3.4710
G01 X18.3272 Y-3.4686
G01 X18.3164 Y-3.4688
G01 X18.3080 Y-3.4709
G01 X18.3002 Y-3.4746
G01 X18.2933 Y-3.4797
G01 X18.2875 Y-3.4861
G01 X18.2840 Y-3.4916
G01 X18.2814 Y-3.4975
G01 X18.2792 Y-3.5059
G01 X18.2788 Y-3.5124
G01 X18.2796 Y-3.5210
G01 X18.2813 Y-3.5272
G01 X18.2844 Y-3.5339
G01 X18.6850 Y-4.2850
G01 X18.6916 Y-4.2935
G01 X18.7001 Y-4.3002
G01 X18.7100 Y-4.3045
G01 X18.7228 Y-4.3064
G01 X18.7356 Y-4.3045
G01 X18.7455 Y-4.3002
G01 X18.7540 Y-4.2935
G01 X18.7606 Y-4.2850
G01 X19.1612 Y-3.5339
G01 X19.1643 Y-3.5272
G01 X19.1660 Y-3.5210
G01 X19.1666 Y-3.5080
G01 X19.1635 Y-3.4955
G01 X19.1606 Y-3.4897
G01 X19.1554 Y-3.4828
G01 X19.1472 Y-3.4758
G01 X19.1376 Y-3.4709
G01 X19.1271 Y-3.4686
G01 X19.1184 Y-3.4686
G01 X19.1079 Y-3.4710
G01 X19.1001 Y-3.4746
G01 X19.0916 Y-3.4813
G01 X19.0862 Y-3.4880
G01 X18.7890 Y-4.0447
G00 Z2.0000
G00 X20.5886 Y-4.2183
G01 F70.00
G01 Z-0.0700
G01 F120.00
G01 X19.5873 Y-4.2184
G01 X19.5788 Y-4.2197
G01 X19.5707 Y-4.2226
G01 X19.5633 Y-4.2270
G01 X19.5569 Y-4.2328
G01 X19.5517 Y-4.2398
G01 X19.5480 Y-4.2476
G01 X19.5459 Y-4.2559
G01 X19.5455 Y-4.2646
G01 X19.5468 Y-4.2731
G01 X19.5497 Y-4.2812
G01 X19.5541 Y-4.2886
G01 X19.5584 Y-4.2935
G01 X19.5650 Y-4.2990
G01 X19.5726 Y-4.3031
G01 X19.5809 Y-4.3056
G01 X19.5873 Y-4.3064
G01 X20.5917 Y-4.3064
G01 X20.6002 Y-4.3051
G01 X20.6083 Y-4.3022
G01 X20.6157 Y-4.2978
G01 X20.6221 Y-4.2920
G01 X20.6273 Y-4.2850
G01 X20.6310 Y-4.2772
G01 X20.6331 Y-4.2689
G01 X20.6335 Y-4.2602
G01 X20.6322 Y-4.2517
G01 X20.6293 Y-4.2436
G01 X20.6249 Y-4.2362
G01 X20.6191 Y-4.2298
G01 X20.6121 Y-4.2246
G01 X20.6043 Y-4.2209
G01 X20.5960 Y-4.2188
G01 X20.5886 Y-4.2183
G00 Z2.0000
G00 X21.1753 Y-3.5516
G01 F70.00
G01 Z-0.0700
G01 F120.00
G01 X21.5324 Y-3.5516
G01 X21.5425 Y-3.5510
G01 X21.5516 Y-3.5491
G01 X21.5604 Y-3.5462
G01 X21.7039 Y-3.4864
G01 X21.7145 Y-3.4809
G01 X21.7240 Y-3.4737
G01 X21.7311 Y-3.4665
G01 X21.7376 Y-3.4577
G01 X21.8028 Y-3.3489
G01 X21.8068 Y-3.3406
G01 X21.8097 Y-3.3319
G01 X21.8115 Y-3.3228
G01 X21.8121 Y-3.3136
G01 X21.8121 Y-3.2101
G01 X21.8110 Y-3.1992
G01 X21.8086 Y-3.1893
G01 X21.8053 Y-3.1807
G01 X21.8014 Y-3.1734
G01 X21.7381 Y-3.0678
G01 X21.7305 Y-3.0576
G01 X21.7183 Y-3.0465
G01 X21.7048 Y-3.0387
G01 X21.5604 Y-2.9785
G01 X21.5507 Y-2.9753
G01 X21.5407 Y-2.9735
G01 X21.1716 Y-2.9731
G01 X21.1588 Y-2.9749
G01 X21.1466 Y-2.9788
G01 X21.1351 Y-2.9847
G01 X21.1256 Y-2.9919
G01 X21.1156 Y-3.0026
G01 X21.1079 Y-3.0152
G01 X21.1025 Y-3.0298
G01 X21.1003 Y-3.0444
G01 X21.1005 Y-3.4831
G01 X21.1030 Y-3.4966
G01 X21.1079 Y-3.5095
G01 X21.1150 Y-3.5213
G01 X21.1242 Y-3.5316
G01 X21.1351 Y-3.5400
G01 X21.1474 Y-3.5463
G01 X21.1606 Y-3.5502
G01 X21.1753 Y-3.5516
G00 Z2.0000
G00 X21.5679 Y-3.6224
G01 F70.00
G01 Z-0.0700
G01 F120.00
G01 X21.6229 Y-3.6529
G01 X21.6219 Y-3.6402
G01 X21.6220 Y-3.6274
G01 X21.6232 Y-3.6146
G01 X21.6259 Y-3.6002
G01 X21.5866 Y-3.6165
G01 X21.5679 Y-3.6224
G00 Z2.0000
G00 X21.7768 Y-3.7235
G01 F70.00
G01 Z-0.0700
G01 F120.00
G01 X21.7292 Y-3.6966
G01 X21.7186 Y-3.6877
G01 X21.7099 Y-3.6771
G01 X21.7056 Y-3.6701
G01 X21.7018 Y-3.6617
G01 X21.6993 Y-3.6538
G01 X21.6975 Y-3.6448
G01 X21.6968 Y-3.6357
G01 X21.6972 Y-3.6274
G01 X21.7006 Y-3.6113
G01 X21.7048 Y-3.6012
G01 X21.7105 Y-3.5917
G01 X21.7175 Y-3.5832
G01 X21.7249 Y-3.5764
G01 X21.7324 Y-3.5711
G01 X21.7396 Y-3.5671
G01 X21.7770 Y-3.5512
G01 X21.7842 Y-3.5464
G01 X21.7916 Y-3.5386
G01 X21.8950 Y-3.3665
G01 X21.8989 Y-3.3564
G01 X21.9003 Y-3.3448
G01 X21.9003 Y-3.1799
G01 X21.8998 Y-3.1725
G01 X21.8983 Y-3.1662
G01 X21.8935 Y-3.1555
G01 X21.7944 Y-2.9905
G01 X21.7888 Y-2.9828
G01 X21.7807 Y-2.9758
G01 X21.7723 Y-2.9714
G01 X21.5740 Y-2.8887
G01 X21.5670 Y-2.8863
G01 X21.5605 Y-2.8852
G01 X21.0571 Y-2.8849
G01 X21.0497 Y-2.8854
G01 X21.0414 Y-2.8875
G01 X21.0336 Y-2.8912
G01 X21.0266 Y-2.8964
G01 X21.0196 Y-2.9045
G01 X21.0155 Y-2.9121
G01 X21.0130 Y-2.9204
G01 X21.0121 Y-2.9299
G01 X21.0121 Y-4.2615
G01 X21.0126 Y-4.2689
G01 X21.0147 Y-4.2772
G01 X21.0184 Y-4.2850
G01 X21.0236 Y-4.2920
G01 X21.0336 Y-4.3002
G01 X21.0455 Y-4.3051
G01 X21.0584 Y-4.3064
G01 X21.0690 Y-4.3045
G01 X21.0788 Y-4.3002
G01 X21.0888 Y-4.2920
G01 X21.0960 Y-4.2812
G01 X21.0998 Y-4.2689
G01 X21.1003 Y-3.7129
G01 X21.1011 Y-3.7038
G01 X21.1032 Y-3.6939
G01 X21.1067 Y-3.6844
G01 X21.1114 Y-3.6754
G01 X21.1167 Y-3.6679
G01 X21.1222 Y-3.6617
G01 X21.1351 Y-3.6514
G01 X21.1432 Y-3.6470
G01 X21.1509 Y-3.6438
G01 X21.1670 Y-3.6402
G01 X21.4263 Y-3.6398
G01 X21.4355 Y-3.6405
G01 X21.4446 Y-3.6423
G01 X21.4534 Y-3.6452
G01 X21.4618 Y-3.6492
G01 X21.7085 Y-3.7863
G01 X21.7217 Y-3.7961
G01 X21.7324 Y-3.8086
G01 X21.8024 Y-3.9251
G01 X21.8078 Y-3.9368
G01 X21.8110 Y-3.9492
G01 X21.8121 Y-3.9621
G01 X21.8121 Y-4.2615
G01 X21.8126 Y-4.2689
G01 X21.8141 Y-4.2752
G01 X21.8184 Y-4.2850
G01 X21.8251 Y-4.2935
G01 X21.8317 Y-4.2990
G01 X21.8414 Y-4.3039
G01 X21.8519 Y-4.3062
G01 X21.8627 Y-4.3060
G01 X21.8731 Y-4.3031
G01 X21.8824 Y-4.2978
G01 X21.8902 Y-4.2903
G01 X21.8950 Y-4.2832
G01 X21.8983 Y-4.2752
G01 X21.9002 Y-4.2646
G01 X21.9003 Y-3.9300
G01 X21.8994 Y-3.9205
G01 X21.8969 Y-3.9122
G01 X21.8935 Y-3.9056
G01 X21.7944 Y-3.7405
G01 X21.7861 Y-3.7300
G01 X21.7768 Y-3.7235
G00 Z2.0000
G00 X22.8229 Y-3.6144
G01 F70.00
G01 Z-0.0700
G01 F120.00
G01 X22.8202 Y-3.6294
G01 X22.8160 Y-3.6443
G01 X22.8298 Y-3.6443
G01 X22.8256 Y-3.6294
G01 X22.8229 Y-3.6144
G00 Z2.0000
G00 X22.8160 Y-3.5471
G01 F70.00
G01 Z-0.0700
G01 F120.00
G01 X22.8202 Y-3.5620
G01 X22.8229 Y-3.5770
G01 X22.8256 Y-3.5620
G01 X22.8298 Y-3.5471
G01 X22.8160 Y-3.5471
G00 Z2.0000
G00 X23.2871 Y-2.9033
G01 F70.00
G01 Z-0.0700
G01 F120.00
G01 X22.8812 Y-3.4444
G01 X22.8694 Y-3.4561
G01 X22.8554 Y-3.4648
G01 X22.8398 Y-3.4703
G01 X22.8307 Y-3.4719
G01 X22.8224 Y-3.4723
G01 X22.8060 Y-3.4703
G01 X22.7904 Y-3.4648
G01 X22.7764 Y-3.4561
G01 X22.7646 Y-3.4444
G01 X22.3554 Y-2.8993
G01 X22.3472 Y-2.8923
G01 X22.3395 Y-2.8882
G01 X22.3291 Y-2.8854
G01 X22.3205 Y-2.8850
G01 X22.3099 Y-2.8869
G01 X22.3019 Y-2.8903
G01 X22.2932 Y-2.8965
G01 X22.2874 Y-2.9030
G01 X22.2814 Y-2.9144
G01 X22.2789 Y-2.9271
G01 X22.2794 Y-2.9357
G01 X22.2808 Y-2.9420
G01 X22.2864 Y-2.9537
G01 X22.7352 Y-3.5522
G01 X22.7413 Y-3.5624
G01 X22.7454 Y-3.5726
G01 X22.7482 Y-3.5843
G01 X22.7491 Y-3.5952
G01 X22.7483 Y-3.6062
G01 X22.7457 Y-3.6179
G01 X22.7413 Y-3.6290
G01 X22.7352 Y-3.6392
G01 X22.2852 Y-4.2396
G01 X22.2815 Y-4.2473
G01 X22.2794 Y-4.2557
G01 X22.2789 Y-4.2643
G01 X22.2797 Y-4.2708
G01 X22.2821 Y-4.2790
G01 X22.2862 Y-4.2867
G01 X22.2916 Y-4.2934
G01 X22.2982 Y-4.2989
G01 X22.3058 Y-4.3030
G01 X22.3120 Y-4.3051
G01 X22.3205 Y-4.3064
G01 X22.3291 Y-4.3060
G01 X22.3375 Y-4.3039
G01 X22.3435 Y-4.3013
G01 X22.3489 Y-4.2979
G01 X22.3554 Y-4.2921
G01 X22.7646 Y-3.7470
G01 X22.7764 Y-3.7353
G01 X22.7904 Y-3.7266
G01 X22.8060 Y-3.7211
G01 X22.8224 Y-3.7191
G01 X22.8389 Y-3.7209
G01 X22.8546 Y-3.7262
G01 X22.8619 Y-3.7301
G01 X22.8694 Y-3.7353
G01 X22.8812 Y-3.7470
G01 X23.2904 Y-4.2921
G01 X23.2986 Y-4.2991
G01 X23.3063 Y-4.3032
G01 X23.3167 Y-4.3060
G01 X23.3253 Y-4.3064
G01 X23.3338 Y-4.3051
G01 X23.3439 Y-4.3011
G01 X23.3526 Y-4.2949
G01 X23.3584 Y-4.2884
G01 X23.3644 Y-4.2770
G01 X23.3669 Y-4.2643
G01 X23.3664 Y-4.2557
G01 X23.3650 Y-4.2494
G01 X23.3594 Y-4.2377
G01 X22.9112 Y-3.6400
G01 X22.9053 Y-3.6306
G01 X22.9009 Y-3.6205
G01 X22.8981 Y-3.6099
G01 X22.8968 Y-3.5998
G01 X22.8972 Y-3.5870
G01 X22.8996 Y-3.5753
G01 X22.9041 Y-3.5633
G01 X22.9106 Y-3.5522
G01 X23.3616 Y-2.9500
G01 X23.3650 Y-2.9420
G01 X23.3667 Y-2.9336
G01 X23.3667 Y-2.9249
G01 X23.3651 Y-2.9164
G01 X23.3618 Y-2.9084
G01 X23.3571 Y-2.9012
G01 X23.3526 Y-2.8965
G01 X23.3457 Y-2.8913
G01 X23.3400 Y-2.8884
G01 X23.3317 Y-2.8859
G01 X23.3231 Y-2.8850
G01 X23.3145 Y-2.8858
G01 X23.3063 Y-2.8882
G01 X23.2986 Y-2.8923
G01 X23.2919 Y-2.8977
G01 X23.2871 Y-2.9033
G00 Z2.0000
G00 X24.0420 Y-9.9660
G01 F70.00
G01 Z-0.0700
G01 F120.00
G01 X24.0244 Y-9.9501
G01 X24.0083 Y-9.9322
G01 X24.0083 Y-9.9660
G01 X24.0420 Y-9.9660
G00 Z2.0000
G00 X24.3621 Y-10.0496
G01 F70.00
G01 Z-0.0700
G01 F120.00
G01 X24.3621 Y-10.0160
G01 X24.3285 Y-10.0160
G01 X24.3462 Y-10.0319
G01 X24.3621 Y-10.0496
G00 Z2.0000
G00 X24.3285 Y-11.9660
G01 F70.00
G01 Z-0.0700
G01 F120.00
G01 X24.3621 Y-11.9660
G01 X24.3621 Y-11.9324
G01 X24.3462 Y-11.9501
G01 X24.3285 Y-11.9660
G00 Z2.0000
G00 X24.0083 Y-12.0498
G01 F70.00
G01 Z-0.0700
G01 F120.00
G01 X24.0244 Y-12.0319
G01 X24.0420 Y-12.0160
G01 X24.0083 Y-12.0160
G01 X24.0083 Y-12.0498
G00 Z2.0000
G00 X24.0420 Y-12.4266
G01 F70.00
G01 Z-0.0700
G01 F120.00
G01 X24.0244 Y-12.4107
G01 X24.0083 Y-12.3928
G01 X24.0083 Y-12.4266
G01 X24.0420 Y-12.4266
G00 Z2.0000
G00 X24.3224 Y-12.5102
G01 F70.00
G01 Z-0.0700
G01 F120.00
G01 X24.3224 Y-12.4766
G01 X24.2888 Y-12.4766
G01 X24.3065 Y-12.4925
G01 X24.3224 Y-12.5102
G00 Z2.0000
G00 X24.2889 Y-14.4266
G01 F70.00
G01 Z-0.0700
G01 F120.00
G01 X24.3225 Y-14.4266
G01 X24.3225 Y-14.3930
G01 X24.3066 Y-14.4107
G01 X24.2889 Y-14.4266
G00 Z2.0000
G00 X24.0083 Y-14.5104
G01 F70.00
G01 Z-0.0700
G01 F120.00
G01 X24.0244 Y-14.4925
G01 X24.0420 Y-14.4766
G01 X24.0083 Y-14.4766
G01 X24.0083 Y-14.5104
G00 Z2.0000
G00 X24.0423 Y-15.3629
G01 F70.00
G01 Z-0.0700
G01 F120.00
G01 X24.0244 Y-15.3468
G01 X24.0083 Y-15.3289
G01 X24.0083 Y-15.3629
G01 X24.0423 Y-15.3629
G00 Z2.0000
G00 X22.5577 Y-15.3289
G01 F70.00
G01 Z-0.0700
G01 F120.00
G01 X22.5416 Y-15.3468
G01 X22.5237 Y-15.3629
G01 X22.5577 Y-15.3629
G01 X22.5577 Y-15.3289
G00 Z2.0000
G00 X21.1635 Y-17.7143
G01 F70.00
G01 Z-0.0700
G01 F120.00
G01 X21.1635 Y-17.7415
G01 X21.1601 Y-17.7689
G01 X21.1534 Y-17.7957
G01 X21.1446 Y-17.8189
G01 X21.1319 Y-17.8434
G01 X21.1180 Y-17.8640
G01 X21.1000 Y-17.8849
G01 X21.0801 Y-17.9029
G01 X21.4013 Y-17.9029
G01 X21.3665 Y-17.8807
G01 X21.3158 Y-17.8450
G01 X21.2625 Y-17.8036
G01 X21.2092 Y-17.7577
G01 X21.1635 Y-17.7143
G00 Z2.0000
G00 X19.5956 Y-17.9029
G01 F70.00
G01 Z-0.0700
G01 F120.00
G01 X19.5777 Y-17.8868
G01 X19.5615 Y-17.8689
G01 X19.5615 Y-17.9029
G01 X19.5956 Y-17.9029
G00 Z2.0000
G00 X19.5616 Y-20.6881
G01 F70.00
G01 Z-0.0700
G01 F120.00
G01 X19.5777 Y-20.6702
G01 X19.5956 Y-20.6541
G01 X19.5616 Y-20.6541
G01 X19.5616 Y-20.6881
G00 Z2.0000
G00 X21.0801 Y-20.6541
G01 F70.00
G01 Z-0.0700
G01 F120.00
G01 X21.1000 Y-20.6721
G01 X21.1180 Y-20.6930
G01 X21.1319 Y-20.7136
G01 X21.1446 Y-20.7381
G01 X21.1534 Y-20.7613
G01 X21.1601 Y-20.7881
G01 X21.1635 Y-20.8155
G01 X21.1635 Y-20.8427
G01 X21.2092 Y-20.7993
G01 X21.2625 Y-20.7534
G01 X21.3158 Y-20.7120
G01 X21.3665 Y-20.6763
G01 X21.4013 Y-20.6541
G01 X21.0801 Y-20.6541
G00 Z2.0000
G00 X25.1091 Y-20.4760
G01 F70.00
G01 Z-0.0700
G01 F120.00
G01 X25.0790 Y-20.4929
G01 X25.0236 Y-20.5208
G01 X24.9615 Y-20.5485
G01 X25.0236 Y-20.5762
G01 X25.0790 Y-20.6041
G01 X25.1091 Y-20.6210
G01 X25.1039 Y-20.6032
G01 X25.1000 Y-20.5842
G01 X25.0978 Y-20.5651
G01 X25.0971 Y-20.5485
G01 X25.0980 Y-20.5292
G01 X25.1000 Y-20.5128
G01 X25.1039 Y-20.4938
G01 X25.1091 Y-20.4760
G00 Z2.0000
G00 X25.2790 Y-20.6098
G01 F70.00
G01 Z-0.0700
G01 F120.00
G01 X25.3121 Y-20.6332
G01 X25.3692 Y-20.6777
G01 X25.4241 Y-20.7250
G01 X25.4765 Y-20.7750
G01 X25.5265 Y-20.8274
G01 X25.5738 Y-20.8823
G01 X25.6183 Y-20.9394
G01 X25.6600 Y-20.9986
G01 X25.6988 Y-21.0598
G01 X25.7345 Y-21.1228
G01 X25.7568 Y-21.1661
G01 X25.7623 Y-21.1735
G01 X25.7686 Y-21.1802
G01 X25.7757 Y-21.1860
G01 X25.7835 Y-21.1910
G01 X25.7918 Y-21.1949
G01 X25.8006 Y-21.1978
G01 X25.8096 Y-21.1996
G01 X25.8188 Y-21.2002
G01 X26.2975 Y-21.2002
G01 X26.3076 Y-21.1996
G01 X26.3175 Y-21.1975
G01 X26.3270 Y-21.1942
G01 X26.3368 Y-21.1891
G01 X26.3444 Y-21.1838
G01 X26.3518 Y-21.1770
G01 X26.3577 Y-21.1699
G01 X26.3628 Y-21.1622
G01 X26.3668 Y-21.1540
G01 X26.3698 Y-21.1453
G01 X26.3717 Y-21.1363
G01 X26.3725 Y-21.1271
G01 X26.3725 Y-19.9779
G01 X26.3717 Y-19.9678
G01 X26.3695 Y-19.9580
G01 X26.3661 Y-19.9485
G01 X26.3614 Y-19.9395
G01 X26.3561 Y-19.9320
G01 X26.3499 Y-19.9252
G01 X26.3429 Y-19.9192
G01 X26.3353 Y-19.9141
G01 X26.3270 Y-19.9099
G01 X26.3184 Y-19.9068
G01 X26.3094 Y-19.9048
G01 X26.3003 Y-19.9039
G01 X25.8143 Y-19.9039
G01 X25.8042 Y-19.9048
G01 X25.7943 Y-19.9071
G01 X25.7849 Y-19.9107
G01 X25.7768 Y-19.9150
G01 X25.7637 Y-19.9252
G01 X25.7532 Y-19.9380
G01 X25.7345 Y-19.9742
G01 X25.6988 Y-20.0372
G01 X25.6600 Y-20.0984
G01 X25.6183 Y-20.1576
G01 X25.5738 Y-20.2147
G01 X25.5265 Y-20.2696
G01 X25.4765 Y-20.3220
G01 X25.4241 Y-20.3720
G01 X25.3692 Y-20.4193
G01 X25.3121 Y-20.4638
G01 X25.2746 Y-20.4905
G01 X25.2672 Y-20.4975
G01 X25.2614 Y-20.5046
G01 X25.2536 Y-20.5181
G01 X25.2490 Y-20.5321
G01 X25.2472 Y-20.5467
G01 X25.2482 Y-20.5613
G01 X25.2522 Y-20.5755
G01 X25.2588 Y-20.5886
G01 X25.2678 Y-20.6002
G01 X25.2790 Y-20.6098
G00 Z2.0000
G00 X25.2358 Y-20.6711
G01 F70.00
G01 Z-0.0700
G01 F120.00
G01 X25.2674 Y-20.6934
G01 X25.3216 Y-20.7357
G01 X25.3737 Y-20.7806
G01 X25.4235 Y-20.8280
G01 X25.4709 Y-20.8778
G01 X25.5158 Y-20.9299
G01 X25.5581 Y-20.9841
G01 X25.5977 Y-21.0403
G01 X25.6344 Y-21.0984
G01 X25.6683 Y-21.1582
G01 X25.6883 Y-21.1976
G01 X25.6992 Y-21.2146
G01 X25.7110 Y-21.2287
G01 X25.7231 Y-21.2400
G01 X25.7379 Y-21.2510
G01 X25.7522 Y-21.2592
G01 X25.7674 Y-21.2659
G01 X25.7832 Y-21.2708
G01 X25.7995 Y-21.2739
G01 X25.8160 Y-21.2752
G01 X26.2993 Y-21.2752
G01 X26.3195 Y-21.2736
G01 X26.3410 Y-21.2688
G01 X26.3600 Y-21.2616
G01 X26.3793 Y-21.2510
G01 X26.3941 Y-21.2400
G01 X26.4061 Y-21.2287
G01 X26.4180 Y-21.2146
G01 X26.4280 Y-21.1992
G01 X26.4354 Y-21.1843
G01 X26.4416 Y-21.1670
G01 X26.4456 Y-21.1491
G01 X26.4474 Y-21.1308
G01 X26.4475 Y-19.9752
G01 X26.4456 Y-19.9550
G01 X26.4410 Y-19.9353
G01 X26.4339 Y-19.9164
G01 X26.4232 Y-19.8971
G01 X26.4123 Y-19.8823
G01 X26.4009 Y-19.8702
G01 X26.3869 Y-19.8584
G01 X26.3730 Y-19.8493
G01 X26.3566 Y-19.8410
G01 X26.3410 Y-19.8353
G01 X26.3250 Y-19.8314
G01 X26.3067 Y-19.8291
G01 X25.8106 Y-19.8290
G01 X25.7905 Y-19.8311
G01 X25.7708 Y-19.8359
G01 X25.7520 Y-19.8433
G01 X25.7343 Y-19.8531
G01 X25.7238 Y-19.8606
G01 X25.7127 Y-19.8702
G01 X25.7037 Y-19.8795
G01 X25.6945 Y-19.8910
G01 X25.6847 Y-19.9065
G01 X25.6683 Y-19.9388
G01 X25.6344 Y-19.9986
G01 X25.5977 Y-20.0567
G01 X25.5581 Y-20.1129
G01 X25.5158 Y-20.1671
G01 X25.4709 Y-20.2192
G01 X25.4235 Y-20.2690
G01 X25.3737 Y-20.3164
G01 X25.3216 Y-20.3613
G01 X25.2674 Y-20.4036
G01 X25.2343 Y-20.4269
G01 X25.2242 Y-20.4349
G01 X25.2074 Y-20.4519
G01 X25.1944 Y-20.4698
G01 X25.1882 Y-20.4811
G01 X25.1822 Y-20.4945
G01 X25.1776 Y-20.5085
G01 X25.1744 Y-20.5229
G01 X25.1725 Y-20.5375
G01 X25.1722 Y-20.5522
G01 X25.1731 Y-20.5650
G01 X25.1754 Y-20.5796
G01 X25.1791 Y-20.5938
G01 X25.1836 Y-20.6059
G01 X25.1899 Y-20.6192
G01 X25.1964 Y-20.6303
G01 X25.2050 Y-20.6422
G01 X25.2148 Y-20.6533
G01 X25.2256 Y-20.6633
G01 X25.2358 Y-20.6711
G00 Z2.0000
G00 X26.4387 Y-21.3005
G01 F70.00
G01 Z-0.0700
G01 F120.00
G01 X26.4725 Y-21.3005
G01 X26.4725 Y-21.2667
G01 X26.4566 Y-21.2843
G01 X26.4387 Y-21.3005
G00 Z2.0000
G00 X26.4387 Y-22.3508
G01 F70.00
G01 Z-0.0700
G01 F120.00
G01 X26.4566 Y-22.3669
G01 X26.4725 Y-22.3845
G01 X26.4725 Y-22.3508
G01 X26.4387 Y-22.3508
G00 Z2.0000
G00 X26.5225 Y-22.6170
G01 F70.00
G01 Z-0.0700
G01 F120.00
G01 X26.5225 Y-22.6506
G01 X26.5561 Y-22.6506
G01 X26.5384 Y-22.6347
G01 X26.5225 Y-22.6170
G00 Z2.0000
G00 X26.8255 Y-22.7006
G01 F70.00
G01 Z-0.0700
G01 F120.00
G01 X26.8431 Y-22.7165
G01 X26.8593 Y-22.7344
G01 X26.8593 Y-22.7006
G01 X26.8255 Y-22.7006
G00 Z2.0000
G00 X26.8592 Y-23.2212
G01 F70.00
G01 Z-0.0700
G01 F120.00
G01 X26.8431 Y-23.2391
G01 X26.8255 Y-23.2550
G01 X26.8592 Y-23.2550
G01 X26.8592 Y-23.2212
G00 Z2.0000
G00 X26.4430 Y-23.3050
G01 F70.00
G01 Z-0.0700
G01 F120.00
G01 X26.4094 Y-23.3050
G01 X26.4094 Y-23.3386
G01 X26.4253 Y-23.3209
G01 X26.4430 Y-23.3050
G00 Z2.0000
G00 X25.5971 Y-22.2007
G01 F70.00
G01 Z-0.0700
G01 F120.00
G01 X26.6225 Y-22.2008
G01 X26.6227 Y-22.4811
G01 X26.6252 Y-22.4956
G01 X26.6301 Y-22.5085
G01 X26.6378 Y-22.5210
G01 X26.6471 Y-22.5312
G01 X26.6574 Y-22.5390
G01 X26.6688 Y-22.5449
G01 X26.6811 Y-22.5488
G01 X26.6938 Y-22.5505
G01 X27.0093 Y-22.5506
G01 X27.0092 Y-23.4050
G01 X26.5844 Y-23.4050
G01 X26.5752 Y-23.4056
G01 X26.5635 Y-23.4080
G01 X26.5532 Y-23.4118
G01 X26.5427 Y-23.4176
G01 X26.5340 Y-23.4244
G01 X26.5264 Y-23.4324
G01 X26.5196 Y-23.4422
G01 X26.5144 Y-23.4530
G01 X26.5110 Y-23.4645
G01 X26.5094 Y-23.4800
G01 X26.5094 Y-24.7809
G01 X26.5110 Y-24.7955
G01 X26.5151 Y-24.8087
G01 X26.5220 Y-24.8217
G01 X26.5307 Y-24.8324
G01 X26.5420 Y-24.8418
G01 X26.5549 Y-24.8489
G01 X26.5689 Y-24.8534
G01 X26.5835 Y-24.8550
G01 X28.1844 Y-24.8550
G01 X28.1990 Y-24.8536
G01 X28.2114 Y-24.8500
G01 X28.2222 Y-24.8448
G01 X28.2320 Y-24.8380
G01 X28.2412 Y-24.8290
G01 X28.2487 Y-24.8186
G01 X28.2544 Y-24.8070
G01 X28.2578 Y-24.7955
G01 X28.2593 Y-24.7828
G01 X28.2594 Y-23.4800
G01 X28.2581 Y-23.4663
G01 X28.2550 Y-23.4547
G01 X28.2501 Y-23.4438
G01 X28.2435 Y-23.4339
G01 X28.2354 Y-23.4251
G01 X28.2268 Y-23.4182
G01 X28.2165 Y-23.4122
G01 X28.2053 Y-23.4080
G01 X28.1936 Y-23.4056
G01 X28.1844 Y-23.4050
G01 X27.7595 Y-23.4050
G01 X27.7596 Y-22.5506
G01 X28.1003 Y-22.5505
G01 X28.1112 Y-22.5493
G01 X28.1228 Y-22.5462
G01 X28.1329 Y-22.5417
G01 X28.1429 Y-22.5353
G01 X28.1543 Y-22.5246
G01 X28.1628 Y-22.5126
G01 X28.1690 Y-22.4983
G01 X28.1721 Y-22.4830
G01 X28.1725 Y-22.2379
G01 X29.2287 Y-22.2380
G01 X29.2287 Y-22.5128
G01 X29.2298 Y-22.5256
G01 X29.2325 Y-22.5363
G01 X29.2367 Y-22.5465
G01 X29.2424 Y-22.5560
G01 X29.2494 Y-22.5645
G01 X29.2576 Y-22.5719
G01 X29.2667 Y-22.5781
G01 X29.2767 Y-22.5828
G01 X29.2873 Y-22.5860
G01 X29.3037 Y-22.5878
G01 X30.7037 Y-22.5878
G01 X30.7192 Y-22.5862
G01 X30.7341 Y-22.5814
G01 X30.7438 Y-22.5762
G01 X30.7520 Y-22.5702
G01 X30.7593 Y-22.5632
G01 X30.7655 Y-22.5552
G01 X30.7707 Y-22.5465
G01 X30.7749 Y-22.5363
G01 X30.7774 Y-22.5265
G01 X30.7786 Y-22.5156
G01 X30.7787 Y-21.2128
G01 X30.7773 Y-21.1982
G01 X30.7737 Y-21.1858
G01 X30.7685 Y-21.1750
G01 X30.7611 Y-21.1645
G01 X30.7520 Y-21.1554
G01 X30.7423 Y-21.1485
G01 X30.7307 Y-21.1428
G01 X30.7183 Y-21.1392
G01 X30.7065 Y-21.1379
G01 X29.2954 Y-21.1383
G01 X29.2837 Y-21.1405
G01 X29.2725 Y-21.1446
G01 X29.2620 Y-21.1504
G01 X29.2527 Y-21.1579
G01 X29.2446 Y-21.1667
G01 X29.2380 Y-21.1766
G01 X29.2331 Y-21.1875
G01 X29.2300 Y-21.1991
G01 X29.2287 Y-21.2128
G01 X29.2287 Y-21.4877
G01 X28.1725 Y-21.4876
G01 X28.1725 Y-21.1756
G01 X28.1717 Y-21.1646
G01 X28.1693 Y-21.1538
G01 X28.1653 Y-21.1435
G01 X28.1599 Y-21.1339
G01 X28.1531 Y-21.1252
G01 X28.1451 Y-21.1176
G01 X28.1368 Y-21.1117
G01 X28.1270 Y-21.1067
G01 X28.1166 Y-21.1031
G01 X28.1076 Y-21.1013
G01 X28.0975 Y-21.1006
G01 X26.6938 Y-21.1007
G01 X26.6820 Y-21.1022
G01 X26.6697 Y-21.1060
G01 X26.6582 Y-21.1117
G01 X26.6485 Y-21.1188
G01 X26.6401 Y-21.1273
G01 X26.6327 Y-21.1378
G01 X26.6272 Y-21.1495
G01 X26.6239 Y-21.1610
G01 X26.6225 Y-21.1756
G01 X26.6225 Y-21.4505
G01 X25.6018 Y-21.4504
G01 X25.5869 Y-21.4056
G01 X25.5660 Y-21.3512
G01 X25.5409 Y-21.2945
G01 X25.5130 Y-21.2392
G01 X25.4842 Y-21.1884
G01 X25.4530 Y-21.1391
G01 X25.4174 Y-21.0884
G01 X25.3792 Y-21.0396
G01 X25.3398 Y-20.9941
G01 X25.2996 Y-20.9519
G01 X25.2574 Y-20.9117
G01 X25.2105 Y-20.8711
G01 X25.1616 Y-20.8330
G01 X25.1139 Y-20.7995
G01 X25.0646 Y-20.7683
G01 X25.0107 Y-20.7376
G01 X24.9553 Y-20.7098
G01 X24.9020 Y-20.6862
G01 X24.8476 Y-20.6652
G01 X24.7888 Y-20.6457
G01 X24.7299 Y-20.6294
G01 X24.6703 Y-20.6161
G01 X24.6128 Y-20.6062
G01 X24.5550 Y-20.5990
G01 X24.4931 Y-20.5944
G01 X24.4339 Y-20.5929
G01 X22.1330 Y-20.5929
G01 X22.0729 Y-20.5944
G01 X22.0129 Y-20.5988
G01 X21.9550 Y-20.6059
G01 X21.8921 Y-20.6169
G01 X21.8352 Y-20.6297
G01 X21.7772 Y-20.6457
G01 X21.7201 Y-20.6646
G01 X21.6640 Y-20.6862
G01 X21.6090 Y-20.7106
G01 X21.5553 Y-20.7376
G01 X21.5029 Y-20.7673
G01 X21.4536 Y-20.7985
G01 X21.4015 Y-20.8352
G01 X21.3555 Y-20.8711
G01 X21.3086 Y-20.9117
G01 X21.2664 Y-20.9519
G01 X21.2249 Y-20.9955
G01 X21.1856 Y-21.0410
G01 X21.1486 Y-21.0884
G01 X21.1140 Y-21.1376
G01 X21.0818 Y-21.1884
G01 X21.0521 Y-21.2408
G01 X21.0259 Y-21.2928
G01 X21.0000 Y-21.3512
G01 X20.9791 Y-21.4056
G01 X20.9597 Y-21.4645
G01 X20.9442 Y-21.5207
G01 X20.9310 Y-21.5794
G01 X20.9207 Y-21.6387
G01 X20.9134 Y-21.6975
G01 X20.9089 Y-21.7584
G01 X20.9074 Y-21.8185
G01 X20.9089 Y-21.8786
G01 X20.9133 Y-21.9386
G01 X20.9207 Y-21.9983
G01 X20.9310 Y-22.0576
G01 X20.9442 Y-22.1163
G01 X20.9602 Y-22.1743
G01 X20.9791 Y-22.2314
G01 X21.0007 Y-22.2875
G01 X21.0251 Y-22.3425
G01 X21.0521 Y-22.3962
G01 X21.0818 Y-22.4486
G01 X21.1140 Y-22.4994
G01 X21.1486 Y-22.5486
G01 X21.1856 Y-22.5960
G01 X21.2249 Y-22.6415
G01 X21.2664 Y-22.6851
G01 X21.3100 Y-22.7266
G01 X21.3555 Y-22.7659
G01 X21.4029 Y-22.8029
G01 X21.4521 Y-22.8375
G01 X21.5029 Y-22.8697
G01 X21.5553 Y-22.8994
G01 X21.6090 Y-22.9264
G01 X21.6640 Y-22.9508
G01 X21.7201 Y-22.9724
G01 X21.7772 Y-22.9913
G01 X21.8352 Y-23.0073
G01 X21.8939 Y-23.0205
G01 X21.9532 Y-23.0308
G01 X22.0120 Y-23.0381
G01 X22.0729 Y-23.0426
G01 X22.1330 Y-23.0441
G01 X24.4339 Y-23.0441
G01 X24.4931 Y-23.0426
G01 X24.5550 Y-23.0380
G01 X24.6128 Y-23.0308
G01 X24.6703 Y-23.0209
G01 X24.7299 Y-23.0076
G01 X24.7888 Y-22.9913
G01 X24.8476 Y-22.9718
G01 X24.9020 Y-22.9508
G01 X24.9553 Y-22.9272
G01 X25.0107 Y-22.8994
G01 X25.0646 Y-22.8687
G01 X25.1139 Y-22.8375
G01 X25.1616 Y-22.8040
G01 X25.2105 Y-22.7659
G01 X25.2567 Y-22.7260
G01 X25.3009 Y-22.6838
G01 X25.3411 Y-22.6415
G01 X25.3792 Y-22.5974
G01 X25.4174 Y-22.5486
G01 X25.4525 Y-22.4986
G01 X25.4851 Y-22.4470
G01 X25.5139 Y-22.3962
G01 X25.5405 Y-22.3433
G01 X25.5656 Y-22.2867
G01 X25.5866 Y-22.2322
G01 X25.5971 Y-22.2007
G00 Z2.0000
G00 X27.9096 Y-22.7344
G01 F70.00
G01 Z-0.0700
G01 F120.00
G01 X27.9257 Y-22.7165
G01 X27.9433 Y-22.7006
G01 X27.9096 Y-22.7006
G01 X27.9096 Y-22.7344
G00 Z2.0000
G00 X28.2389 Y-22.6506
G01 F70.00
G01 Z-0.0700
G01 F120.00
G01 X28.2725 Y-22.6506
G01 X28.2725 Y-22.6170
G01 X28.2566 Y-22.6347
G01 X28.2389 Y-22.6506
G00 Z2.0000
G00 X28.3225 Y-22.4217
G01 F70.00
G01 Z-0.0700
G01 F120.00
G01 X28.3384 Y-22.4041
G01 X28.3563 Y-22.3879
G01 X28.3225 Y-22.3879
G01 X28.3225 Y-22.4217
G00 Z2.0000
G00 X29.0449 Y-22.3880
G01 F70.00
G01 Z-0.0700
G01 F120.00
G01 X29.0628 Y-22.4041
G01 X29.0787 Y-22.4217
G01 X29.0787 Y-22.3880
G01 X29.0449 Y-22.3880
G00 Z2.0000
G00 X29.1287 Y-22.6542
G01 F70.00
G01 Z-0.0700
G01 F120.00
G01 X29.1287 Y-22.6878
G01 X29.1623 Y-22.6878
G01 X29.1446 Y-22.6719
G01 X29.1287 Y-22.6542
G00 Z2.0000
G00 X28.3594 Y-23.3386
G01 F70.00
G01 Z-0.0700
G01 F120.00
G01 X28.3594 Y-23.3050
G01 X28.3258 Y-23.3050
G01 X28.3435 Y-23.3209
G01 X28.3594 Y-23.3386
G00 Z2.0000
G00 X27.9433 Y-23.2550
G01 F70.00
G01 Z-0.0700
G01 F120.00
G01 X27.9257 Y-23.2391
G01 X27.9095 Y-23.2212
G01 X27.9095 Y-23.2550
G01 X27.9433 Y-23.2550
G00 Z2.0000
G00 X28.3258 Y-24.9550
G01 F70.00
G01 Z-0.0700
G01 F120.00
G01 X28.3594 Y-24.9550
G01 X28.3594 Y-24.9214
G01 X28.3435 Y-24.9391
G01 X28.3258 Y-24.9550
G00 Z2.0000
G00 X26.4094 Y-24.9214
G01 F70.00
G01 Z-0.0700
G01 F120.00
G01 X26.4094 Y-24.9550
G01 X26.4430 Y-24.9550
G01 X26.4253 Y-24.9391
G01 X26.4094 Y-24.9214
G00 Z2.0000
G00 X28.3563 Y-21.3376
G01 F70.00
G01 Z-0.0700
G01 F120.00
G01 X28.3384 Y-21.3215
G01 X28.3225 Y-21.3039
G01 X28.3225 Y-21.3376
G01 X28.3563 Y-21.3376
G00 Z2.0000
G00 X28.2725 Y-21.0342
G01 F70.00
G01 Z-0.0700
G01 F120.00
G01 X28.2725 Y-20.7170
G01 X28.2566 Y-20.7347
G01 X28.2381 Y-20.7513
G01 X28.2202 Y-20.7642
G01 X28.1987 Y-20.7766
G01 X28.1759 Y-20.7865
G01 X28.1548 Y-20.7932
G01 X28.1305 Y-20.7982
G01 X28.1085 Y-20.8003
G01 X26.6975 Y-20.8006
G01 X26.6727 Y-20.7992
G01 X26.6482 Y-20.7951
G01 X26.6243 Y-20.7884
G01 X26.6013 Y-20.7790
G01 X26.5795 Y-20.7672
G01 X26.5591 Y-20.7530
G01 X26.5404 Y-20.7366
G01 X26.5225 Y-20.7170
G01 X26.5225 Y-21.0342
