(G-CODE GENERATED BY FLATCAM v8.993 - www.flatcam.org - Version Date: 2020/06/05)

(Name: A1_RF_PA_Ф1_верх.gbr_iso_combined_1_cnc)
(Type: G-code from Geometry)
(Units: MM)

(Created on Tuesday, 17 November 2020 at 21:48)

(This preprocessor is the default preprocessor used by FlatCAM.)
(It is made to work with MACH3 compatible motion controllers.)

(TOOL DIAMETER: 2.0 mm)
(Feedrate_XY: 120.0 mm/min)
(Feedrate_Z: 70.0 mm/min)
(Feedrate rapids 1500.0 mm/min)

(Z_Cut: -0.08 mm)
(Z_Move: 2.0 mm)
(Z Start: None mm)
(Z End: 25.0 mm)
(Steps per circle: 128)
(Preprocessor Geometry: default)

(X range:    2.8354 ...   64.5228  mm)
(Y range:  -52.1708 ...   -3.5717  mm)

(Spindle Speed: 10000 RPM)
G21
G90
G94



G01 F120.00
G00 Z2.0000

M03 S10000
G00 X13.7646 Y-36.6429
G01 F70.00
G01 Z-0.0800
G01 F120.00
G01 X13.7398 Y-36.6245
G01 X13.7181 Y-36.6047
G01 X13.6983 Y-36.5829
G01 X13.6808 Y-36.5593
G01 X13.6657 Y-36.5340
G01 X13.6532 Y-36.5074
G01 X13.6433 Y-36.4797
G01 X13.6362 Y-36.4512
G01 X13.6319 Y-36.4221
G01 X13.6305 Y-36.3927
G01 X13.6320 Y-36.3633
G01 X13.6363 Y-36.3343
G01 X13.6435 Y-36.3057
G01 X13.6534 Y-36.2780
G01 X13.6660 Y-36.2515
G01 X13.6812 Y-36.2263
G01 X13.6987 Y-36.2026
G01 X13.7185 Y-36.1809
G01 X13.7403 Y-36.1611
G01 X13.7639 Y-36.1436
G01 X13.7892 Y-36.1285
G01 X13.8158 Y-36.1160
G01 X13.8435 Y-36.1061
G01 X13.8720 Y-36.0990
G01 X13.9011 Y-36.0947
G01 X13.9305 Y-36.0933
G01 X13.9599 Y-36.0948
G01 X13.9889 Y-36.0991
G01 X14.0175 Y-36.1063
G01 X14.0452 Y-36.1162
G01 X14.0717 Y-36.1288
G01 X14.0969 Y-36.1440
G01 X14.1206 Y-36.1615
G01 X14.1423 Y-36.1813
G01 X14.1621 Y-36.2031
G01 X14.1796 Y-36.2267
G01 X14.1947 Y-36.2520
G01 X14.2072 Y-36.2786
G01 X14.2171 Y-36.3063
G01 X14.2242 Y-36.3348
G01 X14.2285 Y-36.3639
G01 X14.2299 Y-36.3933
G01 X14.2284 Y-36.4227
G01 X14.2241 Y-36.4517
G01 X14.2169 Y-36.4803
G01 X14.2070 Y-36.5080
G01 X14.1944 Y-36.5345
G01 X14.1792 Y-36.5597
G01 X14.1617 Y-36.5834
G01 X14.1521 Y-36.5945
G01 X14.1313 Y-36.6153
G01 X14.1085 Y-36.6339
G01 X14.0505 Y-36.6737
G01 X14.0115 Y-36.7034
G01 X13.9739 Y-36.7350
G01 X13.9302 Y-36.7760
G01 X13.8887 Y-36.7369
G01 X13.8512 Y-36.7053
G01 X13.8123 Y-36.6755
G01 X13.7646 Y-36.6429
G00 Z2.0000
G00 X13.9302 Y-38.1925
G01 F70.00
G01 Z-0.0800
G01 F120.00
G01 X13.9717 Y-38.2316
G01 X14.0092 Y-38.2632
G01 X14.0481 Y-38.2930
G01 X14.0958 Y-38.3256
G01 X14.1206 Y-38.3440
G01 X14.1423 Y-38.3638
G01 X14.1621 Y-38.3856
G01 X14.1796 Y-38.4092
G01 X14.1874 Y-38.4217
G01 X14.2013 Y-38.4476
G01 X14.2125 Y-38.4748
G01 X14.2210 Y-38.5030
G01 X14.2267 Y-38.5318
G01 X14.2296 Y-38.5611
G01 X14.2299 Y-38.5758
G01 X14.2284 Y-38.6052
G01 X14.2241 Y-38.6342
G01 X14.2169 Y-38.6628
G01 X14.2123 Y-38.6767
G01 X14.2010 Y-38.7039
G01 X14.1944 Y-38.7170
G01 X14.1792 Y-38.7422
G01 X14.1617 Y-38.7659
G01 X14.1419 Y-38.7876
G01 X14.1201 Y-38.8074
G01 X14.0954 Y-38.8256
G01 X14.0505 Y-38.8562
G01 X14.0115 Y-38.8859
G01 X13.9739 Y-38.9175
G01 X13.9302 Y-38.9585
G01 X13.8887 Y-38.9194
G01 X13.8512 Y-38.8878
G01 X13.8123 Y-38.8580
G01 X13.7646 Y-38.8254
G01 X13.7398 Y-38.8070
G01 X13.7181 Y-38.7872
G01 X13.6983 Y-38.7654
G01 X13.6808 Y-38.7418
G01 X13.6730 Y-38.7293
G01 X13.6591 Y-38.7034
G01 X13.6479 Y-38.6762
G01 X13.6394 Y-38.6480
G01 X13.6337 Y-38.6192
G01 X13.6319 Y-38.6046
G01 X13.6305 Y-38.5752
G01 X13.6320 Y-38.5458
G01 X13.6363 Y-38.5168
G01 X13.6435 Y-38.4882
G01 X13.6481 Y-38.4743
G01 X13.6534 Y-38.4605
G01 X13.6660 Y-38.4340
G01 X13.6812 Y-38.4088
G01 X13.6987 Y-38.3851
G01 X13.7185 Y-38.3634
G01 X13.7403 Y-38.3436
G01 X13.7650 Y-38.3254
G01 X13.8099 Y-38.2948
G01 X13.8489 Y-38.2651
G01 X13.8865 Y-38.2335
G01 X13.9302 Y-38.1925
G00 Z2.0000
G00 X13.9302 Y-40.3750
G01 F70.00
G01 Z-0.0800
G01 F120.00
G01 X13.9717 Y-40.4141
G01 X14.0092 Y-40.4457
G01 X14.0481 Y-40.4755
G01 X14.0958 Y-40.5081
G01 X14.1206 Y-40.5265
G01 X14.1423 Y-40.5463
G01 X14.1621 Y-40.5681
G01 X14.1796 Y-40.5917
G01 X14.1874 Y-40.6042
G01 X14.2013 Y-40.6301
G01 X14.2125 Y-40.6573
G01 X14.2171 Y-40.6713
G01 X14.2242 Y-40.6998
G01 X14.2285 Y-40.7289
G01 X14.2299 Y-40.7583
G01 X14.2284 Y-40.7877
G01 X14.2241 Y-40.8167
G01 X14.2169 Y-40.8453
G01 X14.2070 Y-40.8730
G01 X14.1944 Y-40.8995
G01 X14.1792 Y-40.9247
G01 X14.1617 Y-40.9484
G01 X14.1419 Y-40.9701
G01 X14.1201 Y-40.9899
G01 X14.0965 Y-41.0074
G01 X14.0712 Y-41.0225
G01 X14.0446 Y-41.0350
G01 X14.0169 Y-41.0449
G01 X13.9884 Y-41.0520
G01 X13.9593 Y-41.0563
G01 X13.9299 Y-41.0577
G01 X13.9005 Y-41.0562
G01 X13.8715 Y-41.0519
G01 X13.8429 Y-41.0447
G01 X13.8152 Y-41.0348
G01 X13.7887 Y-41.0222
G01 X13.7635 Y-41.0070
G01 X13.7398 Y-40.9895
G01 X13.7181 Y-40.9697
G01 X13.6983 Y-40.9479
G01 X13.6808 Y-40.9243
G01 X13.6657 Y-40.8990
G01 X13.6532 Y-40.8724
G01 X13.6433 Y-40.8447
G01 X13.6362 Y-40.8162
G01 X13.6319 Y-40.7871
G01 X13.6305 Y-40.7577
G01 X13.6320 Y-40.7283
G01 X13.6363 Y-40.6993
G01 X13.6435 Y-40.6707
G01 X13.6481 Y-40.6568
G01 X13.6534 Y-40.6430
G01 X13.6660 Y-40.6165
G01 X13.6812 Y-40.5913
G01 X13.6987 Y-40.5676
G01 X13.7185 Y-40.5459
G01 X13.7403 Y-40.5261
G01 X13.7650 Y-40.5079
G01 X13.8099 Y-40.4773
G01 X13.8489 Y-40.4476
G01 X13.8865 Y-40.4160
G01 X13.9302 Y-40.3750
G00 Z2.0000
G00 X18.9125 Y-40.7583
G01 F70.00
G01 Z-0.0800
G01 F120.00
G01 X18.9110 Y-40.7877
G01 X18.9067 Y-40.8167
G01 X18.8995 Y-40.8453
G01 X18.8896 Y-40.8730
G01 X18.8770 Y-40.8995
G01 X18.8618 Y-40.9247
G01 X18.8443 Y-40.9484
G01 X18.8245 Y-40.9701
G01 X18.8027 Y-40.9899
G01 X18.7791 Y-41.0074
G01 X18.7538 Y-41.0225
G01 X18.7272 Y-41.0350
G01 X18.6995 Y-41.0449
G01 X18.6710 Y-41.0520
G01 X18.6419 Y-41.0563
G01 X18.6125 Y-41.0577
G01 X18.5831 Y-41.0562
G01 X18.5541 Y-41.0519
G01 X18.5255 Y-41.0447
G01 X18.4978 Y-41.0348
G01 X18.4713 Y-41.0222
G01 X18.4461 Y-41.0070
G01 X18.4224 Y-40.9895
G01 X18.4007 Y-40.9697
G01 X18.3809 Y-40.9479
G01 X18.3634 Y-40.9243
G01 X18.3483 Y-40.8990
G01 X18.3358 Y-40.8724
G01 X18.3259 Y-40.8447
G01 X18.3188 Y-40.8162
G01 X18.3145 Y-40.7871
G01 X18.3131 Y-40.7577
G01 X18.3146 Y-40.7283
G01 X18.3189 Y-40.6993
G01 X18.3261 Y-40.6707
G01 X18.3360 Y-40.6430
G01 X18.3486 Y-40.6165
G01 X18.3638 Y-40.5913
G01 X18.3813 Y-40.5676
G01 X18.4011 Y-40.5459
G01 X18.4229 Y-40.5261
G01 X18.4465 Y-40.5086
G01 X18.4718 Y-40.4935
G01 X18.4984 Y-40.4810
G01 X18.5261 Y-40.4711
G01 X18.5546 Y-40.4640
G01 X18.5837 Y-40.4597
G01 X18.6131 Y-40.4583
G01 X18.6425 Y-40.4598
G01 X18.6715 Y-40.4641
G01 X18.7001 Y-40.4713
G01 X18.7278 Y-40.4812
G01 X18.7543 Y-40.4938
G01 X18.7795 Y-40.5090
G01 X18.8032 Y-40.5265
G01 X18.8249 Y-40.5463
G01 X18.8447 Y-40.5681
G01 X18.8622 Y-40.5917
G01 X18.8773 Y-40.6170
G01 X18.8898 Y-40.6436
G01 X18.8997 Y-40.6713
G01 X18.9068 Y-40.6998
G01 X18.9111 Y-40.7289
G01 X18.9125 Y-40.7583
G00 Z2.0000
G00 X18.9124 Y-36.3933
G01 F70.00
G01 Z-0.0800
G01 F120.00
G01 X18.9109 Y-36.4227
G01 X18.9066 Y-36.4517
G01 X18.8994 Y-36.4803
G01 X18.8895 Y-36.5080
G01 X18.8769 Y-36.5345
G01 X18.8617 Y-36.5597
G01 X18.8442 Y-36.5834
G01 X18.8244 Y-36.6051
G01 X18.8026 Y-36.6249
G01 X18.7790 Y-36.6424
G01 X18.7537 Y-36.6575
G01 X18.7271 Y-36.6700
G01 X18.6994 Y-36.6799
G01 X18.6709 Y-36.6870
G01 X18.6418 Y-36.6913
G01 X18.6124 Y-36.6927
G01 X18.5830 Y-36.6912
G01 X18.5540 Y-36.6869
G01 X18.5254 Y-36.6797
G01 X18.4977 Y-36.6698
G01 X18.4712 Y-36.6572
G01 X18.4460 Y-36.6420
G01 X18.4223 Y-36.6245
G01 X18.4006 Y-36.6047
G01 X18.3808 Y-36.5829
G01 X18.3633 Y-36.5593
G01 X18.3482 Y-36.5340
G01 X18.3357 Y-36.5074
G01 X18.3258 Y-36.4797
G01 X18.3187 Y-36.4512
G01 X18.3144 Y-36.4221
G01 X18.3130 Y-36.3927
G01 X18.3145 Y-36.3633
G01 X18.3188 Y-36.3343
G01 X18.3260 Y-36.3057
G01 X18.3359 Y-36.2780
G01 X18.3485 Y-36.2515
G01 X18.3637 Y-36.2263
G01 X18.3812 Y-36.2026
G01 X18.4010 Y-36.1809
G01 X18.4228 Y-36.1611
G01 X18.4464 Y-36.1436
G01 X18.4717 Y-36.1285
G01 X18.4983 Y-36.1160
G01 X18.5260 Y-36.1061
G01 X18.5545 Y-36.0990
G01 X18.5836 Y-36.0947
G01 X18.6130 Y-36.0933
G01 X18.6424 Y-36.0948
G01 X18.6714 Y-36.0991
G01 X18.7000 Y-36.1063
G01 X18.7277 Y-36.1162
G01 X18.7542 Y-36.1288
G01 X18.7794 Y-36.1440
G01 X18.8031 Y-36.1615
G01 X18.8248 Y-36.1813
G01 X18.8446 Y-36.2031
G01 X18.8621 Y-36.2267
G01 X18.8772 Y-36.2520
G01 X18.8897 Y-36.2786
G01 X18.8996 Y-36.3063
G01 X18.9067 Y-36.3348
G01 X18.9110 Y-36.3639
G01 X18.9124 Y-36.3933
G00 Z2.0000
G00 X22.8355 Y-35.4978
G01 F70.00
G01 Z-0.0800
G01 F120.00
G01 X28.4381 Y-35.4978
G01 X28.4382 Y-41.4180
G01 X22.8355 Y-41.4180
G01 X22.8355 Y-35.4978
G00 Z2.0000
G00 X23.8355 Y-36.4978
G01 F70.00
G01 Z-0.0800
G01 F120.00
G01 X27.4381 Y-36.4978
G01 X27.4382 Y-40.4180
G01 X23.8355 Y-40.4180
G01 X23.8355 Y-36.4978
G00 Z2.0000
G00 X24.8355 Y-37.4978
G01 F70.00
G01 Z-0.0800
G01 F120.00
G01 X26.4381 Y-37.4978
G01 X26.4381 Y-39.4180
G01 X24.8355 Y-39.4180
G01 X24.8355 Y-37.4978
G00 Z2.0000
G00 X18.5937 Y-47.1889
G01 F70.00
G01 Z-0.0800
G01 F120.00
G01 X18.5922 Y-47.2183
G01 X18.5879 Y-47.2473
G01 X18.5807 Y-47.2759
G01 X18.5708 Y-47.3036
G01 X18.5582 Y-47.3301
G01 X18.5430 Y-47.3553
G01 X18.5255 Y-47.3790
G01 X18.5057 Y-47.4007
G01 X18.4839 Y-47.4205
G01 X18.4603 Y-47.4380
G01 X18.4350 Y-47.4531
G01 X18.4084 Y-47.4656
G01 X18.3807 Y-47.4755
G01 X18.3522 Y-47.4826
G01 X18.3231 Y-47.4869
G01 X18.2937 Y-47.4883
G01 X18.2643 Y-47.4868
G01 X18.2353 Y-47.4825
G01 X18.2067 Y-47.4753
G01 X18.1790 Y-47.4654
G01 X18.1525 Y-47.4528
G01 X18.1273 Y-47.4376
G01 X18.1036 Y-47.4201
G01 X18.0819 Y-47.4003
G01 X18.0621 Y-47.3785
G01 X18.0446 Y-47.3549
G01 X18.0295 Y-47.3296
G01 X18.0170 Y-47.3030
G01 X18.0071 Y-47.2753
G01 X18.0000 Y-47.2468
G01 X17.9957 Y-47.2177
G01 X17.9943 Y-47.1883
G01 X17.9958 Y-47.1589
G01 X18.0001 Y-47.1299
G01 X18.0073 Y-47.1013
G01 X18.0172 Y-47.0736
G01 X18.0298 Y-47.0471
G01 X18.0450 Y-47.0219
G01 X18.0625 Y-46.9982
G01 X18.0823 Y-46.9765
G01 X18.1041 Y-46.9567
G01 X18.1277 Y-46.9392
G01 X18.1530 Y-46.9241
G01 X18.1796 Y-46.9116
G01 X18.2073 Y-46.9017
G01 X18.2358 Y-46.8946
G01 X18.2649 Y-46.8903
G01 X18.2943 Y-46.8889
G01 X18.3237 Y-46.8904
G01 X18.3527 Y-46.8947
G01 X18.3813 Y-46.9019
G01 X18.4090 Y-46.9118
G01 X18.4355 Y-46.9244
G01 X18.4607 Y-46.9396
G01 X18.4844 Y-46.9571
G01 X18.5061 Y-46.9769
G01 X18.5259 Y-46.9987
G01 X18.5434 Y-47.0223
G01 X18.5585 Y-47.0476
G01 X18.5710 Y-47.0742
G01 X18.5809 Y-47.1019
G01 X18.5880 Y-47.1304
G01 X18.5923 Y-47.1595
G01 X18.5937 Y-47.1889
G00 Z2.0000
G00 X14.2287 Y-47.1889
G01 F70.00
G01 Z-0.0800
G01 F120.00
G01 X14.2272 Y-47.2183
G01 X14.2229 Y-47.2473
G01 X14.2157 Y-47.2759
G01 X14.2058 Y-47.3036
G01 X14.1932 Y-47.3301
G01 X14.1780 Y-47.3553
G01 X14.1605 Y-47.3790
G01 X14.1407 Y-47.4007
G01 X14.1189 Y-47.4205
G01 X14.0953 Y-47.4380
G01 X14.0700 Y-47.4531
G01 X14.0434 Y-47.4656
G01 X14.0157 Y-47.4755
G01 X13.9872 Y-47.4826
G01 X13.9581 Y-47.4869
G01 X13.9287 Y-47.4883
G01 X13.8993 Y-47.4868
G01 X13.8703 Y-47.4825
G01 X13.8417 Y-47.4753
G01 X13.8140 Y-47.4654
G01 X13.7875 Y-47.4528
G01 X13.7623 Y-47.4376
G01 X13.7386 Y-47.4201
G01 X13.7169 Y-47.4003
G01 X13.6971 Y-47.3785
G01 X13.6796 Y-47.3549
G01 X13.6645 Y-47.3296
G01 X13.6520 Y-47.3030
G01 X13.6421 Y-47.2753
G01 X13.6350 Y-47.2468
G01 X13.6307 Y-47.2177
G01 X13.6293 Y-47.1883
G01 X13.6308 Y-47.1589
G01 X13.6351 Y-47.1299
G01 X13.6423 Y-47.1013
G01 X13.6522 Y-47.0736
G01 X13.6648 Y-47.0471
G01 X13.6800 Y-47.0219
G01 X13.6975 Y-46.9982
G01 X13.7173 Y-46.9765
G01 X13.7391 Y-46.9567
G01 X13.7627 Y-46.9392
G01 X13.7880 Y-46.9241
G01 X13.8146 Y-46.9116
G01 X13.8423 Y-46.9017
G01 X13.8708 Y-46.8946
G01 X13.8999 Y-46.8903
G01 X13.9293 Y-46.8889
G01 X13.9587 Y-46.8904
G01 X13.9877 Y-46.8947
G01 X14.0163 Y-46.9019
G01 X14.0440 Y-46.9118
G01 X14.0705 Y-46.9244
G01 X14.0957 Y-46.9396
G01 X14.1194 Y-46.9571
G01 X14.1411 Y-46.9769
G01 X14.1609 Y-46.9987
G01 X14.1784 Y-47.0223
G01 X14.1935 Y-47.0476
G01 X14.2060 Y-47.0742
G01 X14.2159 Y-47.1019
G01 X14.2230 Y-47.1304
G01 X14.2273 Y-47.1595
G01 X14.2287 Y-47.1889
G00 Z2.0000
G00 X14.1789 Y-52.0366
G01 F70.00
G01 Z-0.0800
G01 F120.00
G01 X14.1605 Y-52.0614
G01 X14.1407 Y-52.0831
G01 X14.1189 Y-52.1029
G01 X14.0953 Y-52.1204
G01 X14.0700 Y-52.1355
G01 X14.0434 Y-52.1480
G01 X14.0157 Y-52.1579
G01 X13.9872 Y-52.1650
G01 X13.9581 Y-52.1693
G01 X13.9287 Y-52.1707
G01 X13.8993 Y-52.1692
G01 X13.8703 Y-52.1649
G01 X13.8417 Y-52.1577
G01 X13.8140 Y-52.1478
G01 X13.7875 Y-52.1352
G01 X13.7623 Y-52.1200
G01 X13.7386 Y-52.1025
G01 X13.7169 Y-52.0827
G01 X13.6971 Y-52.0609
G01 X13.6796 Y-52.0373
G01 X13.6645 Y-52.0120
G01 X13.6520 Y-51.9854
G01 X13.6421 Y-51.9577
G01 X13.6350 Y-51.9292
G01 X13.6307 Y-51.9001
G01 X13.6293 Y-51.8707
G01 X13.6308 Y-51.8413
G01 X13.6351 Y-51.8123
G01 X13.6423 Y-51.7837
G01 X13.6522 Y-51.7560
G01 X13.6648 Y-51.7295
G01 X13.6800 Y-51.7043
G01 X13.6975 Y-51.6806
G01 X13.7173 Y-51.6589
G01 X13.7391 Y-51.6391
G01 X13.7627 Y-51.6216
G01 X13.7880 Y-51.6065
G01 X13.8146 Y-51.5940
G01 X13.8423 Y-51.5841
G01 X13.8708 Y-51.5770
G01 X13.8999 Y-51.5727
G01 X13.9293 Y-51.5713
G01 X13.9587 Y-51.5728
G01 X13.9877 Y-51.5771
G01 X14.0163 Y-51.5843
G01 X14.0440 Y-51.5942
G01 X14.0705 Y-51.6068
G01 X14.0957 Y-51.6220
G01 X14.1194 Y-51.6395
G01 X14.1305 Y-51.6491
G01 X14.1513 Y-51.6699
G01 X14.1699 Y-51.6927
G01 X14.2097 Y-51.7507
G01 X14.2394 Y-51.7897
G01 X14.2710 Y-51.8273
G01 X14.3120 Y-51.8710
G01 X14.2729 Y-51.9125
G01 X14.2413 Y-51.9500
G01 X14.2115 Y-51.9889
G01 X14.1789 Y-52.0366
G00 Z2.0000
G00 X15.7285 Y-51.8710
G01 F70.00
G01 Z-0.0800
G01 F120.00
G01 X15.7676 Y-51.8295
G01 X15.7992 Y-51.7920
G01 X15.8290 Y-51.7531
G01 X15.8616 Y-51.7054
G01 X15.8800 Y-51.6806
G01 X15.8998 Y-51.6589
G01 X15.9216 Y-51.6391
G01 X15.9452 Y-51.6216
G01 X15.9577 Y-51.6138
G01 X15.9836 Y-51.5999
G01 X16.0108 Y-51.5887
G01 X16.0248 Y-51.5841
G01 X16.0533 Y-51.5770
G01 X16.0824 Y-51.5727
G01 X16.1118 Y-51.5713
G01 X16.1265 Y-51.5717
G01 X16.1558 Y-51.5746
G01 X16.1846 Y-51.5803
G01 X16.2127 Y-51.5889
G01 X16.2399 Y-51.6002
G01 X16.2658 Y-51.6141
G01 X16.2782 Y-51.6220
G01 X16.3019 Y-51.6395
G01 X16.3236 Y-51.6593
G01 X16.3434 Y-51.6811
G01 X16.3616 Y-51.7058
G01 X16.3922 Y-51.7507
G01 X16.4219 Y-51.7897
G01 X16.4535 Y-51.8273
G01 X16.4945 Y-51.8710
G01 X16.4554 Y-51.9125
G01 X16.4238 Y-51.9500
G01 X16.3940 Y-51.9889
G01 X16.3614 Y-52.0366
G01 X16.3430 Y-52.0614
G01 X16.3232 Y-52.0831
G01 X16.3014 Y-52.1029
G01 X16.2778 Y-52.1204
G01 X16.2525 Y-52.1355
G01 X16.2259 Y-52.1480
G01 X16.2122 Y-52.1533
G01 X16.1840 Y-52.1618
G01 X16.1697 Y-52.1650
G01 X16.1406 Y-52.1693
G01 X16.1112 Y-52.1707
G01 X16.0818 Y-52.1692
G01 X16.0672 Y-52.1674
G01 X16.0384 Y-52.1617
G01 X16.0103 Y-52.1531
G01 X15.9831 Y-52.1418
G01 X15.9572 Y-52.1279
G01 X15.9327 Y-52.1116
G01 X15.9211 Y-52.1025
G01 X15.8994 Y-52.0827
G01 X15.8796 Y-52.0609
G01 X15.8614 Y-52.0362
G01 X15.8308 Y-51.9913
G01 X15.8011 Y-51.9523
G01 X15.7695 Y-51.9147
G01 X15.7285 Y-51.8710
G00 Z2.0000
G00 X17.9110 Y-51.8710
G01 F70.00
G01 Z-0.0800
G01 F120.00
G01 X17.9501 Y-51.8295
G01 X17.9817 Y-51.7920
G01 X18.0115 Y-51.7531
G01 X18.0441 Y-51.7054
G01 X18.0625 Y-51.6806
G01 X18.0823 Y-51.6589
G01 X18.1041 Y-51.6391
G01 X18.1277 Y-51.6216
G01 X18.1530 Y-51.6065
G01 X18.1661 Y-51.5999
G01 X18.1933 Y-51.5887
G01 X18.2215 Y-51.5802
G01 X18.2358 Y-51.5770
G01 X18.2649 Y-51.5727
G01 X18.2943 Y-51.5713
G01 X18.3237 Y-51.5728
G01 X18.3527 Y-51.5771
G01 X18.3813 Y-51.5843
G01 X18.4090 Y-51.5942
G01 X18.4355 Y-51.6068
G01 X18.4607 Y-51.6220
G01 X18.4844 Y-51.6395
G01 X18.5061 Y-51.6593
G01 X18.5259 Y-51.6811
G01 X18.5434 Y-51.7047
G01 X18.5585 Y-51.7300
G01 X18.5710 Y-51.7566
G01 X18.5809 Y-51.7843
G01 X18.5880 Y-51.8128
G01 X18.5923 Y-51.8419
G01 X18.5937 Y-51.8713
G01 X18.5922 Y-51.9007
G01 X18.5879 Y-51.9297
G01 X18.5807 Y-51.9583
G01 X18.5708 Y-51.9860
G01 X18.5582 Y-52.0125
G01 X18.5430 Y-52.0377
G01 X18.5255 Y-52.0614
G01 X18.5057 Y-52.0831
G01 X18.4839 Y-52.1029
G01 X18.4603 Y-52.1204
G01 X18.4350 Y-52.1355
G01 X18.4084 Y-52.1480
G01 X18.3807 Y-52.1579
G01 X18.3522 Y-52.1650
G01 X18.3231 Y-52.1693
G01 X18.2937 Y-52.1707
G01 X18.2790 Y-52.1703
G01 X18.2497 Y-52.1674
G01 X18.2209 Y-52.1617
G01 X18.1928 Y-52.1531
G01 X18.1656 Y-52.1418
G01 X18.1397 Y-52.1279
G01 X18.1152 Y-52.1116
G01 X18.1036 Y-52.1025
G01 X18.0819 Y-52.0827
G01 X18.0621 Y-52.0609
G01 X18.0439 Y-52.0362
G01 X18.0133 Y-51.9913
G01 X17.9836 Y-51.9523
G01 X17.9520 Y-51.9147
G01 X17.9110 Y-51.8710
G00 Z2.0000
G00 X7.1171 Y-51.8711
G01 F70.00
G01 Z-0.0800
G01 F120.00
G01 X7.1562 Y-51.8296
G01 X7.1878 Y-51.7921
G01 X7.2176 Y-51.7532
G01 X7.2502 Y-51.7055
G01 X7.2686 Y-51.6807
G01 X7.2884 Y-51.6590
G01 X7.3102 Y-51.6392
G01 X7.3338 Y-51.6217
G01 X7.3463 Y-51.6139
G01 X7.3722 Y-51.6000
G01 X7.3994 Y-51.5888
G01 X7.4276 Y-51.5803
G01 X7.4564 Y-51.5746
G01 X7.4710 Y-51.5728
G01 X7.5004 Y-51.5714
G01 X7.5298 Y-51.5729
G01 X7.5588 Y-51.5772
G01 X7.5874 Y-51.5844
G01 X7.6151 Y-51.5943
G01 X7.6416 Y-51.6069
G01 X7.6668 Y-51.6221
G01 X7.6905 Y-51.6396
G01 X7.7122 Y-51.6594
G01 X7.7320 Y-51.6812
G01 X7.7495 Y-51.7048
G01 X7.7646 Y-51.7301
G01 X7.7771 Y-51.7567
G01 X7.7870 Y-51.7844
G01 X7.7941 Y-51.8129
G01 X7.7984 Y-51.8420
G01 X7.7998 Y-51.8714
G01 X7.7983 Y-51.9008
G01 X7.7940 Y-51.9298
G01 X7.7868 Y-51.9584
G01 X7.7769 Y-51.9861
G01 X7.7643 Y-52.0126
G01 X7.7491 Y-52.0378
G01 X7.7316 Y-52.0615
G01 X7.7118 Y-52.0832
G01 X7.6900 Y-52.1030
G01 X7.6664 Y-52.1205
G01 X7.6411 Y-52.1356
G01 X7.6145 Y-52.1481
G01 X7.5868 Y-52.1580
G01 X7.5583 Y-52.1651
G01 X7.5292 Y-52.1694
G01 X7.4998 Y-52.1708
G01 X7.4851 Y-52.1704
G01 X7.4558 Y-52.1675
G01 X7.4270 Y-52.1618
G01 X7.3989 Y-52.1532
G01 X7.3717 Y-52.1419
G01 X7.3586 Y-52.1353
G01 X7.3334 Y-52.1201
G01 X7.3097 Y-52.1026
G01 X7.2880 Y-52.0828
G01 X7.2682 Y-52.0610
G01 X7.2500 Y-52.0363
G01 X7.2194 Y-51.9914
G01 X7.1897 Y-51.9524
G01 X7.1581 Y-51.9148
G01 X7.1171 Y-51.8711
G00 Z2.0000
G00 X4.9346 Y-51.8711
G01 F70.00
G01 Z-0.0800
G01 F120.00
G01 X4.9737 Y-51.8296
G01 X5.0053 Y-51.7921
G01 X5.0351 Y-51.7532
G01 X5.0677 Y-51.7055
G01 X5.0861 Y-51.6807
G01 X5.1059 Y-51.6590
G01 X5.1277 Y-51.6392
G01 X5.1513 Y-51.6217
G01 X5.1638 Y-51.6139
G01 X5.1897 Y-51.6000
G01 X5.2169 Y-51.5888
G01 X5.2451 Y-51.5803
G01 X5.2739 Y-51.5746
G01 X5.2885 Y-51.5728
G01 X5.3179 Y-51.5714
G01 X5.3473 Y-51.5729
G01 X5.3763 Y-51.5772
G01 X5.4049 Y-51.5844
G01 X5.4188 Y-51.5890
G01 X5.4460 Y-51.6003
G01 X5.4719 Y-51.6142
G01 X5.4964 Y-51.6305
G01 X5.5080 Y-51.6396
G01 X5.5297 Y-51.6594
G01 X5.5495 Y-51.6812
G01 X5.5677 Y-51.7059
G01 X5.5983 Y-51.7508
G01 X5.6280 Y-51.7898
G01 X5.6596 Y-51.8274
G01 X5.7006 Y-51.8711
G01 X5.6615 Y-51.9126
G01 X5.6299 Y-51.9501
G01 X5.6001 Y-51.9890
G01 X5.5675 Y-52.0367
G01 X5.5491 Y-52.0615
G01 X5.5293 Y-52.0832
G01 X5.5075 Y-52.1030
G01 X5.4839 Y-52.1205
G01 X5.4714 Y-52.1283
G01 X5.4455 Y-52.1422
G01 X5.4183 Y-52.1534
G01 X5.3901 Y-52.1619
G01 X5.3758 Y-52.1651
G01 X5.3467 Y-52.1694
G01 X5.3173 Y-52.1708
G01 X5.3026 Y-52.1704
G01 X5.2733 Y-52.1675
G01 X5.2445 Y-52.1618
G01 X5.2164 Y-52.1532
G01 X5.1892 Y-52.1419
G01 X5.1761 Y-52.1353
G01 X5.1509 Y-52.1201
G01 X5.1272 Y-52.1026
G01 X5.1055 Y-52.0828
G01 X5.0857 Y-52.0610
G01 X5.0675 Y-52.0363
G01 X5.0369 Y-51.9914
G01 X5.0072 Y-51.9524
G01 X4.9756 Y-51.9148
G01 X4.9346 Y-51.8711
G00 Z2.0000
G00 X3.3850 Y-52.0367
G01 F70.00
G01 Z-0.0800
G01 F120.00
G01 X3.3666 Y-52.0615
G01 X3.3468 Y-52.0832
G01 X3.3250 Y-52.1030
G01 X3.3014 Y-52.1205
G01 X3.2761 Y-52.1356
G01 X3.2495 Y-52.1481
G01 X3.2218 Y-52.1580
G01 X3.1933 Y-52.1651
G01 X3.1642 Y-52.1694
G01 X3.1348 Y-52.1708
G01 X3.1054 Y-52.1693
G01 X3.0764 Y-52.1650
G01 X3.0478 Y-52.1578
G01 X3.0201 Y-52.1479
G01 X2.9936 Y-52.1353
G01 X2.9684 Y-52.1201
G01 X2.9447 Y-52.1026
G01 X2.9230 Y-52.0828
G01 X2.9032 Y-52.0610
G01 X2.8857 Y-52.0374
G01 X2.8706 Y-52.0121
G01 X2.8581 Y-51.9855
G01 X2.8482 Y-51.9578
G01 X2.8411 Y-51.9293
G01 X2.8368 Y-51.9002
G01 X2.8354 Y-51.8708
G01 X2.8369 Y-51.8414
G01 X2.8412 Y-51.8124
G01 X2.8484 Y-51.7838
G01 X2.8583 Y-51.7561
G01 X2.8709 Y-51.7296
G01 X2.8861 Y-51.7044
G01 X2.9036 Y-51.6807
G01 X2.9234 Y-51.6590
G01 X2.9452 Y-51.6392
G01 X2.9688 Y-51.6217
G01 X2.9941 Y-51.6066
G01 X3.0207 Y-51.5941
G01 X3.0484 Y-51.5842
G01 X3.0769 Y-51.5771
G01 X3.1060 Y-51.5728
G01 X3.1354 Y-51.5714
G01 X3.1648 Y-51.5729
G01 X3.1938 Y-51.5772
G01 X3.2224 Y-51.5844
G01 X3.2501 Y-51.5943
G01 X3.2766 Y-51.6069
G01 X3.3018 Y-51.6221
G01 X3.3139 Y-51.6305
G01 X3.3366 Y-51.6492
G01 X3.3574 Y-51.6700
G01 X3.3760 Y-51.6928
G01 X3.4158 Y-51.7508
G01 X3.4455 Y-51.7898
G01 X3.4771 Y-51.8274
G01 X3.5181 Y-51.8711
G01 X3.4790 Y-51.9126
G01 X3.4474 Y-51.9501
G01 X3.4176 Y-51.9890
G01 X3.3850 Y-52.0367
G00 Z2.0000
G00 X3.4348 Y-47.1889
G01 F70.00
G01 Z-0.0800
G01 F120.00
G01 X3.4333 Y-47.2183
G01 X3.4290 Y-47.2473
G01 X3.4218 Y-47.2759
G01 X3.4119 Y-47.3036
G01 X3.3993 Y-47.3301
G01 X3.3841 Y-47.3553
G01 X3.3666 Y-47.3790
G01 X3.3468 Y-47.4007
G01 X3.3250 Y-47.4205
G01 X3.3014 Y-47.4380
G01 X3.2761 Y-47.4531
G01 X3.2495 Y-47.4656
G01 X3.2218 Y-47.4755
G01 X3.1933 Y-47.4826
G01 X3.1642 Y-47.4869
G01 X3.1348 Y-47.4883
G01 X3.1054 Y-47.4868
G01 X3.0764 Y-47.4825
G01 X3.0478 Y-47.4753
G01 X3.0201 Y-47.4654
G01 X2.9936 Y-47.4528
G01 X2.9684 Y-47.4376
G01 X2.9447 Y-47.4201
G01 X2.9230 Y-47.4003
G01 X2.9032 Y-47.3785
G01 X2.8857 Y-47.3549
G01 X2.8706 Y-47.3296
G01 X2.8581 Y-47.3030
G01 X2.8482 Y-47.2753
G01 X2.8411 Y-47.2468
G01 X2.8368 Y-47.2177
G01 X2.8354 Y-47.1883
G01 X2.8369 Y-47.1589
G01 X2.8412 Y-47.1299
G01 X2.8484 Y-47.1013
G01 X2.8583 Y-47.0736
G01 X2.8709 Y-47.0471
G01 X2.8861 Y-47.0219
G01 X2.9036 Y-46.9982
G01 X2.9234 Y-46.9765
G01 X2.9452 Y-46.9567
G01 X2.9688 Y-46.9392
G01 X2.9941 Y-46.9241
G01 X3.0207 Y-46.9116
G01 X3.0484 Y-46.9017
G01 X3.0769 Y-46.8946
G01 X3.1060 Y-46.8903
G01 X3.1354 Y-46.8889
G01 X3.1648 Y-46.8904
G01 X3.1938 Y-46.8947
G01 X3.2224 Y-46.9019
G01 X3.2501 Y-46.9118
G01 X3.2766 Y-46.9244
G01 X3.3018 Y-46.9396
G01 X3.3255 Y-46.9571
G01 X3.3472 Y-46.9769
G01 X3.3670 Y-46.9987
G01 X3.3845 Y-47.0223
G01 X3.3996 Y-47.0476
G01 X3.4121 Y-47.0742
G01 X3.4220 Y-47.1019
G01 X3.4291 Y-47.1304
G01 X3.4334 Y-47.1595
G01 X3.4348 Y-47.1889
G00 Z2.0000
G00 X7.7998 Y-47.1889
G01 F70.00
G01 Z-0.0800
G01 F120.00
G01 X7.7983 Y-47.2183
G01 X7.7940 Y-47.2473
G01 X7.7868 Y-47.2759
G01 X7.7769 Y-47.3036
G01 X7.7643 Y-47.3301
G01 X7.7491 Y-47.3553
G01 X7.7316 Y-47.3790
G01 X7.7118 Y-47.4007
G01 X7.6900 Y-47.4205
G01 X7.6664 Y-47.4380
G01 X7.6411 Y-47.4531
G01 X7.6145 Y-47.4656
G01 X7.5868 Y-47.4755
G01 X7.5583 Y-47.4826
G01 X7.5292 Y-47.4869
G01 X7.4998 Y-47.4883
G01 X7.4704 Y-47.4868
G01 X7.4414 Y-47.4825
G01 X7.4128 Y-47.4753
G01 X7.3851 Y-47.4654
G01 X7.3586 Y-47.4528
G01 X7.3334 Y-47.4376
G01 X7.3097 Y-47.4201
G01 X7.2880 Y-47.4003
G01 X7.2682 Y-47.3785
G01 X7.2507 Y-47.3549
G01 X7.2356 Y-47.3296
G01 X7.2231 Y-47.3030
G01 X7.2132 Y-47.2753
G01 X7.2061 Y-47.2468
G01 X7.2018 Y-47.2177
G01 X7.2004 Y-47.1883
G01 X7.2019 Y-47.1589
G01 X7.2062 Y-47.1299
G01 X7.2134 Y-47.1013
G01 X7.2233 Y-47.0736
G01 X7.2359 Y-47.0471
G01 X7.2511 Y-47.0219
G01 X7.2686 Y-46.9982
G01 X7.2884 Y-46.9765
G01 X7.3102 Y-46.9567
G01 X7.3338 Y-46.9392
G01 X7.3591 Y-46.9241
G01 X7.3857 Y-46.9116
G01 X7.4134 Y-46.9017
G01 X7.4419 Y-46.8946
G01 X7.4710 Y-46.8903
G01 X7.5004 Y-46.8889
G01 X7.5298 Y-46.8904
G01 X7.5588 Y-46.8947
G01 X7.5874 Y-46.9019
G01 X7.6151 Y-46.9118
G01 X7.6416 Y-46.9244
G01 X7.6668 Y-46.9396
G01 X7.6905 Y-46.9571
G01 X7.7122 Y-46.9769
G01 X7.7320 Y-46.9987
G01 X7.7495 Y-47.0223
G01 X7.7646 Y-47.0476
G01 X7.7771 Y-47.0742
G01 X7.7870 Y-47.1019
G01 X7.7941 Y-47.1304
G01 X7.7984 Y-47.1595
G01 X7.7998 Y-47.1889
G00 Z2.0000
G00 X39.7804 Y-41.4988
G01 F70.00
G01 Z-0.0800
G01 F120.00
G01 X39.7803 Y-35.1786
G01 X45.7832 Y-35.1786
G01 X45.7832 Y-41.4990
G01 X39.7804 Y-41.4988
G00 Z2.0000
G00 X42.7804 Y-38.1786
G01 F70.00
G01 Z-0.0800
G01 F120.00
G01 X42.7832 Y-38.1786
G01 X42.7832 Y-38.4964
G01 X42.7804 Y-38.4964
G01 X42.7804 Y-38.1786
G00 Z2.0000
G00 X41.7804 Y-37.1786
G01 F70.00
G01 Z-0.0800
G01 F120.00
G01 X43.7832 Y-37.1786
G01 X43.7832 Y-39.4986
G01 X41.7804 Y-39.4983
G01 X41.7804 Y-37.1786
G00 Z2.0000
G00 X40.7803 Y-36.1786
G01 F70.00
G01 Z-0.0800
G01 F120.00
G01 X44.7832 Y-36.1786
G01 X44.7832 Y-40.4987
G01 X40.7804 Y-40.4982
G01 X40.7803 Y-36.1786
G00 Z2.0000
G00 X45.4037 Y-44.3165
G01 F70.00
G01 Z-0.0800
G01 F120.00
G01 X45.3622 Y-44.2774
G01 X45.3247 Y-44.2458
G01 X45.2858 Y-44.2160
G01 X45.2381 Y-44.1834
G01 X45.2133 Y-44.1650
G01 X45.1916 Y-44.1452
G01 X45.1718 Y-44.1234
G01 X45.1543 Y-44.0998
G01 X45.1465 Y-44.0873
G01 X45.1326 Y-44.0614
G01 X45.1214 Y-44.0342
G01 X45.1129 Y-44.0060
G01 X45.1072 Y-43.9772
G01 X45.1054 Y-43.9626
G01 X45.1040 Y-43.9332
G01 X45.1055 Y-43.9038
G01 X45.1098 Y-43.8748
G01 X45.1170 Y-43.8462
G01 X45.1269 Y-43.8185
G01 X45.1395 Y-43.7920
G01 X45.1547 Y-43.7668
G01 X45.1722 Y-43.7431
G01 X45.1920 Y-43.7214
G01 X45.2138 Y-43.7016
G01 X45.2374 Y-43.6841
G01 X45.2627 Y-43.6690
G01 X45.2893 Y-43.6565
G01 X45.3170 Y-43.6466
G01 X45.3455 Y-43.6395
G01 X45.3746 Y-43.6352
G01 X45.4040 Y-43.6338
G01 X45.4334 Y-43.6353
G01 X45.4624 Y-43.6396
G01 X45.4910 Y-43.6468
G01 X45.5187 Y-43.6567
G01 X45.5452 Y-43.6693
G01 X45.5704 Y-43.6845
G01 X45.5941 Y-43.7020
G01 X45.6158 Y-43.7218
G01 X45.6356 Y-43.7436
G01 X45.6531 Y-43.7672
G01 X45.6682 Y-43.7925
G01 X45.6807 Y-43.8191
G01 X45.6906 Y-43.8468
G01 X45.6977 Y-43.8753
G01 X45.7020 Y-43.9044
G01 X45.7034 Y-43.9338
G01 X45.7030 Y-43.9485
G01 X45.7001 Y-43.9778
G01 X45.6944 Y-44.0066
G01 X45.6858 Y-44.0347
G01 X45.6745 Y-44.0619
G01 X45.6606 Y-44.0878
G01 X45.6443 Y-44.1123
G01 X45.6352 Y-44.1239
G01 X45.6154 Y-44.1456
G01 X45.5936 Y-44.1654
G01 X45.5689 Y-44.1836
G01 X45.5240 Y-44.2142
G01 X45.4850 Y-44.2439
G01 X45.4474 Y-44.2755
G01 X45.4037 Y-44.3165
G00 Z2.0000
G00 X45.2381 Y-46.3659
G01 F70.00
G01 Z-0.0800
G01 F120.00
G01 X45.2249 Y-46.3566
G01 X45.2022 Y-46.3379
G01 X45.1814 Y-46.3171
G01 X45.1718 Y-46.3059
G01 X45.1543 Y-46.2823
G01 X45.1465 Y-46.2698
G01 X45.1326 Y-46.2439
G01 X45.1267 Y-46.2304
G01 X45.1168 Y-46.2027
G01 X45.1097 Y-46.1742
G01 X45.1072 Y-46.1597
G01 X45.1043 Y-46.1304
G01 X45.1040 Y-46.1157
G01 X45.1055 Y-46.0863
G01 X45.1098 Y-46.0573
G01 X45.1130 Y-46.0429
G01 X45.1216 Y-46.0148
G01 X45.1329 Y-45.9876
G01 X45.1395 Y-45.9745
G01 X45.1547 Y-45.9493
G01 X45.1722 Y-45.9256
G01 X45.1818 Y-45.9145
G01 X45.2026 Y-45.8937
G01 X45.2254 Y-45.8751
G01 X45.2834 Y-45.8353
G01 X45.3320 Y-45.7979
G01 X45.3691 Y-45.7659
G01 X45.4037 Y-45.7330
G01 X45.4452 Y-45.7721
G01 X45.4827 Y-45.8037
G01 X45.5216 Y-45.8335
G01 X45.5825 Y-45.8754
G01 X45.6052 Y-45.8941
G01 X45.6260 Y-45.9149
G01 X45.6356 Y-45.9261
G01 X45.6531 Y-45.9497
G01 X45.6682 Y-45.9750
G01 X45.6748 Y-45.9881
G01 X45.6860 Y-46.0153
G01 X45.6945 Y-46.0435
G01 X45.7002 Y-46.0723
G01 X45.7031 Y-46.1016
G01 X45.7030 Y-46.1310
G01 X45.7001 Y-46.1603
G01 X45.6944 Y-46.1891
G01 X45.6858 Y-46.2172
G01 X45.6745 Y-46.2444
G01 X45.6679 Y-46.2575
G01 X45.6527 Y-46.2827
G01 X45.6352 Y-46.3064
G01 X45.6256 Y-46.3175
G01 X45.6048 Y-46.3383
G01 X45.5820 Y-46.3569
G01 X45.5239 Y-46.3968
G01 X45.4754 Y-46.4342
G01 X45.4382 Y-46.4662
G01 X45.4037 Y-46.4990
G01 X45.3622 Y-46.4600
G01 X45.3248 Y-46.4283
G01 X45.2859 Y-46.3985
G01 X45.2381 Y-46.3659
G00 Z2.0000
G00 X45.4037 Y-47.9156
G01 F70.00
G01 Z-0.0800
G01 F120.00
G01 X45.4452 Y-47.9546
G01 X45.4826 Y-47.9863
G01 X45.5215 Y-48.0161
G01 X45.5693 Y-48.0487
G01 X45.5941 Y-48.0671
G01 X45.6158 Y-48.0869
G01 X45.6356 Y-48.1087
G01 X45.6531 Y-48.1323
G01 X45.6609 Y-48.1448
G01 X45.6748 Y-48.1707
G01 X45.6860 Y-48.1979
G01 X45.6906 Y-48.2119
G01 X45.6977 Y-48.2404
G01 X45.7020 Y-48.2695
G01 X45.7034 Y-48.2989
G01 X45.7019 Y-48.3283
G01 X45.6976 Y-48.3573
G01 X45.6904 Y-48.3859
G01 X45.6805 Y-48.4136
G01 X45.6679 Y-48.4401
G01 X45.6527 Y-48.4653
G01 X45.6352 Y-48.4890
G01 X45.6154 Y-48.5107
G01 X45.5936 Y-48.5305
G01 X45.5700 Y-48.5480
G01 X45.5447 Y-48.5631
G01 X45.5181 Y-48.5756
G01 X45.4904 Y-48.5855
G01 X45.4619 Y-48.5926
G01 X45.4328 Y-48.5969
G01 X45.4034 Y-48.5983
G01 X45.3740 Y-48.5968
G01 X45.3450 Y-48.5925
G01 X45.3164 Y-48.5853
G01 X45.2887 Y-48.5754
G01 X45.2622 Y-48.5628
G01 X45.2370 Y-48.5476
G01 X45.2133 Y-48.5301
G01 X45.1916 Y-48.5103
G01 X45.1718 Y-48.4885
G01 X45.1543 Y-48.4649
G01 X45.1392 Y-48.4396
G01 X45.1267 Y-48.4130
G01 X45.1168 Y-48.3853
G01 X45.1097 Y-48.3568
G01 X45.1054 Y-48.3277
G01 X45.1040 Y-48.2983
G01 X45.1044 Y-48.2836
G01 X45.1073 Y-48.2543
G01 X45.1130 Y-48.2255
G01 X45.1216 Y-48.1974
G01 X45.1329 Y-48.1702
G01 X45.1468 Y-48.1443
G01 X45.1631 Y-48.1198
G01 X45.1722 Y-48.1082
G01 X45.1920 Y-48.0865
G01 X45.2138 Y-48.0667
G01 X45.2385 Y-48.0485
G01 X45.2835 Y-48.0178
G01 X45.3225 Y-47.9881
G01 X45.3600 Y-47.9566
G01 X45.4037 Y-47.9156
G00 Z2.0000
G00 X50.3859 Y-48.2989
G01 F70.00
G01 Z-0.0800
G01 F120.00
G01 X50.3844 Y-48.3283
G01 X50.3801 Y-48.3573
G01 X50.3729 Y-48.3859
G01 X50.3630 Y-48.4136
G01 X50.3504 Y-48.4401
G01 X50.3352 Y-48.4653
G01 X50.3177 Y-48.4890
G01 X50.2979 Y-48.5107
G01 X50.2761 Y-48.5305
G01 X50.2525 Y-48.5480
G01 X50.2272 Y-48.5631
G01 X50.2006 Y-48.5756
G01 X50.1729 Y-48.5855
G01 X50.1444 Y-48.5926
G01 X50.1153 Y-48.5969
G01 X50.0859 Y-48.5983
G01 X50.0565 Y-48.5968
G01 X50.0275 Y-48.5925
G01 X49.9989 Y-48.5853
G01 X49.9712 Y-48.5754
G01 X49.9447 Y-48.5628
G01 X49.9195 Y-48.5476
G01 X49.8958 Y-48.5301
G01 X49.8741 Y-48.5103
G01 X49.8543 Y-48.4885
G01 X49.8368 Y-48.4649
G01 X49.8217 Y-48.4396
G01 X49.8092 Y-48.4130
G01 X49.7993 Y-48.3853
G01 X49.7922 Y-48.3568
G01 X49.7879 Y-48.3277
G01 X49.7865 Y-48.2983
G01 X49.7880 Y-48.2689
G01 X49.7923 Y-48.2399
G01 X49.7995 Y-48.2113
G01 X49.8094 Y-48.1836
G01 X49.8220 Y-48.1571
G01 X49.8372 Y-48.1319
G01 X49.8547 Y-48.1082
G01 X49.8745 Y-48.0865
G01 X49.8963 Y-48.0667
G01 X49.9199 Y-48.0492
G01 X49.9452 Y-48.0341
G01 X49.9718 Y-48.0216
G01 X49.9995 Y-48.0117
G01 X50.0280 Y-48.0046
G01 X50.0571 Y-48.0003
G01 X50.0865 Y-47.9989
G01 X50.1159 Y-48.0004
G01 X50.1449 Y-48.0047
G01 X50.1735 Y-48.0119
G01 X50.2012 Y-48.0218
G01 X50.2277 Y-48.0344
G01 X50.2529 Y-48.0496
G01 X50.2766 Y-48.0671
G01 X50.2983 Y-48.0869
G01 X50.3181 Y-48.1087
G01 X50.3356 Y-48.1323
G01 X50.3507 Y-48.1576
G01 X50.3632 Y-48.1842
G01 X50.3731 Y-48.2119
G01 X50.3802 Y-48.2404
G01 X50.3845 Y-48.2695
G01 X50.3859 Y-48.2989
G00 Z2.0000
G00 X50.3859 Y-43.9338
G01 F70.00
G01 Z-0.0800
G01 F120.00
G01 X50.3844 Y-43.9632
G01 X50.3801 Y-43.9922
G01 X50.3729 Y-44.0208
G01 X50.3630 Y-44.0485
G01 X50.3504 Y-44.0750
G01 X50.3352 Y-44.1002
G01 X50.3177 Y-44.1239
G01 X50.2979 Y-44.1456
G01 X50.2761 Y-44.1654
G01 X50.2525 Y-44.1829
G01 X50.2272 Y-44.1980
G01 X50.2006 Y-44.2105
G01 X50.1729 Y-44.2204
G01 X50.1444 Y-44.2275
G01 X50.1153 Y-44.2318
G01 X50.0859 Y-44.2332
G01 X50.0565 Y-44.2317
G01 X50.0275 Y-44.2274
G01 X49.9989 Y-44.2202
G01 X49.9712 Y-44.2103
G01 X49.9447 Y-44.1977
G01 X49.9195 Y-44.1825
G01 X49.8958 Y-44.1650
G01 X49.8741 Y-44.1452
G01 X49.8543 Y-44.1234
G01 X49.8368 Y-44.0998
G01 X49.8217 Y-44.0745
G01 X49.8092 Y-44.0479
G01 X49.7993 Y-44.0202
G01 X49.7922 Y-43.9917
G01 X49.7879 Y-43.9626
G01 X49.7865 Y-43.9332
G01 X49.7880 Y-43.9038
G01 X49.7923 Y-43.8748
G01 X49.7995 Y-43.8462
G01 X49.8094 Y-43.8185
G01 X49.8220 Y-43.7920
G01 X49.8372 Y-43.7668
G01 X49.8547 Y-43.7431
G01 X49.8745 Y-43.7214
G01 X49.8963 Y-43.7016
G01 X49.9199 Y-43.6841
G01 X49.9452 Y-43.6690
G01 X49.9718 Y-43.6565
G01 X49.9995 Y-43.6466
G01 X50.0280 Y-43.6395
G01 X50.0571 Y-43.6352
G01 X50.0865 Y-43.6338
G01 X50.1159 Y-43.6353
G01 X50.1449 Y-43.6396
G01 X50.1735 Y-43.6468
G01 X50.2012 Y-43.6567
G01 X50.2277 Y-43.6693
G01 X50.2529 Y-43.6845
G01 X50.2766 Y-43.7020
G01 X50.2983 Y-43.7218
G01 X50.3181 Y-43.7436
G01 X50.3356 Y-43.7672
G01 X50.3507 Y-43.7925
G01 X50.3632 Y-43.8191
G01 X50.3731 Y-43.8468
G01 X50.3802 Y-43.8753
G01 X50.3845 Y-43.9044
G01 X50.3859 Y-43.9338
G00 Z2.0000
G00 X64.5228 Y-35.4018
G01 F70.00
G01 Z-0.0800
G01 F120.00
G01 X64.5221 Y-35.4165
G01 X64.5199 Y-35.4310
G01 X64.5162 Y-35.4452
G01 X64.5113 Y-35.4590
G01 X64.5049 Y-35.4723
G01 X64.4973 Y-35.4849
G01 X64.4885 Y-35.4967
G01 X64.4786 Y-35.5075
G01 X64.4677 Y-35.5174
G01 X64.4559 Y-35.5261
G01 X64.4433 Y-35.5336
G01 X64.4300 Y-35.5398
G01 X64.4161 Y-35.5447
G01 X64.4018 Y-35.5483
G01 X64.3873 Y-35.5504
G01 X64.3726 Y-35.5510
G01 X64.3579 Y-35.5503
G01 X64.3434 Y-35.5481
G01 X64.3292 Y-35.5444
G01 X64.3154 Y-35.5395
G01 X64.3021 Y-35.5331
G01 X64.2895 Y-35.5255
G01 X64.2777 Y-35.5167
G01 X64.2669 Y-35.5068
G01 X64.2570 Y-35.4959
G01 X64.2483 Y-35.4841
G01 X64.2408 Y-35.4715
G01 X64.2346 Y-35.4582
G01 X64.2297 Y-35.4443
G01 X64.2261 Y-35.4300
G01 X64.2240 Y-35.4155
G01 X64.2234 Y-35.4008
G01 X64.2241 Y-35.3861
G01 X64.2263 Y-35.3716
G01 X64.2300 Y-35.3574
G01 X64.2349 Y-35.3436
G01 X64.2413 Y-35.3303
G01 X64.2489 Y-35.3177
G01 X64.2577 Y-35.3059
G01 X64.2676 Y-35.2951
G01 X64.2785 Y-35.2852
G01 X64.2903 Y-35.2765
G01 X64.3029 Y-35.2690
G01 X64.3162 Y-35.2628
G01 X64.3301 Y-35.2579
G01 X64.3444 Y-35.2543
G01 X64.3589 Y-35.2522
G01 X64.3736 Y-35.2516
G01 X64.3883 Y-35.2523
G01 X64.4028 Y-35.2545
G01 X64.4170 Y-35.2582
G01 X64.4308 Y-35.2631
G01 X64.4441 Y-35.2695
G01 X64.4567 Y-35.2771
G01 X64.4685 Y-35.2859
G01 X64.4793 Y-35.2958
G01 X64.4892 Y-35.3067
G01 X64.4979 Y-35.3185
G01 X64.5054 Y-35.3311
G01 X64.5116 Y-35.3444
G01 X64.5165 Y-35.3583
G01 X64.5201 Y-35.3726
G01 X64.5222 Y-35.3871
G01 X64.5228 Y-35.4018
G00 Z2.0000
G00 X64.5228 Y-30.3218
G01 F70.00
G01 Z-0.0800
G01 F120.00
G01 X64.5221 Y-30.3365
G01 X64.5199 Y-30.3510
G01 X64.5162 Y-30.3652
G01 X64.5113 Y-30.3790
G01 X64.5049 Y-30.3923
G01 X64.4973 Y-30.4049
G01 X64.4885 Y-30.4167
G01 X64.4786 Y-30.4275
G01 X64.4677 Y-30.4374
G01 X64.4559 Y-30.4461
G01 X64.4433 Y-30.4536
G01 X64.4300 Y-30.4598
G01 X64.4161 Y-30.4647
G01 X64.4018 Y-30.4683
G01 X64.3873 Y-30.4704
G01 X64.3726 Y-30.4710
G01 X64.3579 Y-30.4703
G01 X64.3434 Y-30.4681
G01 X64.3292 Y-30.4644
G01 X64.3154 Y-30.4595
G01 X64.3021 Y-30.4531
G01 X64.2895 Y-30.4455
G01 X64.2777 Y-30.4367
G01 X64.2669 Y-30.4268
G01 X64.2570 Y-30.4159
G01 X64.2483 Y-30.4041
G01 X64.2408 Y-30.3915
G01 X64.2346 Y-30.3782
G01 X64.2297 Y-30.3643
G01 X64.2261 Y-30.3500
G01 X64.2240 Y-30.3355
G01 X64.2234 Y-30.3208
G01 X64.2241 Y-30.3061
G01 X64.2263 Y-30.2916
G01 X64.2300 Y-30.2774
G01 X64.2349 Y-30.2636
G01 X64.2413 Y-30.2503
G01 X64.2489 Y-30.2377
G01 X64.2577 Y-30.2259
G01 X64.2676 Y-30.2151
G01 X64.2785 Y-30.2052
G01 X64.2903 Y-30.1965
G01 X64.3029 Y-30.1890
G01 X64.3162 Y-30.1828
G01 X64.3301 Y-30.1779
G01 X64.3444 Y-30.1743
G01 X64.3589 Y-30.1722
G01 X64.3736 Y-30.1716
G01 X64.3883 Y-30.1723
G01 X64.4028 Y-30.1745
G01 X64.4170 Y-30.1782
G01 X64.4308 Y-30.1831
G01 X64.4441 Y-30.1895
G01 X64.4567 Y-30.1971
G01 X64.4685 Y-30.2059
G01 X64.4793 Y-30.2158
G01 X64.4892 Y-30.2267
G01 X64.4979 Y-30.2385
G01 X64.5054 Y-30.2511
G01 X64.5116 Y-30.2644
G01 X64.5165 Y-30.2783
G01 X64.5201 Y-30.2926
G01 X64.5222 Y-30.3071
G01 X64.5228 Y-30.3218
G00 Z2.0000
G00 X61.7543 Y-25.8243
G01 F70.00
G01 Z-0.0800
G01 F120.00
G01 X61.7538 Y-25.8368
G01 X61.7533 Y-3.5842
G01 X61.7538 Y-3.5717
G01 X61.7543 Y-3.5842
G01 X61.7543 Y-25.8243
G00 Z2.0000
G00 X57.4981 Y-25.3608
G01 F70.00
G01 Z-0.0800
G01 F120.00
G01 X57.4974 Y-25.3755
G01 X57.4952 Y-25.3900
G01 X57.4915 Y-25.4042
G01 X57.4866 Y-25.4180
G01 X57.4802 Y-25.4313
G01 X57.4726 Y-25.4439
G01 X57.4638 Y-25.4557
G01 X57.4539 Y-25.4665
G01 X57.4430 Y-25.4764
G01 X57.4312 Y-25.4851
G01 X57.4186 Y-25.4926
G01 X57.4053 Y-25.4988
G01 X57.3914 Y-25.5037
G01 X57.3771 Y-25.5073
G01 X57.3626 Y-25.5094
G01 X57.3479 Y-25.5100
G01 X57.3332 Y-25.5093
G01 X57.3187 Y-25.5071
G01 X57.3045 Y-25.5034
G01 X57.2907 Y-25.4985
G01 X57.2774 Y-25.4921
G01 X57.2648 Y-25.4845
G01 X57.2530 Y-25.4757
G01 X57.2422 Y-25.4658
G01 X57.2323 Y-25.4549
G01 X57.2236 Y-25.4431
G01 X57.2161 Y-25.4305
G01 X57.2099 Y-25.4172
G01 X57.2050 Y-25.4033
G01 X57.2014 Y-25.3890
G01 X57.1993 Y-25.3745
G01 X57.1987 Y-25.3598
G01 X57.1994 Y-25.3451
G01 X57.2016 Y-25.3306
G01 X57.2053 Y-25.3164
G01 X57.2102 Y-25.3026
G01 X57.2166 Y-25.2893
G01 X57.2242 Y-25.2767
G01 X57.2330 Y-25.2649
G01 X57.2429 Y-25.2541
G01 X57.2538 Y-25.2442
G01 X57.2656 Y-25.2355
G01 X57.2782 Y-25.2280
G01 X57.2915 Y-25.2218
G01 X57.3054 Y-25.2169
G01 X57.3197 Y-25.2133
G01 X57.3342 Y-25.2112
G01 X57.3489 Y-25.2106
G01 X57.3636 Y-25.2113
G01 X57.3781 Y-25.2135
G01 X57.3923 Y-25.2172
G01 X57.4061 Y-25.2221
G01 X57.4194 Y-25.2285
G01 X57.4320 Y-25.2361
G01 X57.4438 Y-25.2449
G01 X57.4546 Y-25.2548
G01 X57.4645 Y-25.2657
G01 X57.4732 Y-25.2775
G01 X57.4807 Y-25.2901
G01 X57.4869 Y-25.3034
G01 X57.4918 Y-25.3173
G01 X57.4954 Y-25.3316
G01 X57.4975 Y-25.3461
G01 X57.4981 Y-25.3608
G00 Z2.0000
G00 X53.8469 Y-20.2411
G01 F70.00
G01 Z-0.0800
G01 F120.00
G01 X53.8462 Y-20.2558
G01 X53.8440 Y-20.2703
G01 X53.8403 Y-20.2845
G01 X53.8354 Y-20.2983
G01 X53.8290 Y-20.3116
G01 X53.8214 Y-20.3242
G01 X53.8126 Y-20.3360
G01 X53.8027 Y-20.3468
G01 X53.7918 Y-20.3567
G01 X53.7800 Y-20.3654
G01 X53.7674 Y-20.3729
G01 X53.7541 Y-20.3791
G01 X53.7402 Y-20.3840
G01 X53.7259 Y-20.3876
G01 X53.7114 Y-20.3897
G01 X53.6967 Y-20.3903
G01 X53.6820 Y-20.3896
G01 X53.6675 Y-20.3874
G01 X53.6533 Y-20.3837
G01 X53.6395 Y-20.3788
G01 X53.6262 Y-20.3724
G01 X53.6136 Y-20.3648
G01 X53.6018 Y-20.3560
G01 X53.5910 Y-20.3461
G01 X53.5811 Y-20.3352
G01 X53.5724 Y-20.3234
G01 X53.5649 Y-20.3108
G01 X53.5587 Y-20.2975
G01 X53.5538 Y-20.2836
G01 X53.5502 Y-20.2693
G01 X53.5481 Y-20.2548
G01 X53.5475 Y-20.2401
G01 X53.5482 Y-20.2254
G01 X53.5504 Y-20.2109
G01 X53.5541 Y-20.1967
G01 X53.5590 Y-20.1829
G01 X53.5654 Y-20.1696
G01 X53.5730 Y-20.1570
G01 X53.5818 Y-20.1452
G01 X53.5917 Y-20.1344
G01 X53.6026 Y-20.1245
G01 X53.6144 Y-20.1158
G01 X53.6270 Y-20.1083
G01 X53.6403 Y-20.1021
G01 X53.6542 Y-20.0972
G01 X53.6685 Y-20.0936
G01 X53.6830 Y-20.0915
G01 X53.6977 Y-20.0909
G01 X53.7124 Y-20.0916
G01 X53.7269 Y-20.0938
G01 X53.7411 Y-20.0975
G01 X53.7549 Y-20.1024
G01 X53.7682 Y-20.1088
G01 X53.7808 Y-20.1164
G01 X53.7926 Y-20.1252
G01 X53.8034 Y-20.1351
G01 X53.8133 Y-20.1460
G01 X53.8220 Y-20.1578
G01 X53.8295 Y-20.1704
G01 X53.8357 Y-20.1837
G01 X53.8406 Y-20.1976
G01 X53.8442 Y-20.2119
G01 X53.8463 Y-20.2264
G01 X53.8469 Y-20.2411
G00 Z2.0000
G00 X53.8469 Y-15.1611
G01 F70.00
G01 Z-0.0800
G01 F120.00
G01 X53.8462 Y-15.1758
G01 X53.8440 Y-15.1903
G01 X53.8403 Y-15.2045
G01 X53.8354 Y-15.2183
G01 X53.8290 Y-15.2316
G01 X53.8214 Y-15.2442
G01 X53.8126 Y-15.2560
G01 X53.8027 Y-15.2668
G01 X53.7918 Y-15.2767
G01 X53.7800 Y-15.2854
G01 X53.7674 Y-15.2929
G01 X53.7541 Y-15.2991
G01 X53.7402 Y-15.3040
G01 X53.7259 Y-15.3076
G01 X53.7114 Y-15.3097
G01 X53.6967 Y-15.3103
G01 X53.6820 Y-15.3096
G01 X53.6675 Y-15.3074
G01 X53.6533 Y-15.3037
G01 X53.6395 Y-15.2988
G01 X53.6262 Y-15.2924
G01 X53.6136 Y-15.2848
G01 X53.6018 Y-15.2760
G01 X53.5910 Y-15.2661
G01 X53.5811 Y-15.2552
G01 X53.5724 Y-15.2434
G01 X53.5649 Y-15.2308
G01 X53.5587 Y-15.2175
G01 X53.5538 Y-15.2036
G01 X53.5502 Y-15.1893
G01 X53.5481 Y-15.1748
G01 X53.5475 Y-15.1601
G01 X53.5482 Y-15.1454
G01 X53.5504 Y-15.1309
G01 X53.5541 Y-15.1167
G01 X53.5590 Y-15.1029
G01 X53.5654 Y-15.0896
G01 X53.5730 Y-15.0770
G01 X53.5818 Y-15.0652
G01 X53.5917 Y-15.0544
G01 X53.6026 Y-15.0445
G01 X53.6144 Y-15.0358
G01 X53.6270 Y-15.0283
G01 X53.6403 Y-15.0221
G01 X53.6542 Y-15.0172
G01 X53.6685 Y-15.0136
G01 X53.6830 Y-15.0115
G01 X53.6977 Y-15.0109
G01 X53.7124 Y-15.0116
G01 X53.7269 Y-15.0138
G01 X53.7411 Y-15.0175
G01 X53.7549 Y-15.0224
G01 X53.7682 Y-15.0288
G01 X53.7808 Y-15.0364
G01 X53.7926 Y-15.0452
G01 X53.8034 Y-15.0551
G01 X53.8133 Y-15.0660
G01 X53.8220 Y-15.0778
G01 X53.8295 Y-15.0904
G01 X53.8357 Y-15.1037
G01 X53.8406 Y-15.1176
G01 X53.8442 Y-15.1319
G01 X53.8463 Y-15.1464
G01 X53.8469 Y-15.1611
G00 Z2.0000
G00 X57.4981 Y-10.1208
G01 F70.00
G01 Z-0.0800
G01 F120.00
G01 X57.4974 Y-10.1355
G01 X57.4952 Y-10.1500
G01 X57.4915 Y-10.1642
G01 X57.4866 Y-10.1780
G01 X57.4802 Y-10.1913
G01 X57.4726 Y-10.2039
G01 X57.4638 Y-10.2157
G01 X57.4539 Y-10.2265
G01 X57.4430 Y-10.2364
G01 X57.4312 Y-10.2451
G01 X57.4186 Y-10.2526
G01 X57.4053 Y-10.2588
G01 X57.3914 Y-10.2637
G01 X57.3771 Y-10.2673
G01 X57.3626 Y-10.2694
G01 X57.3479 Y-10.2700
G01 X57.3332 Y-10.2693
G01 X57.3187 Y-10.2671
G01 X57.3045 Y-10.2634
G01 X57.2907 Y-10.2585
G01 X57.2774 Y-10.2521
G01 X57.2648 Y-10.2445
G01 X57.2530 Y-10.2357
G01 X57.2422 Y-10.2258
G01 X57.2323 Y-10.2149
G01 X57.2236 Y-10.2031
G01 X57.2161 Y-10.1905
G01 X57.2099 Y-10.1772
G01 X57.2050 Y-10.1633
G01 X57.2014 Y-10.1490
G01 X57.1993 Y-10.1345
G01 X57.1987 Y-10.1198
G01 X57.1994 Y-10.1051
G01 X57.2016 Y-10.0906
G01 X57.2053 Y-10.0764
G01 X57.2102 Y-10.0626
G01 X57.2166 Y-10.0493
G01 X57.2242 Y-10.0367
G01 X57.2330 Y-10.0249
G01 X57.2429 Y-10.0141
G01 X57.2538 Y-10.0042
G01 X57.2656 Y-9.9955
G01 X57.2782 Y-9.9880
G01 X57.2915 Y-9.9818
G01 X57.3054 Y-9.9769
G01 X57.3197 Y-9.9733
G01 X57.3342 Y-9.9712
G01 X57.3489 Y-9.9706
G01 X57.3636 Y-9.9713
G01 X57.3781 Y-9.9735
G01 X57.3923 Y-9.9772
G01 X57.4061 Y-9.9821
G01 X57.4194 Y-9.9885
G01 X57.4320 Y-9.9961
G01 X57.4438 Y-10.0049
G01 X57.4546 Y-10.0148
G01 X57.4645 Y-10.0257
G01 X57.4732 Y-10.0375
G01 X57.4807 Y-10.0501
G01 X57.4869 Y-10.0634
G01 X57.4918 Y-10.0773
G01 X57.4954 Y-10.0916
G01 X57.4975 Y-10.1061
G01 X57.4981 Y-10.1208
G00 Z2.0000
M05
G00 Z2.0000
G00 Z25.00

