(G-CODE GENERATED BY FLATCAM v8.993 - www.flatcam.org - Version Date: 2020/06/05)

(Name: A1_RF_PA_Ф2_низ.gbr_iso_combined_cnc)
(Type: G-code from Geometry)
(Units: MM)

(Created on Tuesday, 17 November 2020 at 23:04)

(This preprocessor is the default preprocessor used by FlatCAM.)
(It is made to work with MACH3 compatible motion controllers.)

(TOOL DIAMETER: 0.15 mm)
(Feedrate_XY: 120.0 mm/min)
(Feedrate_Z: 70.0 mm/min)
(Feedrate rapids 1500.0 mm/min)

(Z_Cut: -0.07 mm)
(Z_Move: 2.0 mm)
(Z Start: None mm)
(Z End: 25.0 mm)
(Steps per circle: 128)
(Preprocessor Geometry: default)

(X range:  -75.3000 ...    0.3000  mm)
(Y range:  -63.3000 ...    0.3000  mm)

(Spindle Speed: 10000 RPM)
G21
G90
G94



G01 F120.00
G00 Z2.0000

M03 S10000
G00 X-2.9516 Y-0.0000
G01 F70.00
G01 Z-0.0700
G01 F120.00
G01 X-2.9531 Y0.0146
G01 X-2.9573 Y0.0287
G01 X-2.9643 Y0.0417
G01 X-2.9736 Y0.0530
G01 X-2.9850 Y0.0624
G01 X-2.9979 Y0.0693
G01 X-3.0120 Y0.0736
G01 X-3.0266 Y0.0750
G01 X-75.0000 Y0.0750
G01 X-75.0137 Y0.0737
G01 X-75.0270 Y0.0700
G01 X-75.0386 Y0.0643
G01 X-75.0497 Y0.0562
G01 X-75.0602 Y0.0447
G01 X-75.0682 Y0.0312
G01 X-75.0734 Y0.0155
G01 X-75.0750 Y-0.0000
G01 X-75.0750 Y-63.0000
G01 X-75.0737 Y-63.0137
G01 X-75.0700 Y-63.0270
G01 X-75.0643 Y-63.0386
G01 X-75.0562 Y-63.0497
G01 X-75.0447 Y-63.0602
G01 X-75.0304 Y-63.0686
G01 X-75.0155 Y-63.0734
G01 X-75.0000 Y-63.0750
G01 X-0.0000 Y-63.0750
G01 X0.0137 Y-63.0737
G01 X0.0261 Y-63.0703
G01 X0.0386 Y-63.0643
G01 X0.0497 Y-63.0562
G01 X0.0602 Y-63.0447
G01 X0.0682 Y-63.0312
G01 X0.0734 Y-63.0155
G01 X0.0750 Y-63.0000
G01 X0.0749 Y-6.9916
G01 X0.0730 Y-6.9780
G01 X0.0686 Y-6.9649
G01 X0.0613 Y-6.9521
G01 X0.0524 Y-6.9416
G01 X0.0417 Y-6.9330
G01 X0.0295 Y-6.9264
G01 X0.0155 Y-6.9220
G01 X0.0018 Y-6.9203
G01 X-2.9516 Y-6.9203
G01 X-2.9516 Y-0.0000
G00 Z2.0000
G00 X-2.7266 Y-6.6953
G01 F70.00
G01 Z-0.0700
G01 F120.00
G01 X-2.7268 Y0.0110
G01 X-2.7289 Y0.0367
G01 X-2.7339 Y0.0657
G01 X-2.7418 Y0.0941
G01 X-2.7509 Y0.1182
G01 X-2.7620 Y0.1414
G01 X-2.7772 Y0.1667
G01 X-2.7924 Y0.1875
G01 X-2.8094 Y0.2069
G01 X-2.8307 Y0.2272
G01 X-2.8509 Y0.2431
G01 X-2.8724 Y0.2573
G01 X-2.8950 Y0.2696
G01 X-2.9187 Y0.2799
G01 X-2.9431 Y0.2881
G01 X-2.9717 Y0.2949
G01 X-2.9972 Y0.2986
G01 X-3.0266 Y0.3000
G01 X-75.0000 Y0.3000
G01 X-75.0257 Y0.2989
G01 X-75.0513 Y0.2956
G01 X-75.0729 Y0.2910
G01 X-75.0976 Y0.2837
G01 X-75.1182 Y0.2757
G01 X-75.1414 Y0.2646
G01 X-75.1636 Y0.2515
G01 X-75.1846 Y0.2365
G01 X-75.2095 Y0.2147
G01 X-75.2223 Y0.2015
G01 X-75.2342 Y0.1875
G01 X-75.2535 Y0.1605
G01 X-75.2696 Y0.1316
G01 X-75.2825 Y0.1011
G01 X-75.2919 Y0.0693
G01 X-75.2977 Y0.0367
G01 X-75.2994 Y0.0184
G01 X-75.3000 Y-0.0000
G01 X-75.3000 Y-63.0000
G01 X-75.2989 Y-63.0257
G01 X-75.2962 Y-63.0477
G01 X-75.2910 Y-63.0729
G01 X-75.2837 Y-63.0976
G01 X-75.2757 Y-63.1182
G01 X-75.2646 Y-63.1414
G01 X-75.2515 Y-63.1636
G01 X-75.2365 Y-63.1846
G01 X-75.2147 Y-63.2095
G01 X-75.1903 Y-63.2319
G01 X-75.1757 Y-63.2431
G01 X-75.1605 Y-63.2535
G01 X-75.1316 Y-63.2696
G01 X-75.1011 Y-63.2825
G01 X-75.0693 Y-63.2919
G01 X-75.0367 Y-63.2977
G01 X-75.0184 Y-63.2994
G01 X-75.0000 Y-63.3000
G01 X-0.0000 Y-63.3000
G01 X0.0257 Y-63.2989
G01 X0.0513 Y-63.2956
G01 X0.0729 Y-63.2910
G01 X0.0976 Y-63.2837
G01 X0.1216 Y-63.2743
G01 X0.1447 Y-63.2628
G01 X0.1636 Y-63.2515
G01 X0.1846 Y-63.2365
G01 X0.2095 Y-63.2147
G01 X0.2319 Y-63.1903
G01 X0.2515 Y-63.1636
G01 X0.2610 Y-63.1479
G01 X0.2696 Y-63.1316
G01 X0.2825 Y-63.1011
G01 X0.2919 Y-63.0693
G01 X0.2956 Y-63.0513
G01 X0.2982 Y-63.0331
G01 X0.3000 Y-63.0000
G01 X0.2996 Y-6.9806
G01 X0.2973 Y-6.9550
G01 X0.2919 Y-6.9260
G01 X0.2849 Y-6.9012
G01 X0.2757 Y-6.8771
G01 X0.2646 Y-6.8539
G01 X0.2494 Y-6.8287
G01 X0.2342 Y-6.8079
G01 X0.2173 Y-6.7885
G01 X0.1960 Y-6.7682
G01 X0.1757 Y-6.7522
G01 X0.1542 Y-6.7380
G01 X0.1316 Y-6.7257
G01 X0.1080 Y-6.7154
G01 X0.0836 Y-6.7072
G01 X0.0585 Y-6.7011
G01 X0.0294 Y-6.6968
G01 X-0.0000 Y-6.6953
G01 X-2.7266 Y-6.6953
G00 Z2.0000
G00 X-2.8016 Y-6.7703
G01 F70.00
G01 Z-0.0700
G01 F120.00
G01 X-2.8017 Y0.0055
G01 X-2.8030 Y0.0248
G01 X-2.8065 Y0.0466
G01 X-2.8113 Y0.0653
G01 X-2.8188 Y0.0861
G01 X-2.8282 Y0.1061
G01 X-2.8380 Y0.1227
G01 X-2.8492 Y0.1384
G01 X-2.8618 Y0.1531
G01 X-2.8776 Y0.1686
G01 X-2.8926 Y0.1807
G01 X-2.9110 Y0.1930
G01 X-2.9279 Y0.2022
G01 X-2.9482 Y0.2109
G01 X-2.9666 Y0.2168
G01 X-2.9854 Y0.2212
G01 X-3.0046 Y0.2239
G01 X-3.0266 Y0.2250
G01 X-75.0000 Y0.2250
G01 X-75.0193 Y0.2242
G01 X-75.0385 Y0.2217
G01 X-75.0573 Y0.2176
G01 X-75.0732 Y0.2128
G01 X-75.0886 Y0.2068
G01 X-75.1061 Y0.1984
G01 X-75.1227 Y0.1886
G01 X-75.1384 Y0.1774
G01 X-75.1591 Y0.1591
G01 X-75.1757 Y0.1406
G01 X-75.1901 Y0.1204
G01 X-75.2022 Y0.0987
G01 X-75.2118 Y0.0758
G01 X-75.2195 Y0.0493
G01 X-75.2236 Y0.0248
G01 X-75.2250 Y-0.0000
G01 X-75.2250 Y-63.0000
G01 X-75.2244 Y-63.0166
G01 X-75.2221 Y-63.0357
G01 X-75.2183 Y-63.0547
G01 X-75.2128 Y-63.0732
G01 X-75.2057 Y-63.0912
G01 X-75.1971 Y-63.1085
G01 X-75.1886 Y-63.1227
G01 X-75.1774 Y-63.1384
G01 X-75.1610 Y-63.1571
G01 X-75.1406 Y-63.1757
G01 X-75.1204 Y-63.1901
G01 X-75.0987 Y-63.2022
G01 X-75.0758 Y-63.2118
G01 X-75.0520 Y-63.2189
G01 X-75.0248 Y-63.2236
G01 X-75.0000 Y-63.2250
G01 X-0.0000 Y-63.2250
G01 X0.0193 Y-63.2242
G01 X0.0385 Y-63.2217
G01 X0.0573 Y-63.2176
G01 X0.0732 Y-63.2128
G01 X0.0912 Y-63.2057
G01 X0.1061 Y-63.1984
G01 X0.1227 Y-63.1886
G01 X0.1384 Y-63.1774
G01 X0.1571 Y-63.1610
G01 X0.1739 Y-63.1427
G01 X0.1886 Y-63.1227
G01 X0.2022 Y-63.0987
G01 X0.2128 Y-63.0732
G01 X0.2195 Y-63.0493
G01 X0.2236 Y-63.0248
G01 X0.2250 Y-63.0000
G01 X0.2247 Y-6.9843
G01 X0.2230 Y-6.9650
G01 X0.2189 Y-6.9433
G01 X0.2136 Y-6.9247
G01 X0.2068 Y-6.9067
G01 X0.1984 Y-6.8893
G01 X0.1871 Y-6.8703
G01 X0.1739 Y-6.8526
G01 X0.1610 Y-6.8382
G01 X0.1470 Y-6.8250
G01 X0.1296 Y-6.8114
G01 X0.1133 Y-6.8009
G01 X0.0962 Y-6.7919
G01 X0.0758 Y-6.7835
G01 X0.0573 Y-6.7778
G01 X0.0357 Y-6.7732
G01 X0.0166 Y-6.7709
G01 X-0.0000 Y-6.7703
G01 X-2.8016 Y-6.7703
G00 Z2.0000
G00 X-2.8766 Y-6.8453
G01 F70.00
G01 Z-0.0700
G01 F120.00
G01 X-2.8767 Y0.0037
G01 X-2.8778 Y0.0184
G01 X-2.8799 Y0.0311
G01 X-2.8831 Y0.0435
G01 X-2.8873 Y0.0557
G01 X-2.8926 Y0.0674
G01 X-2.8999 Y0.0802
G01 X-2.9072 Y0.0908
G01 X-2.9167 Y0.1021
G01 X-2.9259 Y0.1111
G01 X-2.9373 Y0.1205
G01 X-2.9495 Y0.1287
G01 X-2.9608 Y0.1348
G01 X-2.9726 Y0.1399
G01 X-2.9848 Y0.1441
G01 X-2.9992 Y0.1475
G01 X-3.0119 Y0.1493
G01 X-3.0266 Y0.1500
G01 X-75.0000 Y0.1500
G01 X-75.0129 Y0.1494
G01 X-75.0256 Y0.1478
G01 X-75.0488 Y0.1418
G01 X-75.0608 Y0.1371
G01 X-75.0723 Y0.1314
G01 X-75.0923 Y0.1183
G01 X-75.1048 Y0.1074
G01 X-75.1171 Y0.0937
G01 X-75.1267 Y0.0802
G01 X-75.1348 Y0.0658
G01 X-75.1412 Y0.0505
G01 X-75.1459 Y0.0347
G01 X-75.1489 Y0.0184
G01 X-75.1500 Y-0.0000
G01 X-75.1500 Y-63.0000
G01 X-75.1481 Y-63.0238
G01 X-75.1455 Y-63.0364
G01 X-75.1418 Y-63.0488
G01 X-75.1323 Y-63.0707
G01 X-75.1257 Y-63.0818
G01 X-75.1183 Y-63.0923
G01 X-75.1074 Y-63.1048
G01 X-75.0952 Y-63.1160
G01 X-75.0802 Y-63.1267
G01 X-75.0658 Y-63.1348
G01 X-75.0505 Y-63.1412
G01 X-75.0347 Y-63.1459
G01 X-75.0184 Y-63.1489
G01 X-75.0000 Y-63.1500
G01 X-0.0000 Y-63.1500
G01 X0.0238 Y-63.1481
G01 X0.0364 Y-63.1455
G01 X0.0488 Y-63.1418
G01 X0.0608 Y-63.1371
G01 X0.0723 Y-63.1314
G01 X0.0923 Y-63.1183
G01 X0.1048 Y-63.1074
G01 X0.1160 Y-63.0952
G01 X0.1267 Y-63.0802
G01 X0.1348 Y-63.0658
G01 X0.1412 Y-63.0505
G01 X0.1459 Y-63.0347
G01 X0.1491 Y-63.0165
G01 X0.1500 Y-63.0000
G01 X0.1498 Y-6.9880
G01 X0.1486 Y-6.9751
G01 X0.1459 Y-6.9607
G01 X0.1424 Y-6.9483
G01 X0.1371 Y-6.9345
G01 X0.1314 Y-6.9230
G01 X0.1237 Y-6.9105
G01 X0.1160 Y-6.9002
G01 X0.1061 Y-6.8893
G01 X0.0952 Y-6.8794
G01 X0.0849 Y-6.8716
G01 X0.0723 Y-6.8639
G01 X0.0608 Y-6.8582
G01 X0.0488 Y-6.8535
G01 X0.0347 Y-6.8494
G01 X0.0202 Y-6.8467
G01 X0.0074 Y-6.8455
G01 X-2.8766 Y-6.8453
G00 Z2.0000
G00 X-14.8649 Y-4.2881
G01 F70.00
G01 Z-0.0700
G01 F120.00
G01 X-14.8601 Y-4.2937
G01 X-14.8534 Y-4.2991
G01 X-14.8457 Y-4.3032
G01 X-14.8375 Y-4.3056
G01 X-14.8289 Y-4.3064
G01 X-14.8203 Y-4.3055
G01 X-14.8120 Y-4.3030
G01 X-14.8063 Y-4.3000
G01 X-14.7994 Y-4.2949
G01 X-14.7936 Y-4.2884
G01 X-14.7902 Y-4.2829
G01 X-14.7869 Y-4.2750
G01 X-14.7853 Y-4.2665
G01 X-14.7853 Y-4.2578
G01 X-14.7870 Y-4.2494
G01 X-14.7904 Y-4.2414
G01 X-15.2414 Y-3.6393
G01 X-15.2475 Y-3.6290
G01 X-15.2522 Y-3.6171
G01 X-15.2548 Y-3.6045
G01 X-15.2552 Y-3.5916
G01 X-15.2537 Y-3.5807
G01 X-15.2511 Y-3.5709
G01 X-15.2467 Y-3.5608
G01 X-15.2408 Y-3.5515
G01 X-14.7926 Y-2.9538
G01 X-14.7870 Y-2.9421
G01 X-14.7851 Y-2.9293
G01 X-14.7855 Y-2.9229
G01 X-14.7876 Y-2.9145
G01 X-14.7936 Y-2.9031
G01 X-14.8010 Y-2.8952
G01 X-14.8081 Y-2.8904
G01 X-14.8161 Y-2.8870
G01 X-14.8267 Y-2.8851
G01 X-14.8375 Y-2.8859
G01 X-14.8457 Y-2.8883
G01 X-14.8551 Y-2.8936
G01 X-14.8616 Y-2.8994
G01 X-15.2708 Y-3.4445
G01 X-15.2764 Y-3.4506
G01 X-15.2833 Y-3.4567
G01 X-15.2974 Y-3.4653
G01 X-15.3131 Y-3.4706
G01 X-15.3296 Y-3.4723
G01 X-15.3460 Y-3.4704
G01 X-15.3616 Y-3.4649
G01 X-15.3756 Y-3.4561
G01 X-15.3874 Y-3.4445
G01 X-15.7966 Y-2.8994
G01 X-15.8013 Y-2.8949
G01 X-15.8086 Y-2.8902
G01 X-15.8165 Y-2.8869
G01 X-15.8250 Y-2.8853
G01 X-15.8337 Y-2.8853
G01 X-15.8400 Y-2.8864
G01 X-15.8462 Y-2.8885
G01 X-15.8538 Y-2.8926
G01 X-15.8604 Y-2.8981
G01 X-15.8658 Y-2.9048
G01 X-15.8699 Y-2.9125
G01 X-15.8723 Y-2.9207
G01 X-15.8731 Y-2.9293
G01 X-15.8722 Y-2.9379
G01 X-15.8705 Y-2.9442
G01 X-15.8667 Y-2.9519
G01 X-15.4168 Y-3.5522
G01 X-15.4107 Y-3.5625
G01 X-15.4063 Y-3.5736
G01 X-15.4037 Y-3.5852
G01 X-15.4029 Y-3.5962
G01 X-15.4040 Y-3.6081
G01 X-15.4066 Y-3.6188
G01 X-15.4111 Y-3.6298
G01 X-15.4168 Y-3.6393
G01 X-15.8656 Y-4.2377
G01 X-15.8712 Y-4.2494
G01 X-15.8731 Y-4.2622
G01 X-15.8723 Y-4.2708
G01 X-15.8706 Y-4.2770
G01 X-15.8646 Y-4.2884
G01 X-15.8588 Y-4.2949
G01 X-15.8501 Y-4.3011
G01 X-15.8421 Y-4.3045
G01 X-15.8315 Y-4.3064
G01 X-15.8229 Y-4.3060
G01 X-15.8125 Y-4.3032
G01 X-15.8031 Y-4.2979
G01 X-15.7966 Y-4.2921
G01 X-15.3874 Y-3.7470
G01 X-15.3756 Y-3.7354
G01 X-15.3616 Y-3.7266
G01 X-15.3460 Y-3.7211
G01 X-15.3296 Y-3.7192
G01 X-15.3204 Y-3.7197
G01 X-15.3122 Y-3.7211
G01 X-15.2966 Y-3.7266
G01 X-15.2826 Y-3.7354
G01 X-15.2708 Y-3.7470
G01 X-14.8649 Y-4.2881
G00 Z2.0000
G00 X-15.3360 Y-3.6443
G01 F70.00
G01 Z-0.0700
G01 F120.00
G01 X-15.3222 Y-3.6443
G01 X-15.3264 Y-3.6295
G01 X-15.3291 Y-3.6145
G01 X-15.3318 Y-3.6295
G01 X-15.3360 Y-3.6443
G00 Z2.0000
G00 X-15.3291 Y-3.5770
G01 F70.00
G01 Z-0.0700
G01 F120.00
G01 X-15.3264 Y-3.5620
G01 X-15.3222 Y-3.5472
G01 X-15.3360 Y-3.5472
G01 X-15.3318 Y-3.5620
G01 X-15.3291 Y-3.5770
G00 Z2.0000
G00 X-16.4172 Y-3.8124
G01 F70.00
G01 Z-0.0700
G01 F120.00
G01 X-16.3492 Y-3.9259
G01 X-16.3439 Y-3.9377
G01 X-16.3410 Y-3.9492
G01 X-16.3399 Y-3.9621
G01 X-16.3399 Y-4.2615
G01 X-16.3385 Y-4.2731
G01 X-16.3356 Y-4.2812
G01 X-16.3312 Y-4.2886
G01 X-16.3254 Y-4.2950
G01 X-16.3184 Y-4.3002
G01 X-16.3106 Y-4.3039
G01 X-16.3023 Y-4.3060
G01 X-16.2936 Y-4.3064
G01 X-16.2851 Y-4.3051
G01 X-16.2770 Y-4.3022
G01 X-16.2713 Y-4.2990
G01 X-16.2618 Y-4.2903
G01 X-16.2551 Y-4.2793
G01 X-16.2520 Y-4.2667
G01 X-16.2517 Y-3.9300
G01 X-16.2531 Y-3.9184
G01 X-16.2551 Y-3.9122
G01 X-16.2585 Y-3.9056
G01 X-16.3604 Y-3.7363
G01 X-16.3659 Y-3.7300
G01 X-16.3708 Y-3.7261
G01 X-16.4198 Y-3.6986
G01 X-16.4273 Y-3.6933
G01 X-16.4340 Y-3.6871
G01 X-16.4427 Y-3.6764
G01 X-16.4488 Y-3.6651
G01 X-16.4532 Y-3.6521
G01 X-16.4551 Y-3.6394
G01 X-16.4544 Y-3.6238
G01 X-16.4508 Y-3.6096
G01 X-16.4440 Y-3.5955
G01 X-16.4345 Y-3.5832
G01 X-16.4257 Y-3.5752
G01 X-16.4157 Y-3.5688
G01 X-16.3731 Y-3.5501
G01 X-16.3662 Y-3.5450
G01 X-16.3604 Y-3.5386
G01 X-16.2585 Y-3.3692
G01 X-16.2543 Y-3.3605
G01 X-16.2522 Y-3.3522
G01 X-16.2517 Y-3.1800
G01 X-16.2522 Y-3.1726
G01 X-16.2537 Y-3.1663
G01 X-16.2585 Y-3.1556
G01 X-16.3604 Y-2.9862
G01 X-16.3695 Y-2.9771
G01 X-16.3797 Y-2.9714
G01 X-16.5780 Y-2.8888
G01 X-16.5850 Y-2.8864
G01 X-16.5915 Y-2.8853
G01 X-17.0949 Y-2.8850
G01 X-17.1023 Y-2.8855
G01 X-17.1086 Y-2.8870
G01 X-17.1146 Y-2.8893
G01 X-17.1220 Y-2.8937
G01 X-17.1298 Y-2.9012
G01 X-17.1356 Y-2.9103
G01 X-17.1390 Y-2.9205
G01 X-17.1399 Y-2.9300
G01 X-17.1399 Y-4.2615
G01 X-17.1394 Y-4.2689
G01 X-17.1379 Y-4.2752
G01 X-17.1346 Y-4.2832
G01 X-17.1312 Y-4.2886
G01 X-17.1220 Y-4.2978
G01 X-17.1106 Y-4.3039
G01 X-17.0980 Y-4.3064
G01 X-17.0851 Y-4.3051
G01 X-17.0750 Y-4.3012
G01 X-17.0647 Y-4.2935
G01 X-17.0570 Y-4.2832
G01 X-17.0526 Y-4.2710
G01 X-17.0517 Y-4.2615
G01 X-17.0516 Y-3.7102
G01 X-17.0506 Y-3.7019
G01 X-17.0485 Y-3.6930
G01 X-17.0420 Y-3.6778
G01 X-17.0370 Y-3.6701
G01 X-17.0317 Y-3.6637
G01 X-17.0250 Y-3.6574
G01 X-17.0184 Y-3.6524
G01 X-17.0088 Y-3.6470
G01 X-16.9994 Y-3.6433
G01 X-16.9896 Y-3.6409
G01 X-16.9795 Y-3.6398
G01 X-16.7257 Y-3.6398
G01 X-16.7165 Y-3.6405
G01 X-16.7074 Y-3.6423
G01 X-16.6995 Y-3.6449
G01 X-16.6910 Y-3.6488
G01 X-16.4435 Y-3.7863
G01 X-16.4359 Y-3.7914
G01 X-16.4290 Y-3.7974
G01 X-16.4229 Y-3.8042
G01 X-16.4172 Y-3.8124
G00 Z2.0000
G00 X-16.5841 Y-3.6224
G01 F70.00
G01 Z-0.0700
G01 F120.00
G01 X-16.5291 Y-3.6529
G01 X-16.5301 Y-3.6384
G01 X-16.5299 Y-3.6255
G01 X-16.5285 Y-3.6127
G01 X-16.5261 Y-3.6002
G01 X-16.5654 Y-3.6165
G01 X-16.5841 Y-3.6224
G00 Z2.0000
G00 X-17.0517 Y-3.4766
G01 F70.00
G01 Z-0.0700
G01 F120.00
G01 X-17.0506 Y-3.4895
G01 X-17.0470 Y-3.5028
G01 X-17.0415 Y-3.5144
G01 X-17.0335 Y-3.5256
G01 X-17.0236 Y-3.5352
G01 X-17.0129 Y-3.5423
G01 X-17.0011 Y-3.5476
G01 X-16.9877 Y-3.5508
G01 X-16.9767 Y-3.5516
G01 X-16.6187 Y-3.5516
G01 X-16.6040 Y-3.5500
G01 X-16.5908 Y-3.5459
G01 X-16.4447 Y-3.4849
G01 X-16.4360 Y-3.4799
G01 X-16.4287 Y-3.4743
G01 X-16.4215 Y-3.4672
G01 X-16.4154 Y-3.4592
G01 X-16.3496 Y-3.3497
G01 X-16.3452 Y-3.3406
G01 X-16.3421 Y-3.3310
G01 X-16.3399 Y-3.3146
G01 X-16.3399 Y-3.2102
G01 X-16.3415 Y-3.1965
G01 X-16.3456 Y-3.1834
G01 X-16.3505 Y-3.1735
G01 X-16.4144 Y-3.0671
G01 X-16.4215 Y-3.0576
G01 X-16.4301 Y-3.0493
G01 X-16.4391 Y-3.0430
G01 X-16.4481 Y-3.0384
G01 X-16.5977 Y-2.9764
G01 X-16.6085 Y-2.9740
G01 X-16.6187 Y-2.9732
G01 X-16.9767 Y-2.9732
G01 X-16.9914 Y-2.9746
G01 X-17.0054 Y-2.9789
G01 X-17.0145 Y-2.9834
G01 X-17.0229 Y-2.9890
G01 X-17.0304 Y-2.9958
G01 X-17.0370 Y-3.0035
G01 X-17.0424 Y-3.0120
G01 X-17.0467 Y-3.0212
G01 X-17.0497 Y-3.0308
G01 X-17.0514 Y-3.0408
G01 X-17.0517 Y-3.4766
G00 Z2.0000
G00 X-17.5634 Y-4.3065
G01 F70.00
G01 Z-0.0700
G01 F120.00
G01 X-17.5560 Y-4.3060
G01 X-17.5477 Y-4.3039
G01 X-17.5399 Y-4.3002
G01 X-17.5329 Y-4.2950
G01 X-17.5271 Y-4.2886
G01 X-17.5227 Y-4.2812
G01 X-17.5198 Y-4.2731
G01 X-17.5185 Y-4.2646
G01 X-17.5189 Y-4.2559
G01 X-17.5210 Y-4.2476
G01 X-17.5247 Y-4.2398
G01 X-17.5299 Y-4.2328
G01 X-17.5363 Y-4.2270
G01 X-17.5437 Y-4.2226
G01 X-17.5518 Y-4.2197
G01 X-17.5603 Y-4.2184
G01 X-18.5647 Y-4.2184
G01 X-18.5711 Y-4.2192
G01 X-18.5794 Y-4.2217
G01 X-18.5870 Y-4.2258
G01 X-18.5936 Y-4.2313
G01 X-18.5979 Y-4.2362
G01 X-18.6023 Y-4.2436
G01 X-18.6052 Y-4.2517
G01 X-18.6065 Y-4.2602
G01 X-18.6061 Y-4.2689
G01 X-18.6040 Y-4.2772
G01 X-18.6003 Y-4.2850
G01 X-18.5951 Y-4.2920
G01 X-18.5887 Y-4.2978
G01 X-18.5813 Y-4.3022
G01 X-18.5732 Y-4.3051
G01 X-18.5647 Y-4.3064
G01 X-17.5634 Y-4.3065
G00 Z2.0000
G00 X-19.4498 Y-4.1580
G01 F70.00
G01 Z-0.0700
G01 F120.00
G01 X-19.4292 Y-4.1967
G01 X-19.4086 Y-4.1580
G01 X-19.4292 Y-4.1594
G01 X-19.4498 Y-4.1580
G00 Z2.0000
G00 X-19.4685 Y-4.2823
G01 F70.00
G01 Z-0.0700
G01 F120.00
G01 X-19.4619 Y-4.2920
G01 X-19.4537 Y-4.2990
G01 X-19.4420 Y-4.3045
G01 X-19.4314 Y-4.3064
G01 X-19.4185 Y-4.3051
G01 X-19.4084 Y-4.3012
G01 X-19.3980 Y-4.2935
G01 X-19.3914 Y-4.2850
G01 X-18.9894 Y-3.5312
G01 X-18.9870 Y-3.5251
G01 X-18.9854 Y-3.5167
G01 X-18.9854 Y-3.5080
G01 X-18.9871 Y-3.4996
G01 X-18.9894 Y-3.4935
G01 X-18.9939 Y-3.4861
G01 X-18.9997 Y-3.4797
G01 X-19.0066 Y-3.4746
G01 X-19.0144 Y-3.4709
G01 X-19.0228 Y-3.4688
G01 X-19.0314 Y-3.4684
G01 X-19.0399 Y-3.4697
G01 X-19.0481 Y-3.4726
G01 X-19.0555 Y-3.4771
G01 X-19.0619 Y-3.4829
G01 X-19.0658 Y-3.4880
G01 X-19.3653 Y-4.0487
G01 X-19.3706 Y-4.0562
G01 X-19.3768 Y-4.0630
G01 X-19.3838 Y-4.0691
G01 X-19.3922 Y-4.0746
G01 X-19.4005 Y-4.0787
G01 X-19.4101 Y-4.0819
G01 X-19.4191 Y-4.0837
G01 X-19.4283 Y-4.0844
G01 X-19.4375 Y-4.0839
G01 X-19.4474 Y-4.0821
G01 X-19.4571 Y-4.0790
G01 X-19.4654 Y-4.0751
G01 X-19.4739 Y-4.0696
G01 X-19.4810 Y-4.0637
G01 X-19.4872 Y-4.0569
G01 X-19.4931 Y-4.0487
G01 X-19.7938 Y-3.4862
G01 X-19.8012 Y-3.4784
G01 X-19.8103 Y-3.4726
G01 X-19.8206 Y-3.4692
G01 X-19.8313 Y-3.4684
G01 X-19.8419 Y-3.4702
G01 X-19.8518 Y-3.4746
G01 X-19.8603 Y-3.4812
G01 X-19.8670 Y-3.4897
G01 X-19.8713 Y-3.4996
G01 X-19.8732 Y-3.5124
G01 X-19.8719 Y-3.5231
G01 X-19.8676 Y-3.5339
G01 X-19.4685 Y-4.2823
G00 Z2.0000
G00 X-20.9999 Y-4.1048
G01 F70.00
G01 Z-0.0700
G01 F120.00
G01 X-20.9670 Y-4.0500
G01 X-20.9608 Y-4.0418
G01 X-20.9536 Y-4.0345
G01 X-20.3646 Y-3.5434
G01 X-20.3577 Y-3.5343
G01 X-20.2571 Y-3.3665
G01 X-20.2532 Y-3.3564
G01 X-20.2518 Y-3.3448
G01 X-20.2518 Y-3.1800
G01 X-20.2523 Y-3.1726
G01 X-20.2538 Y-3.1663
G01 X-20.2586 Y-3.1556
G01 X-20.3576 Y-2.9905
G01 X-20.3647 Y-2.9813
G01 X-20.3751 Y-2.9736
G01 X-20.5781 Y-2.8888
G01 X-20.5873 Y-2.8859
G01 X-20.5968 Y-2.8850
G01 X-20.7950 Y-2.8850
G01 X-20.8067 Y-2.8864
G01 X-21.0120 Y-2.9714
G01 X-21.0186 Y-2.9747
G01 X-21.0239 Y-2.9784
G01 X-21.0299 Y-2.9845
G01 X-21.0342 Y-2.9905
G01 X-21.1332 Y-3.1556
G01 X-21.1366 Y-3.1622
G01 X-21.1386 Y-3.1684
G01 X-21.1399 Y-3.1812
G01 X-21.1391 Y-3.1877
G01 X-21.1366 Y-3.1959
G01 X-21.1300 Y-3.2070
G01 X-21.1204 Y-3.2157
G01 X-21.1087 Y-3.2212
G01 X-21.1002 Y-3.2229
G01 X-21.0938 Y-3.2231
G01 X-21.0811 Y-3.2206
G01 X-21.0752 Y-3.2179
G01 X-21.0680 Y-3.2132
G01 X-21.0593 Y-3.2036
G01 X-20.9742 Y-3.0626
G01 X-20.9630 Y-3.0505
G01 X-20.9557 Y-3.0449
G01 X-20.9486 Y-3.0407
G01 X-20.8001 Y-2.9786
G01 X-20.7859 Y-2.9744
G01 X-20.7730 Y-2.9732
G01 X-20.6197 Y-2.9732
G01 X-20.6050 Y-2.9746
G01 X-20.5917 Y-2.9786
G01 X-20.4465 Y-3.0391
G01 X-20.4392 Y-3.0430
G01 X-20.4316 Y-3.0482
G01 X-20.4248 Y-3.0542
G01 X-20.4187 Y-3.0611
G01 X-20.4135 Y-3.0687
G01 X-20.3502 Y-3.1743
G01 X-20.3435 Y-3.1894
G01 X-20.3411 Y-3.1992
G01 X-20.3400 Y-3.2102
G01 X-20.3400 Y-3.3127
G01 X-20.3405 Y-3.3219
G01 X-20.3424 Y-3.3319
G01 X-20.3453 Y-3.3406
G01 X-20.3493 Y-3.3489
G01 X-20.4238 Y-3.4732
G01 X-20.4292 Y-3.4808
G01 X-20.4354 Y-3.4877
G01 X-21.0234 Y-3.9780
G01 X-21.0300 Y-3.9846
G01 X-21.1366 Y-4.1622
G01 X-21.1391 Y-4.1705
G01 X-21.1399 Y-4.1769
G01 X-21.1397 Y-4.2667
G01 X-21.1380 Y-4.2752
G01 X-21.1357 Y-4.2812
G01 X-21.1313 Y-4.2886
G01 X-21.1255 Y-4.2950
G01 X-21.1185 Y-4.3002
G01 X-21.1107 Y-4.3039
G01 X-21.1024 Y-4.3060
G01 X-21.0950 Y-4.3065
G01 X-20.2937 Y-4.3064
G01 X-20.2811 Y-4.3039
G01 X-20.2714 Y-4.2990
G01 X-20.2633 Y-4.2920
G01 X-20.2571 Y-4.2832
G01 X-20.2532 Y-4.2731
G01 X-20.2519 Y-4.2624
G01 X-20.2532 Y-4.2517
G01 X-20.2571 Y-4.2416
G01 X-20.2633 Y-4.2328
G01 X-20.2714 Y-4.2258
G01 X-20.2811 Y-4.2209
G01 X-20.2916 Y-4.2186
G01 X-20.9356 Y-4.2183
G01 X-20.9448 Y-4.2178
G01 X-20.9529 Y-4.2163
G01 X-20.9609 Y-4.2140
G01 X-20.9693 Y-4.2103
G01 X-20.9773 Y-4.2057
G01 X-20.9846 Y-4.2001
G01 X-20.9912 Y-4.1937
G01 X-20.9964 Y-4.1873
G01 X-21.0013 Y-4.1795
G01 X-21.0049 Y-4.1720
G01 X-21.0076 Y-4.1642
G01 X-21.0097 Y-4.1552
G01 X-21.0105 Y-4.1470
G01 X-21.0104 Y-4.1378
G01 X-21.0093 Y-4.1296
G01 X-21.0071 Y-4.1207
G01 X-21.0038 Y-4.1121
G01 X-20.9999 Y-4.1048
G00 Z2.0000
G00 X-21.0650 Y-4.2193
G01 F70.00
G01 Z-0.0700
G01 F120.00
G01 X-21.0650 Y-4.2315
G01 X-21.0570 Y-4.2315
G01 X-21.0614 Y-4.2251
G01 X-21.0650 Y-4.2193
G00 Z2.0000
G00 X-21.6067 Y-3.2165
G01 F70.00
G01 Z-0.0700
G01 F120.00
G01 X-21.6066 Y-4.2646
G01 X-21.6053 Y-4.2731
G01 X-21.6024 Y-4.2812
G01 X-21.5980 Y-4.2886
G01 X-21.5922 Y-4.2950
G01 X-21.5852 Y-4.3002
G01 X-21.5774 Y-4.3039
G01 X-21.5691 Y-4.3060
G01 X-21.5604 Y-4.3064
G01 X-21.5519 Y-4.3051
G01 X-21.5438 Y-4.3022
G01 X-21.5364 Y-4.2978
G01 X-21.5300 Y-4.2920
G01 X-21.5248 Y-4.2850
G01 X-21.5211 Y-4.2772
G01 X-21.5190 Y-4.2689
G01 X-21.5185 Y-4.2615
G01 X-21.5185 Y-2.9300
G01 X-21.5190 Y-2.9226
G01 X-21.5211 Y-2.9143
G01 X-21.5248 Y-2.9065
G01 X-21.5300 Y-2.8995
G01 X-21.5364 Y-2.8937
G01 X-21.5438 Y-2.8893
G01 X-21.5519 Y-2.8864
G01 X-21.5604 Y-2.8851
G01 X-21.5691 Y-2.8855
G01 X-21.5774 Y-2.8876
G01 X-21.5852 Y-2.8913
G01 X-21.5922 Y-2.8965
G01 X-22.0931 Y-3.3973
G01 X-22.0992 Y-3.4046
G01 X-22.1033 Y-3.4122
G01 X-22.1062 Y-3.4226
G01 X-22.1066 Y-3.4313
G01 X-22.1047 Y-3.4419
G01 X-22.0992 Y-3.4536
G01 X-22.0922 Y-3.4617
G01 X-22.0814 Y-3.4689
G01 X-22.0691 Y-3.4727
G01 X-22.0583 Y-3.4729
G01 X-22.0478 Y-3.4706
G01 X-22.0364 Y-3.4645
G01 X-21.7340 Y-3.1629
G01 X-21.7233 Y-3.1542
G01 X-21.7112 Y-3.1476
G01 X-21.7025 Y-3.1445
G01 X-21.6936 Y-3.1425
G01 X-21.6835 Y-3.1416
G01 X-21.6743 Y-3.1419
G01 X-21.6652 Y-3.1434
G01 X-21.6564 Y-3.1459
G01 X-21.6479 Y-3.1495
G01 X-21.6400 Y-3.1542
G01 X-21.6327 Y-3.1597
G01 X-21.6261 Y-3.1662
G01 X-21.6203 Y-3.1733
G01 X-21.6155 Y-3.1812
G01 X-21.6117 Y-3.1895
G01 X-21.6089 Y-3.1983
G01 X-21.6072 Y-3.2074
G01 X-21.6067 Y-3.2165
G00 Z2.0000
G00 X-21.6581 Y-3.0684
G01 F70.00
G01 Z-0.0700
G01 F120.00
G01 X-21.6417 Y-3.0720
G01 X-21.6243 Y-3.0780
G01 X-21.6077 Y-3.0860
G01 X-21.5935 Y-3.0951
G01 X-21.5935 Y-3.0038
G01 X-21.6581 Y-3.0684
G00 Z2.0000
G00 X-22.5302 Y-3.7232
G01 F70.00
G01 Z-0.0700
G01 F120.00
G01 X-22.5228 Y-3.7227
G01 X-22.5145 Y-3.7206
G01 X-22.5085 Y-3.7179
G01 X-22.5014 Y-3.7131
G01 X-22.4967 Y-3.7087
G01 X-22.4915 Y-3.7017
G01 X-22.4886 Y-3.6960
G01 X-22.4861 Y-3.6877
G01 X-22.4853 Y-3.6813
G01 X-22.4857 Y-3.6726
G01 X-22.4872 Y-3.6663
G01 X-22.4905 Y-3.6583
G01 X-22.4953 Y-3.6512
G01 X-22.5014 Y-3.6451
G01 X-22.5067 Y-3.6413
G01 X-22.5145 Y-3.6376
G01 X-22.5228 Y-3.6355
G01 X-22.5302 Y-3.6350
G01 X-22.8158 Y-3.6348
G01 X-22.8294 Y-3.6326
G01 X-22.8423 Y-3.6278
G01 X-22.8542 Y-3.6208
G01 X-22.8646 Y-3.6118
G01 X-22.8726 Y-3.6017
G01 X-22.8788 Y-3.5904
G01 X-22.8830 Y-3.5783
G01 X-22.8850 Y-3.5656
G01 X-22.8852 Y-3.3466
G01 X-22.8861 Y-3.3371
G01 X-22.8886 Y-3.3288
G01 X-22.8915 Y-3.3231
G01 X-22.8953 Y-3.3178
G01 X-22.9014 Y-3.3117
G01 X-22.9124 Y-3.3050
G01 X-22.9186 Y-3.3030
G01 X-22.9271 Y-3.3017
G01 X-22.9336 Y-3.3019
G01 X-22.9421 Y-3.3036
G01 X-22.9481 Y-3.3059
G01 X-22.9555 Y-3.3103
G01 X-22.9604 Y-3.3146
G01 X-22.9659 Y-3.3212
G01 X-22.9700 Y-3.3288
G01 X-22.9720 Y-3.3350
G01 X-22.9734 Y-3.3466
G01 X-22.9737 Y-3.5674
G01 X-22.9766 Y-3.5818
G01 X-22.9822 Y-3.5954
G01 X-22.9898 Y-3.6069
G01 X-23.0001 Y-3.6174
G01 X-23.0098 Y-3.6244
G01 X-23.0214 Y-3.6300
G01 X-23.0328 Y-3.6334
G01 X-23.0447 Y-3.6350
G01 X-23.3358 Y-3.6355
G01 X-23.3421 Y-3.6370
G01 X-23.3501 Y-3.6403
G01 X-23.3572 Y-3.6451
G01 X-23.3619 Y-3.6495
G01 X-23.3659 Y-3.6546
G01 X-23.3700 Y-3.6622
G01 X-23.3725 Y-3.6705
G01 X-23.3733 Y-3.6769
G01 X-23.3731 Y-3.6834
G01 X-23.3714 Y-3.6919
G01 X-23.3681 Y-3.6999
G01 X-23.3633 Y-3.7070
G01 X-23.3572 Y-3.7131
G01 X-23.3501 Y-3.7179
G01 X-23.3421 Y-3.7212
G01 X-23.3358 Y-3.7227
G01 X-23.0438 Y-3.7233
G01 X-23.0310 Y-3.7252
G01 X-23.0197 Y-3.7289
G01 X-23.0090 Y-3.7343
G01 X-22.9994 Y-3.7414
G01 X-22.9892 Y-3.7520
G01 X-22.9818 Y-3.7636
G01 X-22.9766 Y-3.7764
G01 X-22.9737 Y-3.7908
G01 X-22.9734 Y-4.0115
G01 X-22.9725 Y-4.0210
G01 X-22.9708 Y-4.0272
G01 X-22.9671 Y-4.0350
G01 X-22.9619 Y-4.0420
G01 X-22.9572 Y-4.0464
G01 X-22.9462 Y-4.0531
G01 X-22.9379 Y-4.0556
G01 X-22.9315 Y-4.0564
G01 X-22.9250 Y-4.0562
G01 X-22.9165 Y-4.0545
G01 X-22.9105 Y-4.0522
G01 X-22.9031 Y-4.0478
G01 X-22.8982 Y-4.0435
G01 X-22.8927 Y-4.0369
G01 X-22.8895 Y-4.0312
G01 X-22.8866 Y-4.0231
G01 X-22.8852 Y-4.0115
G01 X-22.8849 Y-3.7908
G01 X-22.8820 Y-3.7764
G01 X-22.8764 Y-3.7628
G01 X-22.8682 Y-3.7506
G01 X-22.8578 Y-3.7402
G01 X-22.8480 Y-3.7334
G01 X-22.8372 Y-3.7282
G01 X-22.8258 Y-3.7248
G01 X-22.8139 Y-3.7232
G01 X-22.5302 Y-3.7232
G00 Z2.0000
G00 X-22.9571 Y-3.6791
G01 F70.00
G01 Z-0.0700
G01 F120.00
G01 X-22.9423 Y-3.6921
G01 X-22.9293 Y-3.7069
G01 X-22.9163 Y-3.6921
G01 X-22.9015 Y-3.6791
G01 X-22.9163 Y-3.6661
G01 X-22.9293 Y-3.6513
G01 X-22.9423 Y-3.6661
G01 X-22.9571 Y-3.6791
G00 Z2.0000
G00 X-20.9616 Y-8.4140
G01 F70.00
G01 Z-0.0700
G01 F120.00
G01 X-20.9598 Y-8.4864
G01 X-20.9545 Y-8.5586
G01 X-20.9456 Y-8.6304
G01 X-20.9332 Y-8.7018
G01 X-20.9173 Y-8.7724
G01 X-20.8980 Y-8.8422
G01 X-20.8753 Y-8.9109
G01 X-20.8492 Y-8.9784
G01 X-20.8199 Y-9.0446
G01 X-20.7873 Y-9.1093
G01 X-20.7516 Y-9.1723
G01 X-20.7129 Y-9.2334
G01 X-20.6712 Y-9.2926
G01 X-20.6266 Y-9.3497
G01 X-20.5793 Y-9.4045
G01 X-20.5294 Y-9.4569
G01 X-20.4769 Y-9.5068
G01 X-20.4221 Y-9.5541
G01 X-20.3650 Y-9.5986
G01 X-20.3058 Y-9.6403
G01 X-20.2446 Y-9.6790
G01 X-20.1816 Y-9.7147
G01 X-20.1170 Y-9.7472
G01 X-20.0508 Y-9.7765
G01 X-19.9832 Y-9.8026
G01 X-19.9145 Y-9.8253
G01 X-19.8447 Y-9.8446
G01 X-19.7741 Y-9.8604
G01 X-19.7027 Y-9.8728
G01 X-19.6309 Y-9.8816
G01 X-19.5587 Y-9.8869
G01 X-19.4863 Y-9.8887
G01 X-19.4139 Y-9.8869
G01 X-19.3417 Y-9.8816
G01 X-19.2699 Y-9.8727
G01 X-19.1985 Y-9.8603
G01 X-19.1279 Y-9.8444
G01 X-19.0581 Y-9.8251
G01 X-18.9894 Y-9.8024
G01 X-18.9219 Y-9.7763
G01 X-18.8557 Y-9.7470
G01 X-18.7910 Y-9.7144
G01 X-18.7280 Y-9.6787
G01 X-18.6669 Y-9.6400
G01 X-18.6077 Y-9.5983
G01 X-18.5506 Y-9.5537
G01 X-18.4958 Y-9.5064
G01 X-18.4434 Y-9.4565
G01 X-18.3935 Y-9.4040
G01 X-18.3462 Y-9.3492
G01 X-18.3017 Y-9.2921
G01 X-18.2600 Y-9.2329
G01 X-18.2213 Y-9.1717
G01 X-18.1856 Y-9.1087
G01 X-18.1531 Y-9.0441
G01 X-18.1238 Y-8.9779
G01 X-18.0977 Y-8.9103
G01 X-18.0750 Y-8.8416
G01 X-18.0557 Y-8.7718
G01 X-18.0399 Y-8.7012
G01 X-18.0275 Y-8.6298
G01 X-18.0187 Y-8.5580
G01 X-18.0134 Y-8.4858
G01 X-18.0116 Y-8.4134
G01 X-18.0134 Y-8.3410
G01 X-18.0187 Y-8.2688
G01 X-18.0276 Y-8.1970
G01 X-18.0400 Y-8.1256
G01 X-18.0559 Y-8.0550
G01 X-18.0752 Y-7.9852
G01 X-18.0979 Y-7.9165
G01 X-18.1240 Y-7.8490
G01 X-18.1533 Y-7.7828
G01 X-18.1859 Y-7.7181
G01 X-18.2216 Y-7.6551
G01 X-18.2603 Y-7.5940
G01 X-18.3020 Y-7.5348
G01 X-18.3466 Y-7.4777
G01 X-18.3939 Y-7.4229
G01 X-18.4438 Y-7.3705
G01 X-18.4963 Y-7.3206
G01 X-18.5511 Y-7.2733
G01 X-18.6082 Y-7.2288
G01 X-18.6674 Y-7.1871
G01 X-18.7286 Y-7.1484
G01 X-18.7916 Y-7.1127
G01 X-18.8562 Y-7.0802
G01 X-18.9224 Y-7.0509
G01 X-18.9900 Y-7.0248
G01 X-19.0587 Y-7.0021
G01 X-19.1285 Y-6.9828
G01 X-19.1991 Y-6.9670
G01 X-19.2705 Y-6.9546
G01 X-19.3423 Y-6.9458
G01 X-19.4145 Y-6.9405
G01 X-19.4869 Y-6.9387
G01 X-19.5593 Y-6.9405
G01 X-19.6315 Y-6.9458
G01 X-19.7033 Y-6.9547
G01 X-19.7747 Y-6.9671
G01 X-19.8453 Y-6.9830
G01 X-19.9151 Y-7.0023
G01 X-19.9838 Y-7.0250
G01 X-20.0513 Y-7.0511
G01 X-20.1175 Y-7.0804
G01 X-20.1822 Y-7.1130
G01 X-20.2452 Y-7.1487
G01 X-20.3063 Y-7.1874
G01 X-20.3655 Y-7.2291
G01 X-20.4226 Y-7.2737
G01 X-20.4774 Y-7.3210
G01 X-20.5298 Y-7.3709
G01 X-20.5797 Y-7.4234
G01 X-20.6270 Y-7.4782
G01 X-20.6715 Y-7.5353
G01 X-20.7132 Y-7.5945
G01 X-20.7519 Y-7.6557
G01 X-20.7876 Y-7.7187
G01 X-20.8201 Y-7.7833
G01 X-20.8494 Y-7.8495
G01 X-20.8755 Y-7.9171
G01 X-20.8982 Y-7.9858
G01 X-20.9175 Y-8.0556
G01 X-20.9333 Y-8.1262
G01 X-20.9457 Y-8.1976
G01 X-20.9545 Y-8.2694
G01 X-20.9598 Y-8.3416
G01 X-20.9616 Y-8.4140
G00 Z2.0000
G00 X-20.8866 Y-8.4137
G01 F70.00
G01 Z-0.0700
G01 F120.00
G01 X-20.8849 Y-8.4824
G01 X-20.8799 Y-8.5509
G01 X-20.8714 Y-8.6191
G01 X-20.8597 Y-8.6868
G01 X-20.8446 Y-8.7539
G01 X-20.8263 Y-8.8201
G01 X-20.8048 Y-8.8853
G01 X-20.7800 Y-8.9495
G01 X-20.7522 Y-9.0123
G01 X-20.7213 Y-9.0737
G01 X-20.6874 Y-9.1334
G01 X-20.6507 Y-9.1915
G01 X-20.6111 Y-9.2477
G01 X-20.5688 Y-9.3018
G01 X-20.5239 Y-9.3539
G01 X-20.4765 Y-9.4036
G01 X-20.4268 Y-9.4510
G01 X-20.3747 Y-9.4959
G01 X-20.3206 Y-9.5382
G01 X-20.2644 Y-9.5778
G01 X-20.2063 Y-9.6145
G01 X-20.1466 Y-9.6484
G01 X-20.0852 Y-9.6793
G01 X-20.0224 Y-9.7071
G01 X-19.9582 Y-9.7319
G01 X-19.8930 Y-9.7534
G01 X-19.8268 Y-9.7717
G01 X-19.7597 Y-9.7868
G01 X-19.6920 Y-9.7985
G01 X-19.6238 Y-9.8070
G01 X-19.5553 Y-9.8120
G01 X-19.4866 Y-9.8137
G01 X-19.4179 Y-9.8120
G01 X-19.3494 Y-9.8070
G01 X-19.2812 Y-9.7985
G01 X-19.2135 Y-9.7868
G01 X-19.1464 Y-9.7717
G01 X-19.0802 Y-9.7534
G01 X-19.0150 Y-9.7319
G01 X-18.9508 Y-9.7071
G01 X-18.8880 Y-9.6793
G01 X-18.8266 Y-9.6484
G01 X-18.7669 Y-9.6145
G01 X-18.7088 Y-9.5778
G01 X-18.6526 Y-9.5382
G01 X-18.5985 Y-9.4959
G01 X-18.5464 Y-9.4510
G01 X-18.4967 Y-9.4036
G01 X-18.4493 Y-9.3539
G01 X-18.4044 Y-9.3018
G01 X-18.3621 Y-9.2477
G01 X-18.3225 Y-9.1915
G01 X-18.2858 Y-9.1334
G01 X-18.2519 Y-9.0737
G01 X-18.2210 Y-9.0123
G01 X-18.1932 Y-8.9495
G01 X-18.1684 Y-8.8853
G01 X-18.1469 Y-8.8201
G01 X-18.1286 Y-8.7539
G01 X-18.1135 Y-8.6868
G01 X-18.1018 Y-8.6191
G01 X-18.0933 Y-8.5509
G01 X-18.0883 Y-8.4824
G01 X-18.0866 Y-8.4137
G01 X-18.0883 Y-8.3450
G01 X-18.0933 Y-8.2765
G01 X-18.1018 Y-8.2083
G01 X-18.1135 Y-8.1406
G01 X-18.1286 Y-8.0735
G01 X-18.1469 Y-8.0073
G01 X-18.1684 Y-7.9421
G01 X-18.1932 Y-7.8779
G01 X-18.2210 Y-7.8151
G01 X-18.2519 Y-7.7537
G01 X-18.2858 Y-7.6940
G01 X-18.3225 Y-7.6359
G01 X-18.3621 Y-7.5797
G01 X-18.4044 Y-7.5256
G01 X-18.4493 Y-7.4735
G01 X-18.4967 Y-7.4238
G01 X-18.5464 Y-7.3764
G01 X-18.5985 Y-7.3315
G01 X-18.6526 Y-7.2892
G01 X-18.7088 Y-7.2496
G01 X-18.7669 Y-7.2129
G01 X-18.8266 Y-7.1790
G01 X-18.8880 Y-7.1481
G01 X-18.9508 Y-7.1203
G01 X-19.0150 Y-7.0955
G01 X-19.0802 Y-7.0740
G01 X-19.1464 Y-7.0557
G01 X-19.2135 Y-7.0406
G01 X-19.2812 Y-7.0289
G01 X-19.3494 Y-7.0204
G01 X-19.4179 Y-7.0154
G01 X-19.4866 Y-7.0137
G01 X-19.5553 Y-7.0154
G01 X-19.6238 Y-7.0204
G01 X-19.6920 Y-7.0289
G01 X-19.7597 Y-7.0406
G01 X-19.8268 Y-7.0557
G01 X-19.8930 Y-7.0740
G01 X-19.9582 Y-7.0955
G01 X-20.0224 Y-7.1203
G01 X-20.0852 Y-7.1481
G01 X-20.1466 Y-7.1790
G01 X-20.2063 Y-7.2129
G01 X-20.2644 Y-7.2496
G01 X-20.3206 Y-7.2892
G01 X-20.3747 Y-7.3315
G01 X-20.4268 Y-7.3764
G01 X-20.4765 Y-7.4238
G01 X-20.5239 Y-7.4735
G01 X-20.5688 Y-7.5256
G01 X-20.6111 Y-7.5797
G01 X-20.6507 Y-7.6359
G01 X-20.6874 Y-7.6940
G01 X-20.7213 Y-7.7537
G01 X-20.7522 Y-7.8151
G01 X-20.7800 Y-7.8779
G01 X-20.8048 Y-7.9421
G01 X-20.8263 Y-8.0073
G01 X-20.8446 Y-8.0735
G01 X-20.8597 Y-8.1406
G01 X-20.8714 Y-8.2083
G01 X-20.8799 Y-8.2765
G01 X-20.8849 Y-8.3450
G01 X-20.8866 Y-8.4137
G00 Z2.0000
G00 X-20.8116 Y-8.4137
G01 F70.00
G01 Z-0.0700
G01 F120.00
G01 X-20.8100 Y-8.4787
G01 X-20.8052 Y-8.5436
G01 X-20.7972 Y-8.6081
G01 X-20.7861 Y-8.6722
G01 X-20.7719 Y-8.7356
G01 X-20.7545 Y-8.7983
G01 X-20.7341 Y-8.8601
G01 X-20.7107 Y-8.9207
G01 X-20.6844 Y-8.9802
G01 X-20.6551 Y-9.0383
G01 X-20.6231 Y-9.0949
G01 X-20.5883 Y-9.1498
G01 X-20.5508 Y-9.2030
G01 X-20.5108 Y-9.2543
G01 X-20.4683 Y-9.3035
G01 X-20.4235 Y-9.3506
G01 X-20.3764 Y-9.3954
G01 X-20.3272 Y-9.4379
G01 X-20.2759 Y-9.4779
G01 X-20.2227 Y-9.5154
G01 X-20.1678 Y-9.5502
G01 X-20.1112 Y-9.5822
G01 X-20.0531 Y-9.6115
G01 X-19.9936 Y-9.6378
G01 X-19.9330 Y-9.6612
G01 X-19.8712 Y-9.6816
G01 X-19.8085 Y-9.6990
G01 X-19.7451 Y-9.7132
G01 X-19.6810 Y-9.7243
G01 X-19.6165 Y-9.7323
G01 X-19.5516 Y-9.7371
G01 X-19.4866 Y-9.7387
G01 X-19.4216 Y-9.7371
G01 X-19.3567 Y-9.7323
G01 X-19.2922 Y-9.7243
G01 X-19.2281 Y-9.7132
G01 X-19.1647 Y-9.6990
G01 X-19.1020 Y-9.6816
G01 X-19.0402 Y-9.6612
G01 X-18.9796 Y-9.6378
G01 X-18.9201 Y-9.6115
G01 X-18.8620 Y-9.5822
G01 X-18.8054 Y-9.5502
G01 X-18.7505 Y-9.5154
G01 X-18.6973 Y-9.4779
G01 X-18.6460 Y-9.4379
G01 X-18.5968 Y-9.3954
G01 X-18.5497 Y-9.3506
G01 X-18.5049 Y-9.3035
G01 X-18.4624 Y-9.2543
G01 X-18.4224 Y-9.2030
G01 X-18.3849 Y-9.1498
G01 X-18.3501 Y-9.0949
G01 X-18.3181 Y-9.0383
G01 X-18.2888 Y-8.9802
G01 X-18.2625 Y-8.9207
G01 X-18.2391 Y-8.8601
G01 X-18.2187 Y-8.7983
G01 X-18.2013 Y-8.7356
G01 X-18.1871 Y-8.6722
G01 X-18.1760 Y-8.6081
G01 X-18.1680 Y-8.5436
G01 X-18.1632 Y-8.4787
G01 X-18.1616 Y-8.4137
G01 X-18.1632 Y-8.3487
G01 X-18.1680 Y-8.2838
G01 X-18.1760 Y-8.2193
G01 X-18.1871 Y-8.1552
G01 X-18.2013 Y-8.0918
G01 X-18.2187 Y-8.0291
G01 X-18.2391 Y-7.9673
G01 X-18.2625 Y-7.9067
G01 X-18.2888 Y-7.8472
G01 X-18.3181 Y-7.7891
G01 X-18.3501 Y-7.7325
G01 X-18.3849 Y-7.6776
G01 X-18.4224 Y-7.6244
G01 X-18.4624 Y-7.5731
G01 X-18.5049 Y-7.5239
G01 X-18.5497 Y-7.4768
G01 X-18.5968 Y-7.4320
G01 X-18.6460 Y-7.3895
G01 X-18.6973 Y-7.3495
G01 X-18.7505 Y-7.3120
G01 X-18.8054 Y-7.2772
G01 X-18.8620 Y-7.2452
G01 X-18.9201 Y-7.2159
G01 X-18.9796 Y-7.1896
G01 X-19.0402 Y-7.1662
G01 X-19.1020 Y-7.1458
G01 X-19.1647 Y-7.1284
G01 X-19.2281 Y-7.1142
G01 X-19.2922 Y-7.1031
G01 X-19.3567 Y-7.0951
G01 X-19.4216 Y-7.0903
G01 X-19.4866 Y-7.0887
G01 X-19.5516 Y-7.0903
G01 X-19.6165 Y-7.0951
G01 X-19.6810 Y-7.1031
G01 X-19.7451 Y-7.1142
G01 X-19.8085 Y-7.1284
G01 X-19.8712 Y-7.1458
G01 X-19.9330 Y-7.1662
G01 X-19.9936 Y-7.1896
G01 X-20.0531 Y-7.2159
G01 X-20.1112 Y-7.2452
G01 X-20.1678 Y-7.2772
G01 X-20.2227 Y-7.3120
G01 X-20.2759 Y-7.3495
G01 X-20.3272 Y-7.3895
G01 X-20.3764 Y-7.4320
G01 X-20.4235 Y-7.4768
G01 X-20.4683 Y-7.5239
G01 X-20.5108 Y-7.5731
G01 X-20.5508 Y-7.6244
G01 X-20.5883 Y-7.6776
G01 X-20.6231 Y-7.7325
G01 X-20.6551 Y-7.7891
G01 X-20.6844 Y-7.8472
G01 X-20.7107 Y-7.9067
G01 X-20.7341 Y-7.9673
G01 X-20.7545 Y-8.0291
G01 X-20.7719 Y-8.0918
G01 X-20.7861 Y-8.1552
G01 X-20.7972 Y-8.2193
G01 X-20.8052 Y-8.2838
G01 X-20.8100 Y-8.3487
G01 X-20.8116 Y-8.4137
G00 Z2.0000
G00 X-20.7365 Y-8.4147
G01 F70.00
G01 Z-0.0700
G01 F120.00
G01 X-20.7350 Y-8.4760
G01 X-20.7304 Y-8.5372
G01 X-20.7228 Y-8.5981
G01 X-20.7123 Y-8.6585
G01 X-20.6988 Y-8.7184
G01 X-20.6824 Y-8.7775
G01 X-20.6631 Y-8.8357
G01 X-20.6410 Y-8.8929
G01 X-20.6161 Y-8.9490
G01 X-20.5885 Y-9.0038
G01 X-20.5582 Y-9.0571
G01 X-20.5253 Y-9.1089
G01 X-20.4900 Y-9.1591
G01 X-20.4522 Y-9.2074
G01 X-20.4121 Y-9.2538
G01 X-20.3697 Y-9.2982
G01 X-20.3253 Y-9.3405
G01 X-20.2788 Y-9.3805
G01 X-20.2304 Y-9.4182
G01 X-20.1802 Y-9.4535
G01 X-20.1283 Y-9.4863
G01 X-20.0749 Y-9.5165
G01 X-20.0201 Y-9.5440
G01 X-19.9640 Y-9.5689
G01 X-19.9068 Y-9.5909
G01 X-19.8485 Y-9.6101
G01 X-19.7893 Y-9.6264
G01 X-19.7295 Y-9.6398
G01 X-19.6690 Y-9.6502
G01 X-19.6081 Y-9.6577
G01 X-19.5469 Y-9.6622
G01 X-19.4856 Y-9.6636
G01 X-19.4243 Y-9.6621
G01 X-19.3631 Y-9.6575
G01 X-19.3022 Y-9.6499
G01 X-19.2418 Y-9.6394
G01 X-19.1819 Y-9.6259
G01 X-19.1228 Y-9.6095
G01 X-19.0646 Y-9.5902
G01 X-19.0074 Y-9.5681
G01 X-18.9513 Y-9.5432
G01 X-18.8965 Y-9.5156
G01 X-18.8432 Y-9.4853
G01 X-18.7914 Y-9.4524
G01 X-18.7412 Y-9.4171
G01 X-18.6929 Y-9.3793
G01 X-18.6465 Y-9.3392
G01 X-18.6021 Y-9.2968
G01 X-18.5598 Y-9.2524
G01 X-18.5198 Y-9.2059
G01 X-18.4821 Y-9.1575
G01 X-18.4468 Y-9.1073
G01 X-18.4140 Y-9.0554
G01 X-18.3838 Y-9.0020
G01 X-18.3563 Y-8.9472
G01 X-18.3314 Y-8.8911
G01 X-18.3094 Y-8.8339
G01 X-18.2902 Y-8.7756
G01 X-18.2739 Y-8.7164
G01 X-18.2605 Y-8.6566
G01 X-18.2501 Y-8.5961
G01 X-18.2426 Y-8.5352
G01 X-18.2381 Y-8.4740
G01 X-18.2367 Y-8.4127
G01 X-18.2382 Y-8.3514
G01 X-18.2428 Y-8.2902
G01 X-18.2504 Y-8.2293
G01 X-18.2609 Y-8.1689
G01 X-18.2744 Y-8.1090
G01 X-18.2908 Y-8.0499
G01 X-18.3101 Y-7.9917
G01 X-18.3322 Y-7.9345
G01 X-18.3571 Y-7.8784
G01 X-18.3847 Y-7.8236
G01 X-18.4150 Y-7.7703
G01 X-18.4479 Y-7.7185
G01 X-18.4832 Y-7.6683
G01 X-18.5210 Y-7.6200
G01 X-18.5611 Y-7.5736
G01 X-18.6035 Y-7.5292
G01 X-18.6479 Y-7.4869
G01 X-18.6944 Y-7.4469
G01 X-18.7428 Y-7.4092
G01 X-18.7930 Y-7.3739
G01 X-18.8449 Y-7.3411
G01 X-18.8983 Y-7.3109
G01 X-18.9531 Y-7.2834
G01 X-19.0092 Y-7.2585
G01 X-19.0664 Y-7.2365
G01 X-19.1247 Y-7.2173
G01 X-19.1839 Y-7.2010
G01 X-19.2437 Y-7.1876
G01 X-19.3042 Y-7.1772
G01 X-19.3651 Y-7.1697
G01 X-19.4263 Y-7.1652
G01 X-19.4876 Y-7.1638
G01 X-19.5489 Y-7.1653
G01 X-19.6101 Y-7.1699
G01 X-19.6710 Y-7.1775
G01 X-19.7314 Y-7.1880
G01 X-19.7913 Y-7.2015
G01 X-19.8504 Y-7.2179
G01 X-19.9086 Y-7.2372
G01 X-19.9658 Y-7.2593
G01 X-20.0219 Y-7.2842
G01 X-20.0767 Y-7.3118
G01 X-20.1300 Y-7.3421
G01 X-20.1818 Y-7.3750
G01 X-20.2320 Y-7.4103
G01 X-20.2803 Y-7.4481
G01 X-20.3267 Y-7.4882
G01 X-20.3711 Y-7.5306
G01 X-20.4134 Y-7.5750
G01 X-20.4534 Y-7.6215
G01 X-20.4911 Y-7.6699
G01 X-20.5264 Y-7.7201
G01 X-20.5592 Y-7.7720
G01 X-20.5894 Y-7.8254
G01 X-20.6169 Y-7.8802
G01 X-20.6418 Y-7.9363
G01 X-20.6638 Y-7.9935
G01 X-20.6830 Y-8.0518
G01 X-20.6993 Y-8.1110
G01 X-20.7127 Y-8.1708
G01 X-20.7231 Y-8.2313
G01 X-20.7306 Y-8.2922
G01 X-20.7351 Y-8.3534
G01 X-20.7365 Y-8.4147
G00 Z2.0000
G00 X-24.4330 Y-15.5129
G01 F70.00
G01 Z-0.0700
G01 F120.00
G01 X-24.4931 Y-15.5144
G01 X-24.5513 Y-15.5187
G01 X-24.6146 Y-15.5265
G01 X-24.6721 Y-15.5365
G01 X-24.7308 Y-15.5497
G01 X-24.7888 Y-15.5657
G01 X-24.8441 Y-15.5840
G01 X-24.9037 Y-15.6069
G01 X-24.9570 Y-15.6306
G01 X-25.0107 Y-15.6576
G01 X-25.0631 Y-15.6873
G01 X-25.1124 Y-15.7185
G01 X-25.1645 Y-15.7552
G01 X-25.2105 Y-15.7911
G01 X-25.2560 Y-15.8304
G01 X-25.2996 Y-15.8719
G01 X-25.3398 Y-15.9141
G01 X-25.3815 Y-15.9624
G01 X-25.4174 Y-16.0084
G01 X-25.4520 Y-16.0576
G01 X-25.4842 Y-16.1084
G01 X-25.5139 Y-16.1608
G01 X-25.5409 Y-16.2145
G01 X-25.5646 Y-16.2678
G01 X-25.5875 Y-16.3274
G01 X-25.6058 Y-16.3827
G01 X-25.6218 Y-16.4407
G01 X-25.6350 Y-16.4994
G01 X-25.6453 Y-16.5587
G01 X-25.6527 Y-16.6184
G01 X-25.6570 Y-16.6765
G01 X-25.6586 Y-16.7403
G01 X-25.6571 Y-16.7986
G01 X-25.6527 Y-16.8586
G01 X-25.6453 Y-16.9183
G01 X-25.6354 Y-16.9758
G01 X-25.6214 Y-17.0381
G01 X-25.6058 Y-17.0943
G01 X-25.5869 Y-17.1514
G01 X-25.5653 Y-17.2075
G01 X-25.5417 Y-17.2608
G01 X-25.5130 Y-17.3178
G01 X-25.4842 Y-17.3686
G01 X-25.4520 Y-17.4194
G01 X-25.4174 Y-17.4686
G01 X-25.3815 Y-17.5146
G01 X-25.3398 Y-17.5629
G01 X-25.2996 Y-17.6051
G01 X-25.2560 Y-17.6466
G01 X-25.2105 Y-17.6859
G01 X-25.1645 Y-17.7218
G01 X-25.1124 Y-17.7585
G01 X-25.0631 Y-17.7897
G01 X-25.0107 Y-17.8194
G01 X-24.9570 Y-17.8464
G01 X-24.9003 Y-17.8715
G01 X-24.8459 Y-17.8924
G01 X-24.7905 Y-17.9107
G01 X-24.7326 Y-17.9269
G01 X-24.6721 Y-17.9405
G01 X-24.6128 Y-17.9508
G01 X-24.5531 Y-17.9582
G01 X-24.4931 Y-17.9626
G01 X-24.4330 Y-17.9641
G01 X-22.1330 Y-17.9641
G01 X-22.0710 Y-17.9625
G01 X-22.0129 Y-17.9582
G01 X-21.9550 Y-17.9511
G01 X-21.8939 Y-17.9405
G01 X-21.8334 Y-17.9269
G01 X-21.7755 Y-17.9107
G01 X-21.7201 Y-17.8924
G01 X-21.6657 Y-17.8715
G01 X-21.6090 Y-17.8464
G01 X-21.5553 Y-17.8194
G01 X-21.5029 Y-17.7897
G01 X-21.4506 Y-17.7565
G01 X-21.4015 Y-17.7218
G01 X-21.3555 Y-17.6859
G01 X-21.3113 Y-17.6478
G01 X-21.2664 Y-17.6051
G01 X-21.2249 Y-17.5615
G01 X-21.1856 Y-17.5160
G01 X-21.1475 Y-17.4671
G01 X-21.1140 Y-17.4194
G01 X-21.0828 Y-17.3701
G01 X-21.0521 Y-17.3162
G01 X-21.0251 Y-17.2625
G01 X-21.0007 Y-17.2075
G01 X-20.9791 Y-17.1514
G01 X-20.9602 Y-17.0943
G01 X-20.9442 Y-17.0363
G01 X-20.9310 Y-16.9776
G01 X-20.9207 Y-16.9183
G01 X-20.9133 Y-16.8586
G01 X-20.9089 Y-16.7986
G01 X-20.9074 Y-16.7385
G01 X-20.9089 Y-16.6784
G01 X-20.9133 Y-16.6184
G01 X-20.9207 Y-16.5587
G01 X-20.9310 Y-16.4994
G01 X-20.9442 Y-16.4407
G01 X-20.9602 Y-16.3827
G01 X-20.9791 Y-16.3256
G01 X-21.0007 Y-16.2695
G01 X-21.0251 Y-16.2145
G01 X-21.0521 Y-16.1608
G01 X-21.0818 Y-16.1084
G01 X-21.1140 Y-16.0576
G01 X-21.1486 Y-16.0084
G01 X-21.1856 Y-15.9610
G01 X-21.2249 Y-15.9155
G01 X-21.2664 Y-15.8719
G01 X-21.3100 Y-15.8304
G01 X-21.3555 Y-15.7911
G01 X-21.4029 Y-15.7541
G01 X-21.4521 Y-15.7195
G01 X-21.5029 Y-15.6873
G01 X-21.5553 Y-15.6576
G01 X-21.6090 Y-15.6306
G01 X-21.6657 Y-15.6055
G01 X-21.7201 Y-15.5846
G01 X-21.7755 Y-15.5663
G01 X-21.8334 Y-15.5501
G01 X-21.8939 Y-15.5365
G01 X-21.9532 Y-15.5262
G01 X-22.0129 Y-15.5188
G01 X-22.0729 Y-15.5144
G01 X-22.1330 Y-15.5129
G01 X-24.4330 Y-15.5129
G00 Z2.0000
G00 X-25.1091 Y-17.9360
G01 F70.00
G01 Z-0.0700
G01 F120.00
G01 X-25.1039 Y-17.9538
G01 X-25.1000 Y-17.9728
G01 X-25.0980 Y-17.9892
G01 X-25.0971 Y-18.0085
G01 X-25.0978 Y-18.0251
G01 X-25.1000 Y-18.0442
G01 X-25.1039 Y-18.0632
G01 X-25.1091 Y-18.0810
G01 X-25.0790 Y-18.0641
G01 X-25.0236 Y-18.0362
G01 X-24.9615 Y-18.0085
G01 X-25.0236 Y-17.9808
G01 X-25.0790 Y-17.9529
G01 X-25.1091 Y-17.9360
G00 Z2.0000
G00 X-24.4330 Y-18.0529
G01 F70.00
G01 Z-0.0700
G01 F120.00
G01 X-24.4931 Y-18.0544
G01 X-24.5513 Y-18.0587
G01 X-24.6146 Y-18.0665
G01 X-24.6721 Y-18.0765
G01 X-24.7308 Y-18.0897
G01 X-24.7888 Y-18.1057
G01 X-24.8441 Y-18.1240
G01 X-24.9037 Y-18.1469
G01 X-24.9570 Y-18.1706
G01 X-25.0107 Y-18.1976
G01 X-25.0631 Y-18.2273
G01 X-25.1124 Y-18.2585
G01 X-25.1645 Y-18.2952
G01 X-25.2105 Y-18.3311
G01 X-25.2560 Y-18.3704
G01 X-25.2996 Y-18.4119
G01 X-25.3398 Y-18.4541
G01 X-25.3815 Y-18.5024
G01 X-25.4174 Y-18.5484
G01 X-25.4520 Y-18.5976
G01 X-25.4842 Y-18.6484
G01 X-25.5139 Y-18.7008
G01 X-25.5409 Y-18.7545
G01 X-25.5646 Y-18.8078
G01 X-25.5875 Y-18.8674
G01 X-25.6058 Y-18.9227
G01 X-25.6218 Y-18.9807
G01 X-25.6350 Y-19.0394
G01 X-25.6453 Y-19.0987
G01 X-25.6527 Y-19.1584
G01 X-25.6570 Y-19.2165
G01 X-25.6586 Y-19.2803
G01 X-25.6571 Y-19.3386
G01 X-25.6527 Y-19.3986
G01 X-25.6453 Y-19.4583
G01 X-25.6354 Y-19.5158
G01 X-25.6214 Y-19.5781
G01 X-25.6058 Y-19.6343
G01 X-25.5869 Y-19.6914
G01 X-25.5653 Y-19.7475
G01 X-25.5417 Y-19.8008
G01 X-25.5130 Y-19.8578
G01 X-25.4842 Y-19.9086
G01 X-25.4520 Y-19.9594
G01 X-25.4174 Y-20.0086
G01 X-25.3815 Y-20.0546
G01 X-25.3398 Y-20.1029
G01 X-25.2996 Y-20.1451
G01 X-25.2560 Y-20.1866
G01 X-25.2105 Y-20.2259
G01 X-25.1645 Y-20.2618
G01 X-25.1124 Y-20.2985
G01 X-25.0631 Y-20.3297
G01 X-25.0107 Y-20.3594
G01 X-24.9570 Y-20.3864
G01 X-24.9003 Y-20.4115
G01 X-24.8459 Y-20.4324
G01 X-24.7905 Y-20.4507
G01 X-24.7326 Y-20.4669
G01 X-24.6721 Y-20.4805
G01 X-24.6128 Y-20.4908
G01 X-24.5531 Y-20.4982
G01 X-24.4931 Y-20.5026
G01 X-24.4330 Y-20.5041
G01 X-22.1330 Y-20.5041
G01 X-22.0710 Y-20.5025
G01 X-22.0129 Y-20.4982
G01 X-21.9550 Y-20.4911
G01 X-21.8939 Y-20.4805
G01 X-21.8334 Y-20.4669
G01 X-21.7755 Y-20.4507
G01 X-21.7201 Y-20.4324
G01 X-21.6657 Y-20.4115
G01 X-21.6090 Y-20.3864
G01 X-21.5553 Y-20.3594
G01 X-21.5029 Y-20.3297
G01 X-21.4506 Y-20.2965
G01 X-21.4015 Y-20.2618
G01 X-21.3555 Y-20.2259
G01 X-21.3113 Y-20.1878
G01 X-21.2664 Y-20.1451
G01 X-21.2249 Y-20.1015
G01 X-21.1856 Y-20.0560
G01 X-21.1475 Y-20.0071
G01 X-21.1140 Y-19.9594
G01 X-21.0828 Y-19.9101
G01 X-21.0521 Y-19.8562
G01 X-21.0251 Y-19.8025
G01 X-21.0007 Y-19.7475
G01 X-20.9791 Y-19.6914
G01 X-20.9602 Y-19.6343
G01 X-20.9442 Y-19.5763
G01 X-20.9310 Y-19.5176
G01 X-20.9207 Y-19.4583
G01 X-20.9133 Y-19.3986
G01 X-20.9089 Y-19.3386
G01 X-20.9074 Y-19.2785
G01 X-20.9089 Y-19.2184
G01 X-20.9133 Y-19.1584
G01 X-20.9207 Y-19.0987
G01 X-20.9310 Y-19.0394
G01 X-20.9442 Y-18.9807
G01 X-20.9602 Y-18.9227
G01 X-20.9791 Y-18.8656
G01 X-21.0007 Y-18.8095
G01 X-21.0251 Y-18.7545
G01 X-21.0521 Y-18.7008
G01 X-21.0818 Y-18.6484
G01 X-21.1140 Y-18.5976
G01 X-21.1486 Y-18.5484
G01 X-21.1856 Y-18.5010
G01 X-21.2249 Y-18.4555
G01 X-21.2664 Y-18.4119
G01 X-21.3100 Y-18.3704
G01 X-21.3555 Y-18.3311
G01 X-21.4029 Y-18.2941
G01 X-21.4521 Y-18.2595
G01 X-21.5029 Y-18.2273
G01 X-21.5553 Y-18.1976
G01 X-21.6090 Y-18.1706
G01 X-21.6657 Y-18.1455
G01 X-21.7201 Y-18.1246
G01 X-21.7755 Y-18.1063
G01 X-21.8334 Y-18.0901
G01 X-21.8939 Y-18.0765
G01 X-21.9532 Y-18.0662
G01 X-22.0129 Y-18.0588
G01 X-22.0729 Y-18.0544
G01 X-22.1330 Y-18.0529
G01 X-24.4330 Y-18.0529
G00 Z2.0000
G00 X-25.1091 Y-20.4760
G01 F70.00
G01 Z-0.0700
G01 F120.00
G01 X-25.1039 Y-20.4938
G01 X-25.1000 Y-20.5128
G01 X-25.0980 Y-20.5292
G01 X-25.0971 Y-20.5485
G01 X-25.0978 Y-20.5651
G01 X-25.1000 Y-20.5842
G01 X-25.1039 Y-20.6032
G01 X-25.1091 Y-20.6210
G01 X-25.0790 Y-20.6041
G01 X-25.0236 Y-20.5762
G01 X-24.9615 Y-20.5485
G01 X-25.0236 Y-20.5208
G01 X-25.0790 Y-20.4929
G01 X-25.1091 Y-20.4760
G00 Z2.0000
G00 X-25.2790 Y-20.6098
G01 F70.00
G01 Z-0.0700
G01 F120.00
G01 X-25.3121 Y-20.6332
G01 X-25.3692 Y-20.6777
G01 X-25.4241 Y-20.7250
G01 X-25.4765 Y-20.7750
G01 X-25.5265 Y-20.8274
G01 X-25.5738 Y-20.8823
G01 X-25.6183 Y-20.9394
G01 X-25.6600 Y-20.9986
G01 X-25.6988 Y-21.0598
G01 X-25.7345 Y-21.1228
G01 X-25.7671 Y-21.1875
G01 X-25.7964 Y-21.2538
G01 X-25.8225 Y-21.3213
G01 X-25.8452 Y-21.3901
G01 X-25.8645 Y-21.4599
G01 X-25.8804 Y-21.5306
G01 X-25.8928 Y-21.6020
G01 X-25.9016 Y-21.6739
G01 X-25.9070 Y-21.7461
G01 X-25.9088 Y-21.8185
G01 X-25.9070 Y-21.8909
G01 X-25.9016 Y-21.9631
G01 X-25.8928 Y-22.0350
G01 X-25.8804 Y-22.1064
G01 X-25.8645 Y-22.1771
G01 X-25.8452 Y-22.2469
G01 X-25.8225 Y-22.3157
G01 X-25.7964 Y-22.3832
G01 X-25.7671 Y-22.4495
G01 X-25.7345 Y-22.5142
G01 X-25.6988 Y-22.5772
G01 X-25.6600 Y-22.6384
G01 X-25.6183 Y-22.6976
G01 X-25.5738 Y-22.7547
G01 X-25.5265 Y-22.8096
G01 X-25.4765 Y-22.8620
G01 X-25.4241 Y-22.9120
G01 X-25.3692 Y-22.9593
G01 X-25.3121 Y-23.0038
G01 X-25.2529 Y-23.0455
G01 X-25.1917 Y-23.0843
G01 X-25.1287 Y-23.1200
G01 X-25.0640 Y-23.1526
G01 X-24.9977 Y-23.1819
G01 X-24.9302 Y-23.2080
G01 X-24.8614 Y-23.2307
G01 X-24.7916 Y-23.2500
G01 X-24.7209 Y-23.2659
G01 X-24.6495 Y-23.2783
G01 X-24.5776 Y-23.2871
G01 X-24.5054 Y-23.2925
G01 X-24.4321 Y-23.2943
G01 X-22.1339 Y-23.2943
G01 X-22.0606 Y-23.2925
G01 X-21.9884 Y-23.2871
G01 X-21.9165 Y-23.2783
G01 X-21.8451 Y-23.2659
G01 X-21.7744 Y-23.2500
G01 X-21.7046 Y-23.2307
G01 X-21.6358 Y-23.2080
G01 X-21.5683 Y-23.1819
G01 X-21.5020 Y-23.1526
G01 X-21.4373 Y-23.1200
G01 X-21.3743 Y-23.0843
G01 X-21.3131 Y-23.0455
G01 X-21.2539 Y-23.0038
G01 X-21.1968 Y-22.9593
G01 X-21.1419 Y-22.9120
G01 X-21.0895 Y-22.8620
G01 X-21.0395 Y-22.8096
G01 X-20.9922 Y-22.7547
G01 X-20.9477 Y-22.6976
G01 X-20.9060 Y-22.6384
G01 X-20.8672 Y-22.5772
G01 X-20.8315 Y-22.5142
G01 X-20.7989 Y-22.4495
G01 X-20.7696 Y-22.3832
G01 X-20.7435 Y-22.3157
G01 X-20.7208 Y-22.2469
G01 X-20.7015 Y-22.1771
G01 X-20.6856 Y-22.1064
G01 X-20.6732 Y-22.0350
G01 X-20.6644 Y-21.9631
G01 X-20.6590 Y-21.8909
G01 X-20.6572 Y-21.8185
G01 X-20.6590 Y-21.7461
G01 X-20.6644 Y-21.6739
G01 X-20.6732 Y-21.6020
G01 X-20.6856 Y-21.5306
G01 X-20.7015 Y-21.4599
G01 X-20.7208 Y-21.3901
G01 X-20.7435 Y-21.3213
G01 X-20.7696 Y-21.2538
G01 X-20.7989 Y-21.1875
G01 X-20.8315 Y-21.1228
G01 X-20.8672 Y-21.0598
G01 X-20.9060 Y-20.9986
G01 X-20.9477 Y-20.9394
G01 X-20.9922 Y-20.8823
G01 X-21.0395 Y-20.8274
G01 X-21.0895 Y-20.7750
G01 X-21.1419 Y-20.7250
G01 X-21.1968 Y-20.6777
G01 X-21.2539 Y-20.6332
G01 X-21.2900 Y-20.6076
G01 X-21.3006 Y-20.5975
G01 X-21.3091 Y-20.5855
G01 X-21.3154 Y-20.5712
G01 X-21.3185 Y-20.5559
G01 X-21.3185 Y-20.5411
G01 X-21.3161 Y-20.5285
G01 X-21.3117 Y-20.5164
G01 X-21.3052 Y-20.5053
G01 X-21.2969 Y-20.4955
G01 X-21.2885 Y-20.4883
G01 X-21.2539 Y-20.4638
G01 X-21.1968 Y-20.4193
G01 X-21.1419 Y-20.3720
G01 X-21.0895 Y-20.3220
G01 X-21.0395 Y-20.2696
G01 X-20.9922 Y-20.2147
G01 X-20.9477 Y-20.1576
G01 X-20.9060 Y-20.0984
G01 X-20.8672 Y-20.0372
G01 X-20.8315 Y-19.9742
G01 X-20.7989 Y-19.9095
G01 X-20.7696 Y-19.8432
G01 X-20.7435 Y-19.7757
G01 X-20.7208 Y-19.7069
G01 X-20.7015 Y-19.6371
G01 X-20.6856 Y-19.5664
G01 X-20.6732 Y-19.4950
G01 X-20.6644 Y-19.4231
G01 X-20.6590 Y-19.3509
G01 X-20.6572 Y-19.2785
G01 X-20.6590 Y-19.2061
G01 X-20.6644 Y-19.1339
G01 X-20.6732 Y-19.0620
G01 X-20.6856 Y-18.9906
G01 X-20.7015 Y-18.9199
G01 X-20.7208 Y-18.8501
G01 X-20.7435 Y-18.7813
G01 X-20.7696 Y-18.7138
G01 X-20.7989 Y-18.6475
G01 X-20.8315 Y-18.5828
G01 X-20.8672 Y-18.5198
G01 X-20.9060 Y-18.4586
G01 X-20.9477 Y-18.3994
G01 X-20.9922 Y-18.3423
G01 X-21.0395 Y-18.2874
G01 X-21.0895 Y-18.2350
G01 X-21.1419 Y-18.1850
G01 X-21.1968 Y-18.1377
G01 X-21.2539 Y-18.0932
G01 X-21.2885 Y-18.0687
G01 X-21.2975 Y-18.0609
G01 X-21.3067 Y-18.0494
G01 X-21.3138 Y-18.0355
G01 X-21.3179 Y-18.0204
G01 X-21.3188 Y-18.0048
G01 X-21.3168 Y-17.9912
G01 X-21.3124 Y-17.9781
G01 X-21.3057 Y-17.9661
G01 X-21.2969 Y-17.9555
G01 X-21.2885 Y-17.9483
G01 X-21.2539 Y-17.9238
G01 X-21.1968 Y-17.8793
G01 X-21.1419 Y-17.8320
G01 X-21.0895 Y-17.7820
G01 X-21.0395 Y-17.7296
G01 X-20.9922 Y-17.6747
G01 X-20.9477 Y-17.6176
G01 X-20.9060 Y-17.5584
G01 X-20.8672 Y-17.4972
G01 X-20.8315 Y-17.4342
G01 X-20.7989 Y-17.3695
G01 X-20.7696 Y-17.3032
G01 X-20.7435 Y-17.2357
G01 X-20.7208 Y-17.1669
G01 X-20.7015 Y-17.0971
G01 X-20.6856 Y-17.0264
G01 X-20.6732 Y-16.9550
G01 X-20.6644 Y-16.8831
G01 X-20.6590 Y-16.8109
G01 X-20.6572 Y-16.7385
G01 X-20.6590 Y-16.6661
G01 X-20.6644 Y-16.5939
G01 X-20.6732 Y-16.5220
G01 X-20.6856 Y-16.4506
G01 X-20.7015 Y-16.3799
G01 X-20.7208 Y-16.3101
G01 X-20.7435 Y-16.2413
G01 X-20.7696 Y-16.1738
G01 X-20.7989 Y-16.1075
G01 X-20.8315 Y-16.0428
G01 X-20.8672 Y-15.9798
G01 X-20.9060 Y-15.9186
G01 X-20.9477 Y-15.8594
G01 X-20.9922 Y-15.8023
G01 X-21.0395 Y-15.7474
G01 X-21.0895 Y-15.6950
G01 X-21.1419 Y-15.6450
G01 X-21.1968 Y-15.5977
G01 X-21.2539 Y-15.5532
G01 X-21.3131 Y-15.5115
G01 X-21.3743 Y-15.4727
G01 X-21.4373 Y-15.4370
G01 X-21.5020 Y-15.4044
G01 X-21.5683 Y-15.3751
G01 X-21.6358 Y-15.3490
G01 X-21.7046 Y-15.3263
G01 X-21.7744 Y-15.3070
G01 X-21.8451 Y-15.2911
G01 X-21.9165 Y-15.2787
G01 X-21.9884 Y-15.2699
G01 X-22.0606 Y-15.2645
G01 X-22.1339 Y-15.2627
G01 X-24.4321 Y-15.2627
G01 X-24.5054 Y-15.2645
G01 X-24.5776 Y-15.2699
G01 X-24.6495 Y-15.2787
G01 X-24.7209 Y-15.2911
G01 X-24.7916 Y-15.3070
G01 X-24.8614 Y-15.3263
G01 X-24.9302 Y-15.3490
G01 X-24.9977 Y-15.3751
G01 X-25.0640 Y-15.4044
G01 X-25.1287 Y-15.4370
G01 X-25.1917 Y-15.4727
G01 X-25.2529 Y-15.5115
G01 X-25.3121 Y-15.5532
G01 X-25.3692 Y-15.5977
G01 X-25.4241 Y-15.6450
G01 X-25.4765 Y-15.6950
G01 X-25.5265 Y-15.7474
G01 X-25.5738 Y-15.8023
G01 X-25.6183 Y-15.8594
G01 X-25.6600 Y-15.9186
G01 X-25.6988 Y-15.9798
G01 X-25.7345 Y-16.0428
G01 X-25.7671 Y-16.1075
G01 X-25.7964 Y-16.1738
G01 X-25.8225 Y-16.2413
G01 X-25.8452 Y-16.3101
G01 X-25.8645 Y-16.3799
G01 X-25.8804 Y-16.4506
G01 X-25.8928 Y-16.5220
G01 X-25.9016 Y-16.5939
G01 X-25.9070 Y-16.6661
G01 X-25.9088 Y-16.7385
G01 X-25.9070 Y-16.8109
G01 X-25.9016 Y-16.8831
G01 X-25.8928 Y-16.9550
G01 X-25.8804 Y-17.0264
G01 X-25.8645 Y-17.0971
G01 X-25.8452 Y-17.1669
G01 X-25.8225 Y-17.2357
G01 X-25.7964 Y-17.3032
G01 X-25.7671 Y-17.3695
G01 X-25.7345 Y-17.4342
G01 X-25.6988 Y-17.4972
G01 X-25.6600 Y-17.5584
G01 X-25.6183 Y-17.6176
G01 X-25.5738 Y-17.6747
G01 X-25.5265 Y-17.7296
G01 X-25.4765 Y-17.7820
G01 X-25.4241 Y-17.8320
G01 X-25.3692 Y-17.8793
G01 X-25.3121 Y-17.9238
G01 X-25.2760 Y-17.9494
G01 X-25.2654 Y-17.9595
G01 X-25.2569 Y-17.9715
G01 X-25.2506 Y-17.9858
G01 X-25.2475 Y-18.0011
G01 X-25.2475 Y-18.0159
G01 X-25.2499 Y-18.0285
G01 X-25.2543 Y-18.0406
G01 X-25.2608 Y-18.0517
G01 X-25.2691 Y-18.0615
G01 X-25.2775 Y-18.0687
G01 X-25.3121 Y-18.0932
G01 X-25.3692 Y-18.1377
G01 X-25.4241 Y-18.1850
G01 X-25.4765 Y-18.2350
G01 X-25.5265 Y-18.2874
G01 X-25.5738 Y-18.3423
G01 X-25.6183 Y-18.3994
G01 X-25.6600 Y-18.4586
G01 X-25.6988 Y-18.5198
G01 X-25.7345 Y-18.5828
G01 X-25.7671 Y-18.6475
G01 X-25.7964 Y-18.7138
G01 X-25.8225 Y-18.7813
G01 X-25.8452 Y-18.8501
G01 X-25.8645 Y-18.9199
G01 X-25.8804 Y-18.9906
G01 X-25.8928 Y-19.0620
G01 X-25.9016 Y-19.1339
G01 X-25.9070 Y-19.2061
G01 X-25.9088 Y-19.2785
G01 X-25.9070 Y-19.3509
G01 X-25.9016 Y-19.4231
G01 X-25.8928 Y-19.4950
G01 X-25.8804 Y-19.5664
G01 X-25.8645 Y-19.6371
G01 X-25.8452 Y-19.7069
G01 X-25.8225 Y-19.7757
G01 X-25.7964 Y-19.8432
G01 X-25.7671 Y-19.9095
G01 X-25.7345 Y-19.9742
G01 X-25.6988 Y-20.0372
G01 X-25.6600 Y-20.0984
G01 X-25.6183 Y-20.1576
G01 X-25.5738 Y-20.2147
G01 X-25.5265 Y-20.2696
G01 X-25.4765 Y-20.3220
G01 X-25.4241 Y-20.3720
G01 X-25.3692 Y-20.4193
G01 X-25.3121 Y-20.4638
G01 X-25.2746 Y-20.4905
G01 X-25.2672 Y-20.4975
G01 X-25.2608 Y-20.5053
G01 X-25.2536 Y-20.5181
G01 X-25.2490 Y-20.5321
G01 X-25.2472 Y-20.5467
G01 X-25.2482 Y-20.5613
G01 X-25.2522 Y-20.5755
G01 X-25.2588 Y-20.5886
G01 X-25.2678 Y-20.6002
G01 X-25.2790 Y-20.6098
G00 Z2.0000
G00 X-25.2358 Y-20.6711
G01 F70.00
G01 Z-0.0700
G01 F120.00
G01 X-25.2674 Y-20.6934
G01 X-25.3216 Y-20.7357
G01 X-25.3737 Y-20.7806
G01 X-25.4235 Y-20.8280
G01 X-25.4709 Y-20.8778
G01 X-25.5158 Y-20.9299
G01 X-25.5581 Y-20.9841
G01 X-25.5977 Y-21.0403
G01 X-25.6344 Y-21.0984
G01 X-25.6683 Y-21.1582
G01 X-25.6992 Y-21.2196
G01 X-25.7271 Y-21.2825
G01 X-25.7518 Y-21.3466
G01 X-25.7734 Y-21.4119
G01 X-25.7918 Y-21.4782
G01 X-25.8068 Y-21.5452
G01 X-25.8186 Y-21.6130
G01 X-25.8270 Y-21.6812
G01 X-25.8320 Y-21.7498
G01 X-25.8337 Y-21.8185
G01 X-25.8320 Y-21.8872
G01 X-25.8270 Y-21.9558
G01 X-25.8186 Y-22.0240
G01 X-25.8068 Y-22.0918
G01 X-25.7918 Y-22.1588
G01 X-25.7734 Y-22.2251
G01 X-25.7518 Y-22.2904
G01 X-25.7271 Y-22.3545
G01 X-25.6992 Y-22.4174
G01 X-25.6683 Y-22.4788
G01 X-25.6344 Y-22.5386
G01 X-25.5977 Y-22.5967
G01 X-25.5581 Y-22.6529
G01 X-25.5158 Y-22.7071
G01 X-25.4709 Y-22.7592
G01 X-25.4235 Y-22.8090
G01 X-25.3737 Y-22.8564
G01 X-25.3216 Y-22.9013
G01 X-25.2674 Y-22.9436
G01 X-25.2112 Y-22.9832
G01 X-25.1531 Y-23.0199
G01 X-25.0933 Y-23.0538
G01 X-25.0319 Y-23.0847
G01 X-24.9690 Y-23.1126
G01 X-24.9049 Y-23.1373
G01 X-24.8396 Y-23.1589
G01 X-24.7733 Y-23.1773
G01 X-24.7063 Y-23.1923
G01 X-24.6385 Y-23.2041
G01 X-24.5703 Y-23.2125
G01 X-24.5017 Y-23.2175
G01 X-24.4312 Y-23.2193
G01 X-22.1348 Y-23.2193
G01 X-22.0643 Y-23.2175
G01 X-21.9957 Y-23.2125
G01 X-21.9275 Y-23.2041
G01 X-21.8597 Y-23.1923
G01 X-21.7927 Y-23.1773
G01 X-21.7264 Y-23.1589
G01 X-21.6611 Y-23.1373
G01 X-21.5970 Y-23.1126
G01 X-21.5341 Y-23.0847
G01 X-21.4727 Y-23.0538
G01 X-21.4129 Y-23.0199
G01 X-21.3548 Y-22.9832
G01 X-21.2986 Y-22.9436
G01 X-21.2444 Y-22.9013
G01 X-21.1923 Y-22.8564
G01 X-21.1425 Y-22.8090
G01 X-21.0951 Y-22.7592
G01 X-21.0502 Y-22.7071
G01 X-21.0079 Y-22.6529
G01 X-20.9683 Y-22.5967
G01 X-20.9316 Y-22.5386
G01 X-20.8977 Y-22.4788
G01 X-20.8668 Y-22.4174
G01 X-20.8389 Y-22.3545
G01 X-20.8142 Y-22.2904
G01 X-20.7926 Y-22.2251
G01 X-20.7742 Y-22.1588
G01 X-20.7592 Y-22.0918
G01 X-20.7474 Y-22.0240
G01 X-20.7390 Y-21.9558
G01 X-20.7340 Y-21.8872
G01 X-20.7323 Y-21.8185
G01 X-20.7340 Y-21.7498
G01 X-20.7390 Y-21.6812
G01 X-20.7474 Y-21.6130
G01 X-20.7592 Y-21.5452
G01 X-20.7742 Y-21.4782
G01 X-20.7926 Y-21.4119
G01 X-20.8142 Y-21.3466
G01 X-20.8389 Y-21.2825
G01 X-20.8668 Y-21.2196
G01 X-20.8977 Y-21.1582
G01 X-20.9316 Y-21.0984
G01 X-20.9683 Y-21.0403
G01 X-21.0079 Y-20.9841
G01 X-21.0502 Y-20.9299
G01 X-21.0951 Y-20.8778
G01 X-21.1425 Y-20.8280
G01 X-21.1923 Y-20.7806
G01 X-21.2444 Y-20.7357
G01 X-21.2986 Y-20.6934
G01 X-21.3390 Y-20.6645
G01 X-21.3499 Y-20.6546
G01 X-21.3598 Y-20.6437
G01 X-21.3686 Y-20.6318
G01 X-21.3761 Y-20.6192
G01 X-21.3824 Y-20.6059
G01 X-21.3869 Y-20.5938
G01 X-21.3906 Y-20.5796
G01 X-21.3929 Y-20.5650
G01 X-21.3938 Y-20.5503
G01 X-21.3933 Y-20.5356
G01 X-21.3894 Y-20.5121
G01 X-21.3857 Y-20.4997
G01 X-21.3810 Y-20.4877
G01 X-21.3696 Y-20.4667
G01 X-21.3621 Y-20.4562
G01 X-21.3538 Y-20.4464
G01 X-21.3361 Y-20.4302
G01 X-21.2986 Y-20.4036
G01 X-21.2444 Y-20.3613
G01 X-21.1923 Y-20.3164
G01 X-21.1425 Y-20.2690
G01 X-21.0951 Y-20.2192
G01 X-21.0502 Y-20.1671
G01 X-21.0079 Y-20.1129
G01 X-20.9683 Y-20.0567
G01 X-20.9316 Y-19.9986
G01 X-20.8977 Y-19.9388
G01 X-20.8668 Y-19.8774
G01 X-20.8389 Y-19.8145
G01 X-20.8142 Y-19.7504
G01 X-20.7926 Y-19.6851
G01 X-20.7742 Y-19.6188
G01 X-20.7592 Y-19.5518
G01 X-20.7474 Y-19.4840
G01 X-20.7390 Y-19.4158
G01 X-20.7340 Y-19.3472
G01 X-20.7323 Y-19.2785
G01 X-20.7340 Y-19.2098
G01 X-20.7390 Y-19.1412
G01 X-20.7474 Y-19.0730
G01 X-20.7592 Y-19.0052
G01 X-20.7742 Y-18.9382
G01 X-20.7926 Y-18.8719
G01 X-20.8142 Y-18.8066
G01 X-20.8389 Y-18.7425
G01 X-20.8668 Y-18.6796
G01 X-20.8977 Y-18.6182
G01 X-20.9316 Y-18.5584
G01 X-20.9683 Y-18.5003
G01 X-21.0079 Y-18.4441
G01 X-21.0502 Y-18.3899
G01 X-21.0951 Y-18.3378
G01 X-21.1425 Y-18.2880
G01 X-21.1923 Y-18.2406
G01 X-21.2444 Y-18.1957
G01 X-21.2986 Y-18.1534
G01 X-21.3390 Y-18.1245
G01 X-21.3499 Y-18.1146
G01 X-21.3610 Y-18.1022
G01 X-21.3686 Y-18.0918
G01 X-21.3761 Y-18.0792
G01 X-21.3824 Y-18.0659
G01 X-21.3869 Y-18.0538
G01 X-21.3906 Y-18.0396
G01 X-21.3927 Y-18.0269
G01 X-21.3938 Y-18.0140
G01 X-21.3937 Y-18.0011
G01 X-21.3925 Y-17.9883
G01 X-21.3902 Y-17.9756
G01 X-21.3869 Y-17.9632
G01 X-21.3824 Y-17.9511
G01 X-21.3761 Y-17.9378
G01 X-21.3696 Y-17.9267
G01 X-21.3621 Y-17.9162
G01 X-21.3538 Y-17.9064
G01 X-21.3361 Y-17.8902
G01 X-21.2986 Y-17.8636
G01 X-21.2444 Y-17.8213
G01 X-21.1923 Y-17.7764
G01 X-21.1425 Y-17.7290
G01 X-21.0951 Y-17.6792
G01 X-21.0502 Y-17.6271
G01 X-21.0079 Y-17.5729
G01 X-20.9683 Y-17.5167
G01 X-20.9316 Y-17.4586
G01 X-20.8977 Y-17.3988
G01 X-20.8668 Y-17.3374
G01 X-20.8389 Y-17.2745
G01 X-20.8142 Y-17.2104
G01 X-20.7926 Y-17.1451
G01 X-20.7742 Y-17.0788
G01 X-20.7592 Y-17.0118
G01 X-20.7474 Y-16.9440
G01 X-20.7390 Y-16.8758
G01 X-20.7340 Y-16.8072
G01 X-20.7323 Y-16.7385
G01 X-20.7340 Y-16.6698
G01 X-20.7390 Y-16.6012
G01 X-20.7474 Y-16.5330
G01 X-20.7592 Y-16.4652
G01 X-20.7742 Y-16.3982
G01 X-20.7926 Y-16.3319
G01 X-20.8142 Y-16.2666
G01 X-20.8389 Y-16.2025
G01 X-20.8668 Y-16.1396
G01 X-20.8977 Y-16.0782
G01 X-20.9316 Y-16.0184
G01 X-20.9683 Y-15.9603
G01 X-21.0079 Y-15.9041
G01 X-21.0502 Y-15.8499
G01 X-21.0951 Y-15.7978
G01 X-21.1425 Y-15.7480
G01 X-21.1923 Y-15.7006
G01 X-21.2444 Y-15.6557
G01 X-21.2986 Y-15.6134
G01 X-21.3548 Y-15.5738
G01 X-21.4129 Y-15.5371
G01 X-21.4727 Y-15.5032
G01 X-21.5341 Y-15.4723
G01 X-21.5970 Y-15.4444
G01 X-21.6611 Y-15.4197
G01 X-21.7264 Y-15.3981
G01 X-21.7927 Y-15.3797
G01 X-21.8597 Y-15.3647
G01 X-21.9275 Y-15.3529
G01 X-21.9957 Y-15.3445
G01 X-22.0643 Y-15.3395
G01 X-22.1348 Y-15.3377
G01 X-24.4312 Y-15.3377
G01 X-24.5017 Y-15.3395
G01 X-24.5703 Y-15.3445
G01 X-24.6385 Y-15.3529
G01 X-24.7063 Y-15.3647
G01 X-24.7733 Y-15.3797
G01 X-24.8396 Y-15.3981
G01 X-24.9049 Y-15.4197
G01 X-24.9690 Y-15.4444
G01 X-25.0319 Y-15.4723
G01 X-25.0933 Y-15.5032
G01 X-25.1531 Y-15.5371
G01 X-25.2112 Y-15.5738
G01 X-25.2674 Y-15.6134
G01 X-25.3216 Y-15.6557
G01 X-25.3737 Y-15.7006
G01 X-25.4235 Y-15.7480
G01 X-25.4709 Y-15.7978
G01 X-25.5158 Y-15.8499
G01 X-25.5581 Y-15.9041
G01 X-25.5977 Y-15.9603
G01 X-25.6344 Y-16.0184
G01 X-25.6683 Y-16.0782
G01 X-25.6992 Y-16.1396
G01 X-25.7271 Y-16.2025
G01 X-25.7518 Y-16.2666
G01 X-25.7734 Y-16.3319
G01 X-25.7918 Y-16.3982
G01 X-25.8068 Y-16.4652
G01 X-25.8186 Y-16.5330
G01 X-25.8270 Y-16.6012
G01 X-25.8320 Y-16.6698
G01 X-25.8337 Y-16.7385
G01 X-25.8320 Y-16.8072
G01 X-25.8270 Y-16.8758
G01 X-25.8186 Y-16.9440
G01 X-25.8068 Y-17.0118
G01 X-25.7918 Y-17.0788
G01 X-25.7734 Y-17.1451
G01 X-25.7518 Y-17.2104
G01 X-25.7271 Y-17.2745
G01 X-25.6992 Y-17.3374
G01 X-25.6683 Y-17.3988
G01 X-25.6344 Y-17.4586
G01 X-25.5977 Y-17.5167
G01 X-25.5581 Y-17.5729
G01 X-25.5158 Y-17.6271
G01 X-25.4709 Y-17.6792
G01 X-25.4235 Y-17.7290
G01 X-25.3737 Y-17.7764
G01 X-25.3216 Y-17.8213
G01 X-25.2674 Y-17.8636
G01 X-25.2270 Y-17.8925
G01 X-25.2161 Y-17.9024
G01 X-25.2062 Y-17.9133
G01 X-25.1974 Y-17.9252
G01 X-25.1899 Y-17.9378
G01 X-25.1836 Y-17.9511
G01 X-25.1791 Y-17.9632
G01 X-25.1754 Y-17.9774
G01 X-25.1731 Y-17.9920
G01 X-25.1722 Y-18.0067
G01 X-25.1727 Y-18.0214
G01 X-25.1766 Y-18.0449
G01 X-25.1803 Y-18.0573
G01 X-25.1850 Y-18.0693
G01 X-25.1964 Y-18.0903
G01 X-25.2039 Y-18.1008
G01 X-25.2122 Y-18.1106
G01 X-25.2299 Y-18.1268
G01 X-25.2674 Y-18.1534
G01 X-25.3216 Y-18.1957
G01 X-25.3737 Y-18.2406
G01 X-25.4235 Y-18.2880
G01 X-25.4709 Y-18.3378
G01 X-25.5158 Y-18.3899
G01 X-25.5581 Y-18.4441
G01 X-25.5977 Y-18.5003
G01 X-25.6344 Y-18.5584
G01 X-25.6683 Y-18.6182
G01 X-25.6992 Y-18.6796
G01 X-25.7271 Y-18.7425
G01 X-25.7518 Y-18.8066
G01 X-25.7734 Y-18.8719
G01 X-25.7918 Y-18.9382
G01 X-25.8068 Y-19.0052
G01 X-25.8186 Y-19.0730
G01 X-25.8270 Y-19.1412
G01 X-25.8320 Y-19.2098
G01 X-25.8337 Y-19.2785
G01 X-25.8320 Y-19.3472
G01 X-25.8270 Y-19.4158
G01 X-25.8186 Y-19.4840
G01 X-25.8068 Y-19.5518
G01 X-25.7918 Y-19.6188
G01 X-25.7734 Y-19.6851
G01 X-25.7518 Y-19.7504
G01 X-25.7271 Y-19.8145
G01 X-25.6992 Y-19.8774
G01 X-25.6683 Y-19.9388
G01 X-25.6344 Y-19.9986
G01 X-25.5977 Y-20.0567
G01 X-25.5581 Y-20.1129
G01 X-25.5158 Y-20.1671
G01 X-25.4709 Y-20.2192
G01 X-25.4235 Y-20.2690
G01 X-25.3737 Y-20.3164
G01 X-25.3216 Y-20.3613
G01 X-25.2674 Y-20.4036
G01 X-25.2328 Y-20.4280
G01 X-25.2201 Y-20.4386
G01 X-25.2098 Y-20.4491
G01 X-25.1995 Y-20.4621
G01 X-25.1916 Y-20.4746
G01 X-25.1850 Y-20.4877
G01 X-25.1803 Y-20.4997
G01 X-25.1766 Y-20.5121
G01 X-25.1740 Y-20.5247
G01 X-25.1725 Y-20.5375
G01 X-25.1722 Y-20.5503
G01 X-25.1729 Y-20.5632
G01 X-25.1747 Y-20.5760
G01 X-25.1776 Y-20.5885
G01 X-25.1815 Y-20.6008
G01 X-25.1865 Y-20.6126
G01 X-25.1925 Y-20.6240
G01 X-25.1995 Y-20.6349
G01 X-25.2074 Y-20.6451
G01 X-25.2161 Y-20.6546
G01 X-25.2256 Y-20.6633
G01 X-25.2358 Y-20.6711
G00 Z2.0000
G00 X-24.4330 Y-20.5929
G01 F70.00
G01 Z-0.0700
G01 F120.00
G01 X-24.4931 Y-20.5944
G01 X-24.5513 Y-20.5987
G01 X-24.6146 Y-20.6065
G01 X-24.6721 Y-20.6165
G01 X-24.7308 Y-20.6297
G01 X-24.7888 Y-20.6457
G01 X-24.8441 Y-20.6640
G01 X-24.9037 Y-20.6869
G01 X-24.9570 Y-20.7106
G01 X-25.0107 Y-20.7376
G01 X-25.0631 Y-20.7673
G01 X-25.1124 Y-20.7985
G01 X-25.1645 Y-20.8352
G01 X-25.2105 Y-20.8711
G01 X-25.2560 Y-20.9104
G01 X-25.2996 Y-20.9519
G01 X-25.3398 Y-20.9941
G01 X-25.3815 Y-21.0424
G01 X-25.4174 Y-21.0884
G01 X-25.4520 Y-21.1376
G01 X-25.4842 Y-21.1884
G01 X-25.5139 Y-21.2408
G01 X-25.5409 Y-21.2945
G01 X-25.5646 Y-21.3478
G01 X-25.5875 Y-21.4074
G01 X-25.6058 Y-21.4627
G01 X-25.6218 Y-21.5207
G01 X-25.6350 Y-21.5794
G01 X-25.6453 Y-21.6387
G01 X-25.6527 Y-21.6984
G01 X-25.6570 Y-21.7565
G01 X-25.6586 Y-21.8203
G01 X-25.6571 Y-21.8786
G01 X-25.6527 Y-21.9386
G01 X-25.6453 Y-21.9983
G01 X-25.6354 Y-22.0558
G01 X-25.6214 Y-22.1181
G01 X-25.6058 Y-22.1743
G01 X-25.5869 Y-22.2314
G01 X-25.5653 Y-22.2875
G01 X-25.5417 Y-22.3408
G01 X-25.5130 Y-22.3978
G01 X-25.4842 Y-22.4486
G01 X-25.4520 Y-22.4994
G01 X-25.4174 Y-22.5486
G01 X-25.3815 Y-22.5946
G01 X-25.3398 Y-22.6429
G01 X-25.2996 Y-22.6851
G01 X-25.2560 Y-22.7266
G01 X-25.2105 Y-22.7659
G01 X-25.1645 Y-22.8018
G01 X-25.1124 Y-22.8385
G01 X-25.0631 Y-22.8697
G01 X-25.0107 Y-22.8994
G01 X-24.9570 Y-22.9264
G01 X-24.9003 Y-22.9515
G01 X-24.8459 Y-22.9724
G01 X-24.7905 Y-22.9907
G01 X-24.7326 Y-23.0069
G01 X-24.6721 Y-23.0205
G01 X-24.6128 Y-23.0308
G01 X-24.5531 Y-23.0382
G01 X-24.4931 Y-23.0426
G01 X-24.4330 Y-23.0441
G01 X-22.1330 Y-23.0441
G01 X-22.0710 Y-23.0425
G01 X-22.0129 Y-23.0382
G01 X-21.9550 Y-23.0311
G01 X-21.8939 Y-23.0205
G01 X-21.8334 Y-23.0069
G01 X-21.7755 Y-22.9907
G01 X-21.7201 Y-22.9724
G01 X-21.6657 Y-22.9515
G01 X-21.6090 Y-22.9264
G01 X-21.5553 Y-22.8994
G01 X-21.5029 Y-22.8697
G01 X-21.4506 Y-22.8365
G01 X-21.4015 Y-22.8018
G01 X-21.3555 Y-22.7659
G01 X-21.3113 Y-22.7278
G01 X-21.2664 Y-22.6851
G01 X-21.2249 Y-22.6415
G01 X-21.1856 Y-22.5960
G01 X-21.1475 Y-22.5471
G01 X-21.1140 Y-22.4994
G01 X-21.0828 Y-22.4501
G01 X-21.0521 Y-22.3962
G01 X-21.0251 Y-22.3425
G01 X-21.0007 Y-22.2875
G01 X-20.9791 Y-22.2314
G01 X-20.9602 Y-22.1743
G01 X-20.9442 Y-22.1163
G01 X-20.9310 Y-22.0576
G01 X-20.9207 Y-21.9983
G01 X-20.9133 Y-21.9386
G01 X-20.9089 Y-21.8786
G01 X-20.9074 Y-21.8185
G01 X-20.9089 Y-21.7584
G01 X-20.9133 Y-21.6984
G01 X-20.9207 Y-21.6387
G01 X-20.9310 Y-21.5794
G01 X-20.9442 Y-21.5207
G01 X-20.9602 Y-21.4627
G01 X-20.9791 Y-21.4056
G01 X-21.0007 Y-21.3495
G01 X-21.0251 Y-21.2945
G01 X-21.0521 Y-21.2408
G01 X-21.0818 Y-21.1884
G01 X-21.1140 Y-21.1376
G01 X-21.1486 Y-21.0884
G01 X-21.1856 Y-21.0410
G01 X-21.2249 Y-20.9955
G01 X-21.2664 Y-20.9519
G01 X-21.3100 Y-20.9104
G01 X-21.3555 Y-20.8711
G01 X-21.4029 Y-20.8341
G01 X-21.4521 Y-20.7995
G01 X-21.5029 Y-20.7673
G01 X-21.5553 Y-20.7376
G01 X-21.6090 Y-20.7106
G01 X-21.6657 Y-20.6855
G01 X-21.7201 Y-20.6646
G01 X-21.7755 Y-20.6463
G01 X-21.8334 Y-20.6301
G01 X-21.8939 Y-20.6165
G01 X-21.9532 Y-20.6062
G01 X-22.0129 Y-20.5988
G01 X-22.0729 Y-20.5944
G01 X-22.1330 Y-20.5929
G01 X-24.4330 Y-20.5929
G00 Z2.0000
G00 X-21.8542 Y-20.5485
G01 F70.00
G01 Z-0.0700
G01 F120.00
G01 X-21.8170 Y-20.5401
G01 X-21.7572 Y-20.5236
G01 X-21.6931 Y-20.5024
G01 X-21.6353 Y-20.4801
G01 X-21.5803 Y-20.4557
G01 X-21.5183 Y-20.4246
G01 X-21.4644 Y-20.3940
G01 X-21.4135 Y-20.3619
G01 X-21.3582 Y-20.3231
G01 X-21.3079 Y-20.2839
G01 X-21.2623 Y-20.2446
G01 X-21.2121 Y-20.1968
G01 X-21.1693 Y-20.1519
G01 X-21.1300 Y-20.1064
G01 X-21.0884 Y-20.0533
G01 X-21.0496 Y-19.9980
G01 X-21.0175 Y-19.9471
G01 X-20.9860 Y-19.8916
G01 X-20.9558 Y-19.8312
G01 X-20.9314 Y-19.7762
G01 X-20.9085 Y-19.7167
G01 X-20.8884 Y-19.6560
G01 X-20.8723 Y-19.5981
G01 X-20.8567 Y-19.5286
G01 X-20.8465 Y-19.4693
G01 X-20.8387 Y-19.4060
G01 X-20.8340 Y-19.3423
G01 X-20.8324 Y-19.2785
G01 X-20.8340 Y-19.2147
G01 X-20.8387 Y-19.1510
G01 X-20.8465 Y-19.0877
G01 X-20.8574 Y-19.0248
G01 X-20.8714 Y-18.9625
G01 X-20.8884 Y-18.9010
G01 X-20.9085 Y-18.8403
G01 X-20.9314 Y-18.7808
G01 X-20.9573 Y-18.7224
G01 X-20.9860 Y-18.6654
G01 X-21.0175 Y-18.6099
G01 X-21.0506 Y-18.5575
G01 X-21.0884 Y-18.5037
G01 X-21.1276 Y-18.4534
G01 X-21.1693 Y-18.4051
G01 X-21.2134 Y-18.3589
G01 X-21.2596 Y-18.3148
G01 X-21.3079 Y-18.2731
G01 X-21.3582 Y-18.2339
G01 X-21.4089 Y-18.1981
G01 X-21.4644 Y-18.1630
G01 X-21.5199 Y-18.1315
G01 X-21.5769 Y-18.1028
G01 X-21.6336 Y-18.0776
G01 X-21.6948 Y-18.0540
G01 X-21.7537 Y-18.0345
G01 X-21.8152 Y-18.0174
G01 X-21.8542 Y-18.0085
G01 X-21.8170 Y-18.0001
G01 X-21.7572 Y-17.9836
G01 X-21.6966 Y-17.9637
G01 X-21.6353 Y-17.9401
G01 X-21.5753 Y-17.9134
G01 X-21.5167 Y-17.8837
G01 X-21.4644 Y-17.8540
G01 X-21.4135 Y-17.8219
G01 X-21.3582 Y-17.7831
G01 X-21.3065 Y-17.7427
G01 X-21.2569 Y-17.6997
G01 X-21.2134 Y-17.6581
G01 X-21.1718 Y-17.6146
G01 X-21.1276 Y-17.5636
G01 X-21.0884 Y-17.5133
G01 X-21.0496 Y-17.4580
G01 X-21.0175 Y-17.4071
G01 X-20.9878 Y-17.3548
G01 X-20.9573 Y-17.2946
G01 X-20.9307 Y-17.2345
G01 X-20.9073 Y-17.1732
G01 X-20.8884 Y-17.1160
G01 X-20.8723 Y-17.0581
G01 X-20.8574 Y-16.9922
G01 X-20.8465 Y-16.9293
G01 X-20.8387 Y-16.8660
G01 X-20.8339 Y-16.7986
G01 X-20.8324 Y-16.7385
G01 X-20.8339 Y-16.6784
G01 X-20.8387 Y-16.6110
G01 X-20.8471 Y-16.5440
G01 X-20.8574 Y-16.4848
G01 X-20.8706 Y-16.4261
G01 X-20.8884 Y-16.3610
G01 X-20.9085 Y-16.3003
G01 X-20.9314 Y-16.2408
G01 X-20.9589 Y-16.1791
G01 X-20.9860 Y-16.1254
G01 X-21.0156 Y-16.0731
G01 X-21.0516 Y-16.0159
G01 X-21.0884 Y-15.9637
G01 X-21.1300 Y-15.9106
G01 X-21.1718 Y-15.8624
G01 X-21.2134 Y-15.8189
G01 X-21.2569 Y-15.7773
G01 X-21.3079 Y-15.7331
G01 X-21.3582 Y-15.6939
G01 X-21.4104 Y-15.6571
G01 X-21.4644 Y-15.6230
G01 X-21.5199 Y-15.5915
G01 X-21.5803 Y-15.5613
G01 X-21.6387 Y-15.5356
G01 X-21.6948 Y-15.5140
G01 X-21.7520 Y-15.4950
G01 X-21.8170 Y-15.4769
G01 X-21.8793 Y-15.4629
G01 X-21.9422 Y-15.4520
G01 X-22.0074 Y-15.4440
G01 X-22.0692 Y-15.4395
G01 X-22.1330 Y-15.4379
G01 X-24.4330 Y-15.4379
G01 X-24.5005 Y-15.4397
G01 X-24.5605 Y-15.4442
G01 X-24.6202 Y-15.4515
G01 X-24.6867 Y-15.4629
G01 X-24.7526 Y-15.4778
G01 X-24.8105 Y-15.4939
G01 X-24.8677 Y-15.5128
G01 X-24.9307 Y-15.5369
G01 X-24.9924 Y-15.5644
G01 X-25.0461 Y-15.5915
G01 X-25.0984 Y-15.6211
G01 X-25.1556 Y-15.6571
G01 X-25.2107 Y-15.6961
G01 X-25.2581 Y-15.7331
G01 X-25.3064 Y-15.7748
G01 X-25.3552 Y-15.8215
G01 X-25.3967 Y-15.8651
G01 X-25.4384 Y-15.9134
G01 X-25.4798 Y-15.9667
G01 X-25.5144 Y-16.0159
G01 X-25.5485 Y-16.0699
G01 X-25.5817 Y-16.1287
G01 X-25.6087 Y-16.1824
G01 X-25.6346 Y-16.2408
G01 X-25.6575 Y-16.3003
G01 X-25.6765 Y-16.3575
G01 X-25.6946 Y-16.4225
G01 X-25.7086 Y-16.4848
G01 X-25.7189 Y-16.5440
G01 X-25.7273 Y-16.6110
G01 X-25.7321 Y-16.6784
G01 X-25.7336 Y-16.7385
G01 X-25.7320 Y-16.8023
G01 X-25.7269 Y-16.8696
G01 X-25.7195 Y-16.9293
G01 X-25.7089 Y-16.9904
G01 X-25.6937 Y-17.0581
G01 X-25.6776 Y-17.1160
G01 X-25.6575 Y-17.1767
G01 X-25.6331 Y-17.2396
G01 X-25.6087 Y-17.2946
G01 X-25.5800 Y-17.3516
G01 X-25.5485 Y-17.4071
G01 X-25.5164 Y-17.4580
G01 X-25.4776 Y-17.5133
G01 X-25.4360 Y-17.5664
G01 X-25.3967 Y-17.6119
G01 X-25.3539 Y-17.6568
G01 X-25.3037 Y-17.7046
G01 X-25.2581 Y-17.7439
G01 X-25.2078 Y-17.7831
G01 X-25.1525 Y-17.8219
G01 X-25.1016 Y-17.8540
G01 X-25.0477 Y-17.8846
G01 X-24.9857 Y-17.9157
G01 X-24.9307 Y-17.9401
G01 X-24.8729 Y-17.9624
G01 X-24.8088 Y-17.9836
G01 X-24.7490 Y-18.0001
G01 X-24.7118 Y-18.0085
G01 X-24.7508 Y-18.0174
G01 X-24.8123 Y-18.0345
G01 X-24.8712 Y-18.0540
G01 X-24.9324 Y-18.0776
G01 X-24.9891 Y-18.1028
G01 X-25.0461 Y-18.1315
G01 X-25.1016 Y-18.1630
G01 X-25.1540 Y-18.1961
G01 X-25.2078 Y-18.2339
G01 X-25.2581 Y-18.2731
G01 X-25.3064 Y-18.3148
G01 X-25.3500 Y-18.3563
G01 X-25.3991 Y-18.4078
G01 X-25.4384 Y-18.4534
G01 X-25.4787 Y-18.5052
G01 X-25.5144 Y-18.5559
G01 X-25.5485 Y-18.6099
G01 X-25.5800 Y-18.6654
G01 X-25.6071 Y-18.7191
G01 X-25.6359 Y-18.7842
G01 X-25.6575 Y-18.8403
G01 X-25.6786 Y-18.9045
G01 X-25.6946 Y-18.9625
G01 X-25.7086 Y-19.0248
G01 X-25.7195 Y-19.0877
G01 X-25.7273 Y-19.1510
G01 X-25.7320 Y-19.2147
G01 X-25.7336 Y-19.2785
G01 X-25.7320 Y-19.3423
G01 X-25.7275 Y-19.4041
G01 X-25.7189 Y-19.4730
G01 X-25.7086 Y-19.5322
G01 X-25.6946 Y-19.5945
G01 X-25.6776 Y-19.6560
G01 X-25.6587 Y-19.7132
G01 X-25.6331 Y-19.7796
G01 X-25.6087 Y-19.8346
G01 X-25.5800 Y-19.8916
G01 X-25.5485 Y-19.9471
G01 X-25.5164 Y-19.9980
G01 X-25.4754 Y-20.0562
G01 X-25.4384 Y-20.1036
G01 X-25.3979 Y-20.1505
G01 X-25.3500 Y-20.2007
G01 X-25.3064 Y-20.2422
G01 X-25.2581 Y-20.2839
G01 X-25.2078 Y-20.3231
G01 X-25.1586 Y-20.3578
G01 X-25.1000 Y-20.3950
G01 X-25.0461 Y-20.4255
G01 X-24.9924 Y-20.4526
G01 X-24.9290 Y-20.4808
G01 X-24.8712 Y-20.5030
G01 X-24.8123 Y-20.5225
G01 X-24.7508 Y-20.5396
G01 X-24.7118 Y-20.5485
G01 X-24.7490 Y-20.5569
G01 X-24.8088 Y-20.5734
G01 X-24.8694 Y-20.5933
G01 X-24.9307 Y-20.6169
G01 X-24.9907 Y-20.6436
G01 X-25.0493 Y-20.6733
G01 X-25.1016 Y-20.7030
G01 X-25.1525 Y-20.7351
G01 X-25.2078 Y-20.7739
G01 X-25.2595 Y-20.8143
G01 X-25.3091 Y-20.8573
G01 X-25.3526 Y-20.8989
G01 X-25.3942 Y-20.9424
G01 X-25.4384 Y-20.9934
G01 X-25.4776 Y-21.0437
G01 X-25.5164 Y-21.0990
G01 X-25.5485 Y-21.1499
G01 X-25.5782 Y-21.2022
G01 X-25.6087 Y-21.2624
G01 X-25.6353 Y-21.3225
G01 X-25.6587 Y-21.3838
G01 X-25.6776 Y-21.4410
G01 X-25.6937 Y-21.4989
G01 X-25.7086 Y-21.5648
G01 X-25.7195 Y-21.6277
G01 X-25.7273 Y-21.6910
G01 X-25.7321 Y-21.7584
G01 X-25.7336 Y-21.8185
G01 X-25.7321 Y-21.8786
G01 X-25.7273 Y-21.9460
G01 X-25.7189 Y-22.0130
G01 X-25.7086 Y-22.0722
G01 X-25.6954 Y-22.1309
G01 X-25.6776 Y-22.1960
G01 X-25.6575 Y-22.2567
G01 X-25.6346 Y-22.3162
G01 X-25.6071 Y-22.3779
G01 X-25.5800 Y-22.4316
G01 X-25.5504 Y-22.4839
G01 X-25.5144 Y-22.5411
G01 X-25.4776 Y-22.5933
G01 X-25.4360 Y-22.6464
G01 X-25.3967 Y-22.6919
G01 X-25.3552 Y-22.7355
G01 X-25.3091 Y-22.7797
G01 X-25.2581 Y-22.8239
G01 X-25.2078 Y-22.8631
G01 X-25.1556 Y-22.8999
G01 X-25.1016 Y-22.9340
G01 X-25.0461 Y-22.9655
G01 X-24.9891 Y-22.9942
G01 X-24.9307 Y-23.0201
G01 X-24.8677 Y-23.0442
G01 X-24.8070 Y-23.0641
G01 X-24.7490 Y-23.0801
G01 X-24.6903 Y-23.0933
G01 X-24.6238 Y-23.1050
G01 X-24.5623 Y-23.1126
G01 X-24.4968 Y-23.1175
G01 X-24.4330 Y-23.1191
G01 X-22.1330 Y-23.1191
G01 X-22.0692 Y-23.1175
G01 X-22.0055 Y-23.1128
G01 X-21.9385 Y-23.1044
G01 X-21.8793 Y-23.0941
G01 X-21.8206 Y-23.0809
G01 X-21.7590 Y-23.0641
G01 X-21.6948 Y-23.0430
G01 X-21.6353 Y-23.0201
G01 X-21.5769 Y-22.9942
G01 X-21.5183 Y-22.9646
G01 X-21.4644 Y-22.9340
G01 X-21.4135 Y-22.9019
G01 X-21.3582 Y-22.8631
G01 X-21.3079 Y-22.8239
G01 X-21.2623 Y-22.7846
G01 X-21.2108 Y-22.7355
G01 X-21.1693 Y-22.6919
G01 X-21.1300 Y-22.6464
G01 X-21.0862 Y-22.5903
G01 X-21.0516 Y-22.5411
G01 X-21.0175 Y-22.4871
G01 X-20.9860 Y-22.4316
G01 X-20.9589 Y-22.3779
G01 X-20.9301 Y-22.3128
G01 X-20.9085 Y-22.2567
G01 X-20.8884 Y-22.1960
G01 X-20.8706 Y-22.1309
G01 X-20.8574 Y-22.0722
G01 X-20.8465 Y-22.0093
G01 X-20.8384 Y-21.9423
G01 X-20.8340 Y-21.8823
G01 X-20.8324 Y-21.8185
G01 X-20.8342 Y-21.7510
G01 X-20.8387 Y-21.6910
G01 X-20.8462 Y-21.6295
G01 X-20.8582 Y-21.5612
G01 X-20.8714 Y-21.5025
G01 X-20.8884 Y-21.4410
G01 X-20.9085 Y-21.3803
G01 X-20.9301 Y-21.3242
G01 X-20.9573 Y-21.2624
G01 X-20.9860 Y-21.2054
G01 X-21.0156 Y-21.1531
G01 X-21.0516 Y-21.0959
G01 X-21.0884 Y-21.0437
G01 X-21.1253 Y-20.9963
G01 X-21.1706 Y-20.9437
G01 X-21.2134 Y-20.8989
G01 X-21.2569 Y-20.8573
G01 X-21.3079 Y-20.8131
G01 X-21.3582 Y-20.7739
G01 X-21.4074 Y-20.7392
G01 X-21.4660 Y-20.7020
G01 X-21.5199 Y-20.6715
G01 X-21.5736 Y-20.6444
G01 X-21.6370 Y-20.6162
G01 X-21.6948 Y-20.5940
G01 X-21.7537 Y-20.5745
G01 X-21.8152 Y-20.5574
G01 X-21.8542 Y-20.5485
G00 Z2.0000
G00 X-21.4569 Y-20.6210
G01 F70.00
G01 Z-0.0700
G01 F120.00
G01 X-21.4621 Y-20.6032
G01 X-21.4660 Y-20.5842
G01 X-21.4680 Y-20.5678
G01 X-21.4689 Y-20.5485
G01 X-21.4682 Y-20.5319
G01 X-21.4660 Y-20.5128
G01 X-21.4621 Y-20.4938
G01 X-21.4569 Y-20.4760
G01 X-21.4870 Y-20.4929
G01 X-21.5424 Y-20.5208
G01 X-21.6045 Y-20.5485
G01 X-21.5424 Y-20.5762
G01 X-21.4870 Y-20.6041
G01 X-21.4569 Y-20.6210
G00 Z2.0000
G00 X-21.4569 Y-18.0810
G01 F70.00
G01 Z-0.0700
G01 F120.00
G01 X-21.4621 Y-18.0632
G01 X-21.4660 Y-18.0442
G01 X-21.4680 Y-18.0278
G01 X-21.4689 Y-18.0085
G01 X-21.4682 Y-17.9919
G01 X-21.4660 Y-17.9728
G01 X-21.4621 Y-17.9538
G01 X-21.4569 Y-17.9360
G01 X-21.4870 Y-17.9529
G01 X-21.5424 Y-17.9808
G01 X-21.6045 Y-18.0085
G01 X-21.5424 Y-18.0362
G01 X-21.4870 Y-18.0641
G01 X-21.4569 Y-18.0810
G00 Z2.0000
G00 X-23.4589 Y-25.6870
G01 F70.00
G01 Z-0.0700
G01 F120.00
G01 X-23.4730 Y-25.6923
G01 X-23.4873 Y-25.6960
G01 X-23.5036 Y-25.6986
G01 X-23.5183 Y-25.6993
G01 X-25.5372 Y-25.6993
G01 X-25.5372 Y-27.7993
G01 X-23.5132 Y-27.7994
G01 X-23.4949 Y-27.8012
G01 X-23.4770 Y-27.8052
G01 X-23.4061 Y-27.8321
G01 X-23.3525 Y-27.8498
G01 X-23.2981 Y-27.8649
G01 X-23.2430 Y-27.8773
G01 X-23.1874 Y-27.8869
G01 X-23.1314 Y-27.8938
G01 X-23.0751 Y-27.8980
G01 X-23.0187 Y-27.8994
G01 X-22.9623 Y-27.8980
G01 X-22.9060 Y-27.8938
G01 X-22.8500 Y-27.8869
G01 X-22.7944 Y-27.8773
G01 X-22.7393 Y-27.8649
G01 X-22.6849 Y-27.8498
G01 X-22.6313 Y-27.8321
G01 X-22.5786 Y-27.8118
G01 X-22.5270 Y-27.7889
G01 X-22.4766 Y-27.7636
G01 X-22.4275 Y-27.7357
G01 X-22.3798 Y-27.7056
G01 X-22.3337 Y-27.6731
G01 X-22.2892 Y-27.6383
G01 X-22.2464 Y-27.6015
G01 X-22.2056 Y-27.5625
G01 X-22.1666 Y-27.5217
G01 X-22.1298 Y-27.4789
G01 X-22.0950 Y-27.4344
G01 X-22.0625 Y-27.3883
G01 X-22.0324 Y-27.3406
G01 X-22.0045 Y-27.2915
G01 X-21.9792 Y-27.2411
G01 X-21.9563 Y-27.1895
G01 X-21.9360 Y-27.1368
G01 X-21.9183 Y-27.0832
G01 X-21.9032 Y-27.0288
G01 X-21.8908 Y-26.9737
G01 X-21.8812 Y-26.9181
G01 X-21.8743 Y-26.8621
G01 X-21.8701 Y-26.8058
G01 X-21.8687 Y-26.7494
G01 X-21.8701 Y-26.6930
G01 X-21.8743 Y-26.6367
G01 X-21.8812 Y-26.5807
G01 X-21.8908 Y-26.5251
G01 X-21.9032 Y-26.4700
G01 X-21.9183 Y-26.4156
G01 X-21.9360 Y-26.3620
G01 X-21.9563 Y-26.3093
G01 X-21.9792 Y-26.2577
G01 X-22.0045 Y-26.2073
G01 X-22.0324 Y-26.1582
G01 X-22.0625 Y-26.1105
G01 X-22.0950 Y-26.0644
G01 X-22.1298 Y-26.0199
G01 X-22.1666 Y-25.9771
G01 X-22.2056 Y-25.9363
G01 X-22.2464 Y-25.8973
G01 X-22.2892 Y-25.8605
G01 X-22.3337 Y-25.8257
G01 X-22.3798 Y-25.7932
G01 X-22.4275 Y-25.7631
G01 X-22.4766 Y-25.7352
G01 X-22.5270 Y-25.7099
G01 X-22.5786 Y-25.6870
G01 X-22.6313 Y-25.6667
G01 X-22.6849 Y-25.6490
G01 X-22.7393 Y-25.6339
G01 X-22.7944 Y-25.6215
G01 X-22.8500 Y-25.6119
G01 X-22.9060 Y-25.6050
G01 X-22.9623 Y-25.6008
G01 X-23.0187 Y-25.5994
G01 X-23.0751 Y-25.6008
G01 X-23.1314 Y-25.6050
G01 X-23.1874 Y-25.6119
G01 X-23.2430 Y-25.6215
G01 X-23.2981 Y-25.6339
G01 X-23.3525 Y-25.6490
G01 X-23.4061 Y-25.6667
G01 X-23.4589 Y-25.6870
G00 Z2.0000
G00 X-23.6122 Y-27.5226
G01 F70.00
G01 Z-0.0700
G01 F120.00
G01 X-23.5988 Y-27.5331
G01 X-23.5596 Y-27.5606
G01 X-23.5200 Y-27.5857
G01 X-23.4775 Y-27.6097
G01 X-23.4356 Y-27.6308
G01 X-23.3918 Y-27.6502
G01 X-23.3472 Y-27.6674
G01 X-23.3008 Y-27.6827
G01 X-23.2556 Y-27.6952
G01 X-23.2089 Y-27.7057
G01 X-23.1618 Y-27.7138
G01 X-23.1143 Y-27.7197
G01 X-23.0665 Y-27.7232
G01 X-23.0187 Y-27.7244
G01 X-22.9709 Y-27.7232
G01 X-22.9222 Y-27.7196
G01 X-22.8756 Y-27.7138
G01 X-22.8285 Y-27.7057
G01 X-22.7818 Y-27.6952
G01 X-22.7357 Y-27.6824
G01 X-22.6902 Y-27.6674
G01 X-22.6456 Y-27.6502
G01 X-22.6018 Y-27.6308
G01 X-22.5591 Y-27.6093
G01 X-22.5174 Y-27.5857
G01 X-22.4770 Y-27.5601
G01 X-22.4379 Y-27.5325
G01 X-22.4002 Y-27.5031
G01 X-22.3639 Y-27.4718
G01 X-22.3293 Y-27.4388
G01 X-22.2963 Y-27.4042
G01 X-22.2656 Y-27.3686
G01 X-22.2356 Y-27.3302
G01 X-22.2080 Y-27.2911
G01 X-22.1824 Y-27.2507
G01 X-22.1588 Y-27.2090
G01 X-22.1373 Y-27.1663
G01 X-22.1179 Y-27.1225
G01 X-22.1007 Y-27.0779
G01 X-22.0862 Y-27.0342
G01 X-22.0729 Y-26.9863
G01 X-22.0628 Y-26.9414
G01 X-22.0540 Y-26.8906
G01 X-22.0484 Y-26.8450
G01 X-22.0449 Y-26.7972
G01 X-22.0437 Y-26.7494
G01 X-22.0450 Y-26.6997
G01 X-22.0484 Y-26.6538
G01 X-22.0543 Y-26.6063
G01 X-22.0624 Y-26.5592
G01 X-22.0729 Y-26.5125
G01 X-22.0857 Y-26.4664
G01 X-22.1007 Y-26.4209
G01 X-22.1179 Y-26.3763
G01 X-22.1373 Y-26.3325
G01 X-22.1588 Y-26.2898
G01 X-22.1824 Y-26.2481
G01 X-22.2080 Y-26.2077
G01 X-22.2356 Y-26.1686
G01 X-22.2650 Y-26.1309
G01 X-22.2963 Y-26.0946
G01 X-22.3293 Y-26.0600
G01 X-22.3633 Y-26.0276
G01 X-22.4002 Y-25.9957
G01 X-22.4364 Y-25.9674
G01 X-22.4786 Y-25.9377
G01 X-22.5174 Y-25.9131
G01 X-22.5591 Y-25.8895
G01 X-22.6018 Y-25.8680
G01 X-22.6456 Y-25.8486
G01 X-22.6902 Y-25.8314
G01 X-22.7357 Y-25.8164
G01 X-22.7818 Y-25.8036
G01 X-22.8267 Y-25.7935
G01 X-22.8775 Y-25.7847
G01 X-22.9231 Y-25.7791
G01 X-22.9709 Y-25.7756
G01 X-23.0187 Y-25.7744
G01 X-23.0665 Y-25.7756
G01 X-23.1143 Y-25.7791
G01 X-23.1599 Y-25.7847
G01 X-23.2107 Y-25.7935
G01 X-23.2556 Y-25.8036
G01 X-23.3026 Y-25.8167
G01 X-23.3472 Y-25.8314
G01 X-23.3918 Y-25.8486
G01 X-23.4356 Y-25.8680
G01 X-23.4775 Y-25.8891
G01 X-23.5200 Y-25.9131
G01 X-23.5596 Y-25.9382
G01 X-23.5988 Y-25.9657
G01 X-23.6122 Y-25.9762
G01 X-23.6123 Y-25.9465
G01 X-23.6136 Y-25.9347
G01 X-23.6183 Y-25.9198
G01 X-23.6259 Y-25.9061
G01 X-23.6316 Y-25.8989
G01 X-23.6375 Y-25.8931
G01 X-23.6510 Y-25.8836
G01 X-23.6663 Y-25.8773
G01 X-23.6753 Y-25.8753
G01 X-23.6835 Y-25.8744
G01 X-25.2881 Y-25.8743
G01 X-25.3036 Y-25.8761
G01 X-25.3176 Y-25.8807
G01 X-25.3311 Y-25.8885
G01 X-25.3421 Y-25.8983
G01 X-25.3506 Y-25.9092
G01 X-25.3568 Y-25.9215
G01 X-25.3608 Y-25.9347
G01 X-25.3622 Y-25.9484
G01 X-25.3622 Y-27.5493
G01 X-25.3606 Y-27.5648
G01 X-25.3558 Y-27.5797
G01 X-25.3480 Y-27.5932
G01 X-25.3382 Y-27.6042
G01 X-25.3273 Y-27.6127
G01 X-25.3150 Y-27.6189
G01 X-25.3018 Y-27.6229
G01 X-25.2881 Y-27.6243
G01 X-23.6835 Y-27.6242
G01 X-23.6672 Y-27.6216
G01 X-23.6594 Y-27.6189
G01 X-23.6510 Y-27.6150
G01 X-23.6440 Y-27.6106
G01 X-23.6368 Y-27.6049
G01 X-23.6259 Y-27.5925
G01 X-23.6183 Y-27.5788
G01 X-23.6136 Y-27.5639
G01 X-23.6123 Y-27.5521
G01 X-23.6122 Y-27.5226
G00 Z2.0000
G00 X-23.5699 Y-27.6428
G01 F70.00
G01 Z-0.0700
G01 F120.00
G01 X-23.5569 Y-27.6510
G01 X-23.5120 Y-27.6763
G01 X-23.4676 Y-27.6986
G01 X-23.4188 Y-27.7202
G01 X-23.3724 Y-27.7380
G01 X-23.3235 Y-27.7542
G01 X-23.2738 Y-27.7679
G01 X-23.2235 Y-27.7792
G01 X-23.1728 Y-27.7880
G01 X-23.1216 Y-27.7943
G01 X-23.0702 Y-27.7981
G01 X-23.0224 Y-27.7994
G01 X-22.9635 Y-27.7979
G01 X-22.9158 Y-27.7943
G01 X-22.8610 Y-27.7875
G01 X-22.8139 Y-27.7792
G01 X-22.7636 Y-27.7679
G01 X-22.7139 Y-27.7542
G01 X-22.6650 Y-27.7380
G01 X-22.6169 Y-27.7195
G01 X-22.5698 Y-27.6986
G01 X-22.5237 Y-27.6754
G01 X-22.4821 Y-27.6519
G01 X-22.4323 Y-27.6204
G01 X-22.3932 Y-27.5928
G01 X-22.3498 Y-27.5587
G01 X-22.3136 Y-27.5274
G01 X-22.2762 Y-27.4919
G01 X-22.2407 Y-27.4545
G01 X-22.2047 Y-27.4126
G01 X-22.1753 Y-27.3749
G01 X-22.1457 Y-27.3327
G01 X-22.1181 Y-27.2892
G01 X-22.0927 Y-27.2444
G01 X-22.0695 Y-27.1983
G01 X-22.0486 Y-27.1512
G01 X-22.0301 Y-27.1031
G01 X-22.0150 Y-27.0577
G01 X-21.9993 Y-27.0009
G01 X-21.9889 Y-26.9542
G01 X-21.9796 Y-26.8998
G01 X-21.9738 Y-26.8523
G01 X-21.9700 Y-26.8009
G01 X-21.9687 Y-26.7494
G01 X-21.9700 Y-26.6979
G01 X-21.9738 Y-26.6465
G01 X-21.9801 Y-26.5953
G01 X-21.9889 Y-26.5446
G01 X-22.0002 Y-26.4943
G01 X-22.0139 Y-26.4446
G01 X-22.0301 Y-26.3957
G01 X-22.0486 Y-26.3476
G01 X-22.0680 Y-26.3038
G01 X-22.0927 Y-26.2544
G01 X-22.1162 Y-26.2128
G01 X-22.1477 Y-26.1630
G01 X-22.1753 Y-26.1239
G01 X-22.2070 Y-26.0833
G01 X-22.2407 Y-26.0443
G01 X-22.2775 Y-26.0056
G01 X-22.3136 Y-25.9714
G01 X-22.3526 Y-25.9377
G01 X-22.3932 Y-25.9060
G01 X-22.4354 Y-25.8764
G01 X-22.4789 Y-25.8488
G01 X-22.5237 Y-25.8234
G01 X-22.5698 Y-25.8002
G01 X-22.6135 Y-25.7808
G01 X-22.6650 Y-25.7608
G01 X-22.7104 Y-25.7457
G01 X-22.7672 Y-25.7300
G01 X-22.8139 Y-25.7196
G01 X-22.8646 Y-25.7108
G01 X-22.9158 Y-25.7045
G01 X-22.9672 Y-25.7007
G01 X-23.0187 Y-25.6994
G01 X-23.0665 Y-25.7005
G01 X-23.1216 Y-25.7045
G01 X-23.1728 Y-25.7108
G01 X-23.2199 Y-25.7189
G01 X-23.2756 Y-25.7313
G01 X-23.3235 Y-25.7446
G01 X-23.3690 Y-25.7596
G01 X-23.4222 Y-25.7800
G01 X-23.4676 Y-25.8002
G01 X-23.5120 Y-25.8225
G01 X-23.5569 Y-25.8478
G01 X-23.5698 Y-25.8559
G01 X-23.5811 Y-25.8432
G01 X-23.5935 Y-25.8322
G01 X-23.6070 Y-25.8226
G01 X-23.6214 Y-25.8145
G01 X-23.6367 Y-25.8081
G01 X-23.6525 Y-25.8034
G01 X-23.6688 Y-25.8004
G01 X-23.6854 Y-25.7993
G01 X-25.2909 Y-25.7993
G01 X-25.3056 Y-25.8004
G01 X-25.3201 Y-25.8029
G01 X-25.3343 Y-25.8069
G01 X-25.3480 Y-25.8122
G01 X-25.3595 Y-25.8179
G01 X-25.3721 Y-25.8256
G01 X-25.3838 Y-25.8345
G01 X-25.3946 Y-25.8445
G01 X-25.4032 Y-25.8541
G01 X-25.4119 Y-25.8660
G01 X-25.4195 Y-25.8786
G01 X-25.4251 Y-25.8902
G01 X-25.4302 Y-25.9040
G01 X-25.4339 Y-25.9182
G01 X-25.4363 Y-25.9328
G01 X-25.4372 Y-25.9456
G01 X-25.4372 Y-27.5493
G01 X-25.4365 Y-27.5640
G01 X-25.4343 Y-27.5786
G01 X-25.4307 Y-27.5928
G01 X-25.4258 Y-27.6067
G01 X-25.4195 Y-27.6200
G01 X-25.4119 Y-27.6326
G01 X-25.4032 Y-27.6445
G01 X-25.3920 Y-27.6567
G01 X-25.3809 Y-27.6664
G01 X-25.3690 Y-27.6750
G01 X-25.3579 Y-27.6816
G01 X-25.3446 Y-27.6879
G01 X-25.3307 Y-27.6928
G01 X-25.3183 Y-27.6960
G01 X-25.3037 Y-27.6984
G01 X-25.2909 Y-27.6993
G01 X-23.6854 Y-27.6993
G01 X-23.6688 Y-27.6982
G01 X-23.6525 Y-27.6952
G01 X-23.6367 Y-27.6905
G01 X-23.6214 Y-27.6841
G01 X-23.6070 Y-27.6760
G01 X-23.5935 Y-27.6664
G01 X-23.5811 Y-27.6554
G01 X-23.5699 Y-27.6428
G00 Z2.0000
G00 X-23.4884 Y-27.8807
G01 F70.00
G01 Z-0.0700
G01 F120.00
G01 X-23.4314 Y-27.9028
G01 X-23.3743 Y-27.9216
G01 X-23.3163 Y-27.9377
G01 X-23.2577 Y-27.9508
G01 X-23.1984 Y-27.9611
G01 X-23.1388 Y-27.9685
G01 X-23.0788 Y-27.9729
G01 X-23.0187 Y-27.9744
G01 X-22.9586 Y-27.9729
G01 X-22.8986 Y-27.9685
G01 X-22.8390 Y-27.9611
G01 X-22.7797 Y-27.9508
G01 X-22.7211 Y-27.9377
G01 X-22.6631 Y-27.9216
G01 X-22.6060 Y-27.9028
G01 X-22.5499 Y-27.8811
G01 X-22.4950 Y-27.8568
G01 X-22.4412 Y-27.8297
G01 X-22.3889 Y-27.8001
G01 X-22.3381 Y-27.7679
G01 X-22.2890 Y-27.7333
G01 X-22.2416 Y-27.6963
G01 X-22.1961 Y-27.6570
G01 X-22.1525 Y-27.6156
G01 X-22.1111 Y-27.5720
G01 X-22.0718 Y-27.5265
G01 X-22.0348 Y-27.4791
G01 X-22.0002 Y-27.4300
G01 X-21.9680 Y-27.3792
G01 X-21.9384 Y-27.3269
G01 X-21.9113 Y-27.2731
G01 X-21.8870 Y-27.2182
G01 X-21.8653 Y-27.1621
G01 X-21.8465 Y-27.1050
G01 X-21.8304 Y-27.0470
G01 X-21.8173 Y-26.9884
G01 X-21.8070 Y-26.9291
G01 X-21.7996 Y-26.8695
G01 X-21.7952 Y-26.8095
G01 X-21.7937 Y-26.7494
G01 X-21.7952 Y-26.6893
G01 X-21.7996 Y-26.6293
G01 X-21.8070 Y-26.5697
G01 X-21.8173 Y-26.5104
G01 X-21.8304 Y-26.4518
G01 X-21.8465 Y-26.3938
G01 X-21.8653 Y-26.3367
G01 X-21.8870 Y-26.2806
G01 X-21.9113 Y-26.2257
G01 X-21.9384 Y-26.1719
G01 X-21.9680 Y-26.1196
G01 X-22.0002 Y-26.0688
G01 X-22.0348 Y-26.0197
G01 X-22.0718 Y-25.9723
G01 X-22.1111 Y-25.9268
G01 X-22.1525 Y-25.8832
G01 X-22.1961 Y-25.8418
G01 X-22.2416 Y-25.8025
G01 X-22.2890 Y-25.7655
G01 X-22.3381 Y-25.7309
G01 X-22.3889 Y-25.6987
G01 X-22.4412 Y-25.6691
G01 X-22.4950 Y-25.6420
G01 X-22.5499 Y-25.6177
G01 X-22.6060 Y-25.5960
G01 X-22.6631 Y-25.5772
G01 X-22.7211 Y-25.5611
G01 X-22.7797 Y-25.5480
G01 X-22.8390 Y-25.5377
G01 X-22.8986 Y-25.5303
G01 X-22.9586 Y-25.5259
G01 X-23.0187 Y-25.5244
G01 X-23.0788 Y-25.5259
G01 X-23.1388 Y-25.5303
G01 X-23.1984 Y-25.5377
G01 X-23.2577 Y-25.5480
G01 X-23.3163 Y-25.5611
G01 X-23.3743 Y-25.5772
G01 X-23.4314 Y-25.5960
G01 X-23.4957 Y-25.6208
G01 X-23.5055 Y-25.6232
G01 X-23.5156 Y-25.6242
G01 X-25.6122 Y-25.6243
G01 X-25.6122 Y-27.8743
G01 X-23.5188 Y-27.8743
G01 X-23.5032 Y-27.8759
G01 X-23.4884 Y-27.8807
G00 Z2.0000
G00 X-23.5916 Y-28.7036
G01 F70.00
G01 Z-0.0700
G01 F120.00
G01 X-23.5916 Y-28.6700
G01 X-23.6252 Y-28.6700
G01 X-23.6075 Y-28.6859
G01 X-23.5916 Y-28.7036
G00 Z2.0000
G00 X-25.5080 Y-28.6700
G01 F70.00
G01 Z-0.0700
G01 F120.00
G01 X-25.5430 Y-28.6700
G01 X-25.5477 Y-28.6970
G01 X-25.5554 Y-28.7227
G01 X-25.5457 Y-28.7088
G01 X-25.5333 Y-28.6939
G01 X-25.5217 Y-28.6820
G01 X-25.5080 Y-28.6700
G00 Z2.0000
G00 X-26.3080 Y-28.8200
G01 F70.00
G01 Z-0.0700
G01 F120.00
G01 X-26.3217 Y-28.8080
G01 X-26.3333 Y-28.7961
G01 X-26.3457 Y-28.7812
G01 X-26.3554 Y-28.7673
G01 X-26.3477 Y-28.7930
G01 X-26.3430 Y-28.8200
G01 X-26.3080 Y-28.8200
G00 Z2.0000
G00 X-26.3778 Y-28.7227
G01 F70.00
G01 Z-0.0700
G01 F120.00
G01 X-26.3855 Y-28.6970
G01 X-26.3902 Y-28.6700
G01 X-26.4252 Y-28.6700
G01 X-26.4115 Y-28.6820
G01 X-26.3999 Y-28.6939
G01 X-26.3875 Y-28.7088
G01 X-26.3778 Y-28.7227
G00 Z2.0000
G00 X-26.5947 Y-28.6200
G01 F70.00
G01 Z-0.0700
G01 F120.00
G01 X-26.6141 Y-28.6024
G01 X-26.6298 Y-28.5846
G01 X-26.6301 Y-28.6200
G01 X-26.5947 Y-28.6200
G00 Z2.0000
G00 X-26.6227 Y-27.8065
G01 F70.00
G01 Z-0.0700
G01 F120.00
G01 X-26.6081 Y-27.7905
G01 X-26.5902 Y-27.7743
G01 X-26.6224 Y-27.7743
G01 X-26.6227 Y-27.8065
G00 Z2.0000
G00 X-26.3458 Y-27.7243
G01 F70.00
G01 Z-0.0700
G01 F120.00
G01 X-26.3122 Y-27.7243
G01 X-26.3122 Y-27.6907
G01 X-26.3281 Y-27.7084
G01 X-26.3458 Y-27.7243
G00 Z2.0000
G00 X-25.4622 Y-27.6907
G01 F70.00
G01 Z-0.0700
G01 F120.00
G01 X-25.4622 Y-27.7243
G01 X-25.4286 Y-27.7243
G01 X-25.4463 Y-27.7084
G01 X-25.4622 Y-27.6907
G00 Z2.0000
G00 X-25.4286 Y-25.7743
G01 F70.00
G01 Z-0.0700
G01 F120.00
G01 X-25.4622 Y-25.7743
G01 X-25.4622 Y-25.8079
G01 X-25.4463 Y-25.7902
G01 X-25.4286 Y-25.7743
G00 Z2.0000
G00 X-26.3122 Y-25.8079
G01 F70.00
G01 Z-0.0700
G01 F120.00
G01 X-26.3122 Y-25.7743
G01 X-26.3458 Y-25.7743
G01 X-26.3281 Y-25.7902
G01 X-26.3122 Y-25.8079
G00 Z2.0000
G00 X-28.2286 Y-25.7743
G01 F70.00
G01 Z-0.0700
G01 F120.00
G01 X-28.2622 Y-25.7743
G01 X-28.2622 Y-25.8079
G01 X-28.2463 Y-25.7902
G01 X-28.2286 Y-25.7743
G00 Z2.0000
G00 X-28.2622 Y-27.6907
G01 F70.00
G01 Z-0.0700
G01 F120.00
G01 X-28.2622 Y-27.7243
G01 X-28.2415 Y-27.7245
G01 X-28.2272 Y-27.7254
G01 X-28.2463 Y-27.7084
G01 X-28.2622 Y-27.6907
G00 Z2.0000
G00 X-28.1097 Y-27.7732
G01 F70.00
G01 Z-0.0700
G01 F120.00
G01 X-28.0909 Y-27.7900
G01 X-28.0733 Y-27.8097
G01 X-28.0729 Y-27.7743
G01 X-28.0955 Y-27.7741
G01 X-28.1097 Y-27.7732
G00 Z2.0000
G00 X-28.0804 Y-28.5878
G01 F70.00
G01 Z-0.0700
G01 F120.00
G01 X-28.0949 Y-28.6038
G01 X-28.1129 Y-28.6200
G01 X-28.0807 Y-28.6200
G01 X-28.0804 Y-28.5878
G00 Z2.0000
G00 X-28.3080 Y-28.6700
G01 F70.00
G01 Z-0.0700
G01 F120.00
G01 X-28.3416 Y-28.6700
G01 X-28.3416 Y-28.7036
G01 X-28.3257 Y-28.6859
G01 X-28.3080 Y-28.6700
G00 Z2.0000
G00 X-28.3916 Y-29.6390
G01 F70.00
G01 Z-0.0700
G01 F120.00
G01 X-28.4075 Y-29.6566
G01 X-28.4254 Y-29.6727
G01 X-28.3916 Y-29.6727
G01 X-28.3916 Y-29.6390
G00 Z2.0000
G00 X-29.1263 Y-29.2894
G01 F70.00
G01 Z-0.0700
G01 F120.00
G01 X-29.1422 Y-29.3071
G01 X-29.1607 Y-29.3237
G01 X-29.1809 Y-29.3381
G01 X-29.2001 Y-29.3490
G01 X-29.2203 Y-29.3579
G01 X-29.2440 Y-29.3656
G01 X-29.2656 Y-29.3701
G01 X-29.2903 Y-29.3727
G01 X-30.7013 Y-29.3730
G01 X-30.7261 Y-29.3716
G01 X-30.7506 Y-29.3675
G01 X-30.7745 Y-29.3608
G01 X-30.7975 Y-29.3514
G01 X-30.8193 Y-29.3396
G01 X-30.8397 Y-29.3254
G01 X-30.8584 Y-29.3090
G01 X-30.8763 Y-29.2894
G01 X-30.8763 Y-29.6066
G01 X-30.8604 Y-29.5889
G01 X-30.8419 Y-29.5723
G01 X-30.8240 Y-29.5594
G01 X-30.8025 Y-29.5470
G01 X-30.7823 Y-29.5381
G01 X-30.7586 Y-29.5304
G01 X-30.7370 Y-29.5259
G01 X-30.7123 Y-29.5233
G01 X-29.2930 Y-29.5232
G01 X-29.2656 Y-29.5259
G01 X-29.2386 Y-29.5319
G01 X-29.2255 Y-29.5362
G01 X-29.2101 Y-29.5423
G01 X-29.1856 Y-29.5550
G01 X-29.1695 Y-29.5656
G01 X-29.1543 Y-29.5776
G01 X-29.1403 Y-29.5909
G01 X-29.1274 Y-29.6053
G01 X-29.1158 Y-29.6207
G01 X-29.1055 Y-29.6371
G01 X-29.0967 Y-29.6543
G01 X-29.0893 Y-29.6727
G01 X-29.0425 Y-29.6727
G01 X-29.0564 Y-29.6605
G01 X-29.0699 Y-29.6466
G01 X-29.0820 Y-29.6316
G01 X-29.0929 Y-29.6156
G01 X-29.1010 Y-29.6012
G01 X-29.1092 Y-29.5837
G01 X-29.1158 Y-29.5655
G01 X-29.1208 Y-29.5468
G01 X-29.1246 Y-29.5251
G01 X-29.1262 Y-29.5031
G01 X-29.1263 Y-29.2894
G00 Z2.0000
G00 X-29.2013 Y-29.4308
G01 F70.00
G01 Z-0.0700
G01 F120.00
G01 X-29.2248 Y-29.4381
G01 X-29.2500 Y-29.4436
G01 X-29.2756 Y-29.4469
G01 X-29.3013 Y-29.4480
G01 X-30.7050 Y-29.4480
G01 X-30.7270 Y-29.4469
G01 X-30.7526 Y-29.4436
G01 X-30.7778 Y-29.4381
G01 X-30.8013 Y-29.4308
G01 X-30.8013 Y-29.4652
G01 X-30.7778 Y-29.4579
G01 X-30.7526 Y-29.4524
G01 X-30.7270 Y-29.4491
G01 X-30.7050 Y-29.4480
G01 X-29.3013 Y-29.4480
G01 X-29.2756 Y-29.4491
G01 X-29.2500 Y-29.4524
G01 X-29.2248 Y-29.4579
G01 X-29.2013 Y-29.4652
G01 X-29.2013 Y-29.4308
G00 Z2.0000
G00 X-29.1599 Y-27.6730
G01 F70.00
G01 Z-0.0700
G01 F120.00
G01 X-29.1422 Y-27.6889
G01 X-29.1263 Y-27.7066
G01 X-29.1263 Y-27.6730
G01 X-29.1599 Y-27.6730
G00 Z2.0000
G00 X-30.8763 Y-27.7066
G01 F70.00
G01 Z-0.0700
G01 F120.00
G01 X-30.8604 Y-27.6889
G01 X-30.8427 Y-27.6730
G01 X-30.8763 Y-27.6730
G01 X-30.8763 Y-27.7066
G00 Z2.0000
G00 X-30.9600 Y-27.9687
G01 F70.00
G01 Z-0.0700
G01 F120.00
G01 X-30.9263 Y-27.9687
G01 X-30.9263 Y-27.9351
G01 X-30.9421 Y-27.9527
G01 X-30.9600 Y-27.9687
G00 Z2.0000
G00 X-31.7678 Y-27.9356
G01 F70.00
G01 Z-0.0700
G01 F120.00
G01 X-31.7678 Y-27.9695
G01 X-31.7338 Y-27.9695
G01 X-31.7518 Y-27.9533
G01 X-31.7678 Y-27.9356
G00 Z2.0000
G00 X-31.8514 Y-27.5096
G01 F70.00
G01 Z-0.0700
G01 F120.00
G01 X-31.8337 Y-27.5255
G01 X-31.8178 Y-27.5432
G01 X-31.8178 Y-27.5096
G01 X-31.8514 Y-27.5096
G00 Z2.0000
G00 X-31.7341 Y-29.0198
G01 F70.00
G01 Z-0.0700
G01 F120.00
G01 X-31.7678 Y-29.0198
G01 X-31.7678 Y-29.0534
G01 X-31.7520 Y-29.0358
G01 X-31.7341 Y-29.0198
G00 Z2.0000
G00 X-31.8178 Y-29.4260
G01 F70.00
G01 Z-0.0700
G01 F120.00
G01 X-31.8337 Y-29.4437
G01 X-31.8514 Y-29.4596
G01 X-31.8178 Y-29.4596
G01 X-31.8178 Y-29.4260
G00 Z2.0000
G00 X-31.8514 Y-30.3096
G01 F70.00
G01 Z-0.0700
G01 F120.00
G01 X-31.8337 Y-30.3255
G01 X-31.8178 Y-30.3432
G01 X-31.8178 Y-30.3096
G01 X-31.8514 Y-30.3096
G00 Z2.0000
G00 X-30.8763 Y-31.1894
G01 F70.00
G01 Z-0.0700
G01 F120.00
G01 X-30.8763 Y-31.3019
G01 X-30.8651 Y-31.3162
G01 X-30.8563 Y-31.3294
G01 X-30.8431 Y-31.2227
G01 X-30.8604 Y-31.2071
G01 X-30.8763 Y-31.1894
G00 Z2.0000
G00 X-30.9530 Y-32.1121
G01 F70.00
G01 Z-0.0700
G01 F120.00
G01 X-30.9605 Y-32.1191
G01 X-30.9681 Y-32.1255
G01 X-30.9546 Y-32.1255
G01 X-30.9530 Y-32.1121
G00 Z2.0000
G00 X-31.1419 Y-32.1755
G01 F70.00
G01 Z-0.0700
G01 F120.00
G01 X-31.1755 Y-32.1755
G01 X-31.1755 Y-32.2091
G01 X-31.1596 Y-32.1914
G01 X-31.1419 Y-32.1755
G00 Z2.0000
G00 X-31.8178 Y-32.2260
G01 F70.00
G01 Z-0.0700
G01 F120.00
G01 X-31.8337 Y-32.2437
G01 X-31.8522 Y-32.2603
G01 X-31.8701 Y-32.2732
G01 X-31.8916 Y-32.2856
G01 X-31.9118 Y-32.2945
G01 X-31.9355 Y-32.3022
G01 X-31.9571 Y-32.3067
G01 X-31.9812 Y-32.3093
G01 X-31.9483 Y-32.3439
G01 X-31.9123 Y-32.3857
G01 X-31.8800 Y-32.4270
G01 X-31.8596 Y-32.4556
G01 X-31.8541 Y-32.4273
G01 X-31.8454 Y-32.4011
G01 X-31.8336 Y-32.3761
G01 X-31.8178 Y-32.3513
G01 X-31.8178 Y-32.2260
G00 Z2.0000
G00 X-33.3770 Y-32.2346
G01 F70.00
G01 Z-0.0700
G01 F120.00
G01 X-33.4074 Y-32.2560
G01 X-33.4451 Y-32.2854
G01 X-33.4843 Y-32.3190
G01 X-33.5244 Y-32.3569
G01 X-33.5599 Y-32.3943
G01 X-33.5936 Y-32.4333
G01 X-33.6274 Y-32.4769
G01 X-33.6549 Y-32.5161
G01 X-33.6806 Y-32.5565
G01 X-33.7061 Y-32.6012
G01 X-33.7311 Y-32.6505
G01 X-33.7520 Y-32.6976
G01 X-33.7705 Y-32.7457
G01 X-33.7877 Y-32.7981
G01 X-33.8004 Y-32.8443
G01 X-33.8110 Y-32.8910
G01 X-33.8200 Y-32.9417
G01 X-33.8268 Y-32.9965
G01 X-33.8305 Y-33.0460
G01 X-33.8319 Y-33.1031
G01 X-33.8306 Y-33.1509
G01 X-33.8272 Y-33.1987
G01 X-33.8205 Y-33.2535
G01 X-33.8110 Y-33.3078
G01 X-33.8004 Y-33.3545
G01 X-33.7877 Y-33.4007
G01 X-33.7705 Y-33.4531
G01 X-33.7505 Y-33.5046
G01 X-33.7311 Y-33.5483
G01 X-33.7088 Y-33.5927
G01 X-33.6825 Y-33.6392
G01 X-33.6529 Y-33.6858
G01 X-33.6253 Y-33.7249
G01 X-33.5959 Y-33.7626
G01 X-33.5587 Y-33.8059
G01 X-33.5244 Y-33.8419
G01 X-33.4897 Y-33.8749
G01 X-33.4480 Y-33.9111
G01 X-33.4044 Y-33.9449
G01 X-33.3652 Y-33.9724
G01 X-33.3321 Y-33.9935
G01 X-33.3321 Y-34.5544
G01 X-33.4118 Y-34.5544
G01 X-33.4284 Y-34.5555
G01 X-33.4429 Y-34.5580
G01 X-33.4553 Y-34.5614
G01 X-33.4691 Y-34.5665
G01 X-33.4823 Y-34.5730
G01 X-33.4979 Y-34.5828
G01 X-33.5107 Y-34.5933
G01 X-33.5224 Y-34.6050
G01 X-33.5326 Y-34.6180
G01 X-33.5414 Y-34.6321
G01 X-33.5486 Y-34.6470
G01 X-33.5546 Y-34.6644
G01 X-33.5581 Y-34.6806
G01 X-33.5600 Y-34.7044
G01 X-33.5600 Y-35.3062
G01 X-33.5593 Y-35.3191
G01 X-33.5575 Y-35.3319
G01 X-33.5512 Y-35.3549
G01 X-33.5423 Y-35.3751
G01 X-33.5305 Y-35.3938
G01 X-33.5161 Y-35.4105
G01 X-33.4994 Y-35.4249
G01 X-33.4791 Y-35.4375
G01 X-33.4588 Y-35.4462
G01 X-33.4375 Y-35.4519
G01 X-33.4155 Y-35.4543
G01 X-32.9357 Y-35.4544
G01 X-32.9156 Y-35.4599
G01 X-32.8892 Y-35.4658
G01 X-32.8626 Y-35.4704
G01 X-32.8395 Y-35.4733
G01 X-32.8052 Y-35.4759
G01 X-32.7819 Y-35.4764
G01 X-32.7567 Y-35.4758
G01 X-32.7280 Y-35.4738
G01 X-32.6993 Y-35.4702
G01 X-32.6710 Y-35.4651
G01 X-32.6281 Y-35.4544
G01 X-32.3100 Y-35.4544
G01 X-32.2916 Y-35.4533
G01 X-32.2682 Y-35.4485
G01 X-32.2560 Y-35.4443
G01 X-32.2442 Y-35.4392
G01 X-32.2329 Y-35.4331
G01 X-32.2221 Y-35.4260
G01 X-32.2036 Y-35.4101
G01 X-32.1995 Y-35.4663
G01 X-32.1936 Y-35.5138
G01 X-32.1903 Y-35.5336
G01 X-33.4118 Y-35.5338
G01 X-33.4320 Y-35.5354
G01 X-33.4518 Y-35.5397
G01 X-33.4708 Y-35.5467
G01 X-33.4902 Y-35.5571
G01 X-33.5052 Y-35.5678
G01 X-33.5174 Y-35.5790
G01 X-33.5294 Y-35.5930
G01 X-33.5396 Y-35.6083
G01 X-33.5479 Y-35.6247
G01 X-33.5541 Y-35.6420
G01 X-33.5578 Y-35.6582
G01 X-33.5598 Y-35.6764
G01 X-33.5599 Y-36.2893
G01 X-33.5575 Y-36.3113
G01 X-33.5518 Y-36.3326
G01 X-33.5431 Y-36.3529
G01 X-33.5316 Y-36.3717
G01 X-33.5211 Y-36.3845
G01 X-33.5094 Y-36.3962
G01 X-33.4964 Y-36.4064
G01 X-33.4807 Y-36.4161
G01 X-33.4657 Y-36.4231
G01 X-33.4500 Y-36.4284
G01 X-33.4320 Y-36.4322
G01 X-33.4155 Y-36.4337
G01 X-31.8146 Y-36.4339
G01 X-31.7732 Y-36.4319
G01 X-31.7451 Y-36.4282
G01 X-31.7045 Y-36.4198
G01 X-31.6827 Y-36.4136
G01 X-31.6630 Y-36.4070
G01 X-31.6367 Y-36.3965
G01 X-31.5995 Y-36.3782
G01 X-31.5641 Y-36.3565
G01 X-31.5392 Y-36.3384
G01 X-31.5084 Y-36.3502
G01 X-31.4613 Y-36.3658
G01 X-31.4116 Y-36.3797
G01 X-31.3595 Y-36.3914
G01 X-31.3106 Y-36.4000
G01 X-31.2576 Y-36.4065
G01 X-31.2062 Y-36.4103
G01 X-31.1547 Y-36.4116
G01 X-31.1032 Y-36.4103
G01 X-31.0481 Y-36.4061
G01 X-31.0006 Y-36.4002
G01 X-30.9499 Y-36.3914
G01 X-30.8960 Y-36.3792
G01 X-30.8499 Y-36.3664
G01 X-30.8010 Y-36.3502
G01 X-30.7495 Y-36.3302
G01 X-30.7058 Y-36.3108
G01 X-30.6597 Y-36.2876
G01 X-30.6118 Y-36.2603
G01 X-30.5714 Y-36.2346
G01 X-30.5307 Y-36.2061
G01 X-30.4886 Y-36.1733
G01 X-30.4523 Y-36.1420
G01 X-30.4097 Y-36.1014
G01 X-30.3767 Y-36.0667
G01 X-30.3430 Y-36.0277
G01 X-30.3113 Y-35.9871
G01 X-30.2817 Y-35.9449
G01 X-30.2541 Y-35.9014
G01 X-30.2287 Y-35.8566
G01 X-30.2055 Y-35.8105
G01 X-30.1861 Y-35.7668
G01 X-30.1649 Y-35.7119
G01 X-30.1499 Y-35.6664
G01 X-30.1362 Y-35.6167
G01 X-30.1249 Y-35.5664
G01 X-30.1161 Y-35.5157
G01 X-30.1098 Y-35.4645
G01 X-30.1060 Y-35.4131
G01 X-30.1047 Y-35.3616
G01 X-30.1060 Y-35.3101
G01 X-30.1098 Y-35.2587
G01 X-30.1161 Y-35.2075
G01 X-30.1249 Y-35.1568
G01 X-30.1362 Y-35.1065
G01 X-30.1499 Y-35.0568
G01 X-30.1661 Y-35.0079
G01 X-30.1846 Y-34.9598
G01 X-30.2055 Y-34.9127
G01 X-30.2296 Y-34.8650
G01 X-30.2598 Y-34.8127
G01 X-29.9976 Y-34.1005
G01 X-29.6987 Y-34.1005
G01 X-29.6803 Y-34.0991
G01 X-29.6623 Y-34.0955
G01 X-29.6414 Y-34.0884
G01 X-29.6234 Y-34.0792
G01 X-29.6068 Y-34.0676
G01 X-29.5919 Y-34.0539
G01 X-29.5789 Y-34.0384
G01 X-29.5682 Y-34.0212
G01 X-29.5593 Y-34.0010
G01 X-29.5538 Y-33.9816
G01 X-29.5512 Y-33.9652
G01 X-29.5505 Y-33.9505
G01 X-29.5505 Y-32.3487
G01 X-29.5512 Y-32.3358
G01 X-29.5530 Y-32.3230
G01 X-29.5559 Y-32.3105
G01 X-29.5599 Y-32.2982
G01 X-29.5649 Y-32.2864
G01 X-29.5709 Y-32.2750
G01 X-29.5847 Y-32.2552
G01 X-29.4541 Y-31.1980
G01 X-29.2903 Y-31.1976
G01 X-29.2775 Y-31.1961
G01 X-29.2631 Y-31.1930
G01 X-29.2490 Y-31.1886
G01 X-29.2355 Y-31.1828
G01 X-29.2164 Y-31.1717
G01 X-29.2006 Y-31.1591
G01 X-29.1865 Y-31.1446
G01 X-29.1746 Y-31.1282
G01 X-29.1642 Y-31.1088
G01 X-29.1572 Y-31.0898
G01 X-29.1529 Y-31.0700
G01 X-29.1513 Y-31.0483
G01 X-27.9159 Y-31.0482
G01 X-27.8877 Y-31.0475
G01 X-27.8559 Y-31.0451
G01 X-27.8242 Y-31.0412
G01 X-27.7909 Y-31.0354
G01 X-27.7616 Y-31.0288
G01 X-27.7291 Y-31.0197
G01 X-27.6988 Y-31.0096
G01 X-27.6622 Y-30.9950
G01 X-26.5666 Y-30.9950
G01 X-26.5464 Y-30.9936
G01 X-26.5302 Y-30.9905
G01 X-26.5143 Y-30.9856
G01 X-26.5008 Y-30.9798
G01 X-26.4864 Y-30.9717
G01 X-26.4729 Y-30.9621
G01 X-26.4605 Y-30.9511
G01 X-26.4495 Y-30.9387
G01 X-26.4409 Y-30.9268
G01 X-26.4335 Y-30.9141
G01 X-26.4273 Y-30.9007
G01 X-26.4225 Y-30.8868
G01 X-26.4191 Y-30.8725
G01 X-26.4167 Y-30.8505
G01 X-26.4166 Y-30.7950
G01 X-25.8166 Y-30.7950
G01 X-25.7982 Y-30.7939
G01 X-25.7784 Y-30.7900
G01 X-25.7592 Y-30.7836
G01 X-25.7411 Y-30.7746
G01 X-25.7243 Y-30.7633
G01 X-25.7105 Y-30.7511
G01 X-25.6972 Y-30.7358
G01 X-25.6861 Y-30.7189
G01 X-25.6773 Y-30.7007
G01 X-25.6725 Y-30.6868
G01 X-25.6695 Y-30.6743
G01 X-25.6673 Y-30.6597
G01 X-25.6666 Y-30.6468
G01 X-25.6666 Y-29.0450
G01 X-25.6677 Y-29.0266
G01 X-25.6711 Y-29.0086
G01 X-25.6760 Y-28.9927
G01 X-25.6835 Y-28.9759
G01 X-25.6929 Y-28.9601
G01 X-25.7042 Y-28.9456
G01 X-25.7172 Y-28.9326
G01 X-25.7317 Y-28.9213
G01 X-25.7475 Y-28.9119
G01 X-25.7643 Y-28.9044
G01 X-25.7819 Y-28.8991
G01 X-25.8001 Y-28.8959
G01 X-25.8166 Y-28.8950
G01 X-26.4166 Y-28.8950
G01 X-26.4172 Y-28.8321
G01 X-26.4202 Y-28.8121
G01 X-26.4260 Y-28.7927
G01 X-26.4352 Y-28.7727
G01 X-26.4483 Y-28.7527
G01 X-26.4632 Y-28.7364
G01 X-26.4817 Y-28.7213
G01 X-26.4975 Y-28.7119
G01 X-26.5143 Y-28.7044
G01 X-26.5319 Y-28.6991
G01 X-26.5482 Y-28.6961
G01 X-26.5648 Y-28.6950
G01 X-26.7058 Y-28.6950
G01 X-26.6967 Y-27.6993
G01 X-26.4817 Y-27.6992
G01 X-26.4579 Y-27.6964
G01 X-26.4349 Y-27.6899
G01 X-26.4165 Y-27.6816
G01 X-26.3993 Y-27.6709
G01 X-26.3824 Y-27.6567
G01 X-26.3689 Y-27.6416
G01 X-26.3576 Y-27.6248
G01 X-26.3486 Y-27.6067
G01 X-26.3417 Y-27.5857
G01 X-26.3381 Y-27.5658
G01 X-26.3372 Y-27.5493
G01 X-26.3372 Y-25.9456
G01 X-26.3381 Y-25.9328
G01 X-26.3401 Y-25.9200
G01 X-26.3437 Y-25.9058
G01 X-26.3479 Y-25.8936
G01 X-26.3541 Y-25.8802
G01 X-26.3605 Y-25.8691
G01 X-26.3678 Y-25.8585
G01 X-26.3761 Y-25.8486
G01 X-26.3865 Y-25.8382
G01 X-26.3978 Y-25.8288
G01 X-26.4101 Y-25.8206
G01 X-26.4247 Y-25.8129
G01 X-26.4401 Y-25.8069
G01 X-26.4543 Y-25.8029
G01 X-26.4688 Y-25.8004
G01 X-26.4835 Y-25.7993
G01 X-28.0890 Y-25.7993
G01 X-28.1110 Y-25.8012
G01 X-28.1307 Y-25.8058
G01 X-28.1497 Y-25.8129
G01 X-28.1674 Y-25.8226
G01 X-28.1838 Y-25.8345
G01 X-28.1983 Y-25.8486
G01 X-28.2109 Y-25.8644
G01 X-28.2212 Y-25.8819
G01 X-28.2278 Y-25.8970
G01 X-28.2327 Y-25.9129
G01 X-28.2358 Y-25.9291
G01 X-28.2372 Y-25.9475
G01 X-28.2368 Y-27.5603
G01 X-28.2343 Y-27.5786
G01 X-28.2296 Y-27.5964
G01 X-28.2228 Y-27.6134
G01 X-28.2139 Y-27.6295
G01 X-28.2032 Y-27.6445
G01 X-28.1906 Y-27.6579
G01 X-28.1780 Y-27.6687
G01 X-28.1627 Y-27.6789
G01 X-28.1497 Y-27.6857
G01 X-28.1360 Y-27.6911
G01 X-28.1201 Y-27.6957
G01 X-28.1056 Y-27.6982
G01 X-28.0890 Y-27.6993
G01 X-27.9972 Y-27.6993
G01 X-28.0064 Y-28.6950
G01 X-28.1721 Y-28.6951
G01 X-28.1941 Y-28.6975
G01 X-28.2171 Y-28.7038
G01 X-28.2324 Y-28.7102
G01 X-28.2484 Y-28.7193
G01 X-28.2632 Y-28.7302
G01 X-28.2765 Y-28.7429
G01 X-28.2882 Y-28.7571
G01 X-28.2971 Y-28.7711
G01 X-28.3045 Y-28.7859
G01 X-28.3107 Y-28.8032
G01 X-28.3150 Y-28.8230
G01 X-28.3166 Y-28.8432
G01 X-28.3166 Y-29.7477
G01 X-29.1513 Y-29.7477
G01 X-29.1520 Y-29.7333
G01 X-29.1542 Y-29.7187
G01 X-29.1578 Y-29.7045
G01 X-29.1627 Y-29.6906
G01 X-29.1690 Y-29.6773
G01 X-29.1766 Y-29.6647
G01 X-29.1842 Y-29.6543
G01 X-29.1939 Y-29.6432
G01 X-29.2047 Y-29.6332
G01 X-29.2164 Y-29.6243
G01 X-29.2290 Y-29.6166
G01 X-29.2405 Y-29.6109
G01 X-29.2542 Y-29.6056
G01 X-29.2684 Y-29.6016
G01 X-29.2829 Y-29.5991
G01 X-29.2958 Y-29.5981
G01 X-30.7087 Y-29.5982
G01 X-30.7269 Y-29.6002
G01 X-30.7448 Y-29.6045
G01 X-30.7604 Y-29.6101
G01 X-30.7768 Y-29.6184
G01 X-30.7907 Y-29.6275
