(G-CODE GENERATED BY FLATCAM v8.993 - www.flatcam.org - Version Date: 2020/06/05)

(Name: A1_RF_PA_Ф2_низ.gbr_iso_combined_cnc)
(Type: G-code from Geometry)
(Units: MM)

(Created on Tuesday, 08 December 2020 at 18:53)

(This preprocessor is the default preprocessor used by FlatCAM.)
(It is made to work with MACH3 compatible motion controllers.)

(TOOL DIAMETER: 0.14 mm)
(Feedrate_XY: 120.0 mm/min)
(Feedrate_Z: 70.0 mm/min)
(Feedrate rapids 1500.0 mm/min)

(Z_Cut: -0.06 mm)
(Z_Move: 2.0 mm)
(Z Start: None mm)
(Z End: 25.0 mm)
(Steps per circle: 128)
(Preprocessor Geometry: default)

(X range:  -74.7800 ...    0.2800  mm)
(Y range:  -80.8800 ...    0.2800  mm)

(Spindle Speed: 10000 RPM)
G21
G90
G94



G01 F120.00
G00 Z2.0000

M03 S10000
G00 X-2.0199 Y-2.0000
G01 F70.00
G01 Z-0.0600
G01 F120.00
G01 X-2.0184 Y-2.0076
G01 X-2.0141 Y-2.0141
G01 X-2.0076 Y-2.0184
G01 X-2.0000 Y-2.0199
G01 X-1.9924 Y-2.0184
G01 X-1.9859 Y-2.0141
G01 X-1.9816 Y-2.0076
G01 X-1.9801 Y-2.0000
G01 X-1.9816 Y-1.9924
G01 X-1.9859 Y-1.9859
G01 X-1.9924 Y-1.9816
G01 X-2.0000 Y-1.9801
G01 X-2.0076 Y-1.9816
G01 X-2.0141 Y-1.9859
G01 X-2.0184 Y-1.9924
G01 X-2.0199 Y-2.0000
G00 Z2.0000
G00 X-2.0899 Y-2.0000
G01 F70.00
G01 Z-0.0600
G01 F120.00
G01 X-2.0882 Y-2.0175
G01 X-2.0831 Y-2.0344
G01 X-2.0748 Y-2.0500
G01 X-2.0636 Y-2.0636
G01 X-2.0500 Y-2.0748
G01 X-2.0344 Y-2.0831
G01 X-2.0175 Y-2.0882
G01 X-2.0000 Y-2.0899
G01 X-1.9825 Y-2.0882
G01 X-1.9656 Y-2.0831
G01 X-1.9500 Y-2.0748
G01 X-1.9364 Y-2.0636
G01 X-1.9252 Y-2.0500
G01 X-1.9169 Y-2.0344
G01 X-1.9118 Y-2.0175
G01 X-1.9101 Y-2.0000
G01 X-1.9118 Y-1.9825
G01 X-1.9169 Y-1.9656
G01 X-1.9252 Y-1.9500
G01 X-1.9364 Y-1.9364
G01 X-1.9500 Y-1.9252
G01 X-1.9656 Y-1.9169
G01 X-1.9825 Y-1.9118
G01 X-2.0000 Y-1.9101
G01 X-2.0175 Y-1.9118
G01 X-2.0344 Y-1.9169
G01 X-2.0500 Y-1.9252
G01 X-2.0636 Y-1.9364
G01 X-2.0748 Y-1.9500
G01 X-2.0831 Y-1.9656
G01 X-2.0882 Y-1.9825
G01 X-2.0899 Y-2.0000
G00 Z2.0000
G00 X-2.1600 Y-2.0000
G01 F70.00
G01 Z-0.0600
G01 F120.00
G01 X-2.1592 Y-2.0157
G01 X-2.1569 Y-2.0312
G01 X-2.1531 Y-2.0464
G01 X-2.1478 Y-2.0612
G01 X-2.1411 Y-2.0754
G01 X-2.1330 Y-2.0889
G01 X-2.1236 Y-2.1015
G01 X-2.1131 Y-2.1131
G01 X-2.1015 Y-2.1236
G01 X-2.0889 Y-2.1330
G01 X-2.0754 Y-2.1411
G01 X-2.0612 Y-2.1478
G01 X-2.0464 Y-2.1531
G01 X-2.0312 Y-2.1569
G01 X-2.0157 Y-2.1592
G01 X-2.0000 Y-2.1600
G01 X-1.9843 Y-2.1592
G01 X-1.9688 Y-2.1569
G01 X-1.9536 Y-2.1531
G01 X-1.9388 Y-2.1478
G01 X-1.9246 Y-2.1411
G01 X-1.9111 Y-2.1330
G01 X-1.8985 Y-2.1236
G01 X-1.8869 Y-2.1131
G01 X-1.8764 Y-2.1015
G01 X-1.8670 Y-2.0889
G01 X-1.8589 Y-2.0754
G01 X-1.8522 Y-2.0612
G01 X-1.8469 Y-2.0464
G01 X-1.8431 Y-2.0312
G01 X-1.8408 Y-2.0157
G01 X-1.8400 Y-2.0000
G01 X-1.8408 Y-1.9843
G01 X-1.8431 Y-1.9688
G01 X-1.8469 Y-1.9536
G01 X-1.8522 Y-1.9388
G01 X-1.8589 Y-1.9246
G01 X-1.8670 Y-1.9111
G01 X-1.8764 Y-1.8985
G01 X-1.8869 Y-1.8869
G01 X-1.8985 Y-1.8764
G01 X-1.9111 Y-1.8670
G01 X-1.9246 Y-1.8589
G01 X-1.9388 Y-1.8522
G01 X-1.9536 Y-1.8469
G01 X-1.9688 Y-1.8431
G01 X-1.9843 Y-1.8408
G01 X-2.0000 Y-1.8400
G01 X-2.0157 Y-1.8408
G01 X-2.0312 Y-1.8431
G01 X-2.0464 Y-1.8469
G01 X-2.0612 Y-1.8522
G01 X-2.0754 Y-1.8589
G01 X-2.0889 Y-1.8670
G01 X-2.1015 Y-1.8764
G01 X-2.1131 Y-1.8869
G01 X-2.1236 Y-1.8985
G01 X-2.1330 Y-1.9111
G01 X-2.1411 Y-1.9246
G01 X-2.1478 Y-1.9388
G01 X-2.1531 Y-1.9536
G01 X-2.1569 Y-1.9688
G01 X-2.1592 Y-1.9843
G01 X-2.1600 Y-2.0000
G00 Z2.0000
G00 X-2.2300 Y-2.0000
G01 F70.00
G01 Z-0.0600
G01 F120.00
G01 X-2.2289 Y-2.0225
G01 X-2.2256 Y-2.0449
G01 X-2.2201 Y-2.0668
G01 X-2.2125 Y-2.0880
G01 X-2.2028 Y-2.1084
G01 X-2.1912 Y-2.1278
G01 X-2.1778 Y-2.1459
G01 X-2.1626 Y-2.1626
G01 X-2.1459 Y-2.1778
G01 X-2.1278 Y-2.1912
G01 X-2.1084 Y-2.2028
G01 X-2.0880 Y-2.2125
G01 X-2.0668 Y-2.2201
G01 X-2.0449 Y-2.2256
G01 X-2.0225 Y-2.2289
G01 X-2.0000 Y-2.2300
G01 X-1.9775 Y-2.2289
G01 X-1.9551 Y-2.2256
G01 X-1.9332 Y-2.2201
G01 X-1.9120 Y-2.2125
G01 X-1.8916 Y-2.2028
G01 X-1.8722 Y-2.1912
G01 X-1.8541 Y-2.1778
G01 X-1.8374 Y-2.1626
G01 X-1.8222 Y-2.1459
G01 X-1.8088 Y-2.1278
G01 X-1.7972 Y-2.1084
G01 X-1.7875 Y-2.0880
G01 X-1.7799 Y-2.0668
G01 X-1.7744 Y-2.0449
G01 X-1.7711 Y-2.0225
G01 X-1.7700 Y-2.0000
G01 X-1.7711 Y-1.9775
G01 X-1.7744 Y-1.9551
G01 X-1.7799 Y-1.9332
G01 X-1.7875 Y-1.9120
G01 X-1.7972 Y-1.8916
G01 X-1.8088 Y-1.8722
G01 X-1.8222 Y-1.8541
G01 X-1.8374 Y-1.8374
G01 X-1.8541 Y-1.8222
G01 X-1.8722 Y-1.8088
G01 X-1.8916 Y-1.7972
G01 X-1.9120 Y-1.7875
G01 X-1.9332 Y-1.7799
G01 X-1.9551 Y-1.7744
G01 X-1.9775 Y-1.7711
G01 X-2.0000 Y-1.7700
G01 X-2.0225 Y-1.7711
G01 X-2.0449 Y-1.7744
G01 X-2.0668 Y-1.7799
G01 X-2.0880 Y-1.7875
G01 X-2.1084 Y-1.7972
G01 X-2.1278 Y-1.8088
G01 X-2.1459 Y-1.8222
G01 X-2.1626 Y-1.8374
G01 X-2.1778 Y-1.8541
G01 X-2.1912 Y-1.8722
G01 X-2.2028 Y-1.8916
G01 X-2.2125 Y-1.9120
G01 X-2.2201 Y-1.9332
G01 X-2.2256 Y-1.9551
G01 X-2.2289 Y-1.9775
G01 X-2.2300 Y-2.0000
G00 Z2.0000
G00 X-3.5124 Y-4.7038
G01 F70.00
G01 Z-0.0600
G01 F120.00
G01 X-3.5118 Y-4.7156
G01 X-3.5101 Y-4.7272
G01 X-3.5073 Y-4.7386
G01 X-3.5033 Y-4.7497
G01 X-3.4983 Y-4.7603
G01 X-3.4922 Y-4.7704
G01 X-3.4852 Y-4.7799
G01 X-3.4773 Y-4.7886
G01 X-3.4686 Y-4.7965
G01 X-3.4591 Y-4.8035
G01 X-3.4490 Y-4.8096
G01 X-3.4384 Y-4.8146
G01 X-3.4273 Y-4.8186
G01 X-3.4159 Y-4.8214
G01 X-3.4043 Y-4.8231
G01 X-3.3925 Y-4.8237
G01 X-3.3807 Y-4.8231
G01 X-3.3691 Y-4.8214
G01 X-3.3577 Y-4.8186
G01 X-3.3466 Y-4.8146
G01 X-3.3360 Y-4.8096
G01 X-3.3259 Y-4.8035
G01 X-3.3164 Y-4.7965
G01 X-3.3077 Y-4.7886
G01 X-3.2998 Y-4.7799
G01 X-3.2928 Y-4.7704
G01 X-3.2867 Y-4.7603
G01 X-3.2817 Y-4.7497
G01 X-3.2777 Y-4.7386
G01 X-3.2749 Y-4.7272
G01 X-3.2732 Y-4.7156
G01 X-3.2726 Y-4.7038
G01 X-3.2732 Y-4.6920
G01 X-3.2749 Y-4.6804
G01 X-3.2777 Y-4.6690
G01 X-3.2817 Y-4.6579
G01 X-3.2867 Y-4.6473
G01 X-3.2928 Y-4.6372
G01 X-3.2998 Y-4.6277
G01 X-3.3077 Y-4.6190
G01 X-3.3164 Y-4.6111
G01 X-3.3259 Y-4.6041
G01 X-3.3360 Y-4.5980
G01 X-3.3466 Y-4.5930
G01 X-3.3577 Y-4.5890
G01 X-3.3691 Y-4.5862
G01 X-3.3807 Y-4.5845
G01 X-3.3925 Y-4.5839
G01 X-3.4043 Y-4.5845
G01 X-3.4159 Y-4.5862
G01 X-3.4273 Y-4.5890
G01 X-3.4384 Y-4.5930
G01 X-3.4490 Y-4.5980
G01 X-3.4591 Y-4.6041
G01 X-3.4686 Y-4.6111
G01 X-3.4773 Y-4.6190
G01 X-3.4852 Y-4.6277
G01 X-3.4922 Y-4.6372
G01 X-3.4983 Y-4.6473
G01 X-3.5033 Y-4.6579
G01 X-3.5073 Y-4.6690
G01 X-3.5101 Y-4.6804
G01 X-3.5118 Y-4.6920
G01 X-3.5124 Y-4.7038
G00 Z2.0000
G00 X-3.5824 Y-4.7038
G01 F70.00
G01 Z-0.0600
G01 F120.00
G01 X-3.5815 Y-4.7224
G01 X-3.5788 Y-4.7409
G01 X-3.5743 Y-4.7589
G01 X-3.5680 Y-4.7765
G01 X-3.5600 Y-4.7933
G01 X-3.5504 Y-4.8093
G01 X-3.5393 Y-4.8243
G01 X-3.5268 Y-4.8381
G01 X-3.5130 Y-4.8506
G01 X-3.4980 Y-4.8617
G01 X-3.4820 Y-4.8713
G01 X-3.4652 Y-4.8793
G01 X-3.4476 Y-4.8856
G01 X-3.4296 Y-4.8901
G01 X-3.4111 Y-4.8928
G01 X-3.3925 Y-4.8937
G01 X-3.3739 Y-4.8928
G01 X-3.3554 Y-4.8901
G01 X-3.3374 Y-4.8856
G01 X-3.3198 Y-4.8793
G01 X-3.3030 Y-4.8713
G01 X-3.2870 Y-4.8617
G01 X-3.2720 Y-4.8506
G01 X-3.2582 Y-4.8381
G01 X-3.2457 Y-4.8243
G01 X-3.2346 Y-4.8093
G01 X-3.2250 Y-4.7933
G01 X-3.2170 Y-4.7765
G01 X-3.2107 Y-4.7589
G01 X-3.2062 Y-4.7409
G01 X-3.2035 Y-4.7224
G01 X-3.2026 Y-4.7038
G01 X-3.2035 Y-4.6852
G01 X-3.2062 Y-4.6667
G01 X-3.2107 Y-4.6487
G01 X-3.2170 Y-4.6311
G01 X-3.2250 Y-4.6143
G01 X-3.2346 Y-4.5983
G01 X-3.2457 Y-4.5833
G01 X-3.2582 Y-4.5695
G01 X-3.2720 Y-4.5570
G01 X-3.2870 Y-4.5459
G01 X-3.3030 Y-4.5363
G01 X-3.3198 Y-4.5283
G01 X-3.3374 Y-4.5220
G01 X-3.3554 Y-4.5175
G01 X-3.3739 Y-4.5148
G01 X-3.3925 Y-4.5139
G01 X-3.4111 Y-4.5148
G01 X-3.4296 Y-4.5175
G01 X-3.4476 Y-4.5220
G01 X-3.4652 Y-4.5283
G01 X-3.4820 Y-4.5363
G01 X-3.4980 Y-4.5459
G01 X-3.5130 Y-4.5570
G01 X-3.5268 Y-4.5695
G01 X-3.5393 Y-4.5833
G01 X-3.5504 Y-4.5983
G01 X-3.5600 Y-4.6143
G01 X-3.5680 Y-4.6311
G01 X-3.5743 Y-4.6487
G01 X-3.5788 Y-4.6667
G01 X-3.5815 Y-4.6852
G01 X-3.5824 Y-4.7038
G00 Z2.0000
G00 X-3.6525 Y-4.7038
G01 F70.00
G01 Z-0.0600
G01 F120.00
G01 X-3.6512 Y-4.7293
G01 X-3.6475 Y-4.7545
G01 X-3.6413 Y-4.7793
G01 X-3.6327 Y-4.8033
G01 X-3.6218 Y-4.8263
G01 X-3.6086 Y-4.8482
G01 X-3.5935 Y-4.8687
G01 X-3.5763 Y-4.8876
G01 X-3.5574 Y-4.9048
G01 X-3.5369 Y-4.9199
G01 X-3.5150 Y-4.9331
G01 X-3.4920 Y-4.9440
G01 X-3.4680 Y-4.9526
G01 X-3.4432 Y-4.9588
G01 X-3.4180 Y-4.9625
G01 X-3.3925 Y-4.9638
G01 X-3.3670 Y-4.9625
G01 X-3.3418 Y-4.9588
G01 X-3.3170 Y-4.9526
G01 X-3.2930 Y-4.9440
G01 X-3.2700 Y-4.9331
G01 X-3.2481 Y-4.9199
G01 X-3.2276 Y-4.9048
G01 X-3.2087 Y-4.8876
G01 X-3.1915 Y-4.8687
G01 X-3.1764 Y-4.8482
G01 X-3.1632 Y-4.8263
G01 X-3.1523 Y-4.8033
G01 X-3.1437 Y-4.7793
G01 X-3.1375 Y-4.7545
G01 X-3.1338 Y-4.7293
G01 X-3.1325 Y-4.7038
G01 X-3.1338 Y-4.6783
G01 X-3.1375 Y-4.6531
G01 X-3.1437 Y-4.6283
G01 X-3.1523 Y-4.6043
G01 X-3.1632 Y-4.5813
G01 X-3.1764 Y-4.5594
G01 X-3.1915 Y-4.5389
G01 X-3.2087 Y-4.5200
G01 X-3.2276 Y-4.5028
G01 X-3.2481 Y-4.4877
G01 X-3.2700 Y-4.4745
G01 X-3.2930 Y-4.4636
G01 X-3.3170 Y-4.4550
G01 X-3.3418 Y-4.4488
G01 X-3.3670 Y-4.4451
G01 X-3.3925 Y-4.4438
G01 X-3.4180 Y-4.4451
G01 X-3.4432 Y-4.4488
G01 X-3.4680 Y-4.4550
G01 X-3.4920 Y-4.4636
G01 X-3.5150 Y-4.4745
G01 X-3.5369 Y-4.4877
G01 X-3.5574 Y-4.5028
G01 X-3.5763 Y-4.5200
G01 X-3.5935 Y-4.5389
G01 X-3.6086 Y-4.5594
G01 X-3.6218 Y-4.5813
G01 X-3.6327 Y-4.6043
G01 X-3.6413 Y-4.6283
G01 X-3.6475 Y-4.6531
G01 X-3.6512 Y-4.6783
G01 X-3.6525 Y-4.7038
G00 Z2.0000
G00 X-3.7225 Y-4.7038
G01 F70.00
G01 Z-0.0600
G01 F120.00
G01 X-3.7209 Y-4.7361
G01 X-3.7161 Y-4.7682
G01 X-3.7083 Y-4.7996
G01 X-3.6974 Y-4.8301
G01 X-3.6835 Y-4.8594
G01 X-3.6669 Y-4.8871
G01 X-3.6476 Y-4.9131
G01 X-3.6258 Y-4.9371
G01 X-3.6018 Y-4.9589
G01 X-3.5758 Y-4.9782
G01 X-3.5481 Y-4.9948
G01 X-3.5188 Y-5.0087
G01 X-3.4883 Y-5.0196
G01 X-3.4569 Y-5.0274
G01 X-3.4248 Y-5.0322
G01 X-3.3925 Y-5.0338
G01 X-3.3602 Y-5.0322
G01 X-3.3281 Y-5.0274
G01 X-3.2967 Y-5.0196
G01 X-3.2662 Y-5.0087
G01 X-3.2369 Y-4.9948
G01 X-3.2092 Y-4.9782
G01 X-3.1832 Y-4.9589
G01 X-3.1592 Y-4.9371
G01 X-3.1374 Y-4.9131
G01 X-3.1181 Y-4.8871
G01 X-3.1015 Y-4.8594
G01 X-3.0876 Y-4.8301
G01 X-3.0767 Y-4.7996
G01 X-3.0689 Y-4.7682
G01 X-3.0641 Y-4.7361
G01 X-3.0625 Y-4.7038
G01 X-3.0641 Y-4.6715
G01 X-3.0689 Y-4.6394
G01 X-3.0767 Y-4.6080
G01 X-3.0876 Y-4.5775
G01 X-3.1015 Y-4.5482
G01 X-3.1181 Y-4.5205
G01 X-3.1374 Y-4.4945
G01 X-3.1592 Y-4.4705
G01 X-3.1832 Y-4.4487
G01 X-3.2092 Y-4.4294
G01 X-3.2369 Y-4.4128
G01 X-3.2662 Y-4.3989
G01 X-3.2967 Y-4.3880
G01 X-3.3281 Y-4.3802
G01 X-3.3602 Y-4.3754
G01 X-3.3925 Y-4.3738
G01 X-3.4248 Y-4.3754
G01 X-3.4569 Y-4.3802
G01 X-3.4883 Y-4.3880
G01 X-3.5188 Y-4.3989
G01 X-3.5481 Y-4.4128
G01 X-3.5758 Y-4.4294
G01 X-3.6018 Y-4.4487
G01 X-3.6258 Y-4.4705
G01 X-3.6476 Y-4.4945
G01 X-3.6669 Y-4.5205
G01 X-3.6835 Y-4.5482
G01 X-3.6974 Y-4.5775
G01 X-3.7083 Y-4.6080
G01 X-3.7161 Y-4.6394
G01 X-3.7209 Y-4.6715
G01 X-3.7225 Y-4.7038
G00 Z2.0000
G00 X-4.7580 Y-4.1881
G01 F70.00
G01 Z-0.0600
G01 F120.00
G01 X-4.7702 Y-4.1983
G01 X-4.7827 Y-4.2074
G01 X-4.7958 Y-4.2155
G01 X-4.8103 Y-4.2230
G01 X-4.7709 Y-4.2230
G01 X-4.7580 Y-4.1881
G00 Z2.0000
G00 X-4.8286 Y-5.1432
G01 F70.00
G01 Z-0.0600
G01 F120.00
G01 X-4.8141 Y-5.1507
G01 X-4.7988 Y-5.1603
G01 X-4.7844 Y-5.1711
G01 X-4.7716 Y-5.1825
G01 X-4.7845 Y-5.1432
G01 X-4.8286 Y-5.1432
G00 Z2.0000
G00 X-3.8727 Y-6.0824
G01 F70.00
G01 Z-0.0600
G01 F120.00
G01 X-3.8614 Y-6.0950
G01 X-3.8506 Y-6.1094
G01 X-3.8411 Y-6.1247
G01 X-3.8336 Y-6.1392
G01 X-3.8336 Y-6.0953
G01 X-3.8727 Y-6.0824
G00 Z2.0000
G00 X-2.8433 Y-6.5052
G01 F70.00
G01 Z-0.0600
G01 F120.00
G01 X-2.8246 Y-6.4971
G01 X-2.8052 Y-6.4904
G01 X-2.7887 Y-6.4859
G01 X-2.7687 Y-6.4818
G01 X-2.8433 Y-6.3746
G01 X-2.8433 Y-6.5052
G00 Z2.0000
G00 X-2.9133 Y-6.6691
G01 F70.00
G01 Z-0.0600
G01 F120.00
G01 X-2.9034 Y-6.6504
G01 X-2.8904 Y-6.6312
G01 X-2.8772 Y-6.6154
G01 X-2.8606 Y-6.5994
G01 X-2.8444 Y-6.5867
G01 X-2.8248 Y-6.5744
G01 X-2.8040 Y-6.5643
G01 X-2.7847 Y-6.5573
G01 X-2.7647 Y-6.5523
G01 X-2.7419 Y-6.5489
G01 X-2.7213 Y-6.5481
G01 X-2.6982 Y-6.5496
G01 X-2.6755 Y-6.5536
G01 X-2.6557 Y-6.5592
G01 X-2.6366 Y-6.5667
G01 X-2.6177 Y-6.5764
G01 X-2.9133 Y-6.1512
G01 X-2.9133 Y-6.6691
G00 Z2.0000
G00 X-2.1843 Y-5.5877
G01 F70.00
G01 Z-0.0600
G01 F120.00
G01 X-2.1864 Y-5.5721
G01 X-2.1873 Y-5.5567
G01 X-2.1870 Y-5.5413
G01 X-2.1856 Y-5.5250
G01 X-2.2069 Y-5.5552
G01 X-2.1843 Y-5.5877
G00 Z2.0000
G00 X-2.8125 Y-8.6675
G01 F70.00
G01 Z-0.0600
G01 F120.00
G01 X-2.8288 Y-8.6589
G01 X-2.8439 Y-8.6492
G01 X-2.8582 Y-8.6382
G01 X-2.8715 Y-8.6260
G01 X-2.8837 Y-8.6127
G01 X-2.8947 Y-8.5984
G01 X-2.9045 Y-8.5832
G01 X-2.9132 Y-8.5665
G01 X-2.9132 Y-8.6675
G01 X-2.8125 Y-8.6675
G00 Z2.0000
G00 X-2.3412 Y-8.7881
G01 F70.00
G01 Z-0.0600
G01 F120.00
G01 X-2.3412 Y-8.6875
G01 X-2.4418 Y-8.6875
G01 X-2.4255 Y-8.6961
G01 X-2.4103 Y-8.7058
G01 X-2.3960 Y-8.7168
G01 X-2.3827 Y-8.7290
G01 X-2.3705 Y-8.7423
G01 X-2.3595 Y-8.7566
G01 X-2.3498 Y-8.7718
G01 X-2.3412 Y-8.7881
G00 Z2.0000
G00 X-3.8335 Y-8.5665
G01 F70.00
G01 Z-0.0600
G01 F120.00
G01 X-3.8422 Y-8.5832
G01 X-3.8520 Y-8.5984
G01 X-3.8630 Y-8.6127
G01 X-3.8752 Y-8.6260
G01 X-3.8885 Y-8.6382
G01 X-3.9027 Y-8.6492
G01 X-3.9179 Y-8.6589
G01 X-3.9342 Y-8.6675
G01 X-3.8335 Y-8.6675
G01 X-3.8335 Y-8.5665
G00 Z2.0000
G00 X-4.2206 Y-8.6875
G01 F70.00
G01 Z-0.0600
G01 F120.00
G01 X-4.3212 Y-8.6875
G01 X-4.3212 Y-8.7881
G01 X-4.3126 Y-8.7718
G01 X-4.3029 Y-8.7566
G01 X-4.2919 Y-8.7423
G01 X-4.2797 Y-8.7290
G01 X-4.2664 Y-8.7168
G01 X-4.2521 Y-8.7058
G01 X-4.2369 Y-8.6961
G01 X-4.2206 Y-8.6875
G00 Z2.0000
G00 X-4.3212 Y-10.2669
G01 F70.00
G01 Z-0.0600
G01 F120.00
G01 X-4.3212 Y-10.6881
G01 X-4.3072 Y-10.6630
G01 X-4.2983 Y-10.6503
G01 X-4.2885 Y-10.6384
G01 X-4.2684 Y-10.6185
G01 X-4.2563 Y-10.6088
G01 X-4.2435 Y-10.6001
G01 X-4.2302 Y-10.5923
G01 X-4.2163 Y-10.5855
G01 X-4.1897 Y-10.5758
G01 X-4.1747 Y-10.5721
G01 X-4.1595 Y-10.5694
G01 X-4.1312 Y-10.5675
G01 X-2.5183 Y-10.5679
G01 X-2.4902 Y-10.5715
G01 X-2.4629 Y-10.5789
G01 X-2.4368 Y-10.5899
G01 X-2.4124 Y-10.6043
G01 X-2.3902 Y-10.6219
G01 X-2.3705 Y-10.6423
G01 X-2.3538 Y-10.6652
G01 X-2.3412 Y-10.6881
G01 X-2.3412 Y-10.2669
G01 X-2.3552 Y-10.2920
G01 X-2.3641 Y-10.3047
G01 X-2.3739 Y-10.3166
G01 X-2.3940 Y-10.3365
G01 X-2.4061 Y-10.3462
G01 X-2.4189 Y-10.3549
G01 X-2.4322 Y-10.3627
G01 X-2.4461 Y-10.3695
G01 X-2.4727 Y-10.3792
G01 X-2.4877 Y-10.3829
G01 X-2.5029 Y-10.3856
G01 X-2.5312 Y-10.3875
G01 X-4.1441 Y-10.3871
G01 X-4.1722 Y-10.3835
G01 X-4.1995 Y-10.3761
G01 X-4.2256 Y-10.3651
G01 X-4.2500 Y-10.3507
G01 X-4.2722 Y-10.3331
G01 X-4.2919 Y-10.3127
G01 X-4.3086 Y-10.2898
G01 X-4.3212 Y-10.2669
G00 Z2.0000
G00 X-4.2512 Y-10.4305
G01 F70.00
G01 Z-0.0600
G01 F120.00
G01 X-4.2512 Y-10.5245
G01 X-4.2223 Y-10.5127
G01 X-4.1925 Y-10.5043
G01 X-4.1621 Y-10.4992
G01 X-4.1312 Y-10.4975
G01 X-2.5278 Y-10.4975
G01 X-2.4969 Y-10.4996
G01 X-2.4665 Y-10.5051
G01 X-2.4369 Y-10.5139
G01 X-2.4112 Y-10.5245
G01 X-2.4112 Y-10.4305
G01 X-2.4369 Y-10.4411
G01 X-2.4665 Y-10.4499
G01 X-2.4969 Y-10.4554
G01 X-2.5278 Y-10.4575
G01 X-4.1312 Y-10.4575
G01 X-4.1621 Y-10.4558
G01 X-4.1925 Y-10.4507
G01 X-4.2223 Y-10.4423
G01 X-4.2512 Y-10.4305
G00 Z2.0000
G00 X-4.3212 Y-12.1669
G01 F70.00
G01 Z-0.0600
G01 F120.00
G01 X-4.3212 Y-12.2675
G01 X-4.2206 Y-12.2675
G01 X-4.2369 Y-12.2589
G01 X-4.2521 Y-12.2492
G01 X-4.2664 Y-12.2382
G01 X-4.2797 Y-12.2260
G01 X-4.2919 Y-12.2127
G01 X-4.3029 Y-12.1984
G01 X-4.3126 Y-12.1832
G01 X-4.3212 Y-12.1669
G00 Z2.0000
G00 X-3.8947 Y-12.2875
G01 F70.00
G01 Z-0.0600
G01 F120.00
G01 X-3.8784 Y-12.2961
G01 X-3.8632 Y-12.3058
G01 X-3.8489 Y-12.3168
G01 X-3.8356 Y-12.3290
G01 X-3.8234 Y-12.3423
G01 X-3.8124 Y-12.3566
G01 X-3.8027 Y-12.3718
G01 X-3.7939 Y-12.3885
G01 X-3.7939 Y-12.2875
G01 X-3.8947 Y-12.2875
G00 Z2.0000
G00 X-2.8737 Y-12.3885
G01 F70.00
G01 Z-0.0600
G01 F120.00
G01 X-2.8649 Y-12.3718
G01 X-2.8552 Y-12.3566
G01 X-2.8442 Y-12.3423
G01 X-2.8320 Y-12.3290
G01 X-2.8187 Y-12.3168
G01 X-2.8044 Y-12.3058
G01 X-2.7892 Y-12.2961
G01 X-2.7729 Y-12.2875
G01 X-2.8737 Y-12.2875
G01 X-2.8737 Y-12.3885
G00 Z2.0000
G00 X-2.4418 Y-12.2675
G01 F70.00
G01 Z-0.0600
G01 F120.00
G01 X-2.3412 Y-12.2675
G01 X-2.3412 Y-12.1669
G01 X-2.3498 Y-12.1832
G01 X-2.3595 Y-12.1984
G01 X-2.3705 Y-12.2127
G01 X-2.3827 Y-12.2260
G01 X-2.3960 Y-12.2382
G01 X-2.4103 Y-12.2492
G01 X-2.4255 Y-12.2589
G01 X-2.4418 Y-12.2675
G00 Z2.0000
G00 X-2.7729 Y-15.0238
G01 F70.00
G01 Z-0.0600
G01 F120.00
G01 X-2.7892 Y-15.0152
G01 X-2.8044 Y-15.0055
G01 X-2.8187 Y-14.9945
G01 X-2.8320 Y-14.9823
G01 X-2.8442 Y-14.9690
G01 X-2.8552 Y-14.9547
G01 X-2.8649 Y-14.9395
G01 X-2.8737 Y-14.9228
G01 X-2.8737 Y-15.0238
G01 X-2.7729 Y-15.0238
G00 Z2.0000
G00 X-2.4938 Y-15.1444
G01 F70.00
G01 Z-0.0600
G01 F120.00
G01 X-2.4938 Y-15.0438
G01 X-2.5944 Y-15.0438
G01 X-2.5781 Y-15.0524
G01 X-2.5629 Y-15.0621
G01 X-2.5486 Y-15.0731
G01 X-2.5353 Y-15.0853
G01 X-2.5231 Y-15.0986
G01 X-2.5121 Y-15.1129
G01 X-2.5024 Y-15.1281
G01 X-2.4938 Y-15.1444
G00 Z2.0000
G00 X-3.7939 Y-14.9228
G01 F70.00
G01 Z-0.0600
G01 F120.00
G01 X-3.8027 Y-14.9395
G01 X-3.8124 Y-14.9547
G01 X-3.8234 Y-14.9690
G01 X-3.8356 Y-14.9823
G01 X-3.8489 Y-14.9945
G01 X-3.8632 Y-15.0055
G01 X-3.8784 Y-15.0152
G01 X-3.8947 Y-15.0238
G01 X-3.7939 Y-15.0238
G01 X-3.7939 Y-14.9228
G00 Z2.0000
G00 X-4.0732 Y-15.0438
G01 F70.00
G01 Z-0.0600
G01 F120.00
G01 X-4.4944 Y-15.0438
G01 X-4.4693 Y-15.0578
G01 X-4.4566 Y-15.0667
G01 X-4.4447 Y-15.0765
G01 X-4.4335 Y-15.0871
G01 X-4.4231 Y-15.0986
G01 X-4.4064 Y-15.1215
G01 X-4.3929 Y-15.1463
G01 X-4.3870 Y-15.1606
G01 X-4.3821 Y-15.1753
G01 X-4.3761 Y-15.2030
G01 X-4.3744 Y-15.2184
G01 X-4.3738 Y-15.2338
G01 X-4.3742 Y-16.8467
G01 X-4.3778 Y-16.8748
G01 X-4.3852 Y-16.9021
G01 X-4.3962 Y-16.9282
G01 X-4.4106 Y-16.9526
G01 X-4.4282 Y-16.9748
G01 X-4.4486 Y-16.9945
G01 X-4.4715 Y-17.0112
G01 X-4.4944 Y-17.0238
G01 X-4.0732 Y-17.0238
G01 X-4.0961 Y-17.0112
G01 X-4.1190 Y-16.9945
G01 X-4.1394 Y-16.9748
G01 X-4.1570 Y-16.9526
G01 X-4.1714 Y-16.9282
G01 X-4.1824 Y-16.9021
G01 X-4.1898 Y-16.8748
G01 X-4.1934 Y-16.8467
G01 X-4.1938 Y-15.2338
G01 X-4.1919 Y-15.2055
G01 X-4.1892 Y-15.1903
G01 X-4.1855 Y-15.1753
G01 X-4.1806 Y-15.1606
G01 X-4.1747 Y-15.1463
G01 X-4.1612 Y-15.1215
G01 X-4.1445 Y-15.0986
G01 X-4.1341 Y-15.0871
G01 X-4.1229 Y-15.0765
G01 X-4.1110 Y-15.0667
G01 X-4.0983 Y-15.0578
G01 X-4.0732 Y-15.0438
G00 Z2.0000
G00 X-4.2368 Y-15.1138
G01 F70.00
G01 Z-0.0600
G01 F120.00
G01 X-4.3308 Y-15.1138
G01 X-4.3202 Y-15.1395
G01 X-4.3114 Y-15.1691
G01 X-4.3059 Y-15.1995
G01 X-4.3038 Y-15.2304
G01 X-4.3038 Y-16.8338
G01 X-4.3055 Y-16.8647
G01 X-4.3106 Y-16.8951
G01 X-4.3190 Y-16.9249
G01 X-4.3308 Y-16.9538
G01 X-4.2368 Y-16.9538
G01 X-4.2486 Y-16.9249
G01 X-4.2570 Y-16.8951
G01 X-4.2621 Y-16.8647
G01 X-4.2638 Y-16.8338
G01 X-4.2638 Y-15.2304
G01 X-4.2617 Y-15.1995
G01 X-4.2562 Y-15.1691
G01 X-4.2474 Y-15.1395
G01 X-4.2368 Y-15.1138
G00 Z2.0000
G00 X-5.3992 Y-14.0137
G01 F70.00
G01 Z-0.0600
G01 F120.00
G01 X-5.2986 Y-14.0137
G01 X-5.2986 Y-13.9131
G01 X-5.3072 Y-13.9294
G01 X-5.3169 Y-13.9446
G01 X-5.3279 Y-13.9589
G01 X-5.3401 Y-13.9722
G01 X-5.3534 Y-13.9844
G01 X-5.3677 Y-13.9954
G01 X-5.3829 Y-14.0051
G01 X-5.3992 Y-14.0137
G00 Z2.0000
G00 X-5.2286 Y-13.5304
G01 F70.00
G01 Z-0.0600
G01 F120.00
G01 X-5.3486 Y-13.5304
G01 X-5.3486 Y-13.8237
G01 X-5.3495 Y-13.8391
G01 X-5.3513 Y-13.8510
G01 X-5.3546 Y-13.8643
G01 X-5.3586 Y-13.8757
G01 X-5.3635 Y-13.8866
G01 X-5.3703 Y-13.8986
G01 X-5.3772 Y-13.9085
G01 X-5.3849 Y-13.9177
G01 X-5.3946 Y-13.9274
G01 X-5.4038 Y-13.9351
G01 X-5.4137 Y-13.9420
G01 X-5.4334 Y-13.9524
G01 X-5.4546 Y-13.9595
G01 X-5.4766 Y-13.9632
G01 X-5.8320 Y-13.9637
G01 X-5.8320 Y-14.0837
G01 X-5.2286 Y-14.0837
G01 X-5.2286 Y-13.5304
G00 Z2.0000
G00 X-5.1586 Y-13.4604
G01 F70.00
G01 Z-0.0600
G01 F120.00
G01 X-5.4186 Y-13.4604
G01 X-5.4189 Y-13.8297
G01 X-5.4201 Y-13.8382
G01 X-5.4224 Y-13.8465
G01 X-5.4295 Y-13.8611
G01 X-5.4345 Y-13.8681
G01 X-5.4403 Y-13.8744
G01 X-5.4534 Y-13.8842
G01 X-5.4610 Y-13.8880
G01 X-5.4691 Y-13.8909
G01 X-5.4775 Y-13.8928
G01 X-5.4869 Y-13.8937
G01 X-5.9020 Y-13.8937
G01 X-5.9020 Y-14.1537
G01 X-5.1586 Y-14.1537
G01 X-5.1586 Y-13.4604
G00 Z2.0000
G00 X-6.4753 Y-14.1537
G01 F70.00
G01 Z-0.0600
G01 F120.00
G01 X-6.4753 Y-13.8937
G01 X-6.8903 Y-13.8937
G01 X-6.8997 Y-13.8928
G01 X-6.9081 Y-13.8909
G01 X-6.9162 Y-13.8880
G01 X-6.9238 Y-13.8842
G01 X-6.9369 Y-13.8744
G01 X-6.9427 Y-13.8681
G01 X-6.9477 Y-13.8611
G01 X-6.9548 Y-13.8465
G01 X-6.9571 Y-13.8382
G01 X-6.9583 Y-13.8297
G01 X-6.9586 Y-13.4604
G01 X-7.2186 Y-13.4604
G01 X-7.2186 Y-14.1537
G01 X-6.4753 Y-14.1537
G00 Z2.0000
G00 X-6.5453 Y-14.0837
G01 F70.00
G01 Z-0.0600
G01 F120.00
G01 X-6.5453 Y-13.9637
G01 X-6.9006 Y-13.9632
G01 X-6.9226 Y-13.9595
G01 X-6.9438 Y-13.9524
G01 X-6.9635 Y-13.9420
G01 X-6.9734 Y-13.9351
G01 X-6.9826 Y-13.9274
G01 X-6.9923 Y-13.9177
G01 X-7.0000 Y-13.9085
G01 X-7.0078 Y-13.8971
G01 X-7.0137 Y-13.8866
G01 X-7.0186 Y-13.8757
G01 X-7.0226 Y-13.8643
G01 X-7.0259 Y-13.8510
G01 X-7.0277 Y-13.8391
G01 X-7.0286 Y-13.8237
G01 X-7.0286 Y-13.5304
G01 X-7.1486 Y-13.5304
G01 X-7.1486 Y-14.0837
G01 X-6.5453 Y-14.0837
G00 Z2.0000
G00 X-7.0786 Y-13.9131
G01 F70.00
G01 Z-0.0600
G01 F120.00
G01 X-7.0786 Y-14.0137
G01 X-6.9780 Y-14.0137
G01 X-6.9943 Y-14.0051
G01 X-7.0095 Y-13.9954
G01 X-7.0238 Y-13.9844
G01 X-7.0371 Y-13.9722
G01 X-7.0493 Y-13.9589
G01 X-7.0603 Y-13.9446
G01 X-7.0700 Y-13.9294
G01 X-7.0786 Y-13.9131
G00 Z2.0000
G00 X-7.0786 Y-12.4343
G01 F70.00
G01 Z-0.0600
G01 F120.00
G01 X-7.0646 Y-12.4092
G01 X-7.0557 Y-12.3965
G01 X-7.0459 Y-12.3846
G01 X-7.0258 Y-12.3647
G01 X-7.0137 Y-12.3550
G01 X-7.0009 Y-12.3463
G01 X-6.9876 Y-12.3385
G01 X-6.9737 Y-12.3317
G01 X-6.9471 Y-12.3220
G01 X-6.9321 Y-12.3183
G01 X-6.9169 Y-12.3156
G01 X-6.8886 Y-12.3137
G01 X-5.4886 Y-12.3137
G01 X-5.4732 Y-12.3143
G01 X-5.4476 Y-12.3177
G01 X-5.4203 Y-12.3251
G01 X-5.3942 Y-12.3361
G01 X-5.3698 Y-12.3505
G01 X-5.3476 Y-12.3681
G01 X-5.3279 Y-12.3885
G01 X-5.3112 Y-12.4114
G01 X-5.2986 Y-12.4343
G01 X-5.2986 Y-12.0131
G01 X-5.3126 Y-12.0382
G01 X-5.3215 Y-12.0509
G01 X-5.3313 Y-12.0628
G01 X-5.3514 Y-12.0827
G01 X-5.3635 Y-12.0924
G01 X-5.3763 Y-12.1011
G01 X-5.3896 Y-12.1089
G01 X-5.4035 Y-12.1157
G01 X-5.4301 Y-12.1254
G01 X-5.4451 Y-12.1291
G01 X-5.4603 Y-12.1318
G01 X-5.4886 Y-12.1337
G01 X-6.8886 Y-12.1337
G01 X-6.9040 Y-12.1331
G01 X-6.9296 Y-12.1297
G01 X-6.9569 Y-12.1223
G01 X-6.9830 Y-12.1113
G01 X-7.0074 Y-12.0969
G01 X-7.0296 Y-12.0793
G01 X-7.0493 Y-12.0589
G01 X-7.0660 Y-12.0360
G01 X-7.0786 Y-12.0131
G01 X-7.0786 Y-12.4343
G00 Z2.0000
G00 X-7.0086 Y-12.2707
G01 F70.00
G01 Z-0.0600
G01 F120.00
G01 X-6.9797 Y-12.2589
G01 X-6.9499 Y-12.2505
G01 X-6.9195 Y-12.2454
G01 X-6.8886 Y-12.2437
G01 X-5.4852 Y-12.2437
G01 X-5.4543 Y-12.2458
G01 X-5.4239 Y-12.2513
G01 X-5.3943 Y-12.2601
G01 X-5.3686 Y-12.2707
G01 X-5.3686 Y-12.1767
G01 X-5.3943 Y-12.1873
G01 X-5.4239 Y-12.1961
G01 X-5.4543 Y-12.2016
G01 X-5.4852 Y-12.2037
G01 X-6.8886 Y-12.2037
G01 X-6.9195 Y-12.2020
G01 X-6.9499 Y-12.1969
G01 X-6.9797 Y-12.1885
G01 X-7.0086 Y-12.1767
G01 X-7.0086 Y-12.2707
G00 Z2.0000
G00 X-8.2724 Y-12.0625
G01 F70.00
G01 Z-0.0600
G01 F120.00
G01 X-8.2709 Y-12.0701
G01 X-8.2666 Y-12.0766
G01 X-8.2601 Y-12.0809
G01 X-8.2525 Y-12.0824
G01 X-8.2449 Y-12.0809
G01 X-8.2384 Y-12.0766
G01 X-8.2341 Y-12.0701
G01 X-8.2326 Y-12.0625
G01 X-8.2341 Y-12.0549
G01 X-8.2384 Y-12.0484
G01 X-8.2449 Y-12.0441
G01 X-8.2525 Y-12.0426
G01 X-8.2601 Y-12.0441
G01 X-8.2666 Y-12.0484
G01 X-8.2709 Y-12.0549
G01 X-8.2724 Y-12.0625
G00 Z2.0000
G00 X-8.3424 Y-12.0625
G01 F70.00
G01 Z-0.0600
G01 F120.00
G01 X-8.3407 Y-12.0800
G01 X-8.3356 Y-12.0969
G01 X-8.3273 Y-12.1125
G01 X-8.3161 Y-12.1261
G01 X-8.3025 Y-12.1373
G01 X-8.2869 Y-12.1456
G01 X-8.2700 Y-12.1507
G01 X-8.2525 Y-12.1524
G01 X-8.2350 Y-12.1507
G01 X-8.2181 Y-12.1456
G01 X-8.2025 Y-12.1373
G01 X-8.1889 Y-12.1261
G01 X-8.1777 Y-12.1125
G01 X-8.1694 Y-12.0969
G01 X-8.1643 Y-12.0800
G01 X-8.1626 Y-12.0625
G01 X-8.1643 Y-12.0450
G01 X-8.1694 Y-12.0281
G01 X-8.1777 Y-12.0125
G01 X-8.1889 Y-11.9989
G01 X-8.2025 Y-11.9877
G01 X-8.2181 Y-11.9794
G01 X-8.2350 Y-11.9743
G01 X-8.2525 Y-11.9726
G01 X-8.2700 Y-11.9743
G01 X-8.2869 Y-11.9794
G01 X-8.3025 Y-11.9877
G01 X-8.3161 Y-11.9989
G01 X-8.3273 Y-12.0125
G01 X-8.3356 Y-12.0281
G01 X-8.3407 Y-12.0450
G01 X-8.3424 Y-12.0625
G00 Z2.0000
G00 X-8.4125 Y-12.0625
G01 F70.00
G01 Z-0.0600
G01 F120.00
G01 X-8.4117 Y-12.0782
G01 X-8.4094 Y-12.0937
G01 X-8.4056 Y-12.1089
G01 X-8.4003 Y-12.1237
G01 X-8.3936 Y-12.1379
G01 X-8.3855 Y-12.1514
G01 X-8.3761 Y-12.1640
G01 X-8.3656 Y-12.1756
G01 X-8.3540 Y-12.1861
G01 X-8.3414 Y-12.1955
G01 X-8.3279 Y-12.2036
G01 X-8.3137 Y-12.2103
G01 X-8.2989 Y-12.2156
G01 X-8.2837 Y-12.2194
G01 X-8.2682 Y-12.2217
G01 X-8.2525 Y-12.2225
G01 X-8.2368 Y-12.2217
G01 X-8.2213 Y-12.2194
G01 X-8.2061 Y-12.2156
G01 X-8.1913 Y-12.2103
G01 X-8.1771 Y-12.2036
G01 X-8.1636 Y-12.1955
G01 X-8.1510 Y-12.1861
G01 X-8.1394 Y-12.1756
G01 X-8.1289 Y-12.1640
G01 X-8.1195 Y-12.1514
G01 X-8.1114 Y-12.1379
G01 X-8.1047 Y-12.1237
G01 X-8.0994 Y-12.1089
G01 X-8.0956 Y-12.0937
G01 X-8.0933 Y-12.0782
G01 X-8.0925 Y-12.0625
G01 X-8.0933 Y-12.0468
G01 X-8.0956 Y-12.0313
G01 X-8.0994 Y-12.0161
G01 X-8.1047 Y-12.0013
G01 X-8.1114 Y-11.9871
G01 X-8.1195 Y-11.9736
G01 X-8.1289 Y-11.9610
G01 X-8.1394 Y-11.9494
G01 X-8.1510 Y-11.9389
G01 X-8.1636 Y-11.9295
G01 X-8.1771 Y-11.9214
G01 X-8.1913 Y-11.9147
G01 X-8.2061 Y-11.9094
G01 X-8.2213 Y-11.9056
G01 X-8.2368 Y-11.9033
G01 X-8.2525 Y-11.9025
G01 X-8.2682 Y-11.9033
G01 X-8.2837 Y-11.9056
G01 X-8.2989 Y-11.9094
G01 X-8.3137 Y-11.9147
G01 X-8.3279 Y-11.9214
G01 X-8.3414 Y-11.9295
G01 X-8.3540 Y-11.9389
G01 X-8.3656 Y-11.9494
G01 X-8.3761 Y-11.9610
G01 X-8.3855 Y-11.9736
G01 X-8.3936 Y-11.9871
G01 X-8.4003 Y-12.0013
G01 X-8.4056 Y-12.0161
G01 X-8.4094 Y-12.0313
G01 X-8.4117 Y-12.0468
G01 X-8.4125 Y-12.0625
G00 Z2.0000
G00 X-8.4825 Y-12.0625
G01 F70.00
G01 Z-0.0600
G01 F120.00
G01 X-8.4814 Y-12.0850
G01 X-8.4781 Y-12.1074
G01 X-8.4726 Y-12.1293
G01 X-8.4650 Y-12.1505
G01 X-8.4553 Y-12.1709
G01 X-8.4437 Y-12.1903
G01 X-8.4303 Y-12.2084
G01 X-8.4151 Y-12.2251
G01 X-8.3984 Y-12.2403
G01 X-8.3803 Y-12.2537
G01 X-8.3609 Y-12.2653
G01 X-8.3405 Y-12.2750
G01 X-8.3193 Y-12.2826
G01 X-8.2974 Y-12.2881
G01 X-8.2750 Y-12.2914
G01 X-8.2525 Y-12.2925
G01 X-8.2300 Y-12.2914
G01 X-8.2076 Y-12.2881
G01 X-8.1857 Y-12.2826
G01 X-8.1645 Y-12.2750
G01 X-8.1441 Y-12.2653
G01 X-8.1247 Y-12.2537
G01 X-8.1066 Y-12.2403
G01 X-8.0899 Y-12.2251
G01 X-8.0747 Y-12.2084
G01 X-8.0613 Y-12.1903
G01 X-8.0497 Y-12.1709
G01 X-8.0400 Y-12.1505
G01 X-8.0324 Y-12.1293
G01 X-8.0269 Y-12.1074
G01 X-8.0236 Y-12.0850
G01 X-8.0225 Y-12.0625
G01 X-8.0236 Y-12.0400
G01 X-8.0269 Y-12.0176
G01 X-8.0324 Y-11.9957
G01 X-8.0400 Y-11.9745
G01 X-8.0497 Y-11.9541
G01 X-8.0613 Y-11.9347
G01 X-8.0747 Y-11.9166
G01 X-8.0899 Y-11.8999
G01 X-8.1066 Y-11.8847
G01 X-8.1247 Y-11.8713
G01 X-8.1441 Y-11.8597
G01 X-8.1645 Y-11.8500
G01 X-8.1857 Y-11.8424
G01 X-8.2076 Y-11.8369
G01 X-8.2300 Y-11.8336
G01 X-8.2525 Y-11.8325
G01 X-8.2750 Y-11.8336
G01 X-8.2974 Y-11.8369
G01 X-8.3193 Y-11.8424
G01 X-8.3405 Y-11.8500
G01 X-8.3609 Y-11.8597
G01 X-8.3803 Y-11.8713
G01 X-8.3984 Y-11.8847
G01 X-8.4151 Y-11.8999
G01 X-8.4303 Y-11.9166
G01 X-8.4437 Y-11.9347
G01 X-8.4553 Y-11.9541
G01 X-8.4650 Y-11.9745
G01 X-8.4726 Y-11.9957
G01 X-8.4781 Y-12.0176
G01 X-8.4814 Y-12.0400
G01 X-8.4825 Y-12.0625
G00 Z2.0000
G00 X-9.4875 Y-11.4137
G01 F70.00
G01 Z-0.0600
G01 F120.00
G01 X-9.4875 Y-11.3131
G01 X-9.5251 Y-11.3125
G01 X-9.5532 Y-11.3085
G01 X-9.5706 Y-11.3041
G01 X-9.5853 Y-11.2990
G01 X-9.5995 Y-11.2929
G01 X-9.6132 Y-11.2858
G01 X-9.6263 Y-11.2777
G01 X-9.6389 Y-11.2687
G01 X-9.6507 Y-11.2587
G01 X-9.6635 Y-11.2460
G01 X-9.6752 Y-11.2323
G01 X-9.6843 Y-11.2198
G01 X-9.6924 Y-11.2066
G01 X-9.6999 Y-11.1921
G01 X-9.6999 Y-11.2931
G01 X-9.6621 Y-11.2937
G01 X-9.6340 Y-11.2977
G01 X-9.6190 Y-11.3014
G01 X-9.6019 Y-11.3072
G01 X-9.5877 Y-11.3133
G01 X-9.5740 Y-11.3204
G01 X-9.5608 Y-11.3285
G01 X-9.5483 Y-11.3375
G01 X-9.5365 Y-11.3475
G01 X-9.5236 Y-11.3602
G01 X-9.5135 Y-11.3719
G01 X-9.5029 Y-11.3864
G01 X-9.4948 Y-11.3996
G01 X-9.4875 Y-11.4137
G00 Z2.0000
G00 X-10.7209 Y-11.2931
G01 F70.00
G01 Z-0.0600
G01 F120.00
G01 X-10.6201 Y-11.2931
G01 X-10.6201 Y-11.1921
G01 X-10.6289 Y-11.2088
G01 X-10.6386 Y-11.2240
G01 X-10.6496 Y-11.2383
G01 X-10.6618 Y-11.2516
G01 X-10.6751 Y-11.2638
G01 X-10.6894 Y-11.2748
G01 X-10.7046 Y-11.2845
G01 X-10.7209 Y-11.2931
G00 Z2.0000
G00 X-11.2466 Y-11.1031
G01 F70.00
G01 Z-0.0600
G01 F120.00
G01 X-11.2454 Y-11.1159
G01 X-11.2422 Y-11.1275
G01 X-11.2371 Y-11.1383
G01 X-11.2296 Y-11.1488
G01 X-11.2210 Y-11.1572
G01 X-11.2111 Y-11.1640
G01 X-11.1993 Y-11.1693
G01 X-11.1877 Y-11.1722
G01 X-11.1766 Y-11.1731
G01 X-10.8103 Y-11.1731
G01 X-10.7967 Y-11.1718
G01 X-10.7835 Y-11.1678
G01 X-10.7714 Y-11.1613
G01 X-10.7602 Y-11.1520
G01 X-10.7512 Y-11.1405
G01 X-10.7450 Y-11.1283
G01 X-10.7414 Y-11.1151
G01 X-10.7403 Y-11.1013
G01 X-10.7415 Y-11.0885
G01 X-10.7447 Y-11.0769
G01 X-10.7503 Y-11.0653
G01 X-10.7573 Y-11.0556
G01 X-10.7659 Y-11.0472
G01 X-10.7758 Y-11.0404
G01 X-10.7876 Y-11.0351
G01 X-10.7992 Y-11.0322
G01 X-10.8103 Y-11.0313
G01 X-11.1766 Y-11.0313
G01 X-11.1902 Y-11.0326
G01 X-11.2034 Y-11.0366
G01 X-11.2155 Y-11.0431
G01 X-11.2267 Y-11.0524
G01 X-11.2357 Y-11.0639
G01 X-11.2419 Y-11.0761
G01 X-11.2455 Y-11.0893
G01 X-11.2466 Y-11.1031
G00 Z2.0000
G00 X-11.3166 Y-11.1031
G01 F70.00
G01 Z-0.0600
G01 F120.00
G01 X-11.3148 Y-11.1253
G01 X-11.3095 Y-11.1470
G01 X-11.3008 Y-11.1676
G01 X-11.2949 Y-11.1780
G01 X-11.2880 Y-11.1879
G01 X-11.2731 Y-11.2045
G01 X-11.2558 Y-11.2185
G01 X-11.2456 Y-11.2249
G01 X-11.2349 Y-11.2304
G01 X-11.2139 Y-11.2380
G01 X-11.1971 Y-11.2416
G01 X-11.1783 Y-11.2431
G01 X-10.8103 Y-11.2431
G01 X-10.7966 Y-11.2424
G01 X-10.7813 Y-11.2401
G01 X-10.7680 Y-11.2366
G01 X-10.7552 Y-11.2318
G01 X-10.7428 Y-11.2257
G01 X-10.7311 Y-11.2185
G01 X-10.7202 Y-11.2102
G01 X-10.7101 Y-11.2009
G01 X-10.7010 Y-11.1906
G01 X-10.6930 Y-11.1794
G01 X-10.6861 Y-11.1676
G01 X-10.6803 Y-11.1551
G01 X-10.6759 Y-11.1421
G01 X-10.6727 Y-11.1287
G01 X-10.6708 Y-11.1151
G01 X-10.6703 Y-11.1013
G01 X-10.6708 Y-11.0893
G01 X-10.6724 Y-11.0774
G01 X-10.6779 Y-11.0558
G01 X-10.6869 Y-11.0353
G01 X-10.6989 Y-11.0165
G01 X-10.7138 Y-10.9999
G01 X-10.7311 Y-10.9859
G01 X-10.7413 Y-10.9795
G01 X-10.7520 Y-10.9740
G01 X-10.7730 Y-10.9664
G01 X-10.7898 Y-10.9628
G01 X-10.8086 Y-10.9613
G01 X-11.1766 Y-10.9613
G01 X-11.1903 Y-10.9620
G01 X-11.2056 Y-10.9643
G01 X-11.2189 Y-10.9678
G01 X-11.2317 Y-10.9726
G01 X-11.2441 Y-10.9787
G01 X-11.2558 Y-10.9859
G01 X-11.2667 Y-10.9942
G01 X-11.2768 Y-11.0035
G01 X-11.2859 Y-11.0138
G01 X-11.2939 Y-11.0250
G01 X-11.3008 Y-11.0368
G01 X-11.3066 Y-11.0493
G01 X-11.3110 Y-11.0623
G01 X-11.3142 Y-11.0757
G01 X-11.3161 Y-11.0893
G01 X-11.3166 Y-11.1031
G00 Z2.0000
G00 X-11.3668 Y-11.1921
G01 F70.00
G01 Z-0.0600
G01 F120.00
G01 X-11.3668 Y-11.3130
G01 X-11.3434 Y-11.3037
G01 X-11.3185 Y-11.2971
G01 X-11.2929 Y-11.2937
G01 X-11.2660 Y-11.2931
G01 X-11.2823 Y-11.2845
G01 X-11.2975 Y-11.2748
G01 X-11.3118 Y-11.2638
G01 X-11.3251 Y-11.2516
G01 X-11.3373 Y-11.2383
G01 X-11.3483 Y-11.2240
G01 X-11.3580 Y-11.2088
G01 X-11.3668 Y-11.1921
G00 Z2.0000
G00 X-11.2660 Y-10.9113
G01 F70.00
G01 Z-0.0600
G01 F120.00
G01 X-11.3668 Y-10.9113
G01 X-11.3668 Y-11.0123
G01 X-11.3580 Y-10.9956
G01 X-11.3483 Y-10.9804
G01 X-11.3373 Y-10.9661
G01 X-11.3251 Y-10.9528
G01 X-11.3118 Y-10.9406
G01 X-11.2975 Y-10.9296
G01 X-11.2823 Y-10.9199
G01 X-11.2660 Y-10.9113
G00 Z2.0000
G00 X-10.8968 Y-10.0249
G01 F70.00
G01 Z-0.0600
G01 F120.00
G01 X-10.8970 Y-10.7116
G01 X-10.8998 Y-10.7424
G01 X-10.9052 Y-10.7693
G01 X-10.9132 Y-10.7956
G01 X-10.9238 Y-10.8213
G01 X-10.8069 Y-10.8213
G01 X-10.7795 Y-10.8230
G01 X-10.7557 Y-10.8267
G01 X-10.7323 Y-10.8324
G01 X-10.7096 Y-10.8401
G01 X-10.6901 Y-10.8484
G01 X-10.6901 Y-10.0900
G01 X-10.7242 Y-10.0899
G01 X-10.7482 Y-10.0883
G01 X-10.7753 Y-10.0839
G01 X-10.8019 Y-10.0769
G01 X-10.8276 Y-10.0674
G01 X-10.8523 Y-10.0553
G01 X-10.8757 Y-10.0409
G01 X-10.8968 Y-10.0249
G00 Z2.0000
G00 X-10.9759 Y-9.1026
G01 F70.00
G01 Z-0.0600
G01 F120.00
G01 X-10.9795 Y-9.1026
G01 X-10.9769 Y-9.1052
G01 X-10.9759 Y-9.1026
G00 Z2.0000
G00 X-10.8297 Y-9.0326
G01 F70.00
G01 Z-0.0600
G01 F120.00
G01 X-11.0806 Y-9.0326
G01 X-11.1422 Y-9.0942
G01 X-11.1233 Y-9.0982
G01 X-11.1061 Y-9.1036
G01 X-11.0893 Y-9.1104
G01 X-11.0733 Y-9.1186
G01 X-11.0580 Y-9.1281
G01 X-11.0436 Y-9.1390
G01 X-11.0301 Y-9.1510
G01 X-11.0178 Y-9.1641
G01 X-11.0066 Y-9.1783
G01 X-10.9967 Y-9.1933
G01 X-10.9881 Y-9.2092
G01 X-10.9809 Y-9.2257
G01 X-10.9751 Y-9.2428
G01 X-10.9708 Y-9.2603
G01 X-10.9681 Y-9.2782
G01 X-10.9669 Y-9.2961
G01 X-10.9668 Y-10.7013
G01 X-10.9674 Y-10.7167
G01 X-10.9708 Y-10.7423
G01 X-10.9782 Y-10.7696
G01 X-10.9892 Y-10.7957
G01 X-11.0036 Y-10.8201
G01 X-11.0212 Y-10.8423
G01 X-11.0416 Y-10.8620
G01 X-11.0645 Y-10.8787
G01 X-11.0874 Y-10.8913
G01 X-10.8052 Y-10.8914
G01 X-10.7821 Y-10.8932
G01 X-10.7568 Y-10.8982
G01 X-10.7347 Y-10.9054
G01 X-10.7136 Y-10.9149
G01 X-10.6937 Y-10.9267
G01 X-10.6751 Y-10.9406
G01 X-10.6582 Y-10.9565
G01 X-10.6432 Y-10.9741
G01 X-10.6302 Y-10.9933
G01 X-10.6201 Y-11.0123
G01 X-10.6201 Y-10.0200
G01 X-10.7199 Y-10.0200
G01 X-10.7481 Y-10.0177
G01 X-10.7683 Y-10.0137
G01 X-10.7880 Y-10.0077
G01 X-10.8094 Y-9.9987
G01 X-10.8275 Y-9.9888
G01 X-10.8465 Y-9.9756
G01 X-10.8658 Y-9.9585
G01 X-10.8813 Y-9.9412
G01 X-10.8947 Y-9.9223
G01 X-10.9071 Y-9.8998
G01 X-10.9159 Y-9.8783
G01 X-10.9222 Y-9.8560
G01 X-10.9260 Y-9.8331
G01 X-10.9273 Y-9.8100
G01 X-10.9273 Y-9.2100
G01 X-10.9257 Y-9.1843
G01 X-10.9216 Y-9.1615
G01 X-10.9150 Y-9.1393
G01 X-10.9060 Y-9.1179
G01 X-10.8947 Y-9.0977
G01 X-10.8813 Y-9.0788
G01 X-10.8658 Y-9.0615
G01 X-10.8485 Y-9.0460
G01 X-10.8297 Y-9.0326
G00 Z2.0000
G00 X-11.0283 Y-8.1124
G01 F70.00
G01 Z-0.0600
G01 F120.00
G01 X-10.8909 Y-8.1124
G01 X-10.8746 Y-8.0915
G01 X-10.8545 Y-8.0716
G01 X-10.8318 Y-8.0546
G01 X-10.8074 Y-8.0409
G01 X-10.8230 Y-8.0326
G01 X-10.8382 Y-8.0229
G01 X-10.8525 Y-8.0119
G01 X-10.8658 Y-7.9997
G01 X-10.8780 Y-7.9864
G01 X-10.8890 Y-7.9721
G01 X-10.8987 Y-7.9569
G01 X-10.9080 Y-7.9392
G01 X-10.9119 Y-7.9657
G01 X-10.9196 Y-7.9929
G01 X-10.9309 Y-8.0189
G01 X-10.9441 Y-8.0410
G01 X-10.9617 Y-8.0632
G01 X-10.9821 Y-8.0829
G01 X-11.0050 Y-8.0996
G01 X-11.0283 Y-8.1124
G00 Z2.0000
G00 X-11.1173 Y-7.9922
G01 F70.00
G01 Z-0.0600
G01 F120.00
G01 X-11.1036 Y-7.9908
G01 X-11.0913 Y-7.9872
G01 X-11.0799 Y-7.9813
G01 X-11.0690 Y-7.9729
G01 X-11.0606 Y-7.9632
G01 X-11.0537 Y-7.9513
G01 X-11.0494 Y-7.9392
G01 X-11.0474 Y-7.9265
G01 X-11.0473 Y-6.9212
G01 X-10.8889 Y-6.9212
G01 X-10.8795 Y-6.9204
G01 X-10.8711 Y-6.9187
G01 X-10.8614 Y-6.9152
G01 X-10.8523 Y-6.9103
G01 X-10.8440 Y-6.9042
G01 X-10.8367 Y-6.8969
G01 X-10.8306 Y-6.8886
G01 X-10.8257 Y-6.8796
G01 X-10.8223 Y-6.8699
G01 X-10.8203 Y-6.8598
G01 X-10.8197 Y-6.8512
G01 X-10.8197 Y-5.5875
G01 X-10.8206 Y-5.5764
G01 X-10.8235 Y-5.5647
G01 X-10.8306 Y-5.5500
G01 X-10.8402 Y-5.5380
G01 X-11.9674 Y-4.4108
G01 X-11.9738 Y-4.4051
G01 X-11.9831 Y-4.3990
G01 X-11.9933 Y-4.3944
G01 X-12.0041 Y-4.3915
G01 X-12.0152 Y-4.3903
G01 X-12.3128 Y-4.3903
G01 X-12.3239 Y-4.3914
G01 X-12.3347 Y-4.3941
G01 X-12.3441 Y-4.3982
G01 X-12.3536 Y-4.4041
G01 X-12.3614 Y-4.4108
G01 X-12.3681 Y-4.4186
G01 X-12.3736 Y-4.4273
G01 X-12.3778 Y-4.4367
G01 X-12.3806 Y-4.4467
G01 X-12.3818 Y-4.4569
G01 X-12.3819 Y-5.1481
G01 X-12.3800 Y-5.1634
G01 X-12.3744 Y-5.1787
G01 X-12.3681 Y-5.1889
G01 X-12.3595 Y-5.1985
G01 X-12.3501 Y-5.2059
G01 X-12.3387 Y-5.2119
G01 X-12.3272 Y-5.2155
G01 X-12.2988 Y-5.2206
G01 X-12.2399 Y-5.2338
G01 X-12.1818 Y-5.2499
G01 X-12.1244 Y-5.2688
G01 X-12.0681 Y-5.2905
G01 X-12.0129 Y-5.3150
G01 X-11.9590 Y-5.3422
G01 X-11.9065 Y-5.3719
G01 X-11.8555 Y-5.4042
G01 X-11.8061 Y-5.4390
G01 X-11.7585 Y-5.4761
G01 X-11.7128 Y-5.5155
G01 X-11.6691 Y-5.5572
G01 X-11.6274 Y-5.6009
G01 X-11.5880 Y-5.6466
G01 X-11.5509 Y-5.6942
G01 X-11.5161 Y-5.7436
G01 X-11.4838 Y-5.7946
G01 X-11.4541 Y-5.8471
G01 X-11.4269 Y-5.9010
G01 X-11.4024 Y-5.9562
G01 X-11.3807 Y-6.0125
G01 X-11.3618 Y-6.0699
G01 X-11.3457 Y-6.1280
G01 X-11.3325 Y-6.1869
G01 X-11.3221 Y-6.2464
G01 X-11.3147 Y-6.3063
G01 X-11.3103 Y-6.3665
G01 X-11.3088 Y-6.4269
G01 X-11.3103 Y-6.4873
G01 X-11.3147 Y-6.5475
G01 X-11.3221 Y-6.6074
G01 X-11.3325 Y-6.6669
G01 X-11.3457 Y-6.7258
G01 X-11.3618 Y-6.7839
G01 X-11.3807 Y-6.8413
G01 X-11.4024 Y-6.8976
G01 X-11.4269 Y-6.9528
G01 X-11.4541 Y-7.0067
G01 X-11.4838 Y-7.0592
G01 X-11.5161 Y-7.1102
G01 X-11.5509 Y-7.1596
G01 X-11.5880 Y-7.2072
G01 X-11.6274 Y-7.2529
G01 X-11.6691 Y-7.2966
G01 X-11.7128 Y-7.3383
G01 X-11.7585 Y-7.3777
G01 X-11.8061 Y-7.4148
G01 X-11.8555 Y-7.4496
G01 X-11.9065 Y-7.4819
G01 X-11.9590 Y-7.5116
G01 X-12.0129 Y-7.5388
G01 X-12.0681 Y-7.5633
G01 X-12.1244 Y-7.5850
G01 X-12.1818 Y-7.6039
G01 X-12.2399 Y-7.6200
G01 X-12.3010 Y-7.6337
G01 X-12.3124 Y-7.6375
G01 X-12.3237 Y-7.6436
G01 X-12.3337 Y-7.6517
G01 X-12.3420 Y-7.6615
G01 X-12.3484 Y-7.6727
G01 X-12.3531 Y-7.6865
G01 X-12.3548 Y-7.7010
G01 X-12.3548 Y-8.6663
G01 X-12.3542 Y-8.6757
G01 X-12.3523 Y-8.6850
G01 X-12.3491 Y-8.6939
G01 X-12.3453 Y-8.7015
G01 X-12.3361 Y-8.7139
G01 X-12.3251 Y-8.7235
G01 X-12.3116 Y-8.7310
G01 X-12.2976 Y-8.7351
G01 X-12.2831 Y-8.7363
G01 X-12.2678 Y-8.7342
G01 X-12.2541 Y-8.7292
G01 X-12.2411 Y-8.7210
G01 X-11.6821 Y-8.1627
G01 X-11.6609 Y-8.1425
G01 X-11.6393 Y-8.1239
G01 X-11.6169 Y-8.1064
G01 X-11.5936 Y-8.0900
G01 X-11.5695 Y-8.0747
G01 X-11.5447 Y-8.0607
G01 X-11.5193 Y-8.0479
G01 X-11.4932 Y-8.0364
G01 X-11.4667 Y-8.0261
G01 X-11.4396 Y-8.0172
G01 X-11.4122 Y-8.0096
G01 X-11.3844 Y-8.0033
G01 X-11.3563 Y-7.9985
G01 X-11.3281 Y-7.9950
G01 X-11.2997 Y-7.9929
G01 X-11.2703 Y-7.9922
G01 X-11.1173 Y-7.9922
G00 Z2.0000
G00 X-10.6995 Y-6.9402
G01 F70.00
G01 Z-0.0600
G01 F120.00
G01 X-10.7070 Y-6.9547
G01 X-10.7151 Y-6.9679
G01 X-10.7242 Y-6.9804
G01 X-10.7341 Y-6.9922
G01 X-10.7449 Y-7.0033
G01 X-10.7565 Y-7.0135
G01 X-10.7709 Y-7.0244
G01 X-10.7840 Y-7.0326
G01 X-10.7976 Y-7.0399
G01 X-10.8117 Y-7.0462
G01 X-10.8263 Y-7.0514
G01 X-10.8412 Y-7.0555
G01 X-10.8564 Y-7.0585
G01 X-10.8717 Y-7.0604
G01 X-10.9073 Y-7.0612
G01 X-10.9073 Y-7.1618
G01 X-10.9000 Y-7.1477
G01 X-10.8919 Y-7.1345
G01 X-10.8829 Y-7.1220
G01 X-10.8729 Y-7.1102
G01 X-10.8621 Y-7.0991
G01 X-10.8505 Y-7.0889
G01 X-10.8361 Y-7.0780
G01 X-10.8230 Y-7.0698
G01 X-10.8094 Y-7.0625
G01 X-10.7953 Y-7.0562
G01 X-10.7807 Y-7.0510
G01 X-10.7658 Y-7.0469
G01 X-10.7507 Y-7.0439
G01 X-10.7353 Y-7.0420
G01 X-10.6995 Y-7.0412
G01 X-10.6995 Y-6.9402
G00 Z2.0000
G00 X-9.6785 Y-7.0412
G01 F70.00
G01 Z-0.0600
G01 F120.00
G01 X-9.6948 Y-7.0326
G01 X-9.7100 Y-7.0229
G01 X-9.7243 Y-7.0119
G01 X-9.7376 Y-6.9997
G01 X-9.7498 Y-6.9864
G01 X-9.7608 Y-6.9721
G01 X-9.7705 Y-6.9569
G01 X-9.7793 Y-6.9402
G01 X-9.7793 Y-7.0412
G01 X-9.6785 Y-7.0412
G00 Z2.0000
G00 X-9.4273 Y-7.1618
G01 F70.00
G01 Z-0.0600
G01 F120.00
G01 X-9.4273 Y-7.0612
G01 X-9.5279 Y-7.0612
G01 X-9.5116 Y-7.0698
G01 X-9.4964 Y-7.0795
G01 X-9.4821 Y-7.0905
G01 X-9.4688 Y-7.1027
G01 X-9.4566 Y-7.1160
G01 X-9.4456 Y-7.1303
G01 X-9.4359 Y-7.1455
G01 X-9.4273 Y-7.1618
G00 Z2.0000
G00 X-9.4273 Y-8.1412
G01 F70.00
G01 Z-0.0600
G01 F120.00
G01 X-9.4273 Y-7.9406
G01 X-9.4359 Y-7.9569
G01 X-9.4456 Y-7.9721
G01 X-9.4566 Y-7.9864
G01 X-9.4688 Y-7.9997
G01 X-9.4821 Y-8.0119
G01 X-9.4964 Y-8.0229
G01 X-9.5116 Y-8.0326
G01 X-9.5272 Y-8.0409
G01 X-9.5116 Y-8.0492
G01 X-9.4964 Y-8.0589
G01 X-9.4821 Y-8.0699
G01 X-9.4688 Y-8.0821
G01 X-9.4566 Y-8.0954
G01 X-9.4456 Y-8.1097
G01 X-9.4359 Y-8.1249
G01 X-9.4273 Y-8.1412
G00 Z2.0000
G00 X-9.4273 Y-9.1206
G01 F70.00
G01 Z-0.0600
G01 F120.00
G01 X-9.4273 Y-8.9200
G01 X-9.4359 Y-8.9363
G01 X-9.4456 Y-8.9515
G01 X-9.4566 Y-8.9658
G01 X-9.4688 Y-8.9791
G01 X-9.4821 Y-8.9913
G01 X-9.4964 Y-9.0023
G01 X-9.5116 Y-9.0120
G01 X-9.5272 Y-9.0203
G01 X-9.5116 Y-9.0286
G01 X-9.4964 Y-9.0383
G01 X-9.4821 Y-9.0493
G01 X-9.4688 Y-9.0615
G01 X-9.4566 Y-9.0748
G01 X-9.4456 Y-9.0891
G01 X-9.4359 Y-9.1043
G01 X-9.4273 Y-9.1206
G00 Z2.0000
G00 X-9.5300 Y-10.0010
G01 F70.00
G01 Z-0.0600
G01 F120.00
G01 X-9.5123 Y-10.0000
G01 X-9.4273 Y-10.0000
G01 X-9.4273 Y-9.8994
G01 X-9.4359 Y-9.9157
G01 X-9.4456 Y-9.9309
G01 X-9.4566 Y-9.9452
G01 X-9.4688 Y-9.9585
G01 X-9.4821 Y-9.9707
G01 X-9.4985 Y-9.9832
G01 X-9.5138 Y-9.9927
G01 X-9.5300 Y-10.0010
G00 Z2.0000
G00 X-9.6999 Y-10.1210
G01 F70.00
G01 Z-0.0600
G01 F120.00
G01 X-9.6911 Y-10.1043
G01 X-9.6814 Y-10.0891
G01 X-9.6704 Y-10.0748
G01 X-9.6582 Y-10.0615
G01 X-9.6449 Y-10.0493
G01 X-9.6285 Y-10.0368
G01 X-9.6132 Y-10.0273
G01 X-9.5970 Y-10.0190
G01 X-9.6147 Y-10.0200
G01 X-9.6999 Y-10.0200
G01 X-9.6999 Y-10.1210
G00 Z2.0000
G00 X-8.2073 Y-10.4153
G01 F70.00
G01 Z-0.0600
G01 F120.00
G01 X-8.2073 Y-10.5159
G01 X-8.1067 Y-10.5159
G01 X-8.1230 Y-10.5073
G01 X-8.1382 Y-10.4976
G01 X-8.1525 Y-10.4866
G01 X-8.1658 Y-10.4744
G01 X-8.1780 Y-10.4611
G01 X-8.1890 Y-10.4468
G01 X-8.1987 Y-10.4316
G01 X-8.2073 Y-10.4153
G00 Z2.0000
G00 X-7.1992 Y-10.5359
G01 F70.00
G01 Z-0.0600
G01 F120.00
G01 X-7.1784 Y-10.5471
G01 X-7.1594 Y-10.5603
G01 X-7.1419 Y-10.5756
G01 X-7.1262 Y-10.5928
G01 X-7.1409 Y-10.5695
G01 X-7.1600 Y-10.5359
G01 X-7.1992 Y-10.5359
G00 Z2.0000
G00 X-7.1177 Y-10.4659
G01 F70.00
G01 Z-0.0600
G01 F120.00
G01 X-7.1052 Y-10.4906
G01 X-7.0799 Y-10.5349
G01 X-7.0535 Y-10.5766
G01 X-7.0282 Y-10.6127
G01 X-7.0285 Y-11.9289
G01 X-7.0273 Y-11.9425
G01 X-7.0248 Y-11.9560
G01 X-7.0204 Y-11.9709
G01 X-7.0152 Y-11.9836
G01 X-7.0087 Y-11.9957
G01 X-7.0000 Y-12.0085
G01 X-6.9912 Y-12.0190
G01 X-6.9813 Y-12.0286
G01 X-6.9720 Y-12.0361
G01 X-6.9606 Y-12.0438
G01 X-6.9500 Y-12.0495
G01 X-6.9390 Y-12.0543
G01 X-6.9276 Y-12.0582
G01 X-6.9159 Y-12.0610
G01 X-6.9040 Y-12.0628
G01 X-6.8920 Y-12.0637
G01 X-5.4869 Y-12.0637
G01 X-5.4732 Y-12.0628
G01 X-5.4579 Y-12.0603
G01 X-5.4447 Y-12.0566
G01 X-5.4303 Y-12.0510
G01 X-5.4181 Y-12.0447
G01 X-5.4052 Y-12.0361
G01 X-5.3933 Y-12.0263
G01 X-5.3837 Y-12.0164
G01 X-5.3751 Y-12.0057
G01 X-5.3685 Y-11.9957
G01 X-5.3628 Y-11.9851
G01 X-5.3580 Y-11.9741
G01 X-5.3541 Y-11.9627
G01 X-5.3513 Y-11.9510
G01 X-5.3495 Y-11.9391
G01 X-5.3486 Y-11.9271
G01 X-5.3491 Y-10.6122
G01 X-5.3241 Y-10.5766
G01 X-5.2968 Y-10.5335
G01 X-5.2716 Y-10.4891
G01 X-5.2502 Y-10.4465
G01 X-5.2267 Y-10.3936
G01 X-5.2096 Y-10.3492
G01 X-5.1936 Y-10.3007
G01 X-5.1800 Y-10.2515
G01 X-5.1695 Y-10.2051
G01 X-5.1596 Y-10.1480
G01 X-5.1538 Y-10.1007
G01 X-5.1501 Y-10.0498
G01 X-5.1488 Y-9.9988
G01 X-5.1500 Y-9.9495
G01 X-5.1538 Y-9.8969
G01 X-5.1601 Y-9.8462
G01 X-5.1688 Y-9.7959
G01 X-5.1800 Y-9.7461
G01 X-5.1936 Y-9.6969
G01 X-5.2096 Y-9.6484
G01 X-5.2280 Y-9.6008
G01 X-5.2487 Y-9.5541
G01 X-5.2716 Y-9.5085
G01 X-5.2968 Y-9.4641
G01 X-5.3241 Y-9.4210
G01 X-5.3535 Y-9.3793
G01 X-5.3849 Y-9.3390
G01 X-5.4182 Y-9.3004
G01 X-5.4534 Y-9.2634
G01 X-5.4917 Y-9.2271
G01 X-5.5290 Y-9.1949
G01 X-5.5693 Y-9.1635
G01 X-5.6110 Y-9.1341
G01 X-5.6512 Y-9.1086
G01 X-5.7016 Y-9.0800
G01 X-5.7441 Y-9.0587
G01 X-5.7908 Y-9.0380
G01 X-5.8384 Y-9.0196
G01 X-5.8836 Y-9.0046
G01 X-5.9394 Y-8.9892
G01 X-5.9859 Y-8.9788
G01 X-6.0362 Y-8.9701
G01 X-6.0869 Y-8.9638
G01 X-6.1378 Y-8.9601
G01 X-6.1888 Y-8.9588
G01 X-6.2364 Y-8.9599
G01 X-6.2942 Y-8.9642
G01 X-6.3414 Y-8.9701
G01 X-6.3917 Y-8.9788
G01 X-6.4415 Y-8.9900
G01 X-6.4890 Y-9.0031
G01 X-6.5424 Y-9.0208
G01 X-6.5868 Y-9.0380
G01 X-6.6350 Y-9.0594
G01 X-6.6791 Y-9.0816
G01 X-6.7220 Y-9.1059
G01 X-6.7652 Y-9.1331
G01 X-6.7904 Y-9.1508
G01 X-6.7999 Y-9.1337
G01 X-6.8113 Y-9.1186
G01 X-6.8246 Y-9.1051
G01 X-6.8395 Y-9.0936
G01 X-6.8559 Y-9.0842
G01 X-6.8734 Y-9.0771
G01 X-6.8934 Y-9.0721
G01 X-6.9121 Y-9.0701
G01 X-8.0207 Y-9.0700
G01 X-8.0429 Y-9.0724
G01 X-8.0645 Y-9.0782
G01 X-8.0833 Y-9.0865
G01 X-8.1021 Y-9.0986
G01 X-8.1138 Y-9.1086
G01 X-8.1244 Y-9.1199
G01 X-8.1337 Y-9.1322
G01 X-8.1416 Y-9.1455
G01 X-8.1479 Y-9.1596
G01 X-8.1527 Y-9.1743
G01 X-8.1558 Y-9.1895
G01 X-8.1573 Y-9.2066
G01 X-8.1573 Y-10.3293
G01 X-8.1552 Y-10.3498
G01 X-8.1502 Y-10.3698
G01 X-8.1416 Y-10.3904
G01 X-8.1308 Y-10.4079
G01 X-8.1210 Y-10.4199
G01 X-8.1100 Y-10.4308
G01 X-8.0979 Y-10.4404
G01 X-8.0848 Y-10.4485
G01 X-8.0709 Y-10.4552
G01 X-8.0563 Y-10.4604
G01 X-8.0412 Y-10.4638
G01 X-8.0259 Y-10.4656
G01 X-7.1177 Y-10.4659
G00 Z2.0000
G00 X-7.0735 Y-10.3959
G01 F70.00
G01 Z-0.0600
G01 F120.00
G01 X-7.0653 Y-10.4143
G01 X-7.0447 Y-10.4553
G01 X-7.0208 Y-10.4975
G01 X-6.9948 Y-10.5384
G01 X-6.9684 Y-10.5759
G01 X-6.9529 Y-10.5959
G01 X-6.9571 Y-10.6092
G01 X-6.9586 Y-10.6237
G01 X-6.9586 Y-11.9246
G01 X-6.9571 Y-11.9382
G01 X-6.9529 Y-11.9513
G01 X-6.9463 Y-11.9633
G01 X-6.9375 Y-11.9738
G01 X-6.9275 Y-11.9819
G01 X-6.9154 Y-11.9884
G01 X-6.9023 Y-11.9924
G01 X-6.8895 Y-11.9937
G01 X-5.4886 Y-11.9937
G01 X-5.4749 Y-11.9924
G01 X-5.4618 Y-11.9884
G01 X-5.4497 Y-11.9819
G01 X-5.4385 Y-11.9726
G01 X-5.4299 Y-11.9619
G01 X-5.4239 Y-11.9505
G01 X-5.4201 Y-11.9382
G01 X-5.4186 Y-11.9246
G01 X-5.4186 Y-10.6237
G01 X-5.4201 Y-10.6092
G01 X-5.4245 Y-10.5956
G01 X-5.4092 Y-10.5759
G01 X-5.3818 Y-10.5370
G01 X-5.3568 Y-10.4975
G01 X-5.3337 Y-10.4568
G01 X-5.3112 Y-10.4120
G01 X-5.2926 Y-10.3700
G01 X-5.2752 Y-10.3248
G01 X-5.2606 Y-10.2804
G01 X-5.2479 Y-10.2345
G01 X-5.2374 Y-10.1880
G01 X-5.2296 Y-10.1428
G01 X-5.2233 Y-10.0922
G01 X-5.2200 Y-10.0464
G01 X-5.2188 Y-9.9971
G01 X-5.2200 Y-9.9512
G01 X-5.2235 Y-9.9037
G01 X-5.2293 Y-9.8565
G01 X-5.2374 Y-9.8096
G01 X-5.2479 Y-9.7631
G01 X-5.2606 Y-9.7172
G01 X-5.2755 Y-9.6720
G01 X-5.2926 Y-9.6276
G01 X-5.3119 Y-9.5841
G01 X-5.3333 Y-9.5415
G01 X-5.3568 Y-9.5001
G01 X-5.3823 Y-9.4599
G01 X-5.4097 Y-9.4210
G01 X-5.4390 Y-9.3834
G01 X-5.4701 Y-9.3474
G01 X-5.5035 Y-9.3123
G01 X-5.5374 Y-9.2801
G01 X-5.5734 Y-9.2490
G01 X-5.6110 Y-9.2197
G01 X-5.6499 Y-9.1923
G01 X-5.6901 Y-9.1668
G01 X-5.7315 Y-9.1433
G01 X-5.7741 Y-9.1219
G01 X-5.8160 Y-9.1033
G01 X-5.8636 Y-9.0849
G01 X-5.9072 Y-9.0706
G01 X-5.9548 Y-9.0575
G01 X-5.9996 Y-9.0474
G01 X-6.0465 Y-9.0393
G01 X-6.0937 Y-9.0335
G01 X-6.1403 Y-9.0300
G01 X-6.1888 Y-9.0288
G01 X-6.2364 Y-9.0300
G01 X-6.2839 Y-9.0335
G01 X-6.3311 Y-9.0393
G01 X-6.3780 Y-9.0474
G01 X-6.4245 Y-9.0579
G01 X-6.4704 Y-9.0706
G01 X-6.5156 Y-9.0855
G01 X-6.5600 Y-9.1026
G01 X-6.6035 Y-9.1219
G01 X-6.6461 Y-9.1433
G01 X-6.6875 Y-9.1668
G01 X-6.7277 Y-9.1923
G01 X-6.7666 Y-9.2197
G01 X-6.8048 Y-9.2495
G01 X-6.8473 Y-9.2868
G01 X-6.8474 Y-9.2066
G01 X-6.8490 Y-9.1947
G01 X-6.8530 Y-9.1824
G01 X-6.8573 Y-9.1740
G01 X-6.8621 Y-9.1669
G01 X-6.8684 Y-9.1599
G01 X-6.8756 Y-9.1538
G01 X-6.8828 Y-9.1491
G01 X-6.8913 Y-9.1450
G01 X-6.9003 Y-9.1421
G01 X-6.9096 Y-9.1404
G01 X-8.0182 Y-9.1400
G01 X-8.0301 Y-9.1412
G01 X-8.0409 Y-9.1441
G01 X-8.0518 Y-9.1491
G01 X-8.0610 Y-9.1553
G01 X-8.0720 Y-9.1663
G01 X-8.0802 Y-9.1793
G01 X-8.0854 Y-9.1938
G01 X-8.0873 Y-9.2091
G01 X-8.0873 Y-10.3268
G01 X-8.0861 Y-10.3387
G01 X-8.0832 Y-10.3495
G01 X-8.0782 Y-10.3604
G01 X-8.0720 Y-10.3696
G01 X-8.0610 Y-10.3806
G01 X-8.0480 Y-10.3888
G01 X-8.0335 Y-10.3940
G01 X-8.0190 Y-10.3959
G01 X-7.0735 Y-10.3959
G00 Z2.0000
G00 X-7.1023 Y-10.6290
G01 F70.00
G01 Z-0.0600
G01 F120.00
G01 X-7.0999 Y-10.6338
G01 X-7.0986 Y-10.6365
G01 X-7.0986 Y-10.6342
G01 X-7.1023 Y-10.6290
G00 Z2.0000
G00 X-6.4188 Y-9.9988
G01 F70.00
G01 Z-0.0600
G01 F120.00
G01 X-6.4177 Y-10.0213
G01 X-6.4144 Y-10.0437
G01 X-6.4089 Y-10.0656
G01 X-6.4013 Y-10.0868
G01 X-6.3916 Y-10.1072
G01 X-6.3800 Y-10.1266
G01 X-6.3666 Y-10.1447
G01 X-6.3514 Y-10.1614
G01 X-6.3347 Y-10.1766
G01 X-6.3166 Y-10.1900
G01 X-6.2972 Y-10.2016
G01 X-6.2768 Y-10.2113
G01 X-6.2556 Y-10.2189
G01 X-6.2337 Y-10.2244
G01 X-6.2113 Y-10.2277
G01 X-6.1888 Y-10.2288
G01 X-6.1663 Y-10.2277
G01 X-6.1439 Y-10.2244
G01 X-6.1220 Y-10.2189
G01 X-6.1008 Y-10.2113
G01 X-6.0804 Y-10.2016
G01 X-6.0610 Y-10.1900
G01 X-6.0429 Y-10.1766
G01 X-6.0262 Y-10.1614
G01 X-6.0110 Y-10.1447
G01 X-5.9976 Y-10.1266
G01 X-5.9860 Y-10.1072
G01 X-5.9763 Y-10.0868
G01 X-5.9687 Y-10.0656
G01 X-5.9632 Y-10.0437
G01 X-5.9599 Y-10.0213
G01 X-5.9588 Y-9.9988
G01 X-5.9599 Y-9.9763
G01 X-5.9632 Y-9.9539
G01 X-5.9687 Y-9.9320
G01 X-5.9763 Y-9.9108
G01 X-5.9860 Y-9.8904
G01 X-5.9976 Y-9.8710
G01 X-6.0110 Y-9.8529
G01 X-6.0262 Y-9.8362
G01 X-6.0429 Y-9.8210
G01 X-6.0610 Y-9.8076
G01 X-6.0804 Y-9.7960
G01 X-6.1008 Y-9.7863
G01 X-6.1220 Y-9.7787
G01 X-6.1439 Y-9.7732
G01 X-6.1663 Y-9.7699
G01 X-6.1888 Y-9.7688
G01 X-6.2113 Y-9.7699
G01 X-6.2337 Y-9.7732
G01 X-6.2556 Y-9.7787
G01 X-6.2768 Y-9.7863
G01 X-6.2972 Y-9.7960
G01 X-6.3166 Y-9.8076
G01 X-6.3347 Y-9.8210
G01 X-6.3514 Y-9.8362
G01 X-6.3666 Y-9.8529
G01 X-6.3800 Y-9.8710
G01 X-6.3916 Y-9.8904
G01 X-6.4013 Y-9.9108
G01 X-6.4089 Y-9.9320
G01 X-6.4144 Y-9.9539
G01 X-6.4177 Y-9.9763
G01 X-6.4188 Y-9.9988
G00 Z2.0000
G00 X-6.3488 Y-9.9988
G01 F70.00
G01 Z-0.0600
G01 F120.00
G01 X-6.3480 Y-10.0145
G01 X-6.3457 Y-10.0300
G01 X-6.3419 Y-10.0452
G01 X-6.3366 Y-10.0600
G01 X-6.3299 Y-10.0742
G01 X-6.3218 Y-10.0877
G01 X-6.3124 Y-10.1003
G01 X-6.3019 Y-10.1119
G01 X-6.2903 Y-10.1224
G01 X-6.2777 Y-10.1318
G01 X-6.2642 Y-10.1399
G01 X-6.2500 Y-10.1466
G01 X-6.2352 Y-10.1519
G01 X-6.2200 Y-10.1557
G01 X-6.2045 Y-10.1580
G01 X-6.1888 Y-10.1588
G01 X-6.1731 Y-10.1580
G01 X-6.1576 Y-10.1557
G01 X-6.1424 Y-10.1519
G01 X-6.1276 Y-10.1466
G01 X-6.1134 Y-10.1399
G01 X-6.0999 Y-10.1318
G01 X-6.0873 Y-10.1224
G01 X-6.0757 Y-10.1119
G01 X-6.0652 Y-10.1003
G01 X-6.0558 Y-10.0877
G01 X-6.0477 Y-10.0742
G01 X-6.0410 Y-10.0600
G01 X-6.0357 Y-10.0452
G01 X-6.0319 Y-10.0300
G01 X-6.0296 Y-10.0145
G01 X-6.0288 Y-9.9988
G01 X-6.0296 Y-9.9831
G01 X-6.0319 Y-9.9676
G01 X-6.0357 Y-9.9524
G01 X-6.0410 Y-9.9376
G01 X-6.0477 Y-9.9234
G01 X-6.0558 Y-9.9099
G01 X-6.0652 Y-9.8973
G01 X-6.0757 Y-9.8857
G01 X-6.0873 Y-9.8752
G01 X-6.0999 Y-9.8658
G01 X-6.1134 Y-9.8577
G01 X-6.1276 Y-9.8510
G01 X-6.1424 Y-9.8457
G01 X-6.1576 Y-9.8419
G01 X-6.1731 Y-9.8396
G01 X-6.1888 Y-9.8388
G01 X-6.2045 Y-9.8396
G01 X-6.2200 Y-9.8419
G01 X-6.2352 Y-9.8457
G01 X-6.2500 Y-9.8510
G01 X-6.2642 Y-9.8577
G01 X-6.2777 Y-9.8658
G01 X-6.2903 Y-9.8752
G01 X-6.3019 Y-9.8857
G01 X-6.3124 Y-9.8973
G01 X-6.3218 Y-9.9099
G01 X-6.3299 Y-9.9234
G01 X-6.3366 Y-9.9376
G01 X-6.3419 Y-9.9524
G01 X-6.3457 Y-9.9676
G01 X-6.3480 Y-9.9831
G01 X-6.3488 Y-9.9988
G00 Z2.0000
G00 X-6.2787 Y-9.9988
G01 F70.00
G01 Z-0.0600
G01 F120.00
G01 X-6.2770 Y-10.0163
G01 X-6.2719 Y-10.0332
G01 X-6.2636 Y-10.0488
G01 X-6.2524 Y-10.0624
G01 X-6.2388 Y-10.0736
G01 X-6.2232 Y-10.0819
G01 X-6.2063 Y-10.0870
G01 X-6.1888 Y-10.0887
G01 X-6.1713 Y-10.0870
G01 X-6.1544 Y-10.0819
G01 X-6.1388 Y-10.0736
G01 X-6.1252 Y-10.0624
G01 X-6.1140 Y-10.0488
G01 X-6.1057 Y-10.0332
G01 X-6.1006 Y-10.0163
G01 X-6.0989 Y-9.9988
G01 X-6.1006 Y-9.9813
G01 X-6.1057 Y-9.9644
G01 X-6.1140 Y-9.9488
G01 X-6.1252 Y-9.9352
G01 X-6.1388 Y-9.9240
G01 X-6.1544 Y-9.9157
G01 X-6.1713 Y-9.9106
G01 X-6.1888 Y-9.9089
G01 X-6.2063 Y-9.9106
G01 X-6.2232 Y-9.9157
G01 X-6.2388 Y-9.9240
G01 X-6.2524 Y-9.9352
G01 X-6.2636 Y-9.9488
G01 X-6.2719 Y-9.9644
G01 X-6.2770 Y-9.9813
G01 X-6.2787 Y-9.9988
G00 Z2.0000
G00 X-6.2087 Y-9.9988
G01 F70.00
G01 Z-0.0600
G01 F120.00
G01 X-6.2072 Y-10.0064
G01 X-6.2029 Y-10.0129
G01 X-6.1964 Y-10.0172
G01 X-6.1888 Y-10.0187
G01 X-6.1812 Y-10.0172
G01 X-6.1747 Y-10.0129
G01 X-6.1704 Y-10.0064
G01 X-6.1689 Y-9.9988
G01 X-6.1704 Y-9.9912
G01 X-6.1747 Y-9.9847
G01 X-6.1812 Y-9.9804
G01 X-6.1888 Y-9.9789
G01 X-6.1964 Y-9.9804
G01 X-6.2029 Y-9.9847
G01 X-6.2072 Y-9.9912
G01 X-6.2087 Y-9.9988
G00 Z2.0000
G00 X-6.7488 Y-9.0406
G01 F70.00
G01 Z-0.0600
G01 F120.00
G01 X-6.7932 Y-9.0406
G01 X-6.7744 Y-9.0561
G01 X-6.7488 Y-9.0406
G00 Z2.0000
G00 X-6.3973 Y-8.7870
G01 F70.00
G01 Z-0.0600
G01 F120.00
G01 X-6.3978 Y-8.8392
G01 X-6.4011 Y-8.8534
G01 X-6.4068 Y-8.8658
G01 X-6.4116 Y-8.8730
G01 X-6.4172 Y-8.8795
G01 X-6.4236 Y-8.8853
G01 X-6.4306 Y-8.8902
G01 X-6.4381 Y-8.8942
G01 X-6.4462 Y-8.8973
G01 X-6.4545 Y-8.8994
G01 X-6.4630 Y-8.9005
G01 X-8.3473 Y-8.9006
G01 X-8.3473 Y-10.6559
G01 X-7.2860 Y-10.6559
G01 X-7.2766 Y-10.6569
G01 X-7.2675 Y-10.6592
G01 X-7.2594 Y-10.6623
G01 X-7.2512 Y-10.6668
G01 X-7.2435 Y-10.6723
G01 X-7.2367 Y-10.6789
G01 X-7.2309 Y-10.6863
G01 X-7.2261 Y-10.6944
G01 X-7.2205 Y-10.7097
G01 X-7.2186 Y-10.7259
G01 X-7.2186 Y-12.8871
G01 X-6.9586 Y-12.8871
G01 X-6.9586 Y-12.5237
G01 X-6.9577 Y-12.5126
G01 X-6.9548 Y-12.5009
G01 X-6.9495 Y-12.4892
G01 X-6.9427 Y-12.4793
G01 X-6.9343 Y-12.4707
G01 X-6.9238 Y-12.4632
G01 X-6.9130 Y-12.4581
G01 X-6.9014 Y-12.4549
G01 X-6.8886 Y-12.4537
G01 X-5.4886 Y-12.4537
G01 X-5.4800 Y-12.4542
G01 X-5.4716 Y-12.4558
G01 X-5.4618 Y-12.4590
G01 X-5.4526 Y-12.4637
G01 X-5.4442 Y-12.4696
G01 X-5.4362 Y-12.4773
G01 X-5.4299 Y-12.4855
G01 X-5.4250 Y-12.4945
G01 X-5.4211 Y-12.5050
G01 X-5.4191 Y-12.5151
G01 X-5.4186 Y-12.5237
G01 X-5.4186 Y-12.8871
G01 X-5.1586 Y-12.8871
G01 X-5.1585 Y-10.6871
G01 X-5.1563 Y-10.6727
G01 X-5.1511 Y-10.6591
G01 X-5.1338 Y-10.6311
G01 X-5.1041 Y-10.5786
G01 X-5.0769 Y-10.5247
G01 X-5.0524 Y-10.4695
G01 X-5.0307 Y-10.4132
G01 X-5.0118 Y-10.3558
G01 X-4.9957 Y-10.2977
G01 X-4.9825 Y-10.2388
G01 X-4.9721 Y-10.1793
G01 X-4.9647 Y-10.1194
G01 X-4.9603 Y-10.0592
G01 X-4.9588 Y-9.9988
G01 X-4.9603 Y-9.9384
G01 X-4.9647 Y-9.8782
G01 X-4.9721 Y-9.8183
G01 X-4.9825 Y-9.7588
G01 X-4.9957 Y-9.6999
G01 X-5.0118 Y-9.6418
G01 X-5.0307 Y-9.5844
G01 X-5.0524 Y-9.5281
G01 X-5.0769 Y-9.4729
G01 X-5.1041 Y-9.4190
G01 X-5.1338 Y-9.3665
G01 X-5.1661 Y-9.3155
G01 X-5.2009 Y-9.2661
G01 X-5.2380 Y-9.2185
G01 X-5.2774 Y-9.1728
G01 X-5.3191 Y-9.1291
G01 X-5.3628 Y-9.0874
G01 X-5.4085 Y-9.0480
G01 X-5.4561 Y-9.0109
G01 X-5.5055 Y-8.9761
G01 X-5.5565 Y-8.9438
G01 X-5.6090 Y-8.9141
G01 X-5.6629 Y-8.8869
G01 X-5.7181 Y-8.8624
G01 X-5.7744 Y-8.8407
G01 X-5.8318 Y-8.8218
G01 X-5.8899 Y-8.8057
G01 X-5.9488 Y-8.7925
G01 X-6.0083 Y-8.7821
G01 X-6.0682 Y-8.7747
G01 X-6.1284 Y-8.7703
G01 X-6.1888 Y-8.7688
G01 X-6.2492 Y-8.7703
G01 X-6.3094 Y-8.7747
G01 X-6.3693 Y-8.7821
G01 X-6.3973 Y-8.7870
G00 Z2.0000
G00 X-6.3283 Y-8.8476
G01 F70.00
G01 Z-0.0600
G01 F120.00
G01 X-6.3303 Y-8.8596
G01 X-6.3333 Y-8.8712
G01 X-6.3373 Y-8.8826
G01 X-6.3422 Y-8.8935
G01 X-6.3481 Y-8.9040
G01 X-6.3549 Y-8.9140
G01 X-6.3624 Y-8.9233
G01 X-6.3708 Y-8.9320
G01 X-6.3798 Y-8.9399
G01 X-6.3910 Y-8.9480
G01 X-6.4013 Y-8.9541
G01 X-6.4121 Y-8.9593
G01 X-6.4234 Y-8.9635
G01 X-6.4350 Y-8.9668
G01 X-6.4468 Y-8.9691
G01 X-6.4587 Y-8.9703
G01 X-8.2773 Y-8.9706
G01 X-8.2773 Y-10.5859
G01 X-7.2783 Y-10.5863
G01 X-7.2596 Y-10.5889
G01 X-7.2431 Y-10.5935
G01 X-7.2257 Y-10.6008
G01 X-7.2108 Y-10.6095
G01 X-7.1959 Y-10.6210
G01 X-7.1837 Y-10.6332
G01 X-7.1732 Y-10.6467
G01 X-7.1635 Y-10.6630
G01 X-7.1568 Y-10.6787
G01 X-7.1524 Y-10.6936
G01 X-7.1497 Y-10.7088
G01 X-7.1486 Y-10.7242
G01 X-7.1486 Y-12.8171
G01 X-7.0286 Y-12.8171
G01 X-7.0286 Y-12.5203
G01 X-7.0265 Y-12.4998
G01 X-7.0221 Y-12.4814
G01 X-7.0137 Y-12.4608
G01 X-7.0021 Y-12.4417
G01 X-6.9876 Y-12.4247
G01 X-6.9706 Y-12.4102
G01 X-6.9531 Y-12.3994
G01 X-6.9325 Y-12.3908
G01 X-6.9108 Y-12.3855
G01 X-6.8886 Y-12.3837
G01 X-5.4886 Y-12.3837
G01 X-5.4715 Y-12.3848
G01 X-5.4529 Y-12.3883
G01 X-5.4350 Y-12.3944
G01 X-5.4181 Y-12.4027
G01 X-5.4025 Y-12.4133
G01 X-5.3884 Y-12.4259
G01 X-5.3762 Y-12.4403
G01 X-5.3660 Y-12.4562
G01 X-5.3580 Y-12.4733
G01 X-5.3524 Y-12.4914
G01 X-5.3497 Y-12.5066
G01 X-5.3486 Y-12.5220
G01 X-5.3486 Y-12.8171
G01 X-5.2286 Y-12.8171
G01 X-5.2284 Y-10.6837
G01 X-5.2271 Y-10.6700
G01 X-5.2248 Y-10.6582
G01 X-5.2210 Y-10.6450
G01 X-5.2166 Y-10.6338
G01 X-5.2096 Y-10.6201
G01 X-5.1939 Y-10.5951
G01 X-5.1658 Y-10.5456
G01 X-5.1402 Y-10.4947
G01 X-5.1171 Y-10.4427
G01 X-5.0966 Y-10.3896
G01 X-5.0788 Y-10.3355
G01 X-5.0636 Y-10.2806
G01 X-5.0511 Y-10.2251
G01 X-5.0414 Y-10.1690
G01 X-5.0344 Y-10.1125
G01 X-5.0302 Y-10.0557
G01 X-5.0288 Y-9.9988
G01 X-5.0302 Y-9.9419
G01 X-5.0344 Y-9.8851
G01 X-5.0414 Y-9.8286
G01 X-5.0511 Y-9.7725
G01 X-5.0636 Y-9.7170
G01 X-5.0788 Y-9.6621
G01 X-5.0966 Y-9.6080
G01 X-5.1171 Y-9.5549
G01 X-5.1402 Y-9.5029
G01 X-5.1658 Y-9.4520
G01 X-5.1939 Y-9.4025
G01 X-5.2243 Y-9.3544
G01 X-5.2571 Y-9.3078
G01 X-5.2921 Y-9.2629
G01 X-5.3293 Y-9.2198
G01 X-5.3686 Y-9.1786
G01 X-5.4098 Y-9.1393
G01 X-5.4529 Y-9.1021
G01 X-5.4978 Y-9.0671
G01 X-5.5444 Y-9.0343
G01 X-5.5925 Y-9.0039
G01 X-5.6420 Y-8.9758
G01 X-5.6929 Y-8.9502
G01 X-5.7449 Y-8.9271
G01 X-5.7980 Y-8.9066
G01 X-5.8521 Y-8.8888
G01 X-5.9070 Y-8.8736
G01 X-5.9625 Y-8.8611
G01 X-6.0186 Y-8.8514
G01 X-6.0751 Y-8.8444
G01 X-6.1319 Y-8.8402
G01 X-6.1888 Y-8.8388
G01 X-6.2457 Y-8.8402
G01 X-6.3025 Y-8.8444
G01 X-6.3283 Y-8.8476
G00 Z2.0000
G00 X-6.9173 Y-8.1606
G01 F70.00
G01 Z-0.0600
G01 F120.00
G01 X-6.5873 Y-8.1606
G01 X-6.5873 Y-6.9212
G01 X-6.6565 Y-6.9211
G01 X-6.6683 Y-6.9193
G01 X-6.6798 Y-6.9155
G01 X-6.6874 Y-6.9117
G01 X-6.6946 Y-6.9069
G01 X-6.7017 Y-6.9007
G01 X-6.7074 Y-6.8943
G01 X-6.7122 Y-6.8872
G01 X-6.7162 Y-6.8796
G01 X-6.7192 Y-6.8715
G01 X-6.7211 Y-6.8632
G01 X-6.7222 Y-6.8512
G01 X-6.7222 Y-6.2225
G01 X-6.7210 Y-6.2097
G01 X-6.7175 Y-6.1973
G01 X-6.7109 Y-6.1843
G01 X-6.7017 Y-6.1730
G01 X-5.8126 Y-5.2839
G01 X-5.8020 Y-5.2752
G01 X-5.7931 Y-5.2701
G01 X-5.7834 Y-5.2664
G01 X-5.7734 Y-5.2642
G01 X-5.7631 Y-5.2634
G01 X-4.9167 Y-5.2634
G01 X-4.9014 Y-5.2653
G01 X-4.8861 Y-5.2709
G01 X-4.8780 Y-5.2757
G01 X-4.8700 Y-5.2821
G01 X-4.8629 Y-5.2897
G01 X-4.8571 Y-5.2982
G01 X-4.8208 Y-5.3793
G01 X-4.7859 Y-5.4486
G01 X-4.7477 Y-5.5161
G01 X-4.7062 Y-5.5816
G01 X-4.6616 Y-5.6450
G01 X-4.6138 Y-5.7061
G01 X-4.5632 Y-5.7648
G01 X-4.5097 Y-5.8210
G01 X-4.4535 Y-5.8745
G01 X-4.3948 Y-5.9251
G01 X-4.3337 Y-5.9729
G01 X-4.2703 Y-6.0175
G01 X-4.2048 Y-6.0590
G01 X-4.1373 Y-6.0972
G01 X-4.0680 Y-6.1321
G01 X-3.9893 Y-6.1674
G01 X-3.9761 Y-6.1770
G01 X-3.9656 Y-6.1894
G01 X-3.9605 Y-6.1983
G01 X-3.9568 Y-6.2079
G01 X-3.9545 Y-6.2180
G01 X-3.9538 Y-6.2283
G01 X-3.9537 Y-8.4775
G01 X-3.9552 Y-8.4920
G01 X-3.9584 Y-8.5027
G01 X-3.9632 Y-8.5127
G01 X-3.9696 Y-8.5219
G01 X-3.9767 Y-8.5294
G01 X-3.9848 Y-8.5357
G01 X-3.9945 Y-8.5411
G01 X-4.0050 Y-8.5450
G01 X-4.0160 Y-8.5471
G01 X-4.4612 Y-8.5475
G01 X-4.4612 Y-12.4075
G01 X-3.9773 Y-12.4078
G01 X-3.9663 Y-12.4098
G01 X-3.9558 Y-12.4135
G01 X-3.9467 Y-12.4184
G01 X-3.9378 Y-12.4251
G01 X-3.9300 Y-12.4331
G01 X-3.9241 Y-12.4415
G01 X-3.9191 Y-12.4515
G01 X-3.9158 Y-12.4622
G01 X-3.9141 Y-12.4775
G01 X-3.9144 Y-14.8398
G01 X-3.9167 Y-14.8525
G01 X-3.9208 Y-14.8637
G01 X-3.9269 Y-14.8741
G01 X-3.9352 Y-14.8839
G01 X-3.9452 Y-14.8920
G01 X-3.9558 Y-14.8978
G01 X-3.9680 Y-14.9019
G01 X-3.9798 Y-14.9037
G01 X-4.9472 Y-14.9038
G01 X-4.9472 Y-15.1638
G01 X-4.5838 Y-15.1638
G01 X-4.5727 Y-15.1647
G01 X-4.5610 Y-15.1676
G01 X-4.5493 Y-15.1729
G01 X-4.5394 Y-15.1797
G01 X-4.5308 Y-15.1881
G01 X-4.5238 Y-15.1978
G01 X-4.5182 Y-15.2094
G01 X-4.5148 Y-15.2218
G01 X-4.5138 Y-15.2338
G01 X-4.5138 Y-16.8338
G01 X-4.5155 Y-16.8491
G01 X-4.5185 Y-16.8590
G01 X-4.5233 Y-16.8690
G01 X-4.5297 Y-16.8782
G01 X-4.5368 Y-16.8857
G01 X-4.5456 Y-16.8925
G01 X-4.5546 Y-16.8974
G01 X-4.5643 Y-16.9010
G01 X-4.5752 Y-16.9033
G01 X-4.5838 Y-16.9038
G01 X-4.9472 Y-16.9038
G01 X-4.9472 Y-17.1638
G01 X-3.9824 Y-17.1638
G01 X-3.9696 Y-17.1653
G01 X-3.9565 Y-17.1695
G01 X-3.9445 Y-17.1761
G01 X-3.9340 Y-17.1849
G01 X-3.9259 Y-17.1949
G01 X-3.9198 Y-17.2062
G01 X-3.9158 Y-17.2185
G01 X-3.9141 Y-17.2321
G01 X-3.9141 Y-18.2040
G01 X-3.9150 Y-18.2152
G01 X-3.9191 Y-18.2300
G01 X-3.9259 Y-18.2429
G01 X-3.9352 Y-18.2541
G01 X-3.9474 Y-18.2636
G01 X-3.9573 Y-18.2687
G01 X-3.9971 Y-18.2841
G01 X-4.0680 Y-18.3155
G01 X-4.1373 Y-18.3504
G01 X-4.2048 Y-18.3886
G01 X-4.2703 Y-18.4301
G01 X-4.3337 Y-18.4747
G01 X-4.3948 Y-18.5225
G01 X-4.4535 Y-18.5731
G01 X-4.5097 Y-18.6266
G01 X-4.5632 Y-18.6828
G01 X-4.5807 Y-18.7030
G01 X-4.5876 Y-18.7095
G01 X-4.5991 Y-18.7171
G01 X-4.6118 Y-18.7223
G01 X-4.6253 Y-18.7250
G01 X-4.6383 Y-18.7250
G01 X-4.6526 Y-18.7222
G01 X-5.0325 Y-18.6048
G01 X-5.0442 Y-18.5995
G01 X-5.0547 Y-18.5922
G01 X-5.0636 Y-18.5830
G01 X-5.0708 Y-18.5724
G01 X-5.0744 Y-18.5647
G01 X-5.0771 Y-18.5565
G01 X-5.0788 Y-18.5481
G01 X-5.0794 Y-18.5396
G01 X-5.0794 Y-17.9136
G01 X-7.1394 Y-17.9136
G01 X-7.1394 Y-21.0423
G01 X-7.1404 Y-21.0542
G01 X-7.1441 Y-21.0674
G01 X-7.1498 Y-21.0790
G01 X-7.1581 Y-21.0899
G01 X-7.1677 Y-21.0985
G01 X-7.1779 Y-21.1048
G01 X-7.2448 Y-21.1378
G01 X-7.2973 Y-21.1675
G01 X-7.3483 Y-21.1998
G01 X-7.3977 Y-21.2346
G01 X-7.4453 Y-21.2717
G01 X-7.4910 Y-21.3111
G01 X-7.5347 Y-21.3528
G01 X-7.5764 Y-21.3965
G01 X-7.6158 Y-21.4422
G01 X-7.6529 Y-21.4898
G01 X-7.6877 Y-21.5392
G01 X-7.7200 Y-21.5902
G01 X-7.7497 Y-21.6427
G01 X-7.7769 Y-21.6966
G01 X-7.8014 Y-21.7518
G01 X-7.8231 Y-21.8081
G01 X-7.8420 Y-21.8655
G01 X-7.8581 Y-21.9236
G01 X-7.8713 Y-21.9825
G01 X-7.8817 Y-22.0420
G01 X-7.8891 Y-22.1019
G01 X-7.8935 Y-22.1621
G01 X-7.8950 Y-22.2225
G01 X-7.8935 Y-22.2829
G01 X-7.8891 Y-22.3431
G01 X-7.8817 Y-22.4030
G01 X-7.8713 Y-22.4625
G01 X-7.8581 Y-22.5214
G01 X-7.8420 Y-22.5795
G01 X-7.8231 Y-22.6369
G01 X-7.8014 Y-22.6932
G01 X-7.7769 Y-22.7484
G01 X-7.7497 Y-22.8023
G01 X-7.7200 Y-22.8548
G01 X-7.6877 Y-22.9058
G01 X-7.6529 Y-22.9552
G01 X-7.6158 Y-23.0028
G01 X-7.5764 Y-23.0485
G01 X-7.5347 Y-23.0922
G01 X-7.4910 Y-23.1339
G01 X-7.4453 Y-23.1733
G01 X-7.3977 Y-23.2104
G01 X-7.3483 Y-23.2452
G01 X-7.2973 Y-23.2775
G01 X-7.2448 Y-23.3072
G01 X-7.1909 Y-23.3344
G01 X-7.1357 Y-23.3589
G01 X-7.0794 Y-23.3806
G01 X-7.0220 Y-23.3995
G01 X-6.9639 Y-23.4156
G01 X-6.9050 Y-23.4288
G01 X-6.8455 Y-23.4392
G01 X-6.7856 Y-23.4466
G01 X-6.7254 Y-23.4510
G01 X-6.6650 Y-23.4525
G01 X-6.6046 Y-23.4510
G01 X-6.5444 Y-23.4466
G01 X-6.4845 Y-23.4392
G01 X-6.4250 Y-23.4288
G01 X-6.3661 Y-23.4156
G01 X-6.3080 Y-23.3995
G01 X-6.2506 Y-23.3806
G01 X-6.1943 Y-23.3589
G01 X-6.1391 Y-23.3344
G01 X-6.0852 Y-23.3072
G01 X-6.0327 Y-23.2775
G01 X-5.9817 Y-23.2452
G01 X-5.9323 Y-23.2104
G01 X-5.8847 Y-23.1733
G01 X-5.8390 Y-23.1339
G01 X-5.7953 Y-23.0922
G01 X-5.7536 Y-23.0485
G01 X-5.7142 Y-23.0028
G01 X-5.6771 Y-22.9552
G01 X-5.6423 Y-22.9058
G01 X-5.6100 Y-22.8548
G01 X-5.5803 Y-22.8023
G01 X-5.5531 Y-22.7484
G01 X-5.5286 Y-22.6932
G01 X-5.5069 Y-22.6369
G01 X-5.4880 Y-22.5795
G01 X-5.4719 Y-22.5214
G01 X-5.4587 Y-22.4625
G01 X-5.4483 Y-22.4030
G01 X-5.4409 Y-22.3431
G01 X-5.4365 Y-22.2829
G01 X-5.4350 Y-22.2225
G01 X-5.4365 Y-22.1621
G01 X-5.4409 Y-22.1019
G01 X-5.4483 Y-22.0420
G01 X-5.4587 Y-21.9825
G01 X-5.4719 Y-21.9236
G01 X-5.4892 Y-21.8614
G01 X-5.4908 Y-21.8530
G01 X-5.4915 Y-21.8419
G01 X-5.4905 Y-21.8316
G01 X-5.4877 Y-21.8208
G01 X-5.4832 Y-21.8106
G01 X-5.4787 Y-21.8033
G01 X-5.4728 Y-21.7960
G01 X-5.4666 Y-21.7900
G01 X-5.4597 Y-21.7849
G01 X-5.4522 Y-21.7807
G01 X-5.4443 Y-21.7774
G01 X-5.4360 Y-21.7751
G01 X-5.4275 Y-21.7739
G01 X-5.0794 Y-21.7736
G01 X-5.0794 Y-20.0711
G01 X-5.0773 Y-20.0549
G01 X-5.0747 Y-20.0467
G01 X-5.0711 Y-20.0389
G01 X-5.0666 Y-20.0316
G01 X-5.0613 Y-20.0249
G01 X-5.0490 Y-20.0142
G01 X-5.0370 Y-20.0076
G01 X-5.0239 Y-20.0034
G01 X-5.0103 Y-20.0019
G01 X-4.9966 Y-20.0031
G01 X-4.9834 Y-20.0069
G01 X-4.9712 Y-20.0132
G01 X-4.9605 Y-20.0218
G01 X-4.9517 Y-20.0323
G01 X-4.9461 Y-20.0420
G01 X-4.9419 Y-20.0532
G01 X-4.9251 Y-20.1277
G01 X-4.9044 Y-20.2024
G01 X-4.8801 Y-20.2761
G01 X-4.8522 Y-20.3484
G01 X-4.8208 Y-20.4193
G01 X-4.7859 Y-20.4886
G01 X-4.7477 Y-20.5561
G01 X-4.7062 Y-20.6216
G01 X-4.6616 Y-20.6850
G01 X-4.6138 Y-20.7461
G01 X-4.5632 Y-20.8048
G01 X-4.5097 Y-20.8610
G01 X-4.4535 Y-20.9145
G01 X-4.3948 Y-20.9651
G01 X-4.3337 Y-21.0129
G01 X-4.2703 Y-21.0575
G01 X-4.2048 Y-21.0990
G01 X-4.1373 Y-21.1372
G01 X-4.0680 Y-21.1721
G01 X-3.9971 Y-21.2035
G01 X-3.9248 Y-21.2314
G01 X-3.8511 Y-21.2557
G01 X-3.7764 Y-21.2764
G01 X-3.7007 Y-21.2934
G01 X-3.6243 Y-21.3067
G01 X-3.5474 Y-21.3162
G01 X-3.4700 Y-21.3219
G01 X-3.3925 Y-21.3238
G01 X-3.3150 Y-21.3219
G01 X-3.2376 Y-21.3162
G01 X-3.1607 Y-21.3067
G01 X-3.0843 Y-21.2934
G01 X-3.0086 Y-21.2764
G01 X-2.9339 Y-21.2557
G01 X-2.8602 Y-21.2314
G01 X-2.7879 Y-21.2035
G01 X-2.7170 Y-21.1721
G01 X-2.6477 Y-21.1372
G01 X-2.5802 Y-21.0990
G01 X-2.5147 Y-21.0575
G01 X-2.4513 Y-21.0129
G01 X-2.3902 Y-20.9651
G01 X-2.3315 Y-20.9145
G01 X-2.2753 Y-20.8610
G01 X-2.2218 Y-20.8048
G01 X-2.1712 Y-20.7461
G01 X-2.1234 Y-20.6850
G01 X-2.0788 Y-20.6216
G01 X-2.0373 Y-20.5561
G01 X-1.9991 Y-20.4886
G01 X-1.9642 Y-20.4193
G01 X-1.9328 Y-20.3484
G01 X-1.9049 Y-20.2761
G01 X-1.8806 Y-20.2024
G01 X-1.8599 Y-20.1277
G01 X-1.8429 Y-20.0520
G01 X-1.8296 Y-19.9756
G01 X-1.8201 Y-19.8987
G01 X-1.8144 Y-19.8213
G01 X-1.8125 Y-19.7438
G01 X-1.8144 Y-19.6663
G01 X-1.8201 Y-19.5889
G01 X-1.8296 Y-19.5120
G01 X-1.8429 Y-19.4356
G01 X-1.8599 Y-19.3599
G01 X-1.8806 Y-19.2852
G01 X-1.9049 Y-19.2115
G01 X-1.9328 Y-19.1392
G01 X-1.9642 Y-19.0683
G01 X-1.9991 Y-18.9990
G01 X-2.0373 Y-18.9315
G01 X-2.0788 Y-18.8660
G01 X-2.1234 Y-18.8026
G01 X-2.1712 Y-18.7415
G01 X-2.2218 Y-18.6828
G01 X-2.2753 Y-18.6266
G01 X-2.3315 Y-18.5731
G01 X-2.3902 Y-18.5225
G01 X-2.4513 Y-18.4747
G01 X-2.5147 Y-18.4301
G01 X-2.5802 Y-18.3886
G01 X-2.6477 Y-18.3504
G01 X-2.7157 Y-18.3161
G01 X-2.7259 Y-18.3097
G01 X-2.7370 Y-18.2991
G01 X-2.7452 Y-18.2870
G01 X-2.7507 Y-18.2735
G01 X-2.7533 Y-18.2583
G01 X-2.7535 Y-17.2338
G01 X-2.7523 Y-17.2210
G01 X-2.7491 Y-17.2094
G01 X-2.7448 Y-17.2000
G01 X-2.7397 Y-17.1921
G01 X-2.7336 Y-17.1849
G01 X-2.7265 Y-17.1786
G01 X-2.7180 Y-17.1729
G01 X-2.7095 Y-17.1688
G01 X-2.7005 Y-17.1659
G01 X-2.6912 Y-17.1642
G01 X-2.3538 Y-17.1638
G01 X-2.3538 Y-14.9038
G01 X-2.6835 Y-14.9038
G01 X-2.6946 Y-14.9029
G01 X-2.7062 Y-14.9000
G01 X-2.7165 Y-14.8955
G01 X-2.7265 Y-14.8890
G01 X-2.7348 Y-14.8814
G01 X-2.7422 Y-14.8720
G01 X-2.7475 Y-14.8622
G01 X-2.7512 Y-14.8516
G01 X-2.7532 Y-14.8398
G01 X-2.7535 Y-12.4766
G01 X-2.7521 Y-12.4638
G01 X-2.7488 Y-12.4523
G01 X-2.7435 Y-12.4415
G01 X-2.7359 Y-12.4311
G01 X-2.7265 Y-12.4223
G01 X-2.7157 Y-12.4154
G01 X-2.7046 Y-12.4108
G01 X-2.6920 Y-12.4080
G01 X-2.6835 Y-12.4075
G01 X-2.2012 Y-12.4075
G01 X-2.2012 Y-8.5475
G01 X-2.7290 Y-8.5472
G01 X-2.7392 Y-8.5456
G01 X-2.7490 Y-8.5425
G01 X-2.7590 Y-8.5375
G01 X-2.7674 Y-8.5316
G01 X-2.7749 Y-8.5245
G01 X-2.7812 Y-8.5164
G01 X-2.7863 Y-8.5074
G01 X-2.7900 Y-8.4978
G01 X-2.7923 Y-8.4878
G01 X-2.7930 Y-8.4775
G01 X-2.7931 Y-6.7572
G01 X-2.7912 Y-6.7420
G01 X-2.7857 Y-6.7267
G01 X-2.7767 Y-6.7131
G01 X-2.7649 Y-6.7020
G01 X-2.7532 Y-6.6949
G01 X-2.7403 Y-6.6902
G01 X-2.7268 Y-6.6882
G01 X-2.7131 Y-6.6888
G01 X-2.6998 Y-6.6921
G01 X-2.6874 Y-6.6979
G01 X-2.6764 Y-6.7060
G01 X-2.6671 Y-6.7160
G01 X-1.7035 Y-8.1022
G01 X-1.6971 Y-8.1135
G01 X-1.6929 Y-8.1257
G01 X-1.6910 Y-8.1420
G01 X-1.6528 Y-21.7100
G01 X-1.6541 Y-21.7237
G01 X-1.6575 Y-21.7353
G01 X-1.6627 Y-21.7461
G01 X-1.6703 Y-21.7565
G01 X-1.6790 Y-21.7649
G01 X-2.4175 Y-22.3422
G01 X-2.4291 Y-22.3495
G01 X-2.4419 Y-22.3545
G01 X-2.4528 Y-22.3566
G01 X-2.4631 Y-22.3570
G01 X-2.4734 Y-22.3558
G01 X-2.4841 Y-22.3529
G01 X-2.4920 Y-22.3495
G01 X-2.5096 Y-22.3397
G01 X-2.5789 Y-22.3048
G01 X-2.6498 Y-22.2734
G01 X-2.7221 Y-22.2455
G01 X-2.7958 Y-22.2212
G01 X-2.8705 Y-22.2005
G01 X-2.9462 Y-22.1835
G01 X-3.0226 Y-22.1702
G01 X-3.0995 Y-22.1607
G01 X-3.1769 Y-22.1550
G01 X-3.2544 Y-22.1531
G01 X-3.3319 Y-22.1550
G01 X-3.4093 Y-22.1607
G01 X-3.4862 Y-22.1702
G01 X-3.5626 Y-22.1835
G01 X-3.6383 Y-22.2005
G01 X-3.7130 Y-22.2212
G01 X-3.7867 Y-22.2455
G01 X-3.8590 Y-22.2734
G01 X-3.9299 Y-22.3048
G01 X-3.9992 Y-22.3397
G01 X-4.0667 Y-22.3779
G01 X-4.1322 Y-22.4194
G01 X-4.1956 Y-22.4640
G01 X-4.2567 Y-22.5118
G01 X-4.3154 Y-22.5624
G01 X-4.3716 Y-22.6159
G01 X-4.4251 Y-22.6721
G01 X-4.4757 Y-22.7308
G01 X-4.5235 Y-22.7919
G01 X-4.5681 Y-22.8553
G01 X-4.6096 Y-22.9208
G01 X-4.6478 Y-22.9883
G01 X-4.6827 Y-23.0576
G01 X-4.7141 Y-23.1285
G01 X-4.7420 Y-23.2008
G01 X-4.7663 Y-23.2745
G01 X-4.7870 Y-23.3492
G01 X-4.8040 Y-23.4249
G01 X-4.8173 Y-23.5013
G01 X-4.8268 Y-23.5782
G01 X-4.8325 Y-23.6556
G01 X-4.8344 Y-23.7331
G01 X-4.8325 Y-23.8106
G01 X-4.8268 Y-23.8880
G01 X-4.8173 Y-23.9649
G01 X-4.8040 Y-24.0413
G01 X-4.7870 Y-24.1170
G01 X-4.7663 Y-24.1917
G01 X-4.7420 Y-24.2654
G01 X-4.7141 Y-24.3377
G01 X-4.6827 Y-24.4086
G01 X-4.6478 Y-24.4779
G01 X-4.6096 Y-24.5454
G01 X-4.5681 Y-24.6109
G01 X-4.5235 Y-24.6743
G01 X-4.4757 Y-24.7354
G01 X-4.4251 Y-24.7941
G01 X-4.3716 Y-24.8503
G01 X-4.3154 Y-24.9038
G01 X-4.2567 Y-24.9544
G01 X-4.1956 Y-25.0022
G01 X-4.1322 Y-25.0468
G01 X-4.0667 Y-25.0883
G01 X-3.9992 Y-25.1265
G01 X-3.9299 Y-25.1614
G01 X-3.8590 Y-25.1928
G01 X-3.7867 Y-25.2207
G01 X-3.7130 Y-25.2450
G01 X-3.6383 Y-25.2657
G01 X-3.5626 Y-25.2827
G01 X-3.4862 Y-25.2960
G01 X-3.4093 Y-25.3055
G01 X-3.3319 Y-25.3112
G01 X-3.2544 Y-25.3131
G01 X-3.1769 Y-25.3112
G01 X-3.0995 Y-25.3055
G01 X-3.0226 Y-25.2960
G01 X-2.9462 Y-25.2827
G01 X-2.8705 Y-25.2657
G01 X-2.7958 Y-25.2450
G01 X-2.7221 Y-25.2207
G01 X-2.6498 Y-25.1928
G01 X-2.5789 Y-25.1614
G01 X-2.5096 Y-25.1265
G01 X-2.4421 Y-25.0883
G01 X-2.3766 Y-25.0468
G01 X-2.3132 Y-25.0022
G01 X-2.2521 Y-24.9544
G01 X-2.1934 Y-24.9038
G01 X-2.1372 Y-24.8503
G01 X-2.0837 Y-24.7941
G01 X-2.0331 Y-24.7354
G01 X-1.9853 Y-24.6743
G01 X-1.9407 Y-24.6109
G01 X-1.8992 Y-24.5454
G01 X-1.8610 Y-24.4779
G01 X-1.8261 Y-24.4086
G01 X-1.7947 Y-24.3377
G01 X-1.7668 Y-24.2654
G01 X-1.7425 Y-24.1917
G01 X-1.7218 Y-24.1170
G01 X-1.7048 Y-24.0413
G01 X-1.6915 Y-23.9649
G01 X-1.6820 Y-23.8880
G01 X-1.6763 Y-23.8106
G01 X-1.6744 Y-23.7331
G01 X-1.6763 Y-23.6556
G01 X-1.6820 Y-23.5782
G01 X-1.6915 Y-23.5013
G01 X-1.7048 Y-23.4249
G01 X-1.7218 Y-23.3492
G01 X-1.7278 Y-23.3270
G01 X-1.7292 Y-23.3186
G01 X-1.7294 Y-23.3074
G01 X-1.7280 Y-23.2972
G01 X-1.7248 Y-23.2865
G01 X-1.7204 Y-23.2772
G01 X-1.7126 Y-23.2660
G01 X-1.7026 Y-23.2566
G01 X-0.7148 Y-22.4843
G01 X-0.6927 Y-22.4661
G01 X-0.6721 Y-22.4475
G01 X-0.6524 Y-22.4279
G01 X-0.6337 Y-22.4073
G01 X-0.6159 Y-22.3859
G01 X-0.5993 Y-22.3637
G01 X-0.5837 Y-22.3407
G01 X-0.5692 Y-22.3170
G01 X-0.5559 Y-22.2926
G01 X-0.5437 Y-22.2676
G01 X-0.5328 Y-22.2420
G01 X-0.5231 Y-22.2160
G01 X-0.5146 Y-22.1895
G01 X-0.5075 Y-22.1627
G01 X-0.5016 Y-22.1355
G01 X-0.4970 Y-22.1081
G01 X-0.4938 Y-22.0805
G01 X-0.4919 Y-22.0528
G01 X-0.4913 Y-22.0241
G01 X-0.5309 Y-7.9368
G01 X-0.5317 Y-7.9066
G01 X-0.5340 Y-7.8775
G01 X-0.5378 Y-7.8485
G01 X-0.5430 Y-7.8197
G01 X-0.5496 Y-7.7913
G01 X-0.5577 Y-7.7632
G01 X-0.5672 Y-7.7355
G01 X-0.5781 Y-7.7084
G01 X-0.5903 Y-7.6818
G01 X-0.6038 Y-7.6559
G01 X-0.6186 Y-7.6307
G01 X-0.6352 Y-7.6055
G01 X-2.0348 Y-5.5922
G01 X-2.0421 Y-5.5787
G01 X-2.0459 Y-5.5664
G01 X-2.0473 Y-5.5546
G01 X-2.0465 Y-5.5418
G01 X-2.0435 Y-5.5293
G01 X-2.0386 Y-5.5184
G01 X-1.9991 Y-5.4486
G01 X-1.9642 Y-5.3793
G01 X-1.9328 Y-5.3084
G01 X-1.9049 Y-5.2361
G01 X-1.8806 Y-5.1624
G01 X-1.8599 Y-5.0877
G01 X-1.8429 Y-5.0120
G01 X-1.8296 Y-4.9356
G01 X-1.8201 Y-4.8587
G01 X-1.8144 Y-4.7813
G01 X-1.8125 Y-4.7038
G01 X-1.8144 Y-4.6263
G01 X-1.8201 Y-4.5489
G01 X-1.8296 Y-4.4720
G01 X-1.8429 Y-4.3956
G01 X-1.8599 Y-4.3199
G01 X-1.8806 Y-4.2452
G01 X-1.9049 Y-4.1715
G01 X-1.9328 Y-4.0992
G01 X-1.9642 Y-4.0283
G01 X-1.9991 Y-3.9590
G01 X-2.0373 Y-3.8915
G01 X-2.0788 Y-3.8260
G01 X-2.1234 Y-3.7626
G01 X-2.1712 Y-3.7015
G01 X-2.2218 Y-3.6428
G01 X-2.2753 Y-3.5866
G01 X-2.3315 Y-3.5331
G01 X-2.3902 Y-3.4825
G01 X-2.4513 Y-3.4347
G01 X-2.5147 Y-3.3901
G01 X-2.5802 Y-3.3486
G01 X-2.6477 Y-3.3104
G01 X-2.7170 Y-3.2755
G01 X-2.7879 Y-3.2441
G01 X-2.8602 Y-3.2162
G01 X-2.9339 Y-3.1919
G01 X-3.0086 Y-3.1712
G01 X-3.0843 Y-3.1542
G01 X-3.1607 Y-3.1409
G01 X-3.2376 Y-3.1314
G01 X-3.3150 Y-3.1257
G01 X-3.3925 Y-3.1238
G01 X-3.4700 Y-3.1257
G01 X-3.5474 Y-3.1314
G01 X-3.6243 Y-3.1409
G01 X-3.7007 Y-3.1542
G01 X-3.7764 Y-3.1712
G01 X-3.8511 Y-3.1919
G01 X-3.9248 Y-3.2162
G01 X-3.9971 Y-3.2441
G01 X-4.0680 Y-3.2755
G01 X-4.1373 Y-3.3104
G01 X-4.2048 Y-3.3486
G01 X-4.2703 Y-3.3901
G01 X-4.3337 Y-3.4347
G01 X-4.3948 Y-3.4825
G01 X-4.4535 Y-3.5331
G01 X-4.5097 Y-3.5866
G01 X-4.5632 Y-3.6428
G01 X-4.6138 Y-3.7015
G01 X-4.6616 Y-3.7626
G01 X-4.7062 Y-3.8260
G01 X-4.7477 Y-3.8915
G01 X-4.7859 Y-3.9590
G01 X-4.8208 Y-4.0283
G01 X-4.8361 Y-4.0627
G01 X-4.8407 Y-4.0709
G01 X-4.8475 Y-4.0798
G01 X-4.8549 Y-4.0869
G01 X-4.8634 Y-4.0928
G01 X-4.8734 Y-4.0978
G01 X-4.8857 Y-4.1014
G01 X-4.8985 Y-4.1028
G01 X-6.0316 Y-4.1028
G01 X-6.0610 Y-4.1035
G01 X-6.0894 Y-4.1056
G01 X-6.1176 Y-4.1091
G01 X-6.1457 Y-4.1139
G01 X-6.1735 Y-4.1202
G01 X-6.2010 Y-4.1278
G01 X-6.2280 Y-4.1367
G01 X-6.2546 Y-4.1470
G01 X-6.2806 Y-4.1585
G01 X-6.3061 Y-4.1713
G01 X-6.3308 Y-4.1854
G01 X-6.3549 Y-4.2006
G01 X-6.3782 Y-4.2170
G01 X-6.4006 Y-4.2345
G01 X-6.4222 Y-4.2531
G01 X-6.4435 Y-4.2734
G01 X-7.7122 Y-5.5421
G01 X-7.7325 Y-5.5634
G01 X-7.7511 Y-5.5850
G01 X-7.7686 Y-5.6074
G01 X-7.7850 Y-5.6307
G01 X-7.8002 Y-5.6548
G01 X-7.8143 Y-5.6795
G01 X-7.8271 Y-5.7050
G01 X-7.8386 Y-5.7310
G01 X-7.8489 Y-5.7576
G01 X-7.8578 Y-5.7846
G01 X-7.8654 Y-5.8121
G01 X-7.8717 Y-5.8399
G01 X-7.8765 Y-5.8680
G01 X-7.8800 Y-5.8962
G01 X-7.8821 Y-5.9246
G01 X-7.8828 Y-5.9540
G01 X-7.8828 Y-6.8521
G01 X-7.8837 Y-6.8623
G01 X-7.8864 Y-6.8732
G01 X-7.8907 Y-6.8834
G01 X-7.8961 Y-6.8922
G01 X-7.9065 Y-6.9036
G01 X-7.9191 Y-6.9125
G01 X-7.9333 Y-6.9184
G01 X-7.9485 Y-6.9211
G01 X-8.3473 Y-6.9212
G01 X-8.3473 Y-8.1606
G01 X-6.9173 Y-8.1606
G00 Z2.0000
G00 X-6.9173 Y-8.0906
G01 F70.00
G01 Z-0.0600
G01 F120.00
G01 X-6.6573 Y-8.0906
G01 X-6.6573 Y-6.9911
G01 X-6.6693 Y-6.9901
G01 X-6.6812 Y-6.9882
G01 X-6.6928 Y-6.9852
G01 X-6.7042 Y-6.9812
G01 X-6.7151 Y-6.9763
G01 X-6.7256 Y-6.9704
G01 X-6.7356 Y-6.9636
G01 X-6.7449 Y-6.9561
G01 X-6.7536 Y-6.9477
G01 X-6.7615 Y-6.9387
G01 X-6.7686 Y-6.9290
G01 X-6.7748 Y-6.9187
G01 X-6.7809 Y-6.9064
G01 X-6.7851 Y-6.8951
G01 X-6.7884 Y-6.8835
G01 X-6.7907 Y-6.8717
G01 X-6.7922 Y-6.8512
G01 X-6.7922 Y-6.2208
G01 X-6.7915 Y-6.2088
G01 X-6.7898 Y-6.1968
G01 X-6.7871 Y-6.1851
G01 X-6.7834 Y-6.1737
G01 X-6.7780 Y-6.1611
G01 X-6.7705 Y-6.1476
G01 X-6.7625 Y-6.1363
G01 X-6.7524 Y-6.1247
G01 X-5.8621 Y-5.2344
G01 X-5.8519 Y-5.2252
G01 X-5.8395 Y-5.2161
G01 X-5.8214 Y-5.2061
G01 X-5.8038 Y-5.1995
G01 X-5.7837 Y-5.1949
G01 X-5.7648 Y-5.1934
G01 X-4.9159 Y-5.1934
G01 X-4.9005 Y-5.1945
G01 X-4.8852 Y-5.1972
G01 X-4.8704 Y-5.2016
G01 X-4.8562 Y-5.2076
G01 X-4.8384 Y-5.2180
G01 X-4.8236 Y-5.2297
G01 X-4.8105 Y-5.2433
G01 X-4.7984 Y-5.2600
G01 X-4.7903 Y-5.2751
G01 X-4.7575 Y-5.3494
G01 X-4.7242 Y-5.4156
G01 X-4.6876 Y-5.4801
G01 X-4.6480 Y-5.5427
G01 X-4.6053 Y-5.6033
G01 X-4.5597 Y-5.6617
G01 X-4.5113 Y-5.7178
G01 X-4.4602 Y-5.7715
G01 X-4.4065 Y-5.8226
G01 X-4.3504 Y-5.8710
G01 X-4.2920 Y-5.9166
G01 X-4.2314 Y-5.9593
G01 X-4.1688 Y-5.9989
G01 X-4.1043 Y-6.0355
G01 X-4.0381 Y-6.0688
G01 X-3.9655 Y-6.1010
G01 X-3.9518 Y-6.1082
G01 X-3.9390 Y-6.1168
G01 X-3.9272 Y-6.1269
G01 X-3.9155 Y-6.1394
G01 X-3.9064 Y-6.1519
G01 X-3.8965 Y-6.1700
G01 X-3.8898 Y-6.1876
G01 X-3.8853 Y-6.2077
G01 X-3.8838 Y-6.2265
G01 X-3.8837 Y-8.4775
G01 X-3.8843 Y-8.4912
G01 X-3.8864 Y-8.5048
G01 X-3.8913 Y-8.5230
G01 X-3.8994 Y-8.5420
G01 X-3.9102 Y-8.5595
G01 X-3.9235 Y-8.5753
G01 X-3.9389 Y-8.5889
G01 X-3.9547 Y-8.5993
G01 X-3.9733 Y-8.6081
G01 X-3.9930 Y-8.6141
G01 X-4.0065 Y-8.6164
G01 X-4.0220 Y-8.6175
G01 X-4.3912 Y-8.6175
G01 X-4.3912 Y-12.3375
G01 X-3.9824 Y-12.3375
G01 X-3.9687 Y-12.3384
G01 X-3.9568 Y-12.3402
G01 X-3.9370 Y-12.3457
G01 X-3.9181 Y-12.3540
G01 X-3.9007 Y-12.3651
G01 X-3.8851 Y-12.3785
G01 X-3.8727 Y-12.3927
G01 X-3.8615 Y-12.4100
G01 X-3.8529 Y-12.4287
G01 X-3.8472 Y-12.4485
G01 X-3.8450 Y-12.4621
G01 X-3.8441 Y-12.4775
G01 X-3.8441 Y-14.8338
G01 X-3.8446 Y-14.8458
G01 X-3.8462 Y-14.8577
G01 X-3.8487 Y-14.8695
G01 X-3.8523 Y-14.8810
G01 X-3.8568 Y-14.8921
G01 X-3.8677 Y-14.9116
G01 X-3.8748 Y-14.9213
G01 X-3.8827 Y-14.9303
G01 X-3.8914 Y-14.9387
G01 X-3.9007 Y-14.9462
G01 X-3.9107 Y-14.9530
G01 X-3.9212 Y-14.9589
G01 X-3.9321 Y-14.9638
G01 X-3.9435 Y-14.9678
G01 X-3.9551 Y-14.9708
G01 X-3.9670 Y-14.9727
G01 X-3.9841 Y-14.9738
G01 X-4.8772 Y-14.9738
G01 X-4.8772 Y-15.0938
G01 X-4.5804 Y-15.0938
G01 X-4.5599 Y-15.0959
G01 X-4.5415 Y-15.1003
G01 X-4.5209 Y-15.1087
G01 X-4.5018 Y-15.1203
G01 X-4.4848 Y-15.1348
G01 X-4.4703 Y-15.1518
G01 X-4.4587 Y-15.1709
G01 X-4.4503 Y-15.1915
G01 X-4.4453 Y-15.2133
G01 X-4.4438 Y-15.2338
G01 X-4.4438 Y-16.8338
G01 X-4.4449 Y-16.8509
G01 X-4.4476 Y-16.8661
G01 X-4.4532 Y-16.8842
G01 X-4.4612 Y-16.9013
G01 X-4.4724 Y-16.9186
G01 X-4.4848 Y-16.9328
G01 X-4.4990 Y-16.9452
G01 X-4.5148 Y-16.9556
G01 X-4.5318 Y-16.9638
G01 X-4.5498 Y-16.9696
G01 X-4.5650 Y-16.9725
G01 X-4.5821 Y-16.9738
G01 X-4.8772 Y-16.9738
G01 X-4.8772 Y-17.0938
G01 X-3.9773 Y-17.0940
G01 X-3.9636 Y-17.0953
G01 X-3.9501 Y-17.0980
G01 X-3.9370 Y-17.1020
G01 X-3.9243 Y-17.1072
G01 X-3.9122 Y-17.1137
G01 X-3.9007 Y-17.1214
G01 X-3.8901 Y-17.1301
G01 X-3.8804 Y-17.1398
G01 X-3.8727 Y-17.1490
G01 X-3.8658 Y-17.1589
G01 X-3.8599 Y-17.1693
G01 X-3.8548 Y-17.1802
G01 X-3.8507 Y-17.1915
G01 X-3.8475 Y-17.2031
G01 X-3.8452 Y-17.2167
G01 X-3.8442 Y-17.2286
G01 X-3.8441 Y-18.2040
G01 X-3.8459 Y-18.2263
G01 X-3.8487 Y-18.2397
G01 X-3.8529 Y-18.2528
G01 X-3.8583 Y-18.2655
G01 X-3.8649 Y-18.2775
G01 X-3.8727 Y-18.2888
G01 X-3.8816 Y-18.2993
G01 X-3.8914 Y-18.3089
G01 X-3.9021 Y-18.3175
G01 X-3.9122 Y-18.3241
G01 X-3.9243 Y-18.3306
G01 X-3.9703 Y-18.3488
G01 X-4.0381 Y-18.3788
G01 X-4.1043 Y-18.4121
G01 X-4.1688 Y-18.4487
G01 X-4.2314 Y-18.4883
G01 X-4.2920 Y-18.5310
G01 X-4.3504 Y-18.5766
G01 X-4.4065 Y-18.6250
G01 X-4.4602 Y-18.6761
G01 X-4.5113 Y-18.7298
G01 X-4.5318 Y-18.7531
G01 X-4.5487 Y-18.7678
G01 X-4.5587 Y-18.7746
G01 X-4.5692 Y-18.7805
G01 X-4.5802 Y-18.7854
G01 X-4.5933 Y-18.7899
G01 X-4.6050 Y-18.7927
G01 X-4.6187 Y-18.7947
G01 X-4.6308 Y-18.7953
G01 X-4.6428 Y-18.7949
G01 X-4.6582 Y-18.7928
G01 X-4.6716 Y-18.7896
G01 X-5.0588 Y-18.6698
G01 X-5.0698 Y-18.6651
G01 X-5.0804 Y-18.6594
G01 X-5.0986 Y-18.6467
G01 X-5.1145 Y-18.6312
G01 X-5.1278 Y-18.6134
G01 X-5.1368 Y-18.5968
G01 X-5.1434 Y-18.5792
G01 X-5.1474 Y-18.5626
G01 X-5.1493 Y-18.5439
G01 X-5.1494 Y-17.9836
G01 X-7.0694 Y-17.9836
G01 X-7.0694 Y-21.0423
G01 X-7.0699 Y-21.0543
G01 X-7.0715 Y-21.0662
G01 X-7.0745 Y-21.0796
G01 X-7.0782 Y-21.0910
G01 X-7.0828 Y-21.1021
G01 X-7.0884 Y-21.1127
G01 X-7.0949 Y-21.1229
G01 X-7.1034 Y-21.1337
G01 X-7.1116 Y-21.1425
G01 X-7.1219 Y-21.1516
G01 X-7.1316 Y-21.1587
G01 X-7.1419 Y-21.1649
G01 X-7.2118 Y-21.1995
G01 X-7.2613 Y-21.2276
G01 X-7.3094 Y-21.2580
G01 X-7.3560 Y-21.2908
G01 X-7.4009 Y-21.3258
G01 X-7.4440 Y-21.3630
G01 X-7.4852 Y-21.4023
G01 X-7.5245 Y-21.4435
G01 X-7.5617 Y-21.4866
G01 X-7.5967 Y-21.5315
G01 X-7.6295 Y-21.5781
G01 X-7.6599 Y-21.6262
G01 X-7.6880 Y-21.6757
G01 X-7.7136 Y-21.7266
G01 X-7.7367 Y-21.7786
G01 X-7.7572 Y-21.8317
G01 X-7.7750 Y-21.8858
G01 X-7.7902 Y-21.9407
G01 X-7.8027 Y-21.9962
G01 X-7.8124 Y-22.0523
G01 X-7.8194 Y-22.1088
G01 X-7.8236 Y-22.1656
G01 X-7.8250 Y-22.2225
G01 X-7.8236 Y-22.2794
G01 X-7.8194 Y-22.3362
G01 X-7.8124 Y-22.3927
G01 X-7.8027 Y-22.4488
G01 X-7.7902 Y-22.5043
G01 X-7.7750 Y-22.5592
G01 X-7.7572 Y-22.6133
G01 X-7.7367 Y-22.6664
G01 X-7.7136 Y-22.7184
G01 X-7.6880 Y-22.7693
G01 X-7.6599 Y-22.8188
G01 X-7.6295 Y-22.8669
G01 X-7.5967 Y-22.9135
G01 X-7.5617 Y-22.9584
G01 X-7.5245 Y-23.0015
G01 X-7.4852 Y-23.0427
G01 X-7.4440 Y-23.0820
G01 X-7.4009 Y-23.1192
G01 X-7.3560 Y-23.1542
G01 X-7.3094 Y-23.1870
G01 X-7.2613 Y-23.2174
G01 X-7.2118 Y-23.2455
G01 X-7.1609 Y-23.2711
G01 X-7.1089 Y-23.2942
G01 X-7.0558 Y-23.3147
G01 X-7.0017 Y-23.3325
G01 X-6.9468 Y-23.3477
G01 X-6.8913 Y-23.3602
G01 X-6.8352 Y-23.3699
G01 X-6.7787 Y-23.3769
G01 X-6.7219 Y-23.3811
G01 X-6.6650 Y-23.3825
G01 X-6.6081 Y-23.3811
G01 X-6.5513 Y-23.3769
G01 X-6.4948 Y-23.3699
G01 X-6.4387 Y-23.3602
G01 X-6.3832 Y-23.3477
G01 X-6.3283 Y-23.3325
G01 X-6.2742 Y-23.3147
G01 X-6.2211 Y-23.2942
G01 X-6.1691 Y-23.2711
G01 X-6.1182 Y-23.2455
G01 X-6.0687 Y-23.2174
G01 X-6.0206 Y-23.1870
G01 X-5.9740 Y-23.1542
G01 X-5.9291 Y-23.1192
G01 X-5.8860 Y-23.0820
G01 X-5.8448 Y-23.0427
G01 X-5.8055 Y-23.0015
G01 X-5.7683 Y-22.9584
G01 X-5.7333 Y-22.9135
G01 X-5.7005 Y-22.8669
G01 X-5.6701 Y-22.8188
G01 X-5.6420 Y-22.7693
G01 X-5.6164 Y-22.7184
G01 X-5.5933 Y-22.6664
G01 X-5.5728 Y-22.6133
G01 X-5.5550 Y-22.5592
G01 X-5.5398 Y-22.5043
G01 X-5.5273 Y-22.4488
G01 X-5.5176 Y-22.3927
G01 X-5.5106 Y-22.3362
G01 X-5.5064 Y-22.2794
G01 X-5.5050 Y-22.2225
G01 X-5.5064 Y-22.1656
G01 X-5.5106 Y-22.1088
G01 X-5.5176 Y-22.0523
G01 X-5.5273 Y-21.9962
G01 X-5.5398 Y-21.9407
G01 X-5.5577 Y-21.8759
G01 X-5.5608 Y-21.8573
G01 X-5.5613 Y-21.8367
G01 X-5.5591 Y-21.8180
G01 X-5.5544 Y-21.7997
G01 X-5.5465 Y-21.7807
G01 X-5.5388 Y-21.7673
G01 X-5.5297 Y-21.7548
G01 X-5.5193 Y-21.7434
G01 X-5.5063 Y-21.7322
G01 X-5.4935 Y-21.7235
G01 X-5.4798 Y-21.7163
G01 X-5.4638 Y-21.7101
G01 X-5.4488 Y-21.7063
G01 X-5.4369 Y-21.7045
G01 X-5.4232 Y-21.7036
G01 X-5.1494 Y-21.7036
G01 X-5.1493 Y-20.0668
G01 X-5.1476 Y-20.0497
G01 X-5.1443 Y-20.0346
G01 X-5.1394 Y-20.0199
G01 X-5.1320 Y-20.0044
G01 X-5.1239 Y-19.9913
G01 X-5.1131 Y-19.9779
G01 X-5.1021 Y-19.9670
G01 X-5.0886 Y-19.9565
G01 X-5.0769 Y-19.9493
G01 X-5.0661 Y-19.9439
G01 X-5.0533 Y-19.9390
G01 X-5.0401 Y-19.9353
G01 X-5.0282 Y-19.9332
G01 X-5.0146 Y-19.9320
G01 X-5.0008 Y-19.9322
G01 X-4.9889 Y-19.9334
G01 X-4.9754 Y-19.9361
G01 X-4.9639 Y-19.9395
G01 X-4.9511 Y-19.9446
G01 X-4.9389 Y-19.9510
G01 X-4.9274 Y-19.9585
G01 X-4.9180 Y-19.9659
G01 X-4.9080 Y-19.9754
G01 X-4.8990 Y-19.9858
G01 X-4.8920 Y-19.9956
G01 X-4.8859 Y-20.0059
G01 X-4.8807 Y-20.0168
G01 X-4.8765 Y-20.0280
G01 X-4.8732 Y-20.0396
G01 X-4.8572 Y-20.1107
G01 X-4.8374 Y-20.1821
G01 X-4.8142 Y-20.2525
G01 X-4.7875 Y-20.3216
G01 X-4.7575 Y-20.3894
G01 X-4.7242 Y-20.4556
G01 X-4.6876 Y-20.5201
G01 X-4.6480 Y-20.5827
G01 X-4.6053 Y-20.6433
G01 X-4.5597 Y-20.7017
G01 X-4.5113 Y-20.7578
G01 X-4.4602 Y-20.8115
G01 X-4.4065 Y-20.8626
G01 X-4.3504 Y-20.9110
G01 X-4.2920 Y-20.9566
G01 X-4.2314 Y-20.9993
G01 X-4.1688 Y-21.0389
G01 X-4.1043 Y-21.0755
G01 X-4.0381 Y-21.1088
G01 X-3.9703 Y-21.1388
G01 X-3.9012 Y-21.1655
G01 X-3.8308 Y-21.1887
G01 X-3.7594 Y-21.2085
G01 X-3.6871 Y-21.2247
G01 X-3.6141 Y-21.2374
G01 X-3.5405 Y-21.2465
G01 X-3.4666 Y-21.2519
G01 X-3.3925 Y-21.2538
G01 X-3.3184 Y-21.2519
G01 X-3.2445 Y-21.2465
G01 X-3.1709 Y-21.2374
G01 X-3.0979 Y-21.2247
G01 X-3.0256 Y-21.2085
G01 X-2.9542 Y-21.1887
G01 X-2.8838 Y-21.1655
G01 X-2.8147 Y-21.1388
G01 X-2.7469 Y-21.1088
G01 X-2.6807 Y-21.0755
G01 X-2.6162 Y-21.0389
G01 X-2.5536 Y-20.9993
G01 X-2.4930 Y-20.9566
G01 X-2.4346 Y-20.9110
G01 X-2.3785 Y-20.8626
G01 X-2.3248 Y-20.8115
G01 X-2.2737 Y-20.7578
G01 X-2.2253 Y-20.7017
G01 X-2.1797 Y-20.6433
G01 X-2.1370 Y-20.5827
G01 X-2.0974 Y-20.5201
G01 X-2.0608 Y-20.4556
G01 X-2.0275 Y-20.3894
G01 X-1.9975 Y-20.3216
G01 X-1.9708 Y-20.2525
G01 X-1.9476 Y-20.1821
G01 X-1.9278 Y-20.1107
G01 X-1.9116 Y-20.0384
G01 X-1.8989 Y-19.9654
G01 X-1.8898 Y-19.8918
G01 X-1.8844 Y-19.8179
G01 X-1.8825 Y-19.7438
G01 X-1.8844 Y-19.6697
G01 X-1.8898 Y-19.5958
G01 X-1.8989 Y-19.5222
G01 X-1.9116 Y-19.4492
G01 X-1.9278 Y-19.3769
G01 X-1.9476 Y-19.3055
G01 X-1.9708 Y-19.2351
G01 X-1.9975 Y-19.1660
G01 X-2.0275 Y-19.0982
G01 X-2.0608 Y-19.0320
G01 X-2.0974 Y-18.9675
G01 X-2.1370 Y-18.9049
G01 X-2.1797 Y-18.8443
G01 X-2.2253 Y-18.7859
G01 X-2.2737 Y-18.7298
G01 X-2.3248 Y-18.6761
G01 X-2.3785 Y-18.6250
G01 X-2.4346 Y-18.5766
G01 X-2.4930 Y-18.5310
G01 X-2.5536 Y-18.4883
G01 X-2.6162 Y-18.4487
G01 X-2.6807 Y-18.4121
G01 X-2.7510 Y-18.3767
G01 X-2.7627 Y-18.3695
G01 X-2.7723 Y-18.3622
G01 X-2.7825 Y-18.3530
G01 X-2.7928 Y-18.3415
G01 X-2.8008 Y-18.3304
G01 X-2.8085 Y-18.3170
G01 X-2.8141 Y-18.3044
G01 X-2.8189 Y-18.2897
G01 X-2.8217 Y-18.2762
G01 X-2.8232 Y-18.2626
G01 X-2.8235 Y-17.2321
G01 X-2.8214 Y-17.2099
G01 X-2.8159 Y-17.1883
G01 X-2.8093 Y-17.1724
G01 X-2.8008 Y-17.1575
G01 X-2.7895 Y-17.1424
G01 X-2.7775 Y-17.1301
G01 X-2.7641 Y-17.1193
G01 X-2.7495 Y-17.1103
G01 X-2.7323 Y-17.1026
G01 X-2.7158 Y-17.0976
G01 X-2.7006 Y-17.0949
G01 X-2.6852 Y-17.0938
G01 X-2.4238 Y-17.0938
G01 X-2.4238 Y-14.9738
G01 X-2.6869 Y-14.9738
G01 X-2.7074 Y-14.9717
G01 X-2.7258 Y-14.9673
G01 X-2.7449 Y-14.9596
G01 X-2.7627 Y-14.9492
G01 X-2.7788 Y-14.9364
G01 X-2.7928 Y-14.9213
G01 X-2.8044 Y-14.9043
G01 X-2.8135 Y-14.8858
G01 X-2.8197 Y-14.8661
G01 X-2.8230 Y-14.8458
G01 X-2.8235 Y-14.8338
G01 X-2.8235 Y-12.4775
G01 X-2.8228 Y-12.4638
G01 X-2.8193 Y-12.4435
G01 X-2.8122 Y-12.4223
G01 X-2.8018 Y-12.4026
G01 X-2.7884 Y-12.3848
G01 X-2.7723 Y-12.3693
G01 X-2.7540 Y-12.3565
G01 X-2.7339 Y-12.3469
G01 X-2.7141 Y-12.3409
G01 X-2.6989 Y-12.3384
G01 X-2.6852 Y-12.3375
G01 X-2.2712 Y-12.3375
G01 X-2.2712 Y-8.6175
G01 X-2.7230 Y-8.6175
G01 X-2.7350 Y-8.6170
G01 X-2.7470 Y-8.6154
G01 X-2.7669 Y-8.6104
G01 X-2.7844 Y-8.6033
G01 X-2.8008 Y-8.5939
G01 X-2.8170 Y-8.5812
G01 X-2.8301 Y-8.5676
G01 X-2.8422 Y-8.5509
G01 X-2.8517 Y-8.5327
G01 X-2.8579 Y-8.5148
G01 X-2.8617 Y-8.4963
G01 X-2.8630 Y-8.4775
G01 X-2.8630 Y-6.7547
G01 X-2.8618 Y-6.7393
G01 X-2.8589 Y-6.7242
G01 X-2.8544 Y-6.7094
G01 X-2.8490 Y-6.6968
G01 X-2.8415 Y-6.6834
G01 X-2.8325 Y-6.6708
G01 X-2.8223 Y-6.6593
G01 X-2.8108 Y-6.6490
G01 X-2.7997 Y-6.6409
G01 X-2.7879 Y-6.6340
G01 X-2.7755 Y-6.6282
G01 X-2.7625 Y-6.6237
G01 X-2.7492 Y-6.6205
G01 X-2.7356 Y-6.6186
G01 X-2.7219 Y-6.6181
G01 X-2.7082 Y-6.6189
G01 X-2.6947 Y-6.6210
G01 X-2.6814 Y-6.6244
G01 X-2.6685 Y-6.6291
G01 X-2.6562 Y-6.6351
G01 X-2.6445 Y-6.6422
G01 X-2.6335 Y-6.6505
G01 X-2.6234 Y-6.6597
G01 X-2.6143 Y-6.6700
G01 X-1.6460 Y-8.0622
G01 X-1.6387 Y-8.0740
G01 X-1.6333 Y-8.0848
G01 X-1.6282 Y-8.0976
G01 X-1.6249 Y-8.1092
G01 X-1.6221 Y-8.1245
G01 X-1.6210 Y-8.1418
G01 X-1.5828 Y-21.7098
G01 X-1.5835 Y-21.7236
G01 X-1.5854 Y-21.7372
G01 X-1.5883 Y-21.7489
G01 X-1.5921 Y-21.7604
G01 X-1.5969 Y-21.7714
G01 X-1.6026 Y-21.7820
G01 X-1.6092 Y-21.7921
G01 X-1.6167 Y-21.8015
G01 X-1.6249 Y-21.8103
G01 X-1.6339 Y-21.8184
G01 X-2.3757 Y-22.3984
G01 X-2.3870 Y-22.4061
G01 X-2.3975 Y-22.4120
G01 X-2.4085 Y-22.4170
G01 X-2.4215 Y-22.4214
G01 X-2.4434 Y-22.4259
G01 X-2.4640 Y-22.4270
G01 X-2.4845 Y-22.4250
G01 X-2.5045 Y-22.4199
G01 X-2.5235 Y-22.4121
G01 X-2.5426 Y-22.4014
G01 X-2.6088 Y-22.3681
G01 X-2.6766 Y-22.3381
G01 X-2.7457 Y-22.3114
G01 X-2.8161 Y-22.2882
G01 X-2.8875 Y-22.2684
G01 X-2.9598 Y-22.2522
G01 X-3.0328 Y-22.2395
G01 X-3.1064 Y-22.2304
G01 X-3.1803 Y-22.2250
G01 X-3.2544 Y-22.2231
G01 X-3.3285 Y-22.2250
G01 X-3.4024 Y-22.2304
G01 X-3.4760 Y-22.2395
G01 X-3.5490 Y-22.2522
G01 X-3.6213 Y-22.2684
G01 X-3.6927 Y-22.2882
G01 X-3.7631 Y-22.3114
G01 X-3.8322 Y-22.3381
G01 X-3.9000 Y-22.3681
G01 X-3.9662 Y-22.4014
G01 X-4.0307 Y-22.4380
G01 X-4.0933 Y-22.4776
G01 X-4.1539 Y-22.5203
G01 X-4.2123 Y-22.5659
G01 X-4.2684 Y-22.6143
G01 X-4.3221 Y-22.6654
G01 X-4.3732 Y-22.7191
G01 X-4.4216 Y-22.7752
G01 X-4.4672 Y-22.8336
G01 X-4.5099 Y-22.8942
G01 X-4.5495 Y-22.9568
G01 X-4.5861 Y-23.0213
G01 X-4.6194 Y-23.0875
G01 X-4.6494 Y-23.1553
G01 X-4.6761 Y-23.2244
G01 X-4.6993 Y-23.2948
G01 X-4.7191 Y-23.3662
G01 X-4.7353 Y-23.4385
G01 X-4.7480 Y-23.5115
G01 X-4.7571 Y-23.5851
G01 X-4.7625 Y-23.6590
G01 X-4.7644 Y-23.7331
G01 X-4.7625 Y-23.8072
G01 X-4.7571 Y-23.8811
G01 X-4.7480 Y-23.9547
G01 X-4.7353 Y-24.0277
G01 X-4.7191 Y-24.1000
G01 X-4.6993 Y-24.1714
G01 X-4.6761 Y-24.2418
G01 X-4.6494 Y-24.3109
G01 X-4.6194 Y-24.3787
G01 X-4.5861 Y-24.4449
G01 X-4.5495 Y-24.5094
G01 X-4.5099 Y-24.5720
G01 X-4.4672 Y-24.6326
G01 X-4.4216 Y-24.6910
G01 X-4.3732 Y-24.7471
G01 X-4.3221 Y-24.8008
G01 X-4.2684 Y-24.8519
G01 X-4.2123 Y-24.9003
G01 X-4.1539 Y-24.9459
G01 X-4.0933 Y-24.9886
G01 X-4.0307 Y-25.0282
G01 X-3.9662 Y-25.0648
G01 X-3.9000 Y-25.0981
G01 X-3.8322 Y-25.1281
G01 X-3.7631 Y-25.1548
G01 X-3.6927 Y-25.1780
G01 X-3.6213 Y-25.1978
G01 X-3.5490 Y-25.2140
G01 X-3.4760 Y-25.2267
G01 X-3.4024 Y-25.2358
G01 X-3.3285 Y-25.2412
G01 X-3.2544 Y-25.2431
G01 X-3.1803 Y-25.2412
G01 X-3.1064 Y-25.2358
G01 X-3.0328 Y-25.2267
G01 X-2.9598 Y-25.2140
G01 X-2.8875 Y-25.1978
G01 X-2.8161 Y-25.1780
G01 X-2.7457 Y-25.1548
G01 X-2.6766 Y-25.1281
G01 X-2.6088 Y-25.0981
G01 X-2.5426 Y-25.0648
G01 X-2.4781 Y-25.0282
G01 X-2.4155 Y-24.9886
G01 X-2.3549 Y-24.9459
G01 X-2.2965 Y-24.9003
G01 X-2.2404 Y-24.8519
G01 X-2.1867 Y-24.8008
G01 X-2.1356 Y-24.7471
G01 X-2.0872 Y-24.6910
G01 X-2.0416 Y-24.6326
G01 X-1.9989 Y-24.5720
G01 X-1.9593 Y-24.5094
G01 X-1.9227 Y-24.4449
G01 X-1.8894 Y-24.3787
G01 X-1.8594 Y-24.3109
G01 X-1.8327 Y-24.2418
G01 X-1.8095 Y-24.1714
G01 X-1.7897 Y-24.1000
G01 X-1.7735 Y-24.0277
G01 X-1.7608 Y-23.9547
G01 X-1.7517 Y-23.8811
G01 X-1.7463 Y-23.8072
G01 X-1.7444 Y-23.7331
G01 X-1.7463 Y-23.6590
G01 X-1.7517 Y-23.5851
G01 X-1.7608 Y-23.5115
G01 X-1.7735 Y-23.4385
G01 X-1.7897 Y-23.3662
G01 X-1.7961 Y-23.3424
G01 X-1.7991 Y-23.3220
G01 X-1.7991 Y-23.3014
G01 X-1.7961 Y-23.2811
G01 X-1.7902 Y-23.2614
G01 X-1.7814 Y-23.2428
G01 X-1.7740 Y-23.2312
G01 X-1.7667 Y-23.2216
G01 X-1.7574 Y-23.2116
G01 X-1.7471 Y-23.2025
G01 X-0.7586 Y-22.4297
G01 X-0.7384 Y-22.4131
G01 X-0.7203 Y-22.3967
G01 X-0.7030 Y-22.3795
G01 X-0.6865 Y-22.3614
G01 X-0.6709 Y-22.3426
G01 X-0.6563 Y-22.3230
G01 X-0.6425 Y-22.3028
G01 X-0.6298 Y-22.2820
G01 X-0.6181 Y-22.2605
G01 X-0.6074 Y-22.2385
G01 X-0.5978 Y-22.2161
G01 X-0.5893 Y-22.1931
G01 X-0.5818 Y-22.1699
G01 X-0.5755 Y-22.1463
G01 X-0.5704 Y-22.1224
G01 X-0.5664 Y-22.0983
G01 X-0.5635 Y-22.0740
G01 X-0.5618 Y-22.0496
G01 X-0.5613 Y-22.0235
G01 X-0.6009 Y-7.9378
G01 X-0.6016 Y-7.9104
G01 X-0.6037 Y-7.8847
G01 X-0.6070 Y-7.8592
G01 X-0.6115 Y-7.8339
G01 X-0.6174 Y-7.8089
G01 X-0.6245 Y-7.7842
G01 X-0.6328 Y-7.7599
G01 X-0.6424 Y-7.7360
G01 X-0.6531 Y-7.7127
G01 X-0.6650 Y-7.6899
G01 X-0.6781 Y-7.6677
G01 X-0.6932 Y-7.6448
G01 X-2.0923 Y-5.6321
G01 X-2.1004 Y-5.6190
G01 X-2.1069 Y-5.6051
G01 X-2.1110 Y-5.5939
G01 X-2.1141 Y-5.5823
G01 X-2.1161 Y-5.5705
G01 X-2.1172 Y-5.5586
G01 X-2.1172 Y-5.5467
G01 X-2.1162 Y-5.5347
G01 X-2.1139 Y-5.5213
G01 X-2.1107 Y-5.5097
G01 X-2.1066 Y-5.4985
G01 X-2.1016 Y-5.4877
G01 X-2.0608 Y-5.4156
G01 X-2.0275 Y-5.3494
G01 X-1.9975 Y-5.2816
G01 X-1.9708 Y-5.2125
G01 X-1.9476 Y-5.1421
G01 X-1.9278 Y-5.0707
G01 X-1.9116 Y-4.9984
G01 X-1.8989 Y-4.9254
G01 X-1.8898 Y-4.8518
G01 X-1.8844 Y-4.7779
G01 X-1.8825 Y-4.7038
G01 X-1.8844 Y-4.6297
G01 X-1.8898 Y-4.5558
G01 X-1.8989 Y-4.4822
G01 X-1.9116 Y-4.4092
G01 X-1.9278 Y-4.3369
G01 X-1.9476 Y-4.2655
G01 X-1.9708 Y-4.1951
G01 X-1.9975 Y-4.1260
G01 X-2.0275 Y-4.0582
G01 X-2.0608 Y-3.9920
G01 X-2.0974 Y-3.9275
G01 X-2.1370 Y-3.8649
G01 X-2.1797 Y-3.8043
G01 X-2.2253 Y-3.7459
G01 X-2.2737 Y-3.6898
G01 X-2.3248 Y-3.6361
G01 X-2.3785 Y-3.5850
G01 X-2.4346 Y-3.5366
G01 X-2.4930 Y-3.4910
G01 X-2.5536 Y-3.4483
G01 X-2.6162 Y-3.4087
G01 X-2.6807 Y-3.3721
G01 X-2.7469 Y-3.3388
G01 X-2.8147 Y-3.3088
G01 X-2.8838 Y-3.2821
G01 X-2.9542 Y-3.2589
G01 X-3.0256 Y-3.2391
G01 X-3.0979 Y-3.2229
G01 X-3.1709 Y-3.2102
G01 X-3.2445 Y-3.2011
G01 X-3.3184 Y-3.1957
G01 X-3.3925 Y-3.1938
G01 X-3.4666 Y-3.1957
G01 X-3.5405 Y-3.2011
G01 X-3.6141 Y-3.2102
G01 X-3.6871 Y-3.2229
G01 X-3.7594 Y-3.2391
G01 X-3.8308 Y-3.2589
G01 X-3.9012 Y-3.2821
G01 X-3.9703 Y-3.3088
G01 X-4.0381 Y-3.3388
G01 X-4.1043 Y-3.3721
G01 X-4.1688 Y-3.4087
G01 X-4.2314 Y-3.4483
G01 X-4.2920 Y-3.4910
G01 X-4.3504 Y-3.5366
G01 X-4.4065 Y-3.5850
G01 X-4.4602 Y-3.6361
G01 X-4.5113 Y-3.6898
G01 X-4.5597 Y-3.7459
G01 X-4.6053 Y-3.8043
G01 X-4.6480 Y-3.8649
G01 X-4.6876 Y-3.9275
G01 X-4.7242 Y-3.9920
G01 X-4.7575 Y-4.0582
G01 X-4.7743 Y-4.0957
G01 X-4.7839 Y-4.1120
G01 X-4.7968 Y-4.1281
G01 X-4.8119 Y-4.1421
G01 X-4.8289 Y-4.1537
G01 X-4.8474 Y-4.1628
G01 X-4.8604 Y-4.1672
G01 X-4.8720 Y-4.1701
G01 X-4.8856 Y-4.1721
G01 X-4.8976 Y-4.1728
G01 X-6.0308 Y-4.1728
G01 X-6.0575 Y-4.1734
G01 X-6.0825 Y-4.1753
G01 X-6.1074 Y-4.1783
G01 X-6.1321 Y-4.1826
G01 X-6.1565 Y-4.1881
G01 X-6.1806 Y-4.1948
G01 X-6.2044 Y-4.2026
G01 X-6.2278 Y-4.2117
G01 X-6.2507 Y-4.2218
G01 X-6.2730 Y-4.2331
G01 X-6.2948 Y-4.2454
G01 X-6.3160 Y-4.2588
G01 X-6.3365 Y-4.2732
G01 X-6.3562 Y-4.2886
G01 X-6.3752 Y-4.3050
G01 X-6.3946 Y-4.3235
G01 X-7.6621 Y-5.5910
G01 X-7.6806 Y-5.6104
G01 X-7.6970 Y-5.6294
G01 X-7.7124 Y-5.6491
G01 X-7.7268 Y-5.6696
G01 X-7.7402 Y-5.6908
G01 X-7.7525 Y-5.7126
G01 X-7.7638 Y-5.7349
G01 X-7.7739 Y-5.7578
G01 X-7.7830 Y-5.7812
G01 X-7.7908 Y-5.8050
G01 X-7.7975 Y-5.8291
G01 X-7.8030 Y-5.8535
G01 X-7.8073 Y-5.8782
G01 X-7.8103 Y-5.9031
G01 X-7.8122 Y-5.9281
G01 X-7.8128 Y-5.9548
G01 X-7.8129 Y-6.8546
G01 X-7.8149 Y-6.8751
G01 X-7.8199 Y-6.8951
G01 X-7.8278 Y-6.9141
G01 X-7.8384 Y-6.9318
G01 X-7.8468 Y-6.9426
G01 X-7.8575 Y-6.9538
G01 X-7.8681 Y-6.9626
G01 X-7.8809 Y-6.9713
G01 X-7.8930 Y-6.9778
G01 X-7.9057 Y-6.9830
G01 X-7.9205 Y-6.9874
G01 X-7.9340 Y-6.9899
G01 X-7.9528 Y-6.9912
G01 X-8.2773 Y-6.9912
G01 X-8.2773 Y-8.0906
G01 X-6.9173 Y-8.0906
G00 Z2.0000
G00 X-6.7932 Y-8.0206
G01 F70.00
G01 Z-0.0600
G01 F120.00
G01 X-6.7273 Y-8.0206
G01 X-6.7273 Y-7.9406
G01 X-6.7399 Y-7.9635
G01 X-6.7550 Y-7.9844
G01 X-6.7725 Y-8.0033
G01 X-6.7932 Y-8.0206
G00 Z2.0000
G00 X-7.4109 Y-7.9212
G01 F70.00
G01 Z-0.0600
G01 F120.00
G01 X-7.3819 Y-7.9301
G01 X-7.3633 Y-7.9343
G01 X-7.3339 Y-7.9386
G01 X-7.3025 Y-7.9401
G01 X-7.2711 Y-7.9386
G01 X-7.2417 Y-7.9343
G01 X-7.2231 Y-7.9301
G01 X-7.1941 Y-7.9212
G01 X-6.9104 Y-7.9209
G01 X-6.9003 Y-7.9191
G01 X-6.8897 Y-7.9155
G01 X-6.8799 Y-7.9103
G01 X-6.8709 Y-7.9036
G01 X-6.8637 Y-7.8963
G01 X-6.8573 Y-7.8872
G01 X-6.8526 Y-7.8780
G01 X-6.8492 Y-7.8674
G01 X-6.8473 Y-7.8512
G01 X-6.8473 Y-7.2512
G01 X-6.8486 Y-7.2375
G01 X-6.8508 Y-7.2292
G01 X-6.8540 Y-7.2213
G01 X-6.8582 Y-7.2138
G01 X-6.8632 Y-7.2068
G01 X-6.8690 Y-7.2005
G01 X-6.8756 Y-7.1950
G01 X-6.8828 Y-7.1903
G01 X-6.8905 Y-7.1865
G01 X-6.9020 Y-7.1829
G01 X-6.9130 Y-7.1813
G01 X-6.9824 Y-7.1812
G01 X-6.9824 Y-6.0857
G01 X-5.8999 Y-5.0032
G01 X-4.6777 Y-5.0032
G01 X-4.6727 Y-5.0254
G01 X-4.6559 Y-5.0862
G01 X-4.6350 Y-5.1493
G01 X-4.6120 Y-5.2089
G01 X-4.5865 Y-5.2666
G01 X-4.5562 Y-5.3268
G01 X-4.5247 Y-5.3824
G01 X-4.4910 Y-5.4357
G01 X-4.4527 Y-5.4901
G01 X-4.4118 Y-5.5425
G01 X-4.3706 Y-5.5903
G01 X-4.3259 Y-5.6372
G01 X-4.2790 Y-5.6819
G01 X-4.2312 Y-5.7231
G01 X-4.1788 Y-5.7640
G01 X-4.1244 Y-5.8023
G01 X-4.0711 Y-5.8360
G01 X-4.0155 Y-5.8675
G01 X-3.9553 Y-5.8978
G01 X-3.8976 Y-5.9233
G01 X-3.8380 Y-5.9463
G01 X-3.7749 Y-5.9672
G01 X-3.7141 Y-5.9840
G01 X-3.6936 Y-5.9887
G01 X-3.6935 Y-8.8075
G01 X-4.1381 Y-8.8078
G01 X-4.1482 Y-8.8096
G01 X-4.1580 Y-8.8128
G01 X-4.1664 Y-8.8170
G01 X-4.1749 Y-8.8228
G01 X-4.1819 Y-8.8292
G01 X-4.1884 Y-8.8372
G01 X-4.1937 Y-8.8460
G01 X-4.1974 Y-8.8547
G01 X-4.2003 Y-8.8664
G01 X-4.2012 Y-8.8775
G01 X-4.2012 Y-10.1784
G01 X-4.1997 Y-10.1920
G01 X-4.1952 Y-10.2059
G01 X-4.1884 Y-10.2178
G01 X-4.1788 Y-10.2288
G01 X-4.1686 Y-10.2366
G01 X-4.1572 Y-10.2425
G01 X-4.1449 Y-10.2462
G01 X-4.1321 Y-10.2475
G01 X-2.5295 Y-10.2475
G01 X-2.5184 Y-10.2463
G01 X-2.5076 Y-10.2434
G01 X-2.4967 Y-10.2384
G01 X-2.4875 Y-10.2322
G01 X-2.4793 Y-10.2245
G01 X-2.4725 Y-10.2157
G01 X-2.4672 Y-10.2059
G01 X-2.4635 Y-10.1953
G01 X-2.4618 Y-10.1869
G01 X-2.4612 Y-10.1775
G01 X-2.4612 Y-8.8775
G01 X-2.4625 Y-8.8638
G01 X-2.4669 Y-8.8499
G01 X-2.4712 Y-8.8415
G01 X-2.4765 Y-8.8338
G01 X-2.4829 Y-8.8268
G01 X-2.4902 Y-8.8208
G01 X-2.4990 Y-8.8154
G01 X-2.5076 Y-8.8116
G01 X-2.5167 Y-8.8090
G01 X-2.5261 Y-8.8077
G01 X-3.0532 Y-8.8075
G01 X-3.0533 Y-5.9792
G01 X-3.0093 Y-5.9670
G01 X-2.9494 Y-5.9472
G01 X-2.8983 Y-5.9276
G01 X-1.4310 Y-8.0382
G01 X-1.3922 Y-21.8709
G01 X-2.4430 Y-22.6924
G01 X-2.4688 Y-22.6724
G01 X-2.5203 Y-22.6360
G01 X-2.5765 Y-22.6005
G01 X-2.6322 Y-22.5690
G01 X-2.6885 Y-22.5406
G01 X-2.7501 Y-22.5133
G01 X-2.8097 Y-22.4903
G01 X-2.8696 Y-22.4705
G01 X-2.9337 Y-22.4527
G01 X-2.9969 Y-22.4385
G01 X-3.0590 Y-22.4277
G01 X-3.1259 Y-22.4194
G01 X-3.1896 Y-22.4147
G01 X-3.2527 Y-22.4131
G01 X-3.3192 Y-22.4147
G01 X-3.3855 Y-22.4196
G01 X-3.4481 Y-22.4274
G01 X-3.5119 Y-22.4385
G01 X-3.5751 Y-22.4527
G01 X-3.6359 Y-22.4695
G01 X-3.6991 Y-22.4903
G01 X-3.7595 Y-22.5136
G01 X-3.8172 Y-22.5391
G01 X-3.8774 Y-22.5694
G01 X-3.9345 Y-22.6018
G01 X-3.9878 Y-22.6356
G01 X-4.0393 Y-22.6719
G01 X-4.0918 Y-22.7127
G01 X-4.1409 Y-22.7550
G01 X-4.1890 Y-22.8009
G01 X-4.2325 Y-22.8466
G01 X-4.2737 Y-22.8944
G01 X-4.3146 Y-22.9468
G01 X-4.3519 Y-22.9997
G01 X-4.3875 Y-23.0560
G01 X-4.4185 Y-23.1109
G01 X-4.4469 Y-23.1672
G01 X-4.4739 Y-23.2280
G01 X-4.4972 Y-23.2884
G01 X-4.5180 Y-23.3516
G01 X-4.5348 Y-23.4124
G01 X-4.5487 Y-23.4739
G01 X-4.5601 Y-23.5394
G01 X-4.5681 Y-23.6046
G01 X-4.5729 Y-23.6700
G01 X-4.5744 Y-23.7331
G01 X-4.5729 Y-23.7962
G01 X-4.5680 Y-23.8625
G01 X-4.5601 Y-23.9268
G01 X-4.5490 Y-23.9906
G01 X-4.5344 Y-24.0555
G01 X-4.5176 Y-24.1163
G01 X-4.4978 Y-24.1762
G01 X-4.4739 Y-24.2382
G01 X-4.4477 Y-24.2975
G01 X-4.4177 Y-24.3568
G01 X-4.3866 Y-24.4117
G01 X-4.3529 Y-24.4650
G01 X-4.3146 Y-24.5194
G01 X-4.2748 Y-24.5705
G01 X-4.2313 Y-24.6208
G01 X-4.1878 Y-24.6665
G01 X-4.1421 Y-24.7100
G01 X-4.0931 Y-24.7524
G01 X-4.0407 Y-24.7933
G01 X-3.9878 Y-24.8306
G01 X-3.9330 Y-24.8653
G01 X-3.8751 Y-24.8980
G01 X-3.8188 Y-24.9264
G01 X-3.7611 Y-24.9519
G01 X-3.7007 Y-24.9753
G01 X-3.6376 Y-24.9963
G01 X-3.5735 Y-25.0139
G01 X-3.5102 Y-25.0281
G01 X-3.4481 Y-25.0388
G01 X-3.3855 Y-25.0466
G01 X-3.3192 Y-25.0515
G01 X-3.2544 Y-25.0531
G01 X-3.1879 Y-25.0514
G01 X-3.1250 Y-25.0467
G01 X-3.0624 Y-25.0390
G01 X-2.9969 Y-25.0277
G01 X-2.9328 Y-25.0133
G01 X-2.8712 Y-24.9963
G01 X-2.8081 Y-24.9753
G01 X-2.7477 Y-24.9519
G01 X-2.6900 Y-24.9264
G01 X-2.6337 Y-24.8980
G01 X-2.5758 Y-24.8653
G01 X-2.5210 Y-24.8306
G01 X-2.4681 Y-24.7933
G01 X-2.4170 Y-24.7535
G01 X-2.3679 Y-24.7112
G01 X-2.3210 Y-24.6665
G01 X-2.2763 Y-24.6196
G01 X-2.2330 Y-24.5692
G01 X-2.1932 Y-24.5180
G01 X-2.1569 Y-24.4665
G01 X-2.1231 Y-24.4132
G01 X-2.0903 Y-24.3553
G01 X-2.0615 Y-24.2982
G01 X-2.0349 Y-24.2382
G01 X-2.0116 Y-24.1778
G01 X-1.9912 Y-24.1163
G01 X-1.9736 Y-24.0522
G01 X-1.9594 Y-23.9889
G01 X-1.9487 Y-23.9268
G01 X-1.9409 Y-23.8642
G01 X-1.9360 Y-23.7979
G01 X-1.9344 Y-23.7340
G01 X-1.9360 Y-23.6683
G01 X-1.9408 Y-23.6037
G01 X-1.9487 Y-23.5394
G01 X-1.9599 Y-23.4747
G01 X-1.9740 Y-23.4124
G01 X-1.9915 Y-23.3491
G01 X-2.0119 Y-23.2876
G01 X-2.0346 Y-23.2288
G01 X-2.0487 Y-23.1968
G01 X-0.8620 Y-22.2685
G01 X-0.8403 Y-22.2480
G01 X-0.8192 Y-22.2235
G01 X-0.8015 Y-22.1985
G01 X-0.7936 Y-22.1853
G01 X-0.7811 Y-22.1611
G01 X-0.7690 Y-22.1311
G01 X-0.7604 Y-22.1017
G01 X-0.7546 Y-22.0716
G01 X-0.7517 Y-22.0394
G01 X-0.7911 Y-7.9366
G01 X-0.7927 Y-7.9053
G01 X-0.7981 Y-7.8708
G01 X-0.8054 Y-7.8430
G01 X-0.8111 Y-7.8261
G01 X-0.8246 Y-7.7949
G01 X-0.8386 Y-7.7698
G01 X-0.8478 Y-7.7555
G01 X-2.3804 Y-5.5508
G01 X-2.3716 Y-5.5405
G01 X-2.3313 Y-5.4887
G01 X-2.2950 Y-5.4372
G01 X-2.2594 Y-5.3809
G01 X-2.2284 Y-5.3260
G01 X-2.1992 Y-5.2682
G01 X-2.1730 Y-5.2089
G01 X-2.1497 Y-5.1485
G01 X-2.1293 Y-5.0870
G01 X-2.1121 Y-5.0245
G01 X-2.0979 Y-4.9613
G01 X-2.0871 Y-4.8992
G01 X-2.0787 Y-4.8315
G01 X-2.0741 Y-4.7686
G01 X-2.0725 Y-4.7038
G01 X-2.0741 Y-4.6390
G01 X-2.0789 Y-4.5744
G01 X-2.0868 Y-4.5101
G01 X-2.0975 Y-4.4480
G01 X-2.1125 Y-4.3814
G01 X-2.1293 Y-4.3206
G01 X-2.1497 Y-4.2591
G01 X-2.1730 Y-4.1987
G01 X-2.1985 Y-4.1410
G01 X-2.2292 Y-4.0801
G01 X-2.2603 Y-4.0252
G01 X-2.2950 Y-3.9704
G01 X-2.3323 Y-3.9175
G01 X-2.3716 Y-3.8671
G01 X-2.4144 Y-3.8173
G01 X-2.4603 Y-3.7692
G01 X-2.5060 Y-3.7257
G01 X-2.5538 Y-3.6845
G01 X-2.6062 Y-3.6436
G01 X-2.6606 Y-3.6053
G01 X-2.7139 Y-3.5716
G01 X-2.7688 Y-3.5405
G01 X-2.8281 Y-3.5105
G01 X-2.8890 Y-3.4836
G01 X-2.9478 Y-3.4610
G01 X-3.0077 Y-3.4412
G01 X-3.0718 Y-3.4234
G01 X-3.1367 Y-3.4088
G01 X-3.1988 Y-3.3981
G01 X-3.2614 Y-3.3903
G01 X-3.3277 Y-3.3854
G01 X-3.3942 Y-3.3838
G01 X-3.4573 Y-3.3854
G01 X-3.5202 Y-3.3900
G01 X-3.5862 Y-3.3981
G01 X-3.6500 Y-3.4092
G01 X-3.7116 Y-3.4230
G01 X-3.7757 Y-3.4406
G01 X-3.8388 Y-3.4616
G01 X-3.8976 Y-3.4843
G01 X-3.9569 Y-3.5105
G01 X-4.0147 Y-3.5397
G01 X-4.0696 Y-3.5707
G01 X-4.1259 Y-3.6063
G01 X-4.1802 Y-3.6446
G01 X-4.2299 Y-3.6834
G01 X-4.2783 Y-3.7252
G01 X-4.3271 Y-3.7716
G01 X-4.3706 Y-3.8173
G01 X-4.4129 Y-3.8664
G01 X-4.4537 Y-3.9189
G01 X-4.4900 Y-3.9704
G01 X-4.5243 Y-4.0245
G01 X-4.5574 Y-4.0831
G01 X-4.5858 Y-4.1394
G01 X-4.6117 Y-4.1979
G01 X-4.6356 Y-4.2599
G01 X-4.6557 Y-4.3206
