(G-CODE GENERATED BY FLATCAM v8.993 - www.flatcam.org - Version Date: 2020/06/05)

(Name: A1_RF_PA_Ф1_верх.gbr_iso_combined_POLE_cnc)
(Type: G-code from Geometry)
(Units: MM)

(Created on Friday, 27 November 2020 at 15:07)

(This preprocessor is the default preprocessor used by FlatCAM.)
(It is made to work with MACH3 compatible motion controllers.)

(TOOL DIAMETER: 2.0 mm)
(Feedrate_XY: 120.0 mm/min)
(Feedrate_Z: 70.0 mm/min)
(Feedrate rapids 1500.0 mm/min)

(Z_Cut: -0.08 mm)
(Z_Move: 2.0 mm)
(Z Start: None mm)
(Z End: 25.0 mm)
(Steps per circle: 128)
(Preprocessor Geometry: default)

(X range:    2.3153 ...   70.7069  mm)
(Y range:  -70.2544 ...   -3.5015  mm)

(Spindle Speed: 10000 RPM)
G21
G90
G94



G01 F120.00
G00 Z2.0000

M03 S10000
G00 X5.3153 Y-7.3031
G01 F70.00
G01 Z-0.0800
G01 F120.00
G01 X5.3153 Y-6.9827
G01 X5.3182 Y-6.9827
G01 X5.3182 Y-7.3031
G01 X5.3153 Y-7.3031
G00 Z2.0000
G00 X4.3153 Y-8.3031
G01 F70.00
G01 Z-0.0800
G01 F120.00
G01 X4.3153 Y-5.9827
G01 X6.3182 Y-5.9827
G01 X6.3182 Y-8.3031
G01 X4.3153 Y-8.3031
G00 Z2.0000
G00 X3.3153 Y-9.3031
G01 F70.00
G01 Z-0.0800
G01 F120.00
G01 X3.3153 Y-4.9827
G01 X7.3182 Y-4.9827
G01 X7.3182 Y-9.3031
G01 X3.3153 Y-9.3031
G00 Z2.0000
G00 X2.3153 Y-10.3031
G01 F70.00
G01 Z-0.0800
G01 F120.00
G01 X2.3153 Y-3.9827
G01 X8.3182 Y-3.9827
G01 X8.3182 Y-10.3031
G01 X2.3153 Y-10.3031
G00 Z2.0000
G00 X18.9616 Y-8.7317
G01 F70.00
G01 Z-0.0800
G01 F120.00
G01 X18.9609 Y-8.7464
G01 X18.9587 Y-8.7609
G01 X18.9550 Y-8.7751
G01 X18.9501 Y-8.7889
G01 X18.9437 Y-8.8022
G01 X18.9361 Y-8.8148
G01 X18.9273 Y-8.8266
G01 X18.9174 Y-8.8374
G01 X18.9065 Y-8.8473
G01 X18.8947 Y-8.8560
G01 X18.8821 Y-8.8635
G01 X18.8688 Y-8.8697
G01 X18.8549 Y-8.8746
G01 X18.8406 Y-8.8782
G01 X18.8261 Y-8.8803
G01 X18.8114 Y-8.8809
G01 X18.7967 Y-8.8802
G01 X18.7822 Y-8.8780
G01 X18.7680 Y-8.8743
G01 X18.7542 Y-8.8694
G01 X18.7409 Y-8.8630
G01 X18.7283 Y-8.8554
G01 X18.7165 Y-8.8466
G01 X18.7057 Y-8.8367
G01 X18.6958 Y-8.8258
G01 X18.6871 Y-8.8140
G01 X18.6796 Y-8.8014
G01 X18.6734 Y-8.7881
G01 X18.6685 Y-8.7742
G01 X18.6649 Y-8.7599
G01 X18.6628 Y-8.7454
G01 X18.6622 Y-8.7307
G01 X18.6629 Y-8.7160
G01 X18.6651 Y-8.7015
G01 X18.6688 Y-8.6873
G01 X18.6737 Y-8.6735
G01 X18.6801 Y-8.6602
G01 X18.6877 Y-8.6476
G01 X18.6965 Y-8.6358
G01 X18.7064 Y-8.6250
G01 X18.7173 Y-8.6151
G01 X18.7291 Y-8.6064
G01 X18.7417 Y-8.5989
G01 X18.7550 Y-8.5927
G01 X18.7689 Y-8.5878
G01 X18.7832 Y-8.5842
G01 X18.7977 Y-8.5821
G01 X18.8124 Y-8.5815
G01 X18.8271 Y-8.5822
G01 X18.8416 Y-8.5844
G01 X18.8558 Y-8.5881
G01 X18.8696 Y-8.5930
G01 X18.8829 Y-8.5994
G01 X18.8955 Y-8.6070
G01 X18.9073 Y-8.6158
G01 X18.9181 Y-8.6257
G01 X18.9280 Y-8.6366
G01 X18.9367 Y-8.6484
G01 X18.9442 Y-8.6610
G01 X18.9504 Y-8.6743
G01 X18.9553 Y-8.6882
G01 X18.9589 Y-8.7025
G01 X18.9610 Y-8.7170
G01 X18.9616 Y-8.7317
G00 Z2.0000
G00 X18.9616 Y-3.6517
G01 F70.00
G01 Z-0.0800
G01 F120.00
G01 X18.9609 Y-3.6664
G01 X18.9587 Y-3.6809
G01 X18.9550 Y-3.6951
G01 X18.9501 Y-3.7089
G01 X18.9437 Y-3.7222
G01 X18.9361 Y-3.7348
G01 X18.9273 Y-3.7466
G01 X18.9174 Y-3.7574
G01 X18.9065 Y-3.7673
G01 X18.8947 Y-3.7760
G01 X18.8821 Y-3.7835
G01 X18.8688 Y-3.7897
G01 X18.8549 Y-3.7946
G01 X18.8406 Y-3.7982
G01 X18.8261 Y-3.8003
G01 X18.8114 Y-3.8009
G01 X18.7967 Y-3.8002
G01 X18.7822 Y-3.7980
G01 X18.7680 Y-3.7943
G01 X18.7542 Y-3.7894
G01 X18.7409 Y-3.7830
G01 X18.7283 Y-3.7754
G01 X18.7165 Y-3.7666
G01 X18.7057 Y-3.7567
G01 X18.6958 Y-3.7458
G01 X18.6871 Y-3.7340
G01 X18.6796 Y-3.7214
G01 X18.6734 Y-3.7081
G01 X18.6685 Y-3.6942
G01 X18.6649 Y-3.6799
G01 X18.6628 Y-3.6654
G01 X18.6622 Y-3.6507
G01 X18.6629 Y-3.6360
G01 X18.6651 Y-3.6215
G01 X18.6688 Y-3.6073
G01 X18.6737 Y-3.5935
G01 X18.6801 Y-3.5802
G01 X18.6877 Y-3.5676
G01 X18.6965 Y-3.5558
G01 X18.7064 Y-3.5450
G01 X18.7173 Y-3.5351
G01 X18.7291 Y-3.5264
G01 X18.7417 Y-3.5189
G01 X18.7550 Y-3.5127
G01 X18.7689 Y-3.5078
G01 X18.7832 Y-3.5042
G01 X18.7977 Y-3.5021
G01 X18.8124 Y-3.5015
G01 X18.8271 Y-3.5022
G01 X18.8416 Y-3.5044
G01 X18.8558 Y-3.5081
G01 X18.8696 Y-3.5130
G01 X18.8829 Y-3.5194
G01 X18.8955 Y-3.5270
G01 X18.9073 Y-3.5358
G01 X18.9181 Y-3.5457
G01 X18.9280 Y-3.5566
G01 X18.9367 Y-3.5684
G01 X18.9442 Y-3.5810
G01 X18.9504 Y-3.5943
G01 X18.9553 Y-3.6082
G01 X18.9589 Y-3.6225
G01 X18.9610 Y-3.6370
G01 X18.9616 Y-3.6517
G00 Z2.0000
G00 X20.8890 Y-17.7940
G01 F70.00
G01 Z-0.0800
G01 F120.00
G01 X26.8919 Y-17.7940
G01 X26.8919 Y-24.1144
G01 X25.2058 Y-24.1144
G01 X25.1646 Y-24.0798
G01 X25.0907 Y-24.0229
G01 X25.0141 Y-23.9697
G01 X24.9350 Y-23.9203
G01 X24.8645 Y-23.8805
G01 X24.7812 Y-23.8386
G01 X24.6959 Y-23.8008
G01 X24.6204 Y-23.7715
G01 X24.5321 Y-23.7416
G01 X24.4542 Y-23.7194
G01 X24.4185 Y-23.7102
G01 X24.3635 Y-23.6978
G01 X24.3153 Y-23.6882
G01 X24.2476 Y-23.6768
G01 X24.1550 Y-23.6653
G01 X24.0620 Y-23.6585
G01 X23.9688 Y-23.6562
G01 X23.8756 Y-23.6585
G01 X23.7826 Y-23.6653
G01 X23.6900 Y-23.6768
G01 X23.6223 Y-23.6882
G01 X23.5741 Y-23.6978
G01 X23.5191 Y-23.7102
G01 X23.4834 Y-23.7194
G01 X23.4055 Y-23.7416
G01 X23.3172 Y-23.7715
G01 X23.2417 Y-23.8008
G01 X23.1564 Y-23.8386
G01 X23.0731 Y-23.8805
G01 X23.0026 Y-23.9203
G01 X22.9235 Y-23.9697
G01 X22.8469 Y-24.0229
G01 X22.7730 Y-24.0798
G01 X22.7318 Y-24.1144
G01 X20.8890 Y-24.1144
G01 X20.8890 Y-17.7940
G00 Z2.0000
G00 X21.8890 Y-18.7940
G01 F70.00
G01 Z-0.0800
G01 F120.00
G01 X25.8919 Y-18.7940
G01 X25.8919 Y-23.1144
G01 X25.5328 Y-23.1144
G01 X25.4597 Y-23.0688
G01 X25.3574 Y-23.0103
G01 X25.3141 Y-22.9872
G01 X25.2528 Y-22.9562
G01 X25.1865 Y-22.9243
G01 X25.0786 Y-22.8769
G01 X24.9688 Y-22.8341
G01 X24.9226 Y-22.8176
G01 X24.8574 Y-22.7959
G01 X24.7871 Y-22.7741
G01 X24.6734 Y-22.7431
G01 X24.5826 Y-22.7221
G01 X24.5105 Y-22.7073
G01 X24.3943 Y-22.6876
G01 X24.2775 Y-22.6727
G01 X24.2286 Y-22.6679
G01 X24.1601 Y-22.6627
G01 X24.0866 Y-22.6586
G01 X23.9688 Y-22.6562
G01 X23.8510 Y-22.6586
G01 X23.7775 Y-22.6627
G01 X23.7090 Y-22.6679
G01 X23.6601 Y-22.6727
G01 X23.5433 Y-22.6876
G01 X23.4271 Y-22.7073
G01 X23.3550 Y-22.7221
G01 X23.2642 Y-22.7431
G01 X23.1505 Y-22.7741
G01 X23.1035 Y-22.7883
G01 X23.0382 Y-22.8098
G01 X22.9688 Y-22.8341
G01 X22.8590 Y-22.8769
G01 X22.7511 Y-22.9243
G01 X22.6848 Y-22.9562
G01 X22.6235 Y-22.9872
G01 X22.5802 Y-23.0103
G01 X22.4779 Y-23.0688
G01 X22.4048 Y-23.1144
G01 X21.8890 Y-23.1144
G01 X21.8890 Y-18.7940
G00 Z2.0000
G00 X24.8919 Y-21.7671
G01 F70.00
G01 Z-0.0800
G01 F120.00
G01 X24.7657 Y-21.7385
G01 X24.6573 Y-21.7177
G01 X24.5410 Y-21.6984
G01 X24.4681 Y-21.6885
G01 X24.3877 Y-21.6788
G01 X24.2777 Y-21.6687
G01 X24.1602 Y-21.6609
G01 X24.0866 Y-21.6582
G01 X24.0056 Y-21.6564
G01 X23.8952 Y-21.6571
G01 X23.7774 Y-21.6609
G01 X23.7039 Y-21.6654
G01 X23.6232 Y-21.6716
G01 X23.5134 Y-21.6831
G01 X23.3966 Y-21.6984
G01 X23.2803 Y-21.7177
G01 X23.1719 Y-21.7385
G01 X23.0928 Y-21.7561
G01 X23.0212 Y-21.7731
G01 X22.8890 Y-21.8088
G01 X22.8890 Y-19.7940
G01 X24.8919 Y-19.7940
G01 X24.8919 Y-21.7671
G00 Z2.0000
G00 X16.0810 Y-32.1072
G01 F70.00
G01 Z-0.0800
G01 F120.00
G01 X16.0798 Y-32.1563
G01 X16.0762 Y-32.2052
G01 X16.0702 Y-32.2539
G01 X16.0618 Y-32.3022
G01 X16.0510 Y-32.3501
G01 X16.0380 Y-32.3974
G01 X16.0226 Y-32.4440
G01 X16.0049 Y-32.4898
G01 X15.9850 Y-32.5346
G01 X15.9630 Y-32.5785
G01 X15.9388 Y-32.6211
G01 X15.9125 Y-32.6626
G01 X15.8843 Y-32.7027
G01 X15.8541 Y-32.7414
G01 X15.8220 Y-32.7786
G01 X15.7882 Y-32.8141
G01 X15.7527 Y-32.8479
G01 X15.7155 Y-32.8800
G01 X15.6768 Y-32.9102
G01 X15.6367 Y-32.9384
G01 X15.5952 Y-32.9647
G01 X15.5526 Y-32.9889
G01 X15.5087 Y-33.0109
G01 X15.4639 Y-33.0308
G01 X15.4181 Y-33.0485
G01 X15.3715 Y-33.0639
G01 X15.3242 Y-33.0769
G01 X15.2763 Y-33.0877
G01 X15.2280 Y-33.0961
G01 X15.1793 Y-33.1021
G01 X15.1304 Y-33.1057
G01 X15.0813 Y-33.1069
G01 X15.0322 Y-33.1057
G01 X14.9833 Y-33.1021
G01 X14.9346 Y-33.0961
G01 X14.8863 Y-33.0877
G01 X14.8384 Y-33.0769
G01 X14.7911 Y-33.0639
G01 X14.7445 Y-33.0485
G01 X14.6987 Y-33.0308
G01 X14.6539 Y-33.0109
G01 X14.6100 Y-32.9889
G01 X14.5674 Y-32.9647
G01 X14.5259 Y-32.9384
G01 X14.4858 Y-32.9102
G01 X14.4471 Y-32.8800
G01 X14.4099 Y-32.8479
G01 X14.3744 Y-32.8141
G01 X14.3406 Y-32.7786
G01 X14.3085 Y-32.7414
G01 X14.2783 Y-32.7027
G01 X14.2501 Y-32.6626
G01 X14.2238 Y-32.6211
G01 X14.1996 Y-32.5785
G01 X14.1776 Y-32.5346
G01 X14.1577 Y-32.4898
G01 X14.1400 Y-32.4440
G01 X14.1246 Y-32.3974
G01 X14.1116 Y-32.3501
G01 X14.1008 Y-32.3022
G01 X14.0924 Y-32.2539
G01 X14.0864 Y-32.2052
G01 X14.0828 Y-32.1563
G01 X14.0816 Y-32.1072
G01 X14.0828 Y-32.0581
G01 X14.0864 Y-32.0092
G01 X14.0924 Y-31.9605
G01 X14.1008 Y-31.9122
G01 X14.1116 Y-31.8643
G01 X14.1246 Y-31.8170
G01 X14.1400 Y-31.7704
G01 X14.1577 Y-31.7246
G01 X14.1776 Y-31.6798
G01 X14.1996 Y-31.6359
G01 X14.2238 Y-31.5933
G01 X14.2501 Y-31.5518
G01 X14.2783 Y-31.5117
G01 X14.3085 Y-31.4730
G01 X14.3406 Y-31.4358
G01 X14.3744 Y-31.4003
G01 X14.4099 Y-31.3665
G01 X14.4471 Y-31.3344
G01 X14.4858 Y-31.3042
G01 X14.5259 Y-31.2760
G01 X14.5674 Y-31.2497
G01 X14.6100 Y-31.2255
G01 X14.6539 Y-31.2035
G01 X14.6987 Y-31.1836
G01 X14.7445 Y-31.1659
G01 X14.7911 Y-31.1505
G01 X14.8384 Y-31.1375
G01 X14.8863 Y-31.1267
G01 X14.9346 Y-31.1183
G01 X14.9833 Y-31.1123
G01 X15.0322 Y-31.1087
G01 X15.0813 Y-31.1075
G01 X15.1304 Y-31.1087
G01 X15.1793 Y-31.1123
G01 X15.2280 Y-31.1183
G01 X15.2763 Y-31.1267
G01 X15.3242 Y-31.1375
G01 X15.3715 Y-31.1505
G01 X15.4181 Y-31.1659
G01 X15.4639 Y-31.1836
G01 X15.5087 Y-31.2035
G01 X15.5526 Y-31.2255
G01 X15.5952 Y-31.2497
G01 X15.6367 Y-31.2760
G01 X15.6768 Y-31.3042
G01 X15.7155 Y-31.3344
G01 X15.7527 Y-31.3665
G01 X15.7882 Y-31.4003
G01 X15.8220 Y-31.4358
G01 X15.8541 Y-31.4730
G01 X15.8843 Y-31.5117
G01 X15.9125 Y-31.5518
G01 X15.9388 Y-31.5933
G01 X15.9630 Y-31.6359
G01 X15.9850 Y-31.6798
G01 X16.0049 Y-31.7246
G01 X16.0226 Y-31.7704
G01 X16.0380 Y-31.8170
G01 X16.0510 Y-31.8643
G01 X16.0618 Y-31.9122
G01 X16.0702 Y-31.9605
G01 X16.0762 Y-32.0092
G01 X16.0798 Y-32.0581
G01 X16.0810 Y-32.1072
G00 Z2.0000
G00 X5.9210 Y-27.3447
G01 F70.00
G01 Z-0.0800
G01 F120.00
G01 X5.9198 Y-27.3938
G01 X5.9162 Y-27.4427
G01 X5.9102 Y-27.4914
G01 X5.9018 Y-27.5397
G01 X5.8910 Y-27.5876
G01 X5.8780 Y-27.6349
G01 X5.8626 Y-27.6815
G01 X5.8449 Y-27.7273
G01 X5.8250 Y-27.7721
G01 X5.8030 Y-27.8160
G01 X5.7788 Y-27.8586
G01 X5.7525 Y-27.9001
G01 X5.7243 Y-27.9402
G01 X5.6941 Y-27.9789
G01 X5.6620 Y-28.0161
G01 X5.6282 Y-28.0516
G01 X5.5927 Y-28.0854
G01 X5.5555 Y-28.1175
G01 X5.5168 Y-28.1477
G01 X5.4767 Y-28.1759
G01 X5.4352 Y-28.2022
G01 X5.3926 Y-28.2264
G01 X5.3487 Y-28.2484
G01 X5.3039 Y-28.2683
G01 X5.2581 Y-28.2860
G01 X5.2115 Y-28.3014
G01 X5.1642 Y-28.3144
G01 X5.1163 Y-28.3252
G01 X5.0680 Y-28.3336
G01 X5.0193 Y-28.3396
G01 X4.9704 Y-28.3432
G01 X4.9213 Y-28.3444
G01 X4.8722 Y-28.3432
G01 X4.8233 Y-28.3396
G01 X4.7746 Y-28.3336
G01 X4.7263 Y-28.3252
G01 X4.6784 Y-28.3144
G01 X4.6311 Y-28.3014
G01 X4.5845 Y-28.2860
G01 X4.5387 Y-28.2683
G01 X4.4939 Y-28.2484
G01 X4.4500 Y-28.2264
G01 X4.4074 Y-28.2022
G01 X4.3659 Y-28.1759
G01 X4.3258 Y-28.1477
G01 X4.2871 Y-28.1175
G01 X4.2499 Y-28.0854
G01 X4.2144 Y-28.0516
G01 X4.1806 Y-28.0161
G01 X4.1485 Y-27.9789
G01 X4.1183 Y-27.9402
G01 X4.0901 Y-27.9001
G01 X4.0638 Y-27.8586
G01 X4.0396 Y-27.8160
G01 X4.0176 Y-27.7721
G01 X3.9977 Y-27.7273
G01 X3.9800 Y-27.6815
G01 X3.9646 Y-27.6349
G01 X3.9516 Y-27.5876
G01 X3.9408 Y-27.5397
G01 X3.9324 Y-27.4914
G01 X3.9264 Y-27.4427
G01 X3.9228 Y-27.3938
G01 X3.9216 Y-27.3447
G01 X3.9228 Y-27.2956
G01 X3.9264 Y-27.2467
G01 X3.9324 Y-27.1980
G01 X3.9408 Y-27.1497
G01 X3.9516 Y-27.1018
G01 X3.9646 Y-27.0545
G01 X3.9800 Y-27.0079
G01 X3.9977 Y-26.9621
G01 X4.0176 Y-26.9173
G01 X4.0396 Y-26.8734
G01 X4.0638 Y-26.8308
G01 X4.0901 Y-26.7893
G01 X4.1183 Y-26.7492
G01 X4.1485 Y-26.7105
G01 X4.1806 Y-26.6733
G01 X4.2144 Y-26.6378
G01 X4.2499 Y-26.6040
G01 X4.2871 Y-26.5719
G01 X4.3258 Y-26.5417
G01 X4.3659 Y-26.5135
G01 X4.4074 Y-26.4872
G01 X4.4500 Y-26.4630
G01 X4.4939 Y-26.4410
G01 X4.5387 Y-26.4211
G01 X4.5845 Y-26.4034
G01 X4.6311 Y-26.3880
G01 X4.6784 Y-26.3750
G01 X4.7263 Y-26.3642
G01 X4.7746 Y-26.3558
G01 X4.8233 Y-26.3498
G01 X4.8722 Y-26.3462
G01 X4.9213 Y-26.3450
G01 X4.9704 Y-26.3462
G01 X5.0193 Y-26.3498
G01 X5.0680 Y-26.3558
G01 X5.1163 Y-26.3642
G01 X5.1642 Y-26.3750
G01 X5.2115 Y-26.3880
G01 X5.2581 Y-26.4034
G01 X5.3039 Y-26.4211
G01 X5.3487 Y-26.4410
G01 X5.3926 Y-26.4630
G01 X5.4352 Y-26.4872
G01 X5.4767 Y-26.5135
G01 X5.5168 Y-26.5417
G01 X5.5555 Y-26.5719
G01 X5.5927 Y-26.6040
G01 X5.6282 Y-26.6378
G01 X5.6620 Y-26.6733
G01 X5.6941 Y-26.7105
G01 X5.7243 Y-26.7492
G01 X5.7525 Y-26.7893
G01 X5.7788 Y-26.8308
G01 X5.8030 Y-26.8734
G01 X5.8250 Y-26.9173
G01 X5.8449 Y-26.9621
G01 X5.8626 Y-27.0079
G01 X5.8780 Y-27.0545
G01 X5.8910 Y-27.1018
G01 X5.9018 Y-27.1497
G01 X5.9102 Y-27.1980
G01 X5.9162 Y-27.2467
G01 X5.9198 Y-27.2956
G01 X5.9210 Y-27.3447
G00 Z2.0000
G00 X38.4647 Y-41.9497
G01 F70.00
G01 Z-0.0800
G01 F120.00
G01 X38.4635 Y-41.9988
G01 X38.4599 Y-42.0477
G01 X38.4539 Y-42.0964
G01 X38.4455 Y-42.1447
G01 X38.4347 Y-42.1926
G01 X38.4217 Y-42.2399
G01 X38.4063 Y-42.2865
G01 X38.3886 Y-42.3323
G01 X38.3687 Y-42.3771
G01 X38.3467 Y-42.4210
G01 X38.3225 Y-42.4636
G01 X38.2962 Y-42.5051
G01 X38.2680 Y-42.5452
G01 X38.2378 Y-42.5839
G01 X38.2057 Y-42.6211
G01 X38.1719 Y-42.6566
G01 X38.1364 Y-42.6904
G01 X38.0992 Y-42.7225
G01 X38.0605 Y-42.7527
G01 X38.0204 Y-42.7809
G01 X37.9789 Y-42.8072
G01 X37.9363 Y-42.8314
G01 X37.8924 Y-42.8534
G01 X37.8476 Y-42.8733
G01 X37.8018 Y-42.8910
G01 X37.7552 Y-42.9064
G01 X37.7079 Y-42.9194
G01 X37.6600 Y-42.9302
G01 X37.6117 Y-42.9386
G01 X37.5630 Y-42.9446
G01 X37.5141 Y-42.9482
G01 X37.4650 Y-42.9494
G01 X37.4159 Y-42.9482
G01 X37.3670 Y-42.9446
G01 X37.3183 Y-42.9386
G01 X37.2700 Y-42.9302
G01 X37.2221 Y-42.9194
G01 X37.1748 Y-42.9064
G01 X37.1282 Y-42.8910
G01 X37.0824 Y-42.8733
G01 X37.0376 Y-42.8534
G01 X36.9937 Y-42.8314
G01 X36.9511 Y-42.8072
G01 X36.9096 Y-42.7809
G01 X36.8695 Y-42.7527
G01 X36.8308 Y-42.7225
G01 X36.7936 Y-42.6904
G01 X36.7581 Y-42.6566
G01 X36.7243 Y-42.6211
G01 X36.6922 Y-42.5839
G01 X36.6620 Y-42.5452
G01 X36.6338 Y-42.5051
G01 X36.6075 Y-42.4636
G01 X36.5833 Y-42.4210
G01 X36.5613 Y-42.3771
G01 X36.5414 Y-42.3323
G01 X36.5237 Y-42.2865
G01 X36.5083 Y-42.2399
G01 X36.4953 Y-42.1926
G01 X36.4845 Y-42.1447
G01 X36.4761 Y-42.0964
G01 X36.4701 Y-42.0477
G01 X36.4665 Y-41.9988
G01 X36.4653 Y-41.9497
G01 X36.4665 Y-41.9006
G01 X36.4701 Y-41.8517
G01 X36.4761 Y-41.8030
G01 X36.4845 Y-41.7547
G01 X36.4953 Y-41.7068
G01 X36.5083 Y-41.6595
G01 X36.5237 Y-41.6129
G01 X36.5414 Y-41.5671
G01 X36.5613 Y-41.5223
G01 X36.5833 Y-41.4784
G01 X36.6075 Y-41.4358
G01 X36.6338 Y-41.3943
G01 X36.6620 Y-41.3542
G01 X36.6922 Y-41.3155
G01 X36.7243 Y-41.2783
G01 X36.7581 Y-41.2428
G01 X36.7936 Y-41.2090
G01 X36.8308 Y-41.1769
G01 X36.8695 Y-41.1467
G01 X36.9096 Y-41.1185
G01 X36.9511 Y-41.0922
G01 X36.9937 Y-41.0680
G01 X37.0376 Y-41.0460
G01 X37.0824 Y-41.0261
G01 X37.1282 Y-41.0084
G01 X37.1748 Y-40.9930
G01 X37.2221 Y-40.9800
G01 X37.2700 Y-40.9692
G01 X37.3183 Y-40.9608
G01 X37.3670 Y-40.9548
G01 X37.4159 Y-40.9512
G01 X37.4650 Y-40.9500
G01 X37.5141 Y-40.9512
G01 X37.5630 Y-40.9548
G01 X37.6117 Y-40.9608
G01 X37.6600 Y-40.9692
G01 X37.7079 Y-40.9800
G01 X37.7552 Y-40.9930
G01 X37.8018 Y-41.0084
G01 X37.8476 Y-41.0261
G01 X37.8924 Y-41.0460
G01 X37.9363 Y-41.0680
G01 X37.9789 Y-41.0922
G01 X38.0204 Y-41.1185
G01 X38.0605 Y-41.1467
G01 X38.0992 Y-41.1769
G01 X38.1364 Y-41.2090
G01 X38.1719 Y-41.2428
G01 X38.2057 Y-41.2783
G01 X38.2378 Y-41.3155
G01 X38.2680 Y-41.3542
G01 X38.2962 Y-41.3943
G01 X38.3225 Y-41.4358
G01 X38.3467 Y-41.4784
G01 X38.3687 Y-41.5223
G01 X38.3886 Y-41.5671
G01 X38.4063 Y-41.6129
G01 X38.4217 Y-41.6595
G01 X38.4347 Y-41.7068
G01 X38.4455 Y-41.7547
G01 X38.4539 Y-41.8030
G01 X38.4599 Y-41.8517
G01 X38.4635 Y-41.9006
G01 X38.4647 Y-41.9497
G00 Z2.0000
G00 X45.1259 Y-44.1325
G01 F70.00
G01 Z-0.0800
G01 F120.00
G01 X45.1249 Y-44.1521
G01 X45.1221 Y-44.1715
G01 X45.1173 Y-44.1905
G01 X45.1107 Y-44.2089
G01 X45.1023 Y-44.2266
G01 X45.0922 Y-44.2434
G01 X45.0806 Y-44.2592
G01 X45.0674 Y-44.2737
G01 X45.0529 Y-44.2869
G01 X45.0371 Y-44.2985
G01 X45.0203 Y-44.3086
G01 X45.0026 Y-44.3170
G01 X44.9842 Y-44.3236
G01 X44.9652 Y-44.3284
G01 X44.9458 Y-44.3312
G01 X44.9262 Y-44.3322
G01 X44.9066 Y-44.3312
G01 X44.8872 Y-44.3284
G01 X44.8682 Y-44.3236
G01 X44.8498 Y-44.3170
G01 X44.8321 Y-44.3086
G01 X44.8153 Y-44.2985
G01 X44.7995 Y-44.2869
G01 X44.7850 Y-44.2737
G01 X44.7718 Y-44.2592
G01 X44.7602 Y-44.2434
G01 X44.7501 Y-44.2266
G01 X44.7417 Y-44.2089
G01 X44.7351 Y-44.1905
G01 X44.7303 Y-44.1715
G01 X44.7275 Y-44.1521
G01 X44.7265 Y-44.1325
G01 X44.7275 Y-44.1129
G01 X44.7303 Y-44.0935
G01 X44.7351 Y-44.0745
G01 X44.7417 Y-44.0561
G01 X44.7501 Y-44.0384
G01 X44.7602 Y-44.0216
G01 X44.7718 Y-44.0058
G01 X44.7850 Y-43.9913
G01 X44.7995 Y-43.9781
G01 X44.8153 Y-43.9665
G01 X44.8321 Y-43.9564
G01 X44.8498 Y-43.9480
G01 X44.8682 Y-43.9414
G01 X44.8872 Y-43.9366
G01 X44.9066 Y-43.9338
G01 X44.9262 Y-43.9328
G01 X44.9458 Y-43.9338
G01 X44.9652 Y-43.9366
G01 X44.9842 Y-43.9414
G01 X45.0026 Y-43.9480
G01 X45.0203 Y-43.9564
G01 X45.0371 Y-43.9665
G01 X45.0529 Y-43.9781
G01 X45.0674 Y-43.9913
G01 X45.0806 Y-44.0058
G01 X45.0922 Y-44.0216
G01 X45.1023 Y-44.0384
G01 X45.1107 Y-44.0561
G01 X45.1173 Y-44.0745
G01 X45.1221 Y-44.0935
G01 X45.1249 Y-44.1129
G01 X45.1259 Y-44.1325
G00 Z2.0000
G00 X48.6615 Y-47.6680
G01 F70.00
G01 Z-0.0800
G01 F120.00
G01 X48.6605 Y-47.6876
G01 X48.6577 Y-47.7070
G01 X48.6529 Y-47.7260
G01 X48.6463 Y-47.7444
G01 X48.6379 Y-47.7621
G01 X48.6278 Y-47.7789
G01 X48.6162 Y-47.7947
G01 X48.6030 Y-47.8092
G01 X48.5885 Y-47.8224
G01 X48.5727 Y-47.8340
G01 X48.5559 Y-47.8441
G01 X48.5382 Y-47.8525
G01 X48.5198 Y-47.8591
G01 X48.5008 Y-47.8639
G01 X48.4814 Y-47.8667
G01 X48.4618 Y-47.8677
G01 X48.4422 Y-47.8667
G01 X48.4228 Y-47.8639
G01 X48.4038 Y-47.8591
G01 X48.3854 Y-47.8525
G01 X48.3677 Y-47.8441
G01 X48.3509 Y-47.8340
G01 X48.3351 Y-47.8224
G01 X48.3206 Y-47.8092
G01 X48.3074 Y-47.7947
G01 X48.2958 Y-47.7789
G01 X48.2857 Y-47.7621
G01 X48.2773 Y-47.7444
G01 X48.2707 Y-47.7260
G01 X48.2659 Y-47.7070
G01 X48.2631 Y-47.6876
G01 X48.2621 Y-47.6680
G01 X48.2631 Y-47.6484
G01 X48.2659 Y-47.6290
G01 X48.2707 Y-47.6100
G01 X48.2773 Y-47.5916
G01 X48.2857 Y-47.5739
G01 X48.2958 Y-47.5571
G01 X48.3074 Y-47.5413
G01 X48.3206 Y-47.5268
G01 X48.3351 Y-47.5136
G01 X48.3509 Y-47.5020
G01 X48.3677 Y-47.4919
G01 X48.3854 Y-47.4835
G01 X48.4038 Y-47.4769
G01 X48.4228 Y-47.4721
G01 X48.4422 Y-47.4693
G01 X48.4618 Y-47.4683
G01 X48.4814 Y-47.4693
G01 X48.5008 Y-47.4721
G01 X48.5198 Y-47.4769
G01 X48.5382 Y-47.4835
G01 X48.5559 Y-47.4919
G01 X48.5727 Y-47.5020
G01 X48.5885 Y-47.5136
G01 X48.6030 Y-47.5268
G01 X48.6162 Y-47.5413
G01 X48.6278 Y-47.5571
G01 X48.6379 Y-47.5739
G01 X48.6463 Y-47.5916
G01 X48.6529 Y-47.6100
G01 X48.6577 Y-47.6290
G01 X48.6605 Y-47.6484
G01 X48.6615 Y-47.6680
G00 Z2.0000
G00 X57.2851 Y-53.2068
G01 F70.00
G01 Z-0.0800
G01 F120.00
G01 X57.2852 Y-46.8865
G01 X63.2880 Y-46.8865
G01 X63.2880 Y-53.2069
G01 X57.2851 Y-53.2068
G00 Z2.0000
G00 X58.2851 Y-52.2068
G01 F70.00
G01 Z-0.0800
G01 F120.00
G01 X58.2852 Y-47.8865
G01 X62.2880 Y-47.8865
G01 X62.2880 Y-52.2069
G01 X58.2851 Y-52.2068
G00 Z2.0000
G00 X59.2852 Y-51.2068
G01 F70.00
G01 Z-0.0800
G01 F120.00
G01 X59.2852 Y-48.8865
G01 X61.2880 Y-48.8865
G01 X61.2880 Y-51.2068
G01 X59.2852 Y-51.2068
G00 Z2.0000
G00 X60.2852 Y-50.2068
G01 F70.00
G01 Z-0.0800
G01 F120.00
G01 X60.2852 Y-49.8865
G01 X60.2880 Y-49.8865
G01 X60.2880 Y-50.2068
G01 X60.2852 Y-50.2068
G00 Z2.0000
G00 X60.2427 Y-37.6244
G01 F70.00
G01 Z-0.0800
G01 F120.00
G01 X60.2427 Y-37.3040
G01 X60.2456 Y-37.3040
G01 X60.2456 Y-37.6244
G01 X60.2427 Y-37.6244
G00 Z2.0000
G00 X59.2427 Y-36.3040
G01 F70.00
G01 Z-0.0800
G01 F120.00
G01 X61.2456 Y-36.3040
G01 X61.2456 Y-38.6244
G01 X59.2427 Y-38.6244
G01 X59.2427 Y-36.3040
G00 Z2.0000
G00 X58.2427 Y-35.3040
G01 F70.00
G01 Z-0.0800
G01 F120.00
G01 X62.2456 Y-35.3040
G01 X62.2456 Y-39.6244
G01 X58.2427 Y-39.6244
G01 X58.2427 Y-35.3040
G00 Z2.0000
G00 X57.2427 Y-34.3040
G01 F70.00
G01 Z-0.0800
G01 F120.00
G01 X63.2456 Y-34.3040
G01 X63.2456 Y-40.6244
G01 X57.2427 Y-40.6244
G01 X57.2427 Y-34.3040
G00 Z2.0000
G00 X67.7040 Y-13.3327
G01 F70.00
G01 Z-0.0800
G01 F120.00
G01 X67.7069 Y-13.3327
G01 X67.7069 Y-13.6531
G01 X67.7040 Y-13.6531
G01 X67.7040 Y-13.3327
G00 Z2.0000
G00 X66.7040 Y-12.3327
G01 F70.00
G01 Z-0.0800
G01 F120.00
G01 X68.7069 Y-12.3327
G01 X68.7069 Y-14.6531
G01 X66.7040 Y-14.6531
G01 X66.7040 Y-12.3327
G00 Z2.0000
G00 X65.7040 Y-11.3327
G01 F70.00
G01 Z-0.0800
G01 F120.00
G01 X69.7069 Y-11.3327
G01 X69.7069 Y-15.6531
G01 X65.7040 Y-15.6531
G01 X65.7040 Y-11.3327
G00 Z2.0000
G00 X64.7040 Y-10.3327
G01 F70.00
G01 Z-0.0800
G01 F120.00
G01 X70.7069 Y-10.3327
G01 X70.7069 Y-16.6531
G01 X64.7040 Y-16.6531
G01 X64.7040 Y-10.3327
G00 Z2.0000
G00 X56.0860 Y-69.2547
G01 F70.00
G01 Z-0.0800
G01 F120.00
G01 X56.0848 Y-69.3038
G01 X56.0812 Y-69.3527
G01 X56.0752 Y-69.4014
G01 X56.0668 Y-69.4497
G01 X56.0560 Y-69.4976
G01 X56.0430 Y-69.5449
G01 X56.0276 Y-69.5915
G01 X56.0099 Y-69.6373
G01 X55.9900 Y-69.6821
G01 X55.9680 Y-69.7260
G01 X55.9438 Y-69.7686
G01 X55.9175 Y-69.8101
G01 X55.8893 Y-69.8502
G01 X55.8591 Y-69.8889
G01 X55.8270 Y-69.9261
G01 X55.7932 Y-69.9616
G01 X55.7577 Y-69.9954
G01 X55.7205 Y-70.0275
G01 X55.6818 Y-70.0577
G01 X55.6417 Y-70.0859
G01 X55.6002 Y-70.1122
G01 X55.5576 Y-70.1364
G01 X55.5137 Y-70.1584
G01 X55.4689 Y-70.1783
G01 X55.4231 Y-70.1960
G01 X55.3765 Y-70.2114
G01 X55.3292 Y-70.2244
G01 X55.2813 Y-70.2352
G01 X55.2330 Y-70.2436
G01 X55.1843 Y-70.2496
G01 X55.1354 Y-70.2532
G01 X55.0863 Y-70.2544
G01 X55.0372 Y-70.2532
G01 X54.9883 Y-70.2496
G01 X54.9396 Y-70.2436
G01 X54.8913 Y-70.2352
G01 X54.8434 Y-70.2244
G01 X54.7961 Y-70.2114
G01 X54.7495 Y-70.1960
G01 X54.7037 Y-70.1783
G01 X54.6589 Y-70.1584
G01 X54.6150 Y-70.1364
G01 X54.5724 Y-70.1122
G01 X54.5309 Y-70.0859
G01 X54.4908 Y-70.0577
G01 X54.4521 Y-70.0275
G01 X54.4149 Y-69.9954
G01 X54.3794 Y-69.9616
G01 X54.3456 Y-69.9261
G01 X54.3135 Y-69.8889
G01 X54.2833 Y-69.8502
G01 X54.2551 Y-69.8101
G01 X54.2288 Y-69.7686
G01 X54.2046 Y-69.7260
G01 X54.1826 Y-69.6821
G01 X54.1627 Y-69.6373
G01 X54.1450 Y-69.5915
G01 X54.1296 Y-69.5449
G01 X54.1166 Y-69.4976
G01 X54.1058 Y-69.4497
G01 X54.0974 Y-69.4014
G01 X54.0914 Y-69.3527
G01 X54.0878 Y-69.3038
G01 X54.0866 Y-69.2547
G01 X54.0878 Y-69.2056
G01 X54.0914 Y-69.1567
G01 X54.0974 Y-69.1080
G01 X54.1058 Y-69.0597
G01 X54.1166 Y-69.0118
G01 X54.1296 Y-68.9645
G01 X54.1450 Y-68.9179
G01 X54.1627 Y-68.8721
G01 X54.1826 Y-68.8273
G01 X54.2046 Y-68.7834
G01 X54.2288 Y-68.7408
G01 X54.2551 Y-68.6993
G01 X54.2833 Y-68.6592
G01 X54.3135 Y-68.6205
G01 X54.3456 Y-68.5833
G01 X54.3794 Y-68.5478
G01 X54.4149 Y-68.5140
G01 X54.4521 Y-68.4819
G01 X54.4908 Y-68.4517
G01 X54.5309 Y-68.4235
G01 X54.5724 Y-68.3972
G01 X54.6150 Y-68.3730
G01 X54.6589 Y-68.3510
G01 X54.7037 Y-68.3311
G01 X54.7495 Y-68.3134
G01 X54.7961 Y-68.2980
G01 X54.8434 Y-68.2850
G01 X54.8913 Y-68.2742
G01 X54.9396 Y-68.2658
G01 X54.9883 Y-68.2598
G01 X55.0372 Y-68.2562
G01 X55.0863 Y-68.2550
G01 X55.1354 Y-68.2562
G01 X55.1843 Y-68.2598
G01 X55.2330 Y-68.2658
G01 X55.2813 Y-68.2742
G01 X55.3292 Y-68.2850
G01 X55.3765 Y-68.2980
G01 X55.4231 Y-68.3134
G01 X55.4689 Y-68.3311
G01 X55.5137 Y-68.3510
G01 X55.5576 Y-68.3730
G01 X55.6002 Y-68.3972
G01 X55.6417 Y-68.4235
G01 X55.6818 Y-68.4517
G01 X55.7205 Y-68.4819
G01 X55.7577 Y-68.5140
G01 X55.7932 Y-68.5478
G01 X55.8270 Y-68.5833
G01 X55.8591 Y-68.6205
G01 X55.8893 Y-68.6592
G01 X55.9175 Y-68.6993
G01 X55.9438 Y-68.7408
G01 X55.9680 Y-68.7834
G01 X55.9900 Y-68.8273
G01 X56.0099 Y-68.8721
G01 X56.0276 Y-68.9179
G01 X56.0430 Y-68.9645
G01 X56.0560 Y-69.0118
G01 X56.0668 Y-69.0597
G01 X56.0752 Y-69.1080
G01 X56.0812 Y-69.1567
G01 X56.0848 Y-69.2056
G01 X56.0860 Y-69.2547
G00 Z2.0000
M05
G00 Z2.0000
G00 Z25.00

