(G-CODE GENERATED BY FLATCAM v8.993 - www.flatcam.org - Version Date: 2020/06/05)

(Name: A1_RF_PA_Ф1_верх.gbr_ncc_cnc)
(Type: G-code from Geometry)
(Units: MM)

(Created on Tuesday, 08 December 2020 at 17:55)

(This preprocessor is the default preprocessor used by FlatCAM.)
(It is made to work with MACH3 compatible motion controllers.)

(TOOL DIAMETER: 2.0 mm)
(Feedrate_XY: 120.0 mm/min)
(Feedrate_Z: 70.0 mm/min)
(Feedrate rapids 1500.0 mm/min)

(Z_Cut: -0.08 mm)
(Z_Move: 2.0 mm)
(Z Start: None mm)
(Z End: 25.0 mm)
(Steps per circle: 128)
(Preprocessor Geometry: default)

(X range:    4.4216 ...   70.8656  mm)
(Y range:  -76.3028 ...   -3.6603  mm)

(Spindle Speed: 10000 RPM)
G21
G90
G94



G01 F120.00
G00 Z2.0000

M03 S10000
G00 X18.8823 Y-3.8114
G01 F70.00
G01 Z-0.0800
G01 F120.00
G01 X18.8816 Y-3.8242
G01 X18.8795 Y-3.8387
G01 X18.8759 Y-3.8530
G01 X18.8710 Y-3.8669
G01 X18.8648 Y-3.8802
G01 X18.8573 Y-3.8928
G01 X18.8485 Y-3.9046
G01 X18.8387 Y-3.9155
G01 X18.8279 Y-3.9254
G01 X18.8161 Y-3.9342
G01 X18.8035 Y-3.9418
G01 X18.7902 Y-3.9482
G01 X18.7764 Y-3.9531
G01 X18.7622 Y-3.9568
G01 X18.7477 Y-3.9590
G01 X18.7330 Y-3.9597
G01 X18.7183 Y-3.9591
G01 X18.7038 Y-3.9570
G01 X18.6895 Y-3.9534
G01 X18.6756 Y-3.9485
G01 X18.6623 Y-3.9423
G01 X18.6497 Y-3.9348
G01 X18.6379 Y-3.9260
G01 X18.6270 Y-3.9162
G01 X18.6171 Y-3.9054
G01 X18.6083 Y-3.8936
G01 X18.6007 Y-3.8810
G01 X18.5943 Y-3.8677
G01 X18.5894 Y-3.8539
G01 X18.5857 Y-3.8397
G01 X18.5835 Y-3.8252
G01 X18.5828 Y-3.8105
G01 X18.5834 Y-3.7958
G01 X18.5855 Y-3.7813
G01 X18.5891 Y-3.7670
G01 X18.5940 Y-3.7531
G01 X18.6002 Y-3.7398
G01 X18.6077 Y-3.7272
G01 X18.6165 Y-3.7154
G01 X18.6263 Y-3.7045
G01 X18.6371 Y-3.6946
G01 X18.6489 Y-3.6858
G01 X18.6615 Y-3.6782
G01 X18.6748 Y-3.6718
G01 X18.6886 Y-3.6669
G01 X18.7028 Y-3.6632
G01 X18.7173 Y-3.6610
G01 X18.7320 Y-3.6603
G01 X18.7467 Y-3.6609
G01 X18.7612 Y-3.6630
G01 X18.7755 Y-3.6666
G01 X18.7894 Y-3.6715
G01 X18.8027 Y-3.6777
G01 X18.8153 Y-3.6852
G01 X18.8271 Y-3.6940
G01 X18.8380 Y-3.7038
G01 X18.8479 Y-3.7146
G01 X18.8567 Y-3.7264
G01 X18.8643 Y-3.7390
G01 X18.8707 Y-3.7523
G01 X18.8756 Y-3.7661
G01 X18.8793 Y-3.7803
G01 X18.8815 Y-3.7948
G01 X18.8823 Y-3.8114
G00 Z2.0000
G00 X18.8823 Y-7.6214
G01 F70.00
G01 Z-0.0800
G01 F120.00
G01 X18.8816 Y-7.6342
G01 X18.8795 Y-7.6487
G01 X18.8759 Y-7.6630
G01 X18.8710 Y-7.6769
G01 X18.8648 Y-7.6902
G01 X18.8573 Y-7.7028
G01 X18.8485 Y-7.7146
G01 X18.8387 Y-7.7255
G01 X18.8279 Y-7.7354
G01 X18.8161 Y-7.7442
G01 X18.8035 Y-7.7518
G01 X18.7902 Y-7.7582
G01 X18.7764 Y-7.7631
G01 X18.7622 Y-7.7668
G01 X18.7477 Y-7.7690
G01 X18.7330 Y-7.7697
G01 X18.7183 Y-7.7691
G01 X18.7038 Y-7.7670
G01 X18.6895 Y-7.7634
G01 X18.6756 Y-7.7585
G01 X18.6623 Y-7.7523
G01 X18.6497 Y-7.7448
G01 X18.6379 Y-7.7360
G01 X18.6270 Y-7.7262
G01 X18.6171 Y-7.7154
G01 X18.6083 Y-7.7036
G01 X18.6007 Y-7.6910
G01 X18.5943 Y-7.6777
G01 X18.5894 Y-7.6639
G01 X18.5857 Y-7.6497
G01 X18.5835 Y-7.6352
G01 X18.5828 Y-7.6205
G01 X18.5834 Y-7.6058
G01 X18.5855 Y-7.5913
G01 X18.5891 Y-7.5770
G01 X18.5940 Y-7.5631
G01 X18.6002 Y-7.5498
G01 X18.6077 Y-7.5372
G01 X18.6165 Y-7.5254
G01 X18.6263 Y-7.5145
G01 X18.6371 Y-7.5046
G01 X18.6489 Y-7.4958
G01 X18.6615 Y-7.4882
G01 X18.6748 Y-7.4818
G01 X18.6886 Y-7.4769
G01 X18.7028 Y-7.4732
G01 X18.7173 Y-7.4710
G01 X18.7320 Y-7.4703
G01 X18.7467 Y-7.4709
G01 X18.7612 Y-7.4730
G01 X18.7755 Y-7.4766
G01 X18.7894 Y-7.4815
G01 X18.8027 Y-7.4877
G01 X18.8153 Y-7.4952
G01 X18.8271 Y-7.5040
G01 X18.8380 Y-7.5138
G01 X18.8479 Y-7.5246
G01 X18.8567 Y-7.5364
G01 X18.8643 Y-7.5490
G01 X18.8707 Y-7.5623
G01 X18.8756 Y-7.5761
G01 X18.8793 Y-7.5903
G01 X18.8815 Y-7.6048
G01 X18.8823 Y-7.6214
G00 Z2.0000
G00 X20.8890 Y-17.7940
G01 F70.00
G01 Z-0.0800
G01 F120.00
G01 X26.8919 Y-17.7940
G01 X26.8919 Y-24.1144
G01 X25.2058 Y-24.1144
G01 X25.1646 Y-24.0798
G01 X25.0907 Y-24.0229
G01 X25.0141 Y-23.9697
G01 X24.9350 Y-23.9203
G01 X24.8645 Y-23.8805
G01 X24.7812 Y-23.8386
G01 X24.6959 Y-23.8008
G01 X24.6204 Y-23.7715
G01 X24.5321 Y-23.7416
G01 X24.4542 Y-23.7194
G01 X24.4185 Y-23.7102
G01 X24.3635 Y-23.6978
G01 X24.3153 Y-23.6882
G01 X24.2476 Y-23.6768
G01 X24.1550 Y-23.6653
G01 X24.0620 Y-23.6585
G01 X23.9688 Y-23.6562
G01 X23.8756 Y-23.6585
G01 X23.7826 Y-23.6653
G01 X23.6900 Y-23.6768
G01 X23.6223 Y-23.6882
G01 X23.5741 Y-23.6978
G01 X23.5191 Y-23.7102
G01 X23.4834 Y-23.7194
G01 X23.4055 Y-23.7416
G01 X23.3172 Y-23.7715
G01 X23.2417 Y-23.8008
G01 X23.1564 Y-23.8386
G01 X23.0731 Y-23.8805
G01 X23.0026 Y-23.9203
G01 X22.9235 Y-23.9697
G01 X22.8469 Y-24.0229
G01 X22.7730 Y-24.0798
G01 X22.7318 Y-24.1144
G01 X20.8890 Y-24.1144
G01 X20.8890 Y-17.7940
G01 X21.9777 Y-17.7940
G01 X21.9460 Y-17.8150
G01 X21.9104 Y-17.8390
G01 X21.8751 Y-17.8636
G01 X21.8055 Y-17.9139
G01 X21.7712 Y-17.9397
G01 X21.7034 Y-17.9925
G01 X21.6370 Y-18.0470
G01 X21.5720 Y-18.1031
G01 X21.5083 Y-18.1608
G01 X21.4461 Y-18.2201
G01 X21.3854 Y-18.2808
G01 X21.3556 Y-18.3117
G01 X21.2971 Y-18.3747
G01 X21.2685 Y-18.4067
G01 X21.2124 Y-18.4717
G01 X21.1579 Y-18.5381
G01 X21.1050 Y-18.6058
G01 X21.0538 Y-18.6748
G01 X21.0044 Y-18.7451
G01 X20.9567 Y-18.8165
G01 X20.9335 Y-18.8526
G01 X20.9107 Y-18.8890
G01 X20.8890 Y-18.9247
G01 X20.8890 Y-22.5255
G01 X20.9107 Y-22.5612
G01 X20.9335 Y-22.5976
G01 X20.9803 Y-22.6696
G01 X21.0289 Y-22.7404
G01 X21.0792 Y-22.8101
G01 X21.1312 Y-22.8784
G01 X21.1849 Y-22.9455
G01 X21.2124 Y-22.9785
G01 X21.2685 Y-23.0436
G01 X21.3262 Y-23.1072
G01 X21.3854 Y-23.1694
G01 X21.4156 Y-23.2000
G01 X21.4771 Y-23.2600
G01 X21.5400 Y-23.3184
G01 X21.6043 Y-23.3753
G01 X21.6370 Y-23.4032
G01 X21.7034 Y-23.4577
G01 X21.7712 Y-23.5105
G01 X21.8402 Y-23.5617
G01 X21.9104 Y-23.6112
G01 X21.9818 Y-23.6589
G01 X22.0544 Y-23.7049
G01 X22.1281 Y-23.7490
G01 X22.2028 Y-23.7914
G01 X22.2406 Y-23.8118
G01 X22.3168 Y-23.8514
G01 X22.3940 Y-23.8891
G01 X22.4721 Y-23.9248
G01 X22.5115 Y-23.9420
G01 X22.5908 Y-23.9749
G01 X22.6710 Y-24.0058
G01 X22.7519 Y-24.0347
G01 X22.8070 Y-24.0531
G01 X20.9304 Y-24.1144
G01 X20.9096 Y-24.0962
G01 X20.8890 Y-24.0778
G00 Z2.0000
G00 X25.0814 Y-24.0162
G01 F70.00
G01 Z-0.0800
G01 F120.00
G01 X25.1501 Y-23.9906
G01 X25.2298 Y-23.9587
G01 X25.3088 Y-23.9248
G01 X25.3480 Y-23.9072
G01 X25.3869 Y-23.8891
G01 X25.4641 Y-23.8514
G01 X25.5403 Y-23.8118
G01 X25.6156 Y-23.7704
G01 X25.6528 Y-23.7490
G01 X25.7265 Y-23.7049
G01 X25.7991 Y-23.6589
G01 X25.8705 Y-23.6112
G01 X25.9407 Y-23.5617
G01 X26.0097 Y-23.5105
G01 X26.0438 Y-23.4843
G01 X26.1108 Y-23.4306
G01 X26.1766 Y-23.3753
G01 X26.2409 Y-23.3184
G01 X26.2726 Y-23.2894
G01 X26.3348 Y-23.2302
G01 X26.3653 Y-23.2000
G01 X26.4253 Y-23.1385
G01 X26.4838 Y-23.0756
G01 X26.5407 Y-23.0112
G01 X26.5960 Y-22.9455
G01 X26.6230 Y-22.9121
G01 X26.6759 Y-22.8444
G01 X26.7017 Y-22.8101
G01 X26.7271 Y-22.7754
G01 X26.7520 Y-22.7404
G01 X26.8006 Y-22.6696
G01 X26.8474 Y-22.5976
G01 X26.8919 Y-22.5255
G01 X26.8919 Y-24.0778
G01 X26.8505 Y-24.1144
G01 X26.3905 Y-20.7251
G01 X26.3897 Y-20.7865
G01 X26.3857 Y-20.8784
G01 X26.3812 Y-20.9396
G01 X26.3752 Y-21.0007
G01 X26.3677 Y-21.0616
G01 X26.3587 Y-21.1223
G01 X26.3482 Y-21.1827
G01 X26.3362 Y-21.2429
G01 X26.3228 Y-21.3028
G01 X26.3079 Y-21.3623
G01 X26.2915 Y-21.4214
G01 X26.2737 Y-21.4801
G01 X26.2545 Y-21.5384
G01 X26.2338 Y-21.5962
G01 X26.2117 Y-21.6534
G01 X26.1882 Y-21.7101
G01 X26.1634 Y-21.7662
G01 X26.1371 Y-21.8217
G01 X26.1095 Y-21.8765
G01 X26.0806 Y-21.9306
G01 X26.0504 Y-21.9840
G01 X26.0188 Y-22.0366
G01 X25.9691 Y-22.1140
G01 X25.9344 Y-22.1646
G01 X25.8985 Y-22.2144
G01 X25.8613 Y-22.2632
G01 X25.8230 Y-22.3111
G01 X25.7835 Y-22.3580
G01 X25.7428 Y-22.4040
G01 X25.7011 Y-22.4490
G01 X25.6364 Y-22.5144
G01 X25.5920 Y-22.5567
G01 X25.5465 Y-22.5980
G01 X25.5000 Y-22.6380
G01 X25.4526 Y-22.6770
G01 X25.4042 Y-22.7147
G01 X25.3549 Y-22.7513
G01 X25.3048 Y-22.7866
G01 X25.2538 Y-22.8207
G01 X25.2019 Y-22.8535
G01 X25.1493 Y-22.8850
G01 X25.0959 Y-22.9153
G01 X25.0418 Y-22.9442
G01 X24.9870 Y-22.9718
G01 X24.9315 Y-22.9980
G01 X24.8472 Y-23.0348
G01 X24.7902 Y-23.0576
G01 X24.7327 Y-23.0790
G01 X24.6747 Y-23.0989
G01 X24.6162 Y-23.1175
G01 X24.5276 Y-23.1426
G01 X24.4681 Y-23.1575
G01 X24.4082 Y-23.1709
G01 X24.3480 Y-23.1829
G01 X24.2876 Y-23.1934
G01 X24.2269 Y-23.2024
G01 X24.1660 Y-23.2099
G01 X24.1049 Y-23.2159
G01 X24.0438 Y-23.2204
G01 X23.9825 Y-23.2234
G01 X23.9211 Y-23.2249
G01 X23.8598 Y-23.2249
G01 X23.7984 Y-23.2234
G01 X23.7371 Y-23.2204
G01 X23.6760 Y-23.2159
G01 X23.6149 Y-23.2099
G01 X23.5540 Y-23.2024
G01 X23.4933 Y-23.1934
G01 X23.4329 Y-23.1829
G01 X23.3727 Y-23.1709
G01 X23.2830 Y-23.1502
G01 X23.2237 Y-23.1346
G01 X23.1647 Y-23.1175
G01 X23.1062 Y-23.0989
G01 X23.0482 Y-23.0790
G01 X22.9907 Y-23.0576
G01 X22.9337 Y-23.0348
G01 X22.8773 Y-23.0106
G01 X22.8216 Y-22.9851
G01 X22.7664 Y-22.9582
G01 X22.7120 Y-22.9299
G01 X22.6582 Y-22.9003
G01 X22.6052 Y-22.8694
G01 X22.5530 Y-22.8372
G01 X22.5015 Y-22.8038
G01 X22.4509 Y-22.7691
G01 X22.3767 Y-22.7147
G01 X22.3283 Y-22.6770
G01 X22.2809 Y-22.6380
G01 X22.2344 Y-22.5980
G01 X22.1889 Y-22.5567
G01 X22.1445 Y-22.5144
G01 X22.1011 Y-22.4711
G01 X22.0588 Y-22.4266
G01 X22.0176 Y-22.3812
G01 X21.9775 Y-22.3347
G01 X21.9386 Y-22.2873
G01 X21.9009 Y-22.2389
G01 X21.8643 Y-22.1896
G01 X21.8290 Y-22.1394
G01 X21.7949 Y-22.0884
G01 X21.7621 Y-22.0366
G01 X21.7305 Y-21.9840
G01 X21.7003 Y-21.9306
G01 X21.6714 Y-21.8765
G01 X21.6438 Y-21.8217
G01 X21.6175 Y-21.7662
G01 X21.5808 Y-21.6818
G01 X21.5580 Y-21.6249
G01 X21.5366 Y-21.5673
G01 X21.5166 Y-21.5093
G01 X21.4981 Y-21.4508
G01 X21.4810 Y-21.3919
G01 X21.4654 Y-21.3326
G01 X21.4512 Y-21.2729
G01 X21.4385 Y-21.2128
G01 X21.4273 Y-21.1525
G01 X21.4175 Y-21.0919
G01 X21.4093 Y-21.0311
G01 X21.3997 Y-20.9396
G01 X21.3952 Y-20.8784
G01 X21.3921 Y-20.8171
G01 X21.3906 Y-20.7558
G01 X21.3906 Y-20.6944
G01 X21.3921 Y-20.6331
G01 X21.3952 Y-20.5718
G01 X21.3997 Y-20.5106
G01 X21.4057 Y-20.4496
G01 X21.4175 Y-20.3583
G01 X21.4273 Y-20.2977
G01 X21.4385 Y-20.2374
G01 X21.4581 Y-20.1475
G01 X21.4810 Y-20.0583
G01 X21.4981 Y-19.9994
G01 X21.5166 Y-19.9409
G01 X21.5471 Y-19.8541
G01 X21.5692 Y-19.7968
G01 X21.6049 Y-19.7120
G01 X21.6305 Y-19.6562
G01 X21.6714 Y-19.5738
G01 X21.7152 Y-19.4929
G01 X21.7461 Y-19.4399
G01 X21.7783 Y-19.3876
G01 X21.8118 Y-19.3362
G01 X21.8465 Y-19.2856
G01 X21.9009 Y-19.2113
G01 X21.9579 Y-19.1391
G01 X21.9974 Y-19.0922
G01 X22.0381 Y-19.0462
G01 X22.1011 Y-18.9792
G01 X22.1445 Y-18.9358
G01 X22.2116 Y-18.8727
G01 X22.2575 Y-18.8321
G01 X22.3045 Y-18.7926
G01 X22.3524 Y-18.7542
G01 X22.4260 Y-18.6990
G01 X22.5015 Y-18.6464
G01 X22.5530 Y-18.6130
G01 X22.6052 Y-18.5808
G01 X22.6850 Y-18.5349
G01 X22.7391 Y-18.5060
G01 X22.8216 Y-18.4651
G01 X22.8773 Y-18.4396
G01 X22.9622 Y-18.4038
G01 X23.0482 Y-18.3713
G01 X23.1062 Y-18.3513
G01 X23.1647 Y-18.3328
G01 X23.2533 Y-18.3077
G01 X23.3128 Y-18.2928
G01 X23.4027 Y-18.2731
G01 X23.4933 Y-18.2569
G01 X23.5540 Y-18.2479
G01 X23.6149 Y-18.2403
G01 X23.7065 Y-18.2319
G01 X23.7678 Y-18.2281
G01 X23.8291 Y-18.2259
G01 X23.8905 Y-18.2251
G01 X23.9518 Y-18.2259
G01 X24.0438 Y-18.2298
G01 X24.1049 Y-18.2343
G01 X24.1660 Y-18.2403
G01 X24.2573 Y-18.2522
G01 X24.3179 Y-18.2619
G01 X24.4082 Y-18.2793
G01 X24.4681 Y-18.2928
G01 X24.5276 Y-18.3077
G01 X24.6162 Y-18.3328
G01 X24.6747 Y-18.3513
G01 X24.7327 Y-18.3713
G01 X24.8187 Y-18.4038
G01 X24.9036 Y-18.4396
G01 X24.9593 Y-18.4651
G01 X25.0145 Y-18.4921
G01 X25.0959 Y-18.5349
G01 X25.1757 Y-18.5808
G01 X25.2538 Y-18.6296
G01 X25.3300 Y-18.6812
G01 X25.4042 Y-18.7355
G01 X25.4764 Y-18.7926
G01 X25.5465 Y-18.8523
G01 X25.6143 Y-18.9145
G01 X25.6798 Y-18.9792
G01 X25.7221 Y-19.0236
G01 X25.7835 Y-19.0922
G01 X25.8423 Y-19.1630
G01 X25.8985 Y-19.2359
G01 X25.9519 Y-19.3108
G01 X26.0026 Y-19.3876
G01 X26.0504 Y-19.4663
G01 X26.0657 Y-19.4929
G01 X26.0806 Y-19.5197
G01 X26.1235 Y-19.6011
G01 X26.1634 Y-19.6840
G01 X26.2001 Y-19.7684
G01 X26.2338 Y-19.8541
G01 X26.2643 Y-19.9409
G01 X26.2915 Y-20.0288
G01 X26.3155 Y-20.1177
G01 X26.3362 Y-20.2073
G01 X26.3482 Y-20.2675
G01 X26.3634 Y-20.3583
G01 X26.3752 Y-20.4496
G01 X26.3837 Y-20.5412
G01 X26.3888 Y-20.6331
G01 X26.3905 Y-20.7251
G01 X25.3905 Y-20.7251
G01 X25.3900 Y-20.7619
G01 X25.3876 Y-20.8171
G01 X25.3832 Y-20.8721
G01 X25.3792 Y-20.9087
G01 X25.3742 Y-20.9452
G01 X25.3651 Y-20.9997
G01 X25.3540 Y-21.0538
G01 X25.3409 Y-21.1074
G01 X25.3311 Y-21.1429
G01 X25.3147 Y-21.1956
G01 X25.2965 Y-21.2477
G01 X25.2763 Y-21.2991
G01 X25.2618 Y-21.3330
G01 X25.2385 Y-21.3830
G01 X25.2219 Y-21.4159
G01 X25.1956 Y-21.4645
G01 X25.1675 Y-21.5120
G01 X25.1377 Y-21.5585
G01 X25.1061 Y-21.6038
G01 X25.0842 Y-21.6334
G01 X25.0616 Y-21.6624
G01 X25.0263 Y-21.7049
G01 X24.9894 Y-21.7460
G01 X24.9640 Y-21.7727
G01 X24.9248 Y-21.8115
G01 X24.8978 Y-21.8365
G01 X24.8562 Y-21.8729
G01 X24.8277 Y-21.8962
G01 X24.7987 Y-21.9189
G01 X24.7542 Y-21.9515
G01 X24.7084 Y-21.9824
G01 X24.6616 Y-22.0117
G01 X24.6137 Y-22.0392
G01 X24.5649 Y-22.0649
G01 X24.5151 Y-22.0889
G01 X24.4645 Y-22.1109
G01 X24.4131 Y-22.1311
G01 X24.3610 Y-22.1494
G01 X24.3082 Y-22.1658
G01 X24.2549 Y-22.1802
G01 X24.2011 Y-22.1926
G01 X24.1469 Y-22.2030
G01 X24.0923 Y-22.2115
G01 X24.0375 Y-22.2179
G01 X23.9824 Y-22.2223
G01 X23.9273 Y-22.2247
G01 X23.8720 Y-22.2250
G01 X23.8168 Y-22.2233
G01 X23.7618 Y-22.2196
G01 X23.7068 Y-22.2138
G01 X23.6340 Y-22.2030
G01 X23.5798 Y-22.1926
G01 X23.5260 Y-22.1802
G01 X23.4727 Y-22.1658
G01 X23.4199 Y-22.1494
G01 X23.3678 Y-22.1311
G01 X23.3164 Y-22.1109
G01 X23.2658 Y-22.0889
G01 X23.2160 Y-22.0649
G01 X23.1672 Y-22.0392
G01 X23.1193 Y-22.0117
G01 X23.0725 Y-21.9824
G01 X23.0267 Y-21.9515
G01 X22.9822 Y-21.9189
G01 X22.9389 Y-21.8846
G01 X22.8968 Y-21.8488
G01 X22.8561 Y-21.8115
G01 X22.8169 Y-21.7727
G01 X22.7790 Y-21.7325
G01 X22.7427 Y-21.6909
G01 X22.7079 Y-21.6480
G01 X22.6748 Y-21.6038
G01 X22.6432 Y-21.5585
G01 X22.6134 Y-21.5120
G01 X22.5853 Y-21.4645
G01 X22.5590 Y-21.4159
G01 X22.5345 Y-21.3664
G01 X22.5118 Y-21.3161
G01 X22.4910 Y-21.2650
G01 X22.4720 Y-21.2131
G01 X22.4550 Y-21.1605
G01 X22.4400 Y-21.1074
G01 X22.4269 Y-21.0538
G01 X22.4158 Y-20.9997
G01 X22.4067 Y-20.9452
G01 X22.3996 Y-20.8904
G01 X22.3945 Y-20.8355
G01 X22.3915 Y-20.7803
G01 X22.3905 Y-20.7251
G01 X22.3915 Y-20.6699
G01 X22.3945 Y-20.6148
G01 X22.3996 Y-20.5598
G01 X22.4067 Y-20.5050
G01 X22.4193 Y-20.4325
G01 X22.4310 Y-20.3785
G01 X22.4448 Y-20.3250
G01 X22.4605 Y-20.2721
G01 X22.4844 Y-20.2025
G01 X22.5046 Y-20.1511
G01 X22.5345 Y-20.0838
G01 X22.5590 Y-20.0343
G01 X22.5945 Y-19.9698
G01 X22.6331 Y-19.9071
G01 X22.6748 Y-19.8464
G01 X22.7079 Y-19.8023
G01 X22.7546 Y-19.7454
G01 X22.8041 Y-19.6908
G01 X22.8561 Y-19.6387
G01 X22.9107 Y-19.5893
G01 X22.9532 Y-19.5540
G01 X22.9969 Y-19.5203
G01 X23.0571 Y-19.4779
G01 X23.1036 Y-19.4481
G01 X23.1672 Y-19.4110
G01 X23.2325 Y-19.3771
G01 X23.2995 Y-19.3464
G01 X23.3506 Y-19.3256
G01 X23.4199 Y-19.3008
G01 X23.4727 Y-19.2845
G01 X23.5439 Y-19.2657
G01 X23.5978 Y-19.2539
G01 X23.6704 Y-19.2413
G01 X23.7434 Y-19.2323
G01 X23.8168 Y-19.2269
G01 X23.8905 Y-19.2251
G01 X23.9641 Y-19.2269
G01 X24.0191 Y-19.2306
G01 X24.0923 Y-19.2388
G01 X24.1469 Y-19.2472
G01 X24.2191 Y-19.2616
G01 X24.2727 Y-19.2746
G01 X24.3435 Y-19.2952
G01 X24.4131 Y-19.3191
G01 X24.4814 Y-19.3464
G01 X24.5318 Y-19.3691
G01 X24.5975 Y-19.4022
G01 X24.6616 Y-19.4385
G01 X24.7238 Y-19.4779
G01 X24.7691 Y-19.5094
G01 X24.8277 Y-19.5540
G01 X24.8702 Y-19.5893
G01 X24.9248 Y-19.6387
G01 X24.9640 Y-19.6775
G01 X25.0142 Y-19.7315
G01 X25.0500 Y-19.7735
G01 X25.0953 Y-19.8316
G01 X25.1377 Y-19.8918
G01 X25.1675 Y-19.9382
G01 X25.2046 Y-20.0018
G01 X25.2385 Y-20.0672
G01 X25.2542 Y-20.1005
G01 X25.2618 Y-20.1173
G01 X25.2691 Y-20.1341
G01 X25.2899 Y-20.1853
G01 X25.3147 Y-20.2546
G01 X25.3361 Y-20.3250
G01 X25.3499 Y-20.3785
G01 X25.3651 Y-20.4506
G01 X25.3768 Y-20.5232
G01 X25.3849 Y-20.5964
G01 X25.3886 Y-20.6515
G01 X25.3905 Y-20.7251
G01 X24.3905 Y-20.7251
G01 X24.3898 Y-20.7496
G01 X24.3880 Y-20.7741
G01 X24.3850 Y-20.7985
G01 X24.3808 Y-20.8227
G01 X24.3755 Y-20.8466
G01 X24.3689 Y-20.8703
G01 X24.3612 Y-20.8936
G01 X24.3524 Y-20.9165
G01 X24.3424 Y-20.9389
G01 X24.3314 Y-20.9608
G01 X24.3193 Y-20.9822
G01 X24.3062 Y-21.0029
G01 X24.2921 Y-21.0230
G01 X24.2770 Y-21.0423
G01 X24.2609 Y-21.0609
G01 X24.2440 Y-21.0787
G01 X24.2262 Y-21.0956
G01 X24.2076 Y-21.1116
G01 X24.1883 Y-21.1267
G01 X24.1682 Y-21.1408
G01 X24.1475 Y-21.1540
G01 X24.1261 Y-21.1661
G01 X24.1042 Y-21.1771
G01 X24.0818 Y-21.1871
G01 X24.0589 Y-21.1959
G01 X24.0356 Y-21.2036
G01 X24.0119 Y-21.2101
G01 X23.9880 Y-21.2155
G01 X23.9638 Y-21.2197
G01 X23.9395 Y-21.2227
G01 X23.9150 Y-21.2245
G01 X23.8905 Y-21.2251
G01 X23.8659 Y-21.2245
G01 X23.8414 Y-21.2227
G01 X23.8171 Y-21.2197
G01 X23.7929 Y-21.2155
G01 X23.7690 Y-21.2101
G01 X23.7453 Y-21.2036
G01 X23.7220 Y-21.1959
G01 X23.6991 Y-21.1871
G01 X23.6767 Y-21.1771
G01 X23.6548 Y-21.1661
G01 X23.6334 Y-21.1540
G01 X23.6127 Y-21.1408
G01 X23.5926 Y-21.1267
G01 X23.5733 Y-21.1116
G01 X23.5547 Y-21.0956
G01 X23.5369 Y-21.0787
G01 X23.5200 Y-21.0609
G01 X23.5039 Y-21.0423
G01 X23.4888 Y-21.0230
G01 X23.4747 Y-21.0029
G01 X23.4616 Y-20.9822
G01 X23.4495 Y-20.9608
G01 X23.4385 Y-20.9389
G01 X23.4285 Y-20.9165
G01 X23.4197 Y-20.8936
G01 X23.4120 Y-20.8703
G01 X23.4054 Y-20.8466
G01 X23.4001 Y-20.8227
G01 X23.3959 Y-20.7985
G01 X23.3929 Y-20.7741
G01 X23.3911 Y-20.7496
G01 X23.3905 Y-20.7251
G01 X23.3911 Y-20.7006
G01 X23.3929 Y-20.6761
G01 X23.3959 Y-20.6517
G01 X23.4001 Y-20.6276
G01 X23.4054 Y-20.6036
G01 X23.4120 Y-20.5800
G01 X23.4197 Y-20.5567
G01 X23.4285 Y-20.5338
G01 X23.4385 Y-20.5113
G01 X23.4495 Y-20.4894
G01 X23.4616 Y-20.4681
G01 X23.4747 Y-20.4473
G01 X23.4888 Y-20.4273
G01 X23.5039 Y-20.4079
G01 X23.5200 Y-20.3893
G01 X23.5369 Y-20.3716
G01 X23.5547 Y-20.3546
G01 X23.5733 Y-20.3386
G01 X23.5926 Y-20.3235
G01 X23.6127 Y-20.3094
G01 X23.6334 Y-20.2962
G01 X23.6548 Y-20.2842
G01 X23.6767 Y-20.2731
G01 X23.6991 Y-20.2632
G01 X23.7220 Y-20.2543
G01 X23.7453 Y-20.2466
G01 X23.7690 Y-20.2401
G01 X23.7929 Y-20.2347
G01 X23.8171 Y-20.2305
G01 X23.8414 Y-20.2275
G01 X23.8659 Y-20.2257
G01 X23.8905 Y-20.2251
G01 X23.9150 Y-20.2257
G01 X23.9395 Y-20.2275
G01 X23.9638 Y-20.2305
G01 X23.9880 Y-20.2347
G01 X24.0119 Y-20.2401
G01 X24.0356 Y-20.2466
G01 X24.0589 Y-20.2543
G01 X24.0818 Y-20.2632
G01 X24.1042 Y-20.2731
G01 X24.1261 Y-20.2842
G01 X24.1475 Y-20.2962
G01 X24.1682 Y-20.3094
G01 X24.1883 Y-20.3235
G01 X24.2076 Y-20.3386
G01 X24.2262 Y-20.3546
G01 X24.2440 Y-20.3716
G01 X24.2609 Y-20.3893
G01 X24.2770 Y-20.4079
G01 X24.2921 Y-20.4273
G01 X24.3062 Y-20.4473
G01 X24.3193 Y-20.4681
G01 X24.3314 Y-20.4894
G01 X24.3424 Y-20.5113
G01 X24.3524 Y-20.5338
G01 X24.3612 Y-20.5567
G01 X24.3689 Y-20.5800
G01 X24.3755 Y-20.6036
G01 X24.3808 Y-20.6276
G01 X24.3850 Y-20.6517
G01 X24.3880 Y-20.6761
G01 X24.3898 Y-20.7006
G01 X24.3905 Y-20.7251
G01 X26.8919 Y-18.9247
G01 X26.8474 Y-18.8526
G01 X26.8242 Y-18.8165
G01 X26.7765 Y-18.7451
G01 X26.7271 Y-18.6748
G01 X26.6759 Y-18.6058
G01 X26.6230 Y-18.5381
G01 X26.5685 Y-18.4717
G01 X26.5124 Y-18.4067
G01 X26.4838 Y-18.3747
G01 X26.4253 Y-18.3117
G01 X26.3653 Y-18.2502
G01 X26.3348 Y-18.2201
G01 X26.2726 Y-18.1608
G01 X26.2089 Y-18.1031
G01 X26.1439 Y-18.0470
G01 X26.0775 Y-17.9925
G01 X26.0097 Y-17.9397
G01 X25.9754 Y-17.9139
G01 X25.9058 Y-17.8636
G01 X25.8705 Y-17.8390
G01 X25.8032 Y-17.7940
G00 Z2.0000
G00 X39.1452 Y-13.7956
G01 F70.00
G01 Z-0.0800
G01 F120.00
G01 X45.1481 Y-13.7956
G01 X45.1481 Y-7.4752
G01 X39.1452 Y-7.4752
G01 X39.1452 Y-13.7956
G01 X39.1452 Y-12.4358
G01 X39.1669 Y-12.4715
G01 X39.1897 Y-12.5079
G01 X39.2129 Y-12.5440
G01 X39.2365 Y-12.5799
G01 X39.2851 Y-12.6507
G01 X39.3354 Y-12.7203
G01 X39.3612 Y-12.7547
G01 X39.4141 Y-12.8224
G01 X39.4411 Y-12.8558
G01 X39.4964 Y-12.9215
G01 X39.5247 Y-12.9539
G01 X39.5824 Y-13.0175
G01 X39.6118 Y-13.0488
G01 X39.6718 Y-13.1103
G01 X39.7023 Y-13.1405
G01 X39.7333 Y-13.1703
G01 X39.7962 Y-13.2287
G01 X39.8282 Y-13.2574
G01 X39.8932 Y-13.3135
G01 X39.9263 Y-13.3409
G01 X39.9933 Y-13.3946
G01 X40.0617 Y-13.4466
G01 X40.0964 Y-13.4720
G01 X40.1313 Y-13.4969
G01 X40.2022 Y-13.5455
G01 X40.2742 Y-13.5924
G01 X40.3106 Y-13.6151
G01 X40.3843 Y-13.6593
G01 X40.4215 Y-13.6807
G01 X40.4590 Y-13.7016
G01 X40.5348 Y-13.7421
G01 X40.5730 Y-13.7617
G01 X40.6115 Y-13.7808
G01 X40.6423 Y-13.7956
G01 X43.6510 Y-13.7956
G01 X43.6818 Y-13.7808
G01 X43.7203 Y-13.7617
G01 X43.7585 Y-13.7421
G01 X43.8343 Y-13.7016
G01 X43.8718 Y-13.6807
G01 X43.9460 Y-13.6375
G01 X43.9827 Y-13.6151
G01 X44.0553 Y-13.5692
G01 X44.0911 Y-13.5455
G01 X44.1267 Y-13.5215
G01 X44.1969 Y-13.4720
G01 X44.2316 Y-13.4466
G01 X44.3000 Y-13.3946
G01 X44.3337 Y-13.3680
G01 X44.4001 Y-13.3135
G01 X44.4651 Y-13.2574
G01 X44.4971 Y-13.2287
G01 X44.5600 Y-13.1703
G01 X44.5910 Y-13.1405
G01 X44.6517 Y-13.0797
G01 X44.6815 Y-13.0488
G01 X44.7109 Y-13.0175
G01 X44.7686 Y-12.9539
G01 X44.8247 Y-12.8888
G01 X44.8522 Y-12.8558
G01 X44.8792 Y-12.8224
G01 X44.9321 Y-12.7547
G01 X44.9579 Y-12.7203
G01 X45.0082 Y-12.6507
G01 X45.0568 Y-12.5799
G01 X45.0804 Y-12.5440
G01 X45.1036 Y-12.5079
G01 X45.1264 Y-12.4715
G01 X45.1481 Y-12.4358
G01 X42.6466 Y-10.6354
G01 X42.6457 Y-10.6047
G01 X42.6421 Y-10.5681
G01 X42.6370 Y-10.5379
G01 X42.6285 Y-10.5020
G01 X42.6174 Y-10.4670
G01 X42.6038 Y-10.4328
G01 X42.5905 Y-10.4051
G01 X42.5723 Y-10.3731
G01 X42.5554 Y-10.3475
G01 X42.5332 Y-10.3182
G01 X42.5130 Y-10.2951
G01 X42.4870 Y-10.2691
G01 X42.4591 Y-10.2450
G01 X42.4346 Y-10.2266
G01 X42.4037 Y-10.2065
G01 X42.3715 Y-10.1888
G01 X42.3380 Y-10.1735
G01 X42.3093 Y-10.1626
G01 X42.2800 Y-10.1535
G01 X42.2442 Y-10.1450
G01 X42.2139 Y-10.1399
G01 X42.1834 Y-10.1368
G01 X42.1528 Y-10.1354
G01 X42.1160 Y-10.1363
G01 X42.0854 Y-10.1392
G01 X42.0491 Y-10.1450
G01 X42.0133 Y-10.1535
G01 X41.9840 Y-10.1626
G01 X41.9497 Y-10.1758
G01 X41.9218 Y-10.1888
G01 X41.8949 Y-10.2034
G01 X41.8638 Y-10.2231
G01 X41.8390 Y-10.2412
G01 X41.8109 Y-10.2649
G01 X41.7845 Y-10.2906
G01 X41.7641 Y-10.3135
G01 X41.7414 Y-10.3425
G01 X41.7242 Y-10.3679
G01 X41.7057 Y-10.3997
G01 X41.6921 Y-10.4272
G01 X41.6780 Y-10.4612
G01 X41.6682 Y-10.4903
G01 X41.6602 Y-10.5199
G01 X41.6530 Y-10.5560
G01 X41.6491 Y-10.5864
G01 X41.6470 Y-10.6170
G01 X41.6470 Y-10.6538
G01 X41.6491 Y-10.6844
G01 X41.6551 Y-10.7269
G01 X41.6602 Y-10.7509
G01 X41.6664 Y-10.7747
G01 X41.6738 Y-10.7981
G01 X41.6824 Y-10.8211
G01 X41.7000 Y-10.8602
G01 X41.7116 Y-10.8818
G01 X41.7242 Y-10.9029
G01 X41.7379 Y-10.9233
G01 X41.7525 Y-10.9430
G01 X41.7680 Y-10.9620
G01 X41.7845 Y-10.9802
G01 X41.8154 Y-11.0100
G01 X41.8342 Y-11.0258
G01 X41.8538 Y-11.0406
G01 X41.8896 Y-11.0643
G01 X41.9110 Y-11.0764
G01 X41.9329 Y-11.0874
G01 X41.9553 Y-11.0973
G01 X41.9782 Y-11.1062
G01 X42.0015 Y-11.1139
G01 X42.0252 Y-11.1204
G01 X42.0672 Y-11.1291
G01 X42.1099 Y-11.1340
G01 X42.1344 Y-11.1352
G01 X42.1589 Y-11.1352
G01 X42.1834 Y-11.1340
G01 X42.2079 Y-11.1316
G01 X42.2321 Y-11.1280
G01 X42.2562 Y-11.1233
G01 X42.2800 Y-11.1173
G01 X42.3035 Y-11.1102
G01 X42.3266 Y-11.1019
G01 X42.3493 Y-11.0925
G01 X42.3715 Y-11.0820
G01 X42.3931 Y-11.0704
G01 X42.4295 Y-11.0477
G01 X42.4494 Y-11.0333
G01 X42.4686 Y-11.0180
G01 X42.4870 Y-11.0017
G01 X42.5045 Y-10.9846
G01 X42.5212 Y-10.9666
G01 X42.5370 Y-10.9478
G01 X42.5519 Y-10.9283
G01 X42.5658 Y-10.9081
G01 X42.5786 Y-10.8872
G01 X42.5905 Y-10.8657
G01 X42.6086 Y-10.8267
G01 X42.6174 Y-10.8038
G01 X42.6251 Y-10.7805
G01 X42.6317 Y-10.7569
G01 X42.6370 Y-10.7329
G01 X42.6412 Y-10.7088
G01 X42.6442 Y-10.6844
G01 X42.6460 Y-10.6599
G01 X42.6466 Y-10.6354
G01 X43.6466 Y-10.6354
G01 X43.6448 Y-10.5618
G01 X43.6394 Y-10.4884
G01 X43.6330 Y-10.4335
G01 X43.6213 Y-10.3608
G01 X43.6061 Y-10.2888
G01 X43.5873 Y-10.2176
G01 X43.5651 Y-10.1474
G01 X43.5394 Y-10.0784
G01 X43.5180 Y-10.0275
G01 X43.4865 Y-9.9610
G01 X43.4518 Y-9.8961
G01 X43.4139 Y-9.8329
G01 X43.3730 Y-9.7717
G01 X43.3404 Y-9.7271
G01 X43.2944 Y-9.6697
G01 X43.2456 Y-9.6145
G01 X43.2073 Y-9.5747
G01 X43.1676 Y-9.5364
G01 X43.1264 Y-9.4996
G01 X43.0839 Y-9.4643
G01 X43.0402 Y-9.4306
G01 X42.9952 Y-9.3985
G01 X42.9491 Y-9.3681
G01 X42.9020 Y-9.3394
G01 X42.8537 Y-9.3125
G01 X42.8046 Y-9.2874
G01 X42.7545 Y-9.2641
G01 X42.7036 Y-9.2426
G01 X42.6520 Y-9.2231
G01 X42.5997 Y-9.2054
G01 X42.5467 Y-9.1897
G01 X42.4932 Y-9.1760
G01 X42.4393 Y-9.1642
G01 X42.3849 Y-9.1544
G01 X42.3303 Y-9.1467
G01 X42.2753 Y-9.1409
G01 X42.2203 Y-9.1372
G01 X42.1651 Y-9.1355
G01 X42.1098 Y-9.1359
G01 X42.0547 Y-9.1382
G01 X41.9996 Y-9.1426
G01 X41.9448 Y-9.1490
G01 X41.8902 Y-9.1575
G01 X41.8360 Y-9.1679
G01 X41.7822 Y-9.1804
G01 X41.7289 Y-9.1948
G01 X41.6761 Y-9.2111
G01 X41.6240 Y-9.2294
G01 X41.5726 Y-9.2496
G01 X41.5220 Y-9.2716
G01 X41.4722 Y-9.2956
G01 X41.4234 Y-9.3213
G01 X41.3755 Y-9.3488
G01 X41.3287 Y-9.3781
G01 X41.2829 Y-9.4090
G01 X41.2384 Y-9.4416
G01 X41.1951 Y-9.4759
G01 X41.1530 Y-9.5117
G01 X41.1123 Y-9.5490
G01 X41.0731 Y-9.5878
G01 X41.0352 Y-9.6281
G01 X40.9989 Y-9.6697
G01 X40.9641 Y-9.7126
G01 X40.9310 Y-9.7567
G01 X40.8994 Y-9.8020
G01 X40.8696 Y-9.8485
G01 X40.8415 Y-9.8961
G01 X40.8152 Y-9.9446
G01 X40.7907 Y-9.9941
G01 X40.7680 Y-10.0444
G01 X40.7472 Y-10.0956
G01 X40.7282 Y-10.1474
G01 X40.7112 Y-10.2000
G01 X40.6962 Y-10.2531
G01 X40.6831 Y-10.3067
G01 X40.6720 Y-10.3608
G01 X40.6629 Y-10.4153
G01 X40.6558 Y-10.4701
G01 X40.6507 Y-10.5251
G01 X40.6477 Y-10.5802
G01 X40.6466 Y-10.6354
G01 X40.6477 Y-10.6906
G01 X40.6495 Y-10.7274
G01 X40.6539 Y-10.7824
G01 X40.6603 Y-10.8373
G01 X40.6687 Y-10.8918
G01 X40.6792 Y-10.9461
G01 X40.6872 Y-10.9820
G01 X40.7010 Y-11.0355
G01 X40.7112 Y-11.0708
G01 X40.7282 Y-11.1234
G01 X40.7472 Y-11.1752
G01 X40.7680 Y-11.2264
G01 X40.7829 Y-11.2600
G01 X40.8068 Y-11.3098
G01 X40.8238 Y-11.3425
G01 X40.8415 Y-11.3747
G01 X40.8696 Y-11.4223
G01 X40.8994 Y-11.4688
G01 X40.9310 Y-11.5141
G01 X40.9641 Y-11.5582
G01 X40.9989 Y-11.6011
G01 X41.0229 Y-11.6290
G01 X41.0603 Y-11.6697
G01 X41.0991 Y-11.7090
G01 X41.1393 Y-11.7468
G01 X41.1809 Y-11.7832
G01 X41.2094 Y-11.8065
G01 X41.2384 Y-11.8292
G01 X41.2829 Y-11.8618
G01 X41.3133 Y-11.8826
G01 X41.3598 Y-11.9124
G01 X41.4073 Y-11.9405
G01 X41.4558 Y-11.9669
G01 X41.4887 Y-11.9834
G01 X41.5388 Y-12.0067
G01 X41.5897 Y-12.0282
G01 X41.6413 Y-12.0477
G01 X41.6761 Y-12.0597
G01 X41.7289 Y-12.0760
G01 X41.7822 Y-12.0904
G01 X41.8360 Y-12.1029
G01 X41.8721 Y-12.1101
G01 X41.9266 Y-12.1192
G01 X41.9813 Y-12.1263
G01 X42.0180 Y-12.1299
G01 X42.0730 Y-12.1336
G01 X42.1098 Y-12.1349
G01 X42.1651 Y-12.1353
G01 X42.2203 Y-12.1336
G01 X42.2753 Y-12.1299
G01 X42.3120 Y-12.1263
G01 X42.3485 Y-12.1218
G01 X42.4031 Y-12.1133
G01 X42.4573 Y-12.1029
G01 X42.5111 Y-12.0904
G01 X42.5644 Y-12.0760
G01 X42.6172 Y-12.0597
G01 X42.6693 Y-12.0414
G01 X42.7036 Y-12.0282
G01 X42.7545 Y-12.0067
G01 X42.7880 Y-11.9914
G01 X42.8375 Y-11.9669
G01 X42.8699 Y-11.9495
G01 X42.9178 Y-11.9220
G01 X42.9646 Y-11.8927
G01 X42.9952 Y-11.8723
G01 X43.0402 Y-11.8402
G01 X43.0839 Y-11.8065
G01 X43.1264 Y-11.7712
G01 X43.1540 Y-11.7468
G01 X43.1942 Y-11.7090
G01 X43.2330 Y-11.6697
G01 X43.2704 Y-11.6290
G01 X43.3062 Y-11.5870
G01 X43.3292 Y-11.5582
G01 X43.3623 Y-11.5141
G01 X43.3939 Y-11.4688
G01 X43.4139 Y-11.4379
G01 X43.4426 Y-11.3907
G01 X43.4608 Y-11.3587
G01 X43.4865 Y-11.3098
G01 X43.5104 Y-11.2600
G01 X43.5180 Y-11.2433
G01 X43.5325 Y-11.2094
G01 X43.5527 Y-11.1580
G01 X43.5651 Y-11.1234
G01 X43.5821 Y-11.0708
G01 X43.5971 Y-11.0177
G01 X43.6102 Y-10.9641
G01 X43.6178 Y-10.9280
G01 X43.6276 Y-10.8737
G01 X43.6330 Y-10.8373
G01 X43.6394 Y-10.7824
G01 X43.6438 Y-10.7274
G01 X43.6456 Y-10.6906
G01 X43.6466 Y-10.6354
G01 X44.6466 Y-10.6354
G01 X44.6459 Y-10.5740
G01 X44.6436 Y-10.5127
G01 X44.6399 Y-10.4515
G01 X44.6346 Y-10.3904
G01 X44.6278 Y-10.3294
G01 X44.6196 Y-10.2686
G01 X44.6098 Y-10.2080
G01 X44.5924 Y-10.1176
G01 X44.5790 Y-10.0578
G01 X44.5641 Y-9.9982
G01 X44.5477 Y-9.9391
G01 X44.5299 Y-9.8804
G01 X44.5107 Y-9.8221
G01 X44.4791 Y-9.7357
G01 X44.4563 Y-9.6787
G01 X44.4322 Y-9.6223
G01 X44.4066 Y-9.5665
G01 X44.3797 Y-9.5114
G01 X44.3515 Y-9.4569
G01 X44.3219 Y-9.4032
G01 X44.2910 Y-9.3501
G01 X44.2588 Y-9.2979
G01 X44.2253 Y-9.2465
G01 X44.1906 Y-9.1959
G01 X44.1547 Y-9.1462
G01 X44.1175 Y-9.0973
G01 X44.0792 Y-9.0494
G01 X44.0195 Y-8.9794
G01 X43.9783 Y-8.9339
G01 X43.9360 Y-8.8895
G01 X43.8926 Y-8.8461
G01 X43.8482 Y-8.8038
G01 X43.7796 Y-8.7424
G01 X43.7088 Y-8.6836
G01 X43.6604 Y-8.6458
G01 X43.5862 Y-8.5914
G01 X43.5100 Y-8.5398
G01 X43.4581 Y-8.5070
G01 X43.4055 Y-8.4755
G01 X43.3251 Y-8.4306
G01 X43.2432 Y-8.3887
G01 X43.1598 Y-8.3499
G01 X43.1034 Y-8.3257
G01 X43.0177 Y-8.2921
G01 X42.9599 Y-8.2714
G01 X42.8724 Y-8.2430
G01 X42.7838 Y-8.2180
G01 X42.6944 Y-8.1961
G01 X42.6042 Y-8.1776
G01 X42.5135 Y-8.1625
G01 X42.4222 Y-8.1506
G01 X42.3611 Y-8.1446
G01 X42.2693 Y-8.1384
G01 X42.2080 Y-8.1362
G01 X42.1160 Y-8.1356
G01 X42.0240 Y-8.1384
G01 X41.9627 Y-8.1422
G01 X41.8711 Y-8.1506
G01 X41.7798 Y-8.1625
G01 X41.6891 Y-8.1776
G01 X41.5989 Y-8.1961
G01 X41.5392 Y-8.2103
G01 X41.4504 Y-8.2343
G01 X41.3624 Y-8.2616
G01 X41.3044 Y-8.2815
G01 X41.2184 Y-8.3141
G01 X41.1335 Y-8.3499
G01 X41.0501 Y-8.3887
G01 X40.9953 Y-8.4163
G01 X40.9144 Y-8.4602
G01 X40.8352 Y-8.5070
G01 X40.7833 Y-8.5398
G01 X40.7323 Y-8.5739
G01 X40.6574 Y-8.6274
G01 X40.5845 Y-8.6836
G01 X40.5137 Y-8.7424
G01 X40.4451 Y-8.8038
G01 X40.3789 Y-8.8676
G01 X40.3150 Y-8.9339
G01 X40.2738 Y-8.9794
G01 X40.2141 Y-9.0494
G01 X40.1571 Y-9.1216
G01 X40.1205 Y-9.1709
G01 X40.0680 Y-9.2465
G01 X40.0183 Y-9.3239
G01 X39.9714 Y-9.4032
G01 X39.9276 Y-9.4841
G01 X39.9000 Y-9.5389
G01 X39.8611 Y-9.6223
G01 X39.8370 Y-9.6787
G01 X39.8033 Y-9.7644
G01 X39.7728 Y-9.8512
G01 X39.7456 Y-9.9391
G01 X39.7292 Y-9.9982
G01 X39.7074 Y-10.0876
G01 X39.6947 Y-10.1477
G01 X39.6784 Y-10.2383
G01 X39.6655 Y-10.3294
G01 X39.6559 Y-10.4209
G01 X39.6514 Y-10.4821
G01 X39.6474 Y-10.5740
G01 X39.6466 Y-10.6354
G01 X39.6483 Y-10.7274
G01 X39.6514 Y-10.7887
G01 X39.6559 Y-10.8499
G01 X39.6655 Y-10.9414
G01 X39.6784 Y-11.0325
G01 X39.6947 Y-11.1231
G01 X39.7074 Y-11.1832
G01 X39.7292 Y-11.2726
G01 X39.7543 Y-11.3611
G01 X39.7826 Y-11.4487
G01 X39.8033 Y-11.5064
G01 X39.8370 Y-11.5921
G01 X39.8737 Y-11.6765
G01 X39.9136 Y-11.7594
G01 X39.9565 Y-11.8409
G01 X39.9867 Y-11.8942
G01 X40.0345 Y-11.9729
G01 X40.0680 Y-12.0243
G01 X40.1027 Y-12.0749
G01 X40.1571 Y-12.1492
G01 X40.2141 Y-12.2214
G01 X40.2738 Y-12.2914
G01 X40.3360 Y-12.3593
G01 X40.4007 Y-12.4247
G01 X40.4678 Y-12.4878
G01 X40.5137 Y-12.5284
G01 X40.5607 Y-12.5679
G01 X40.6329 Y-12.6250
G01 X40.7071 Y-12.6794
G01 X40.7833 Y-12.7310
G01 X40.8614 Y-12.7797
G01 X40.9144 Y-12.8106
G01 X40.9682 Y-12.8402
G01 X41.0501 Y-12.8821
G01 X41.1335 Y-12.9209
G01 X41.2184 Y-12.9567
G01 X41.3044 Y-12.9893
G01 X41.3624 Y-13.0092
G01 X41.4209 Y-13.0278
G01 X41.5095 Y-13.0528
G01 X41.5989 Y-13.0747
G01 X41.6891 Y-13.0932
G01 X41.7798 Y-13.1083
G01 X41.8711 Y-13.1202
G01 X41.9627 Y-13.1286
G01 X42.0240 Y-13.1324
G01 X42.1160 Y-13.1352
G01 X42.2080 Y-13.1346
G01 X42.2693 Y-13.1324
G01 X42.3611 Y-13.1262
G01 X42.4527 Y-13.1166
G01 X42.5438 Y-13.1037
G01 X42.6344 Y-13.0874
G01 X42.6944 Y-13.0747
G01 X42.7838 Y-13.0528
G01 X42.8724 Y-13.0278
G01 X42.9309 Y-13.0092
G01 X43.0177 Y-12.9787
G01 X43.0749 Y-12.9567
G01 X43.1316 Y-12.9332
G01 X43.1877 Y-12.9083
G01 X43.2432 Y-12.8821
G01 X43.2980 Y-12.8545
G01 X43.3521 Y-12.8256
G01 X43.4055 Y-12.7953
G01 X43.4841 Y-12.7475
G01 X43.5610 Y-12.6969
G01 X43.6111 Y-12.6615
G01 X43.6604 Y-12.6250
G01 X43.7088 Y-12.5872
G01 X43.7562 Y-12.5483
G01 X43.8255 Y-12.4878
G01 X43.8705 Y-12.4460
G01 X43.9144 Y-12.4032
G01 X43.9573 Y-12.3593
G01 X43.9990 Y-12.3143
G01 X44.0397 Y-12.2683
G01 X44.0792 Y-12.2214
G01 X44.1175 Y-12.1735
G01 X44.1547 Y-12.1246
G01 X44.2081 Y-12.0497
G01 X44.2422 Y-11.9987
G01 X44.2750 Y-11.9469
G01 X44.3219 Y-11.8676
G01 X44.3368 Y-11.8409
G01 X44.3515 Y-11.8139
G01 X44.3797 Y-11.7594
G01 X44.4066 Y-11.7043
G01 X44.4322 Y-11.6485
G01 X44.4563 Y-11.5921
G01 X44.4900 Y-11.5064
G01 X44.5107 Y-11.4487
G01 X44.5299 Y-11.3904
G01 X44.5477 Y-11.3317
G01 X44.5641 Y-11.2726
G01 X44.5790 Y-11.2130
G01 X44.5924 Y-11.1532
G01 X44.6098 Y-11.0628
G01 X44.6239 Y-10.9719
G01 X44.6314 Y-10.9110
G01 X44.6374 Y-10.8499
G01 X44.6419 Y-10.7887
G01 X44.6450 Y-10.7274
G01 X44.6466 Y-10.6354
G01 X45.1481 Y-8.8350
G01 X45.1264 Y-8.7993
G01 X45.1036 Y-8.7629
G01 X45.0568 Y-8.6909
G01 X45.0082 Y-8.6201
G01 X44.9579 Y-8.5505
G01 X44.9059 Y-8.4821
G01 X44.8522 Y-8.4150
G01 X44.7969 Y-8.3493
G01 X44.7400 Y-8.2849
G01 X44.6815 Y-8.2220
G01 X44.6215 Y-8.1605
G01 X44.5600 Y-8.1005
G01 X44.4971 Y-8.0421
G01 X44.4328 Y-7.9852
G01 X44.3670 Y-7.9299
G01 X44.3000 Y-7.8762
G01 X44.2316 Y-7.8242
G01 X44.1620 Y-7.7739
G01 X44.0911 Y-7.7253
G01 X44.0191 Y-7.6784
G01 X43.9460 Y-7.6333
G01 X43.8718 Y-7.5901
G01 X43.7965 Y-7.5487
G01 X43.7203 Y-7.5091
G01 X43.6818 Y-7.4900
G01 X43.6510 Y-7.4752
G01 X40.6423 Y-7.4752
G01 X40.6115 Y-7.4900
G01 X40.5730 Y-7.5091
G01 X40.5348 Y-7.5287
G01 X40.4968 Y-7.5487
G01 X40.4215 Y-7.5901
G01 X40.3843 Y-7.6115
G01 X40.3106 Y-7.6557
G01 X40.2380 Y-7.7016
G01 X40.2022 Y-7.7253
G01 X40.1313 Y-7.7739
G01 X40.0964 Y-7.7988
G01 X40.0617 Y-7.8242
G01 X39.9933 Y-7.8762
G01 X39.9596 Y-7.9028
G01 X39.8932 Y-7.9573
G01 X39.8282 Y-8.0134
G01 X39.7962 Y-8.0421
G01 X39.7645 Y-8.0711
G01 X39.7023 Y-8.1303
G01 X39.6416 Y-8.1911
G01 X39.6118 Y-8.2220
G01 X39.5824 Y-8.2533
G01 X39.5247 Y-8.3169
G01 X39.4964 Y-8.3493
G01 X39.4411 Y-8.4150
G01 X39.4141 Y-8.4484
G01 X39.3612 Y-8.5161
G01 X39.3354 Y-8.5505
G01 X39.2851 Y-8.6201
G01 X39.2365 Y-8.6909
G01 X39.2129 Y-8.7268
G01 X39.1897 Y-8.7629
G01 X39.1669 Y-8.7993
G01 X39.1452 Y-8.8350
G00 Z2.0000
G00 X64.5452 Y-11.4900
G01 F70.00
G01 Z-0.0800
G01 F120.00
G01 X64.5791 Y-11.4207
G01 X64.6187 Y-11.3444
G01 X64.6601 Y-11.2692
G01 X64.7033 Y-11.1950
G01 X64.7257 Y-11.1583
G01 X64.7716 Y-11.0857
G01 X64.8193 Y-11.0143
G01 X64.8688 Y-10.9440
G01 X64.8942 Y-10.9094
G01 X64.9462 Y-10.8410
G01 X64.9999 Y-10.7740
G01 X65.0552 Y-10.7082
G01 X65.1121 Y-10.6439
G01 X65.1411 Y-10.6122
G01 X65.2003 Y-10.5500
G01 X65.2588 Y-10.4915
G01 X68.2054 Y-12.9943
G01 X68.2045 Y-13.0250
G01 X68.2016 Y-13.0555
G01 X68.1958 Y-13.0919
G01 X68.1889 Y-13.1218
G01 X68.1802 Y-13.1512
G01 X68.1673 Y-13.1857
G01 X68.1520 Y-13.2191
G01 X68.1374 Y-13.2461
G01 X68.1211 Y-13.2721
G01 X68.0996 Y-13.3019
G01 X68.0759 Y-13.3301
G01 X68.0546 Y-13.3522
G01 X68.0320 Y-13.3729
G01 X68.0032 Y-13.3959
G01 X67.9729 Y-13.4168
G01 X67.9465 Y-13.4324
G01 X67.9136 Y-13.4489
G01 X67.8853 Y-13.4608
G01 X67.8505 Y-13.4728
G01 X67.8209 Y-13.4808
G01 X67.7848 Y-13.4880
G01 X67.7544 Y-13.4919
G01 X67.7238 Y-13.4940
G01 X67.6870 Y-13.4940
G01 X67.6503 Y-13.4913
G01 X67.6199 Y-13.4870
G01 X67.5839 Y-13.4793
G01 X67.5544 Y-13.4710
G01 X67.5255 Y-13.4608
G01 X67.4972 Y-13.4489
G01 X67.4697 Y-13.4353
G01 X67.4379 Y-13.4168
G01 X67.4076 Y-13.3959
G01 X67.3788 Y-13.3729
G01 X67.3518 Y-13.3479
G01 X67.3268 Y-13.3209
G01 X67.3038 Y-13.2922
G01 X67.2830 Y-13.2618
G01 X67.2644 Y-13.2300
G01 X67.2508 Y-13.2025
G01 X67.2367 Y-13.1685
G01 X67.2252 Y-13.1336
G01 X67.2162 Y-13.0979
G01 X67.2099 Y-13.0616
G01 X67.2063 Y-13.0250
G01 X67.2054 Y-12.9882
G01 X67.2072 Y-12.9514
G01 X67.2117 Y-12.9149
G01 X67.2189 Y-12.8788
G01 X67.2287 Y-12.8433
G01 X67.2411 Y-12.8087
G01 X67.2561 Y-12.7750
G01 X67.2734 Y-12.7426
G01 X67.2931 Y-12.7115
G01 X67.3150 Y-12.6819
G01 X67.3391 Y-12.6540
G01 X67.3651 Y-12.6280
G01 X67.3930 Y-12.6040
G01 X67.4225 Y-12.5820
G01 X67.4536 Y-12.5623
G01 X67.4861 Y-12.5450
G01 X67.5197 Y-12.5301
G01 X67.5544 Y-12.5177
G01 X67.5899 Y-12.5079
G01 X67.6199 Y-12.5017
G01 X67.6260 Y-12.5007
G01 X67.6320 Y-12.4997
G01 X67.6442 Y-12.4981
G01 X67.6747 Y-12.4953
G01 X67.6993 Y-12.4944
G01 X67.7238 Y-12.4947
G01 X67.7544 Y-12.4967
G01 X67.7788 Y-12.4997
G01 X67.8090 Y-12.5052
G01 X67.8328 Y-12.5108
G01 X67.8622 Y-12.5196
G01 X67.8853 Y-12.5278
G01 X67.9136 Y-12.5397
G01 X67.9357 Y-12.5505
G01 X67.9625 Y-12.5655
G01 X67.9883 Y-12.5820
G01 X68.0130 Y-12.6002
G01 X68.0366 Y-12.6198
G01 X68.0590 Y-12.6408
G01 X68.0759 Y-12.6585
G01 X68.0958 Y-12.6819
G01 X68.1142 Y-12.7064
G01 X68.1278 Y-12.7268
G01 X68.1404 Y-12.7479
G01 X68.1547 Y-12.7750
G01 X68.1673 Y-12.8030
G01 X68.1762 Y-12.8259
G01 X68.1856 Y-12.8551
G01 X68.1933 Y-12.8848
G01 X68.1991 Y-12.9149
G01 X68.2024 Y-12.9392
G01 X68.2048 Y-12.9698
G01 X68.2054 Y-12.9943
G01 X69.2054 Y-12.9943
G01 X69.2044 Y-13.0495
G01 X69.2026 Y-13.0863
G01 X69.1963 Y-13.1597
G01 X69.1918 Y-13.1962
G01 X69.1833 Y-13.2508
G01 X69.1729 Y-13.3050
G01 X69.1648 Y-13.3409
G01 X69.1511 Y-13.3944
G01 X69.1408 Y-13.4298
G01 X69.1177 Y-13.4997
G01 X69.1049 Y-13.5342
G01 X69.0841 Y-13.5853
G01 X69.0692 Y-13.6190
G01 X69.0452 Y-13.6687
G01 X69.0105 Y-13.7337
G01 X68.9920 Y-13.7655
G01 X68.9627 Y-13.8123
G01 X68.9211 Y-13.8730
G01 X68.8992 Y-13.9026
G01 X68.8649 Y-13.9459
G01 X68.8291 Y-13.9880
G01 X68.8044 Y-14.0152
G01 X68.7790 Y-14.0419
G01 X68.7397 Y-14.0807
G01 X68.6852 Y-14.1301
G01 X68.6427 Y-14.1654
G01 X68.6137 Y-14.1881
G01 X68.5540 Y-14.2312
G01 X68.5079 Y-14.2616
G01 X68.4766 Y-14.2809
G01 X68.4447 Y-14.2995
G01 X68.3962 Y-14.3258
G01 X68.3633 Y-14.3423
G01 X68.3133 Y-14.3656
G01 X68.2452 Y-14.3938
G01 X68.2107 Y-14.4066
G01 X68.1584 Y-14.4243
G01 X68.1055 Y-14.4400
G01 X68.0699 Y-14.4494
G01 X67.9980 Y-14.4655
G01 X67.9255 Y-14.4781
G01 X67.8890 Y-14.4830
G01 X67.8341 Y-14.4888
G01 X67.7790 Y-14.4925
G01 X67.7422 Y-14.4939
G01 X67.6870 Y-14.4942
G01 X67.6502 Y-14.4933
G01 X67.5951 Y-14.4903
G01 X67.5584 Y-14.4871
G01 X67.4853 Y-14.4781
G01 X67.4308 Y-14.4690
G01 X67.3947 Y-14.4618
G01 X67.3231 Y-14.4448
G01 X67.2700 Y-14.4297
G01 X67.2174 Y-14.4127
G01 X67.1484 Y-14.3871
G01 X67.0975 Y-14.3656
G01 X67.0475 Y-14.3423
G01 X66.9983 Y-14.3172
G01 X66.9501 Y-14.2903
G01 X66.9029 Y-14.2616
G01 X66.8568 Y-14.2312
G01 X66.8119 Y-14.1991
G01 X66.7681 Y-14.1654
G01 X66.7256 Y-14.1301
G01 X66.6845 Y-14.0933
G01 X66.6447 Y-14.0550
G01 X66.6064 Y-14.0152
G01 X66.5696 Y-13.9741
G01 X66.5343 Y-13.9316
G01 X66.5006 Y-13.8879
G01 X66.4685 Y-13.8429
G01 X66.4381 Y-13.7968
G01 X66.4094 Y-13.7496
G01 X66.3825 Y-13.7014
G01 X66.3574 Y-13.6523
G01 X66.3267 Y-13.5853
G01 X66.3059 Y-13.5342
G01 X66.2870 Y-13.4823
G01 X66.2700 Y-13.4298
G01 X66.2549 Y-13.3766
G01 X66.2418 Y-13.3230
G01 X66.2307 Y-13.2689
G01 X66.2216 Y-13.2144
G01 X66.2145 Y-13.1597
G01 X66.2095 Y-13.1047
G01 X66.2064 Y-13.0495
G01 X66.2054 Y-12.9943
G01 X66.2064 Y-12.9391
G01 X66.2095 Y-12.8840
G01 X66.2145 Y-12.8290
G01 X66.2216 Y-12.7742
G01 X66.2307 Y-12.7198
G01 X66.2418 Y-12.6657
G01 X66.2549 Y-12.6120
G01 X66.2700 Y-12.5589
G01 X66.2870 Y-12.5064
G01 X66.3059 Y-12.4545
G01 X66.3267 Y-12.4033
G01 X66.3574 Y-12.3364
G01 X66.3825 Y-12.2872
G01 X66.4094 Y-12.2390
G01 X66.4381 Y-12.1918
G01 X66.4685 Y-12.1457
G01 X66.5006 Y-12.1008
G01 X66.5343 Y-12.0570
G01 X66.5696 Y-12.0146
G01 X66.6190 Y-11.9600
G01 X66.6578 Y-11.9207
G01 X66.6981 Y-11.8829
G01 X66.7397 Y-11.8466
G01 X66.7826 Y-11.8118
G01 X66.7971 Y-11.8006
G01 X66.8119 Y-11.7895
G01 X66.8267 Y-11.7786
G01 X66.8720 Y-11.7471
G01 X66.9185 Y-11.7173
G01 X66.9661 Y-11.6892
G01 X67.0310 Y-11.6545
G01 X67.0975 Y-11.6230
G01 X67.1314 Y-11.6085
G01 X67.1828 Y-11.5883
G01 X67.2524 Y-11.5644
G01 X67.2876 Y-11.5537
G01 X67.3409 Y-11.5393
G01 X67.4128 Y-11.5231
G01 X67.4853 Y-11.5106
G01 X67.5401 Y-11.5035
G01 X67.5767 Y-11.4999
G01 X67.6502 Y-11.4953
G01 X67.6870 Y-11.4944
G01 X67.7422 Y-11.4948
G01 X67.8157 Y-11.4984
G01 X67.8707 Y-11.5035
G01 X67.9073 Y-11.5080
G01 X67.9800 Y-11.5197
G01 X68.0520 Y-11.5349
G01 X68.0877 Y-11.5439
G01 X68.1408 Y-11.5589
G01 X68.1759 Y-11.5700
G01 X68.2280 Y-11.5883
G01 X68.2964 Y-11.6157
G01 X68.3467 Y-11.6383
G01 X68.3962 Y-11.6629
G01 X68.4447 Y-11.6892
G01 X68.4923 Y-11.7173
G01 X68.5388 Y-11.7471
G01 X68.5841 Y-11.7786
G01 X68.6282 Y-11.8118
G01 X68.6711 Y-11.8466
G01 X68.7127 Y-11.8829
G01 X68.7530 Y-11.9207
G01 X68.7918 Y-11.9600
G01 X68.8291 Y-12.0007
G01 X68.8649 Y-12.0427
G01 X68.8992 Y-12.0861
G01 X68.9318 Y-12.1306
G01 X68.9627 Y-12.1763
G01 X68.9920 Y-12.2232
G01 X69.0195 Y-12.2711
G01 X69.0452 Y-12.3199
G01 X69.0692 Y-12.3697
G01 X69.0912 Y-12.4203
G01 X69.1114 Y-12.4717
G01 X69.1297 Y-12.5238
G01 X69.1460 Y-12.5765
G01 X69.1604 Y-12.6299
G01 X69.1729 Y-12.6837
G01 X69.1833 Y-12.7379
G01 X69.1918 Y-12.7925
G01 X69.1982 Y-12.8473
G01 X69.2013 Y-12.8840
G01 X69.2044 Y-12.9391
G01 X69.2054 Y-12.9943
G01 X70.2054 Y-12.9943
G01 X70.2037 Y-13.0863
G01 X70.2007 Y-13.1476
G01 X70.1934 Y-13.2394
G01 X70.1866 Y-13.3004
G01 X70.1737 Y-13.3915
G01 X70.1632 Y-13.4519
G01 X70.1447 Y-13.5421
G01 X70.1228 Y-13.6315
G01 X70.0978 Y-13.7200
G01 X70.0792 Y-13.7785
G01 X70.0487 Y-13.8654
G01 X70.0267 Y-13.9226
G01 X70.0032 Y-13.9793
G01 X69.9654 Y-14.0632
G01 X69.9385 Y-14.1184
G01 X69.8956 Y-14.1998
G01 X69.8653 Y-14.2532
G01 X69.8175 Y-14.3318
G01 X69.7841 Y-14.3833
G01 X69.7315 Y-14.4588
G01 X69.6763 Y-14.5324
G01 X69.6379 Y-14.5803
G01 X69.5984 Y-14.6273
G01 X69.5370 Y-14.6958
G01 X69.4947 Y-14.7403
G01 X69.4293 Y-14.8049
G01 X69.3614 Y-14.8672
G01 X69.3150 Y-14.9072
G01 X69.2435 Y-14.9652
G01 X69.1699 Y-15.0205
G01 X69.1197 Y-15.0558
G01 X69.0429 Y-15.1065
G01 X68.9642 Y-15.1543
G01 X68.8839 Y-15.1991
G01 X68.8019 Y-15.2410
G01 X68.7465 Y-15.2672
G01 X68.6621 Y-15.3040
G01 X68.6051 Y-15.3268
G01 X68.5476 Y-15.3482
G01 X68.4604 Y-15.3776
G01 X68.4017 Y-15.3954
G01 X68.3129 Y-15.4194
G01 X68.2532 Y-15.4336
G01 X68.1630 Y-15.4521
G01 X68.0722 Y-15.4673
G01 X68.0114 Y-15.4755
G01 X67.9504 Y-15.4823
G01 X67.8587 Y-15.4896
G01 X67.7668 Y-15.4936
G01 X67.7054 Y-15.4943
G01 X67.6134 Y-15.4926
G01 X67.5215 Y-15.4876
G01 X67.4298 Y-15.4791
G01 X67.3689 Y-15.4716
G01 X67.2780 Y-15.4575
G01 X67.2177 Y-15.4463
G01 X67.1278 Y-15.4267
G01 X67.0682 Y-15.4118
G01 X66.9797 Y-15.3867
G01 X66.9212 Y-15.3681
G01 X66.8344 Y-15.3377
G01 X66.7771 Y-15.3156
G01 X66.7204 Y-15.2921
G01 X66.6365 Y-15.2543
G01 X66.5814 Y-15.2274
G01 X66.5269 Y-15.1991
G01 X66.4466 Y-15.1543
G01 X66.3679 Y-15.1065
G01 X66.2911 Y-15.0558
G01 X66.2409 Y-15.0205
G01 X66.1916 Y-14.9839
G01 X66.1194 Y-14.9269
G01 X66.0494 Y-14.8672
G01 X65.9815 Y-14.8049
G01 X65.9161 Y-14.7403
G01 X65.8530 Y-14.6732
G01 X65.8124 Y-14.6273
G01 X65.7729 Y-14.5803
G01 X65.7158 Y-14.5081
G01 X65.6614 Y-14.4338
G01 X65.6098 Y-14.3576
G01 X65.5611 Y-14.2796
G01 X65.5152 Y-14.1998
G01 X65.4723 Y-14.1184
G01 X65.4454 Y-14.0632
G01 X65.4199 Y-14.0074
G01 X65.3841 Y-13.9226
G01 X65.3515 Y-13.8366
G01 X65.3221 Y-13.7493
G01 X65.2960 Y-13.6611
G01 X65.2731 Y-13.5720
G01 X65.2596 Y-13.5121
G01 X65.2476 Y-13.4519
G01 X65.2371 Y-13.3915
G01 X65.2281 Y-13.3308
G01 X65.2174 Y-13.2394
G01 X65.2101 Y-13.1476
G01 X65.2062 Y-13.0557
G01 X65.2056 Y-12.9636
G01 X65.2084 Y-12.8717
G01 X65.2122 Y-12.8104
G01 X65.2174 Y-12.7493
G01 X65.2281 Y-12.6579
G01 X65.2422 Y-12.5669
G01 X65.2534 Y-12.5066
G01 X65.2661 Y-12.4466
G01 X65.2880 Y-12.3572
G01 X65.3130 Y-12.2686
G01 X65.3414 Y-12.1811
G01 X65.3621 Y-12.1233
G01 X65.3841 Y-12.0660
G01 X65.4199 Y-11.9812
G01 X65.4587 Y-11.8978
G01 X65.5006 Y-11.8158
G01 X65.5455 Y-11.7355
G01 X65.5933 Y-11.6568
G01 X65.6267 Y-11.6054
G01 X65.6614 Y-11.5548
G01 X65.7158 Y-11.4805
G01 X65.7729 Y-11.4083
G01 X65.8326 Y-11.3383
G01 X65.8738 Y-11.2928
G01 X65.9161 Y-11.2484
G01 X65.9815 Y-11.1837
G01 X66.0039 Y-11.1627
G01 X66.0265 Y-11.1419
G01 X66.0494 Y-11.1215
G01 X66.0958 Y-11.0814
G01 X66.1433 Y-11.0425
G01 X66.2162 Y-10.9863
G01 X66.2911 Y-10.9329
G01 X66.3421 Y-10.8988
G01 X66.3939 Y-10.8659
G01 X66.4732 Y-10.8191
G01 X66.5541 Y-10.7752
G01 X66.6089 Y-10.7476
G01 X66.6643 Y-10.7214
G01 X66.7487 Y-10.6846
G01 X66.8344 Y-10.6510
G01 X66.9212 Y-10.6205
G01 X67.0091 Y-10.5933
G01 X67.0979 Y-10.5692
G01 X67.1876 Y-10.5485
G01 X67.2780 Y-10.5311
G01 X67.3689 Y-10.5171
G01 X67.4298 Y-10.5096
G01 X67.5215 Y-10.5011
G01 X67.5827 Y-10.4973
G01 X67.6440 Y-10.4951
G01 X67.7361 Y-10.4945
G01 X67.8281 Y-10.4973
G01 X67.8893 Y-10.5011
G01 X67.9504 Y-10.5064
G01 X68.0419 Y-10.5171
G01 X68.1328 Y-10.5311
G01 X68.2232 Y-10.5485
G01 X68.2830 Y-10.5620
G01 X68.3722 Y-10.5849
G01 X68.4604 Y-10.6111
G01 X68.5187 Y-10.6303
G01 X68.6051 Y-10.6618
G01 X68.6621 Y-10.6846
G01 X68.7465 Y-10.7214
G01 X68.8019 Y-10.7476
G01 X68.8839 Y-10.7895
G01 X68.9376 Y-10.8191
G01 X68.9907 Y-10.8500
G01 X69.0687 Y-10.8988
G01 X69.1449 Y-10.9504
G01 X69.1946 Y-10.9863
G01 X69.2675 Y-11.0425
G01 X69.3150 Y-11.0814
G01 X69.3843 Y-11.1419
G01 X69.4513 Y-11.2050
G01 X69.5160 Y-11.2705
G01 X69.5578 Y-11.3154
G01 X69.5984 Y-11.3614
G01 X69.6379 Y-11.4083
G01 X69.6950 Y-11.4805
G01 X69.7315 Y-11.5298
G01 X69.7669 Y-11.5800
G01 X69.8175 Y-11.6568
G01 X69.8497 Y-11.7091
G01 X69.8806 Y-11.7621
G01 X69.9245 Y-11.8430
G01 X69.9654 Y-11.9254
G01 X69.9909 Y-11.9812
G01 X70.0151 Y-12.0376
G01 X70.0379 Y-12.0946
G01 X70.0593 Y-12.1521
G01 X70.0792 Y-12.2101
G01 X70.0978 Y-12.2686
G01 X70.1148 Y-12.3275
G01 X70.1305 Y-12.3869
G01 X70.1447 Y-12.4466
G01 X70.1574 Y-12.5066
G01 X70.1686 Y-12.5669
G01 X70.1783 Y-12.6275
G01 X70.1866 Y-12.6883
G01 X70.1934 Y-12.7493
G01 X70.1986 Y-12.8104
G01 X70.2024 Y-12.8717
G01 X70.2046 Y-12.9330
G01 X70.2054 Y-12.9943
G01 X70.8656 Y-14.4987
G01 X70.8121 Y-14.6062
G01 X70.7921 Y-14.6442
G01 X70.7507 Y-14.7195
G01 X70.7293 Y-14.7567
G01 X70.6851 Y-14.8304
G01 X70.6392 Y-14.9030
G01 X70.6155 Y-14.9388
G01 X70.5669 Y-15.0097
G01 X70.5420 Y-15.0446
G01 X70.5166 Y-15.0793
G01 X70.4646 Y-15.1476
G01 X70.4109 Y-15.2147
G01 X70.3556 Y-15.2804
G01 X70.3274 Y-15.3128
G01 X70.2697 Y-15.3764
G01 X70.2105 Y-15.4386
G01 X70.1803 Y-15.4692
G01 X70.1497 Y-15.4994
G01 X70.0875 Y-15.5586
G01 X70.0559 Y-15.5877
G01 X69.9915 Y-15.6446
G01 X69.9588 Y-15.6724
G01 X69.8924 Y-15.7269
G01 X69.8247 Y-15.7798
G01 X69.7903 Y-15.8056
G01 X69.7557 Y-15.8309
G01 X69.6855 Y-15.8804
G01 X69.6499 Y-15.9045
G01 X69.5779 Y-15.9513
G01 X69.5048 Y-15.9964
G01 X69.4678 Y-16.0182
G01 X69.4305 Y-16.0396
G01 X69.3553 Y-16.0811
G01 X69.3173 Y-16.1011
G01 X69.2406 Y-16.1397
G01 X69.1629 Y-16.1764
G01 X69.1237 Y-16.1941
G01 X69.0844 Y-16.2112
G01 X69.0050 Y-16.2441
G01 X68.9249 Y-16.2750
G01 X68.8440 Y-16.3040
G01 X68.8033 Y-16.3177
G01 X68.7624 Y-16.3309
G01 X68.6802 Y-16.3558
G01 X68.5974 Y-16.3787
G01 X68.5558 Y-16.3894
G01 X68.4723 Y-16.4093
G01 X68.4303 Y-16.4184
G01 X68.3882 Y-16.4271
G01 X68.3038 Y-16.4428
G01 X68.2190 Y-16.4564
G01 X68.1764 Y-16.4625
G01 X68.1338 Y-16.4680
G01 X68.0485 Y-16.4775
G01 X68.0057 Y-16.4814
G01 X67.9200 Y-16.4877
G01 X67.8342 Y-16.4920
G01 X67.7484 Y-16.4941
G01 X67.7054 Y-16.4943
G01 X67.6195 Y-16.4933
G01 X67.5766 Y-16.4920
G01 X67.5337 Y-16.4901
G01 X67.4479 Y-16.4848
G01 X67.4051 Y-16.4814
G01 X67.3196 Y-16.4730
G01 X67.2344 Y-16.4625
G01 X67.1494 Y-16.4499
G01 X67.1070 Y-16.4428
G01 X67.0648 Y-16.4352
G01 X66.9805 Y-16.4184
G01 X66.9385 Y-16.4093
G01 X66.8550 Y-16.3894
G01 X66.7719 Y-16.3675
G01 X66.7306 Y-16.3558
G01 X66.6484 Y-16.3309
G01 X66.6075 Y-16.3177
G01 X66.5668 Y-16.3040
G01 X66.4859 Y-16.2750
G01 X66.4458 Y-16.2598
G01 X66.3660 Y-16.2279
G01 X66.2871 Y-16.1941
G01 X66.2479 Y-16.1764
G01 X66.1702 Y-16.1397
G01 X66.1318 Y-16.1206
G01 X66.0555 Y-16.0811
G01 X66.0178 Y-16.0606
G01 X65.9430 Y-16.0182
G01 X65.8693 Y-15.9741
G01 X65.8329 Y-15.9513
G01 X65.7968 Y-15.9281
G01 X65.7253 Y-15.8804
G01 X65.6901 Y-15.8559
G01 X65.6205 Y-15.8056
G01 X65.5521 Y-15.7535
G01 X65.5184 Y-15.7269
G01 X65.4850 Y-15.6999
G01 X65.4193 Y-15.6446
G01 X65.3869 Y-15.6163
G01 X65.3233 Y-15.5586
G01 X65.2611 Y-15.4994
G01 X65.2305 Y-15.4692
G01 X65.2003 Y-15.4386
G01 X65.1411 Y-15.3764
G01 X65.0834 Y-15.3128
G01 X65.0552 Y-15.2804
G01 X64.9999 Y-15.2147
G01 X64.9462 Y-15.1476
G01 X64.9200 Y-15.1136
G01 X64.8942 Y-15.0793
G01 X64.8439 Y-15.0097
G01 X64.7953 Y-14.9388
G01 X64.7484 Y-14.8668
G01 X64.7257 Y-14.8304
G01 X64.6815 Y-14.7567
G01 X64.6601 Y-14.7195
G01 X64.6187 Y-14.6442
G01 X64.5987 Y-14.6062
G01 X64.5452 Y-14.4987
G00 Z2.0000
G00 X64.4148 Y-15.8537
G01 F70.00
G01 Z-0.0800
G01 F120.00
G01 X64.4439 Y-15.7985
G01 X64.4691 Y-15.7425
G01 X64.4908 Y-15.6852
G01 X64.5090 Y-15.6266
G01 X64.5235 Y-15.5670
G01 X64.5344 Y-15.5066
G01 X64.5415 Y-15.4457
G01 X64.5449 Y-15.3844
G01 X64.5452 Y-10.4915
G01 X69.2837 Y-10.4914
G01 X69.3450 Y-10.4888
G01 X69.4060 Y-10.4824
G01 X69.4665 Y-10.4723
G01 X69.5025 Y-10.4645
G01 X69.5336 Y-10.4565
G01 X69.6081 Y-10.4888
G01 X69.6722 Y-10.5135
G01 X69.7069 Y-10.5257
G01 X69.7605 Y-10.5434
G01 X69.7958 Y-10.5538
G01 X69.8621 Y-10.5719
G01 X69.9291 Y-10.5872
G01 X69.9652 Y-10.5946
G01 X70.0329 Y-10.6064
G01 X70.1254 Y-10.6184
G01 X70.2183 Y-10.6258
G01 X70.3115 Y-10.6287
G01 X70.3925 Y-10.6274
G01 X70.4415 Y-10.6250
G01 X70.5100 Y-10.6197
G01 X70.6026 Y-10.6082
G01 X70.6824 Y-10.5946
G01 X70.7185 Y-10.5872
G01 X70.7855 Y-10.5719
G01 X70.8656 Y-10.5499
G01 X70.8656 Y-16.4944
G01 X64.4203 Y-16.4944
G01 X64.4277 Y-16.4445
G01 X64.4346 Y-16.3884
G01 X64.4380 Y-16.3518
G01 X64.4432 Y-16.2710
G01 X64.4449 Y-16.1777
G01 X64.4427 Y-16.0968
G01 X64.4359 Y-16.0038
G01 X64.4262 Y-15.9234
G01 X64.4148 Y-15.8537
G00 Z2.0000
G00 X64.4425 Y-16.0932
G01 F70.00
G01 Z-0.0800
G01 F120.00
G01 X64.5234 Y-16.1763
G01 X64.5627 Y-16.2151
G01 X64.6427 Y-16.2913
G01 X64.7245 Y-16.3654
G01 X64.7661 Y-16.4018
G01 X64.8082 Y-16.4376
G01 X64.8772 Y-16.4944
G01 X70.5336 Y-16.4944
G01 X70.6026 Y-16.4376
G01 X70.6447 Y-16.4018
G01 X70.6863 Y-16.3654
G01 X70.7681 Y-16.2913
G01 X70.8083 Y-16.2534
G01 X70.8656 Y-16.1978
G01 X70.8656 Y-11.4900
G01 X70.8121 Y-11.3824
G01 X70.7921 Y-11.3444
G01 X70.7507 Y-11.2692
G01 X70.7075 Y-11.1950
G01 X70.6851 Y-11.1583
G01 X70.6624 Y-11.1218
G01 X70.6155 Y-11.0498
G01 X70.5669 Y-10.9790
G01 X70.5420 Y-10.9440
G01 X70.5166 Y-10.9094
G01 X70.4646 Y-10.8410
G01 X70.4380 Y-10.8073
G01 X70.3835 Y-10.7409
G01 X70.3274 Y-10.6759
G01 X70.2843 Y-10.6281
G00 Z2.0000
G00 X66.2842 Y-4.9790
G01 F70.00
G01 Z-0.0800
G01 F120.00
G01 X66.2600 Y-4.9748
G01 X66.2361 Y-4.9694
G01 X66.2124 Y-4.9629
G01 X66.1892 Y-4.9552
G01 X66.1663 Y-4.9464
G01 X66.1439 Y-4.9364
G01 X66.1219 Y-4.9254
G01 X66.1006 Y-4.9133
G01 X66.0799 Y-4.9002
G01 X66.0598 Y-4.8861
G01 X66.0405 Y-4.8710
G01 X66.0219 Y-4.8550
G01 X66.0042 Y-4.8380
G01 X65.9872 Y-4.8203
G01 X65.9712 Y-4.8017
G01 X65.9561 Y-4.7824
G01 X65.9420 Y-4.7623
G01 X65.9289 Y-4.7416
G01 X65.9168 Y-4.7203
G01 X65.9058 Y-4.6983
G01 X65.8958 Y-4.6759
G01 X65.8870 Y-4.6530
G01 X65.8793 Y-4.6298
G01 X65.8728 Y-4.6061
G01 X65.8674 Y-4.5822
G01 X65.8632 Y-4.5580
G01 X65.8602 Y-4.5337
G01 X65.8584 Y-4.5092
G01 X65.8578 Y-4.4847
G01 X65.8584 Y-4.4602
G01 X65.8602 Y-4.4357
G01 X65.8632 Y-4.4114
G01 X65.8674 Y-4.3872
G01 X65.8728 Y-4.3633
G01 X65.8793 Y-4.3396
G01 X65.8870 Y-4.3164
G01 X65.8958 Y-4.2935
G01 X65.9058 Y-4.2711
G01 X65.9168 Y-4.2491
G01 X65.9289 Y-4.2278
G01 X65.9420 Y-4.2071
G01 X65.9561 Y-4.1870
G01 X65.9712 Y-4.1677
G01 X65.9872 Y-4.1491
G01 X66.0042 Y-4.1314
G01 X66.0219 Y-4.1144
G01 X66.0405 Y-4.0984
G01 X66.0598 Y-4.0833
G01 X66.0799 Y-4.0692
G01 X66.1006 Y-4.0561
G01 X66.1219 Y-4.0440
G01 X66.1439 Y-4.0330
G01 X66.1663 Y-4.0230
G01 X66.1892 Y-4.0142
G01 X66.2124 Y-4.0065
G01 X66.2361 Y-4.0000
G01 X66.2600 Y-3.9946
G01 X66.2842 Y-3.9904
G01 X66.3085 Y-3.9874
G01 X66.3330 Y-3.9856
G01 X66.3575 Y-3.9850
G01 X66.3820 Y-3.9856
G01 X66.4065 Y-3.9874
G01 X66.4308 Y-3.9904
G01 X66.4550 Y-3.9946
G01 X66.4789 Y-4.0000
G01 X66.5026 Y-4.0065
G01 X66.5258 Y-4.0142
G01 X66.5487 Y-4.0230
G01 X66.5711 Y-4.0330
G01 X66.5931 Y-4.0440
G01 X66.6144 Y-4.0561
G01 X66.6351 Y-4.0692
G01 X66.6552 Y-4.0833
G01 X66.6745 Y-4.0984
G01 X66.6931 Y-4.1144
G01 X66.7108 Y-4.1314
G01 X66.7278 Y-4.1491
G01 X66.7438 Y-4.1677
G01 X66.7589 Y-4.1870
G01 X66.7730 Y-4.2071
G01 X66.7861 Y-4.2278
G01 X66.7982 Y-4.2491
G01 X66.8092 Y-4.2711
G01 X66.8192 Y-4.2935
G01 X66.8280 Y-4.3164
G01 X66.8357 Y-4.3396
G01 X66.8422 Y-4.3633
G01 X66.8476 Y-4.3872
G01 X66.8518 Y-4.4114
G01 X66.8548 Y-4.4357
G01 X66.8566 Y-4.4602
G01 X66.8572 Y-4.4847
G01 X66.8566 Y-4.5092
G01 X66.8548 Y-4.5337
G01 X66.8518 Y-4.5580
G01 X66.8476 Y-4.5822
G01 X66.8422 Y-4.6061
G01 X66.8357 Y-4.6298
G01 X66.8280 Y-4.6530
G01 X66.8192 Y-4.6759
G01 X66.8092 Y-4.6983
G01 X66.7982 Y-4.7203
G01 X66.7861 Y-4.7416
G01 X66.7730 Y-4.7623
G01 X66.7589 Y-4.7824
G01 X66.7438 Y-4.8017
G01 X66.7278 Y-4.8203
G01 X66.7108 Y-4.8380
G01 X66.6931 Y-4.8550
G01 X66.6745 Y-4.8710
G01 X66.6552 Y-4.8861
G01 X66.6351 Y-4.9002
G01 X66.6144 Y-4.9133
G01 X66.5931 Y-4.9254
G01 X66.5711 Y-4.9364
G01 X66.5487 Y-4.9464
G01 X66.5258 Y-4.9552
G01 X66.5026 Y-4.9629
G01 X66.4789 Y-4.9694
G01 X66.4550 Y-4.9748
G01 X66.4308 Y-4.9790
G01 X66.4065 Y-4.9820
G01 X66.3820 Y-4.9838
G01 X66.3575 Y-4.9844
G01 X66.3330 Y-4.9838
G01 X66.3085 Y-4.9820
G01 X66.2842 Y-4.9790
G00 Z2.0000
G00 X57.2427 Y-32.6371
G01 F70.00
G01 Z-0.0800
G01 F120.00
G01 X63.2456 Y-32.6371
G01 X63.2456 Y-38.9575
G01 X57.2427 Y-38.9575
G01 X57.2427 Y-32.6371
G01 X57.2427 Y-33.9969
G01 X57.2644 Y-33.9612
G01 X57.2872 Y-33.9248
G01 X57.3104 Y-33.8887
G01 X57.3340 Y-33.8528
G01 X57.3826 Y-33.7820
G01 X57.4329 Y-33.7124
G01 X57.4587 Y-33.6780
G01 X57.4849 Y-33.6440
G01 X57.5386 Y-33.5769
G01 X57.5939 Y-33.5112
G01 X57.6222 Y-33.4788
G01 X57.6508 Y-33.4468
G01 X57.7093 Y-33.3839
G01 X57.7391 Y-33.3530
G01 X57.7998 Y-33.2922
G01 X57.8620 Y-33.2330
G01 X57.8937 Y-33.2040
G01 X57.9257 Y-33.1753
G01 X57.9907 Y-33.1192
G01 X58.0238 Y-33.0918
G01 X58.0908 Y-33.0381
G01 X58.1592 Y-32.9861
G01 X58.1939 Y-32.9607
G01 X58.2288 Y-32.9358
G01 X58.2997 Y-32.8872
G01 X58.3355 Y-32.8635
G01 X58.4081 Y-32.8176
G01 X58.4448 Y-32.7952
G01 X58.5190 Y-32.7520
G01 X58.5943 Y-32.7106
G01 X58.6323 Y-32.6906
G01 X58.6705 Y-32.6710
G01 X58.7090 Y-32.6519
G01 X58.7398 Y-32.6371
G01 X61.7485 Y-32.6371
G01 X61.7793 Y-32.6519
G01 X61.8178 Y-32.6710
G01 X61.8560 Y-32.6906
G01 X61.8940 Y-32.7106
G01 X61.9693 Y-32.7520
G01 X62.0435 Y-32.7952
G01 X62.0802 Y-32.8176
G01 X62.1166 Y-32.8403
G01 X62.1886 Y-32.8872
G01 X62.2595 Y-32.9358
G01 X62.2944 Y-32.9607
G01 X62.3291 Y-32.9861
G01 X62.3975 Y-33.0381
G01 X62.4645 Y-33.0918
G01 X62.4976 Y-33.1192
G01 X62.5303 Y-33.1471
G01 X62.5946 Y-33.2040
G01 X62.6575 Y-33.2624
G01 X62.6885 Y-33.2922
G01 X62.7190 Y-33.3224
G01 X62.7790 Y-33.3839
G01 X62.8084 Y-33.4152
G01 X62.8661 Y-33.4788
G01 X62.8944 Y-33.5112
G01 X62.9497 Y-33.5769
G01 X62.9767 Y-33.6103
G01 X63.0296 Y-33.6780
G01 X63.0554 Y-33.7124
G01 X63.1057 Y-33.7820
G01 X63.1543 Y-33.8528
G01 X63.1779 Y-33.8887
G01 X63.2011 Y-33.9248
G01 X63.2239 Y-33.9612
G01 X63.2456 Y-33.9969
G01 X62.7442 Y-35.7973
G01 X62.7425 Y-35.8893
G01 X62.7394 Y-35.9506
G01 X62.7349 Y-36.0118
G01 X62.7289 Y-36.0729
G01 X62.7214 Y-36.1338
G01 X62.7073 Y-36.2247
G01 X62.6899 Y-36.3151
G01 X62.6765 Y-36.3749
G01 X62.6616 Y-36.4345
G01 X62.6365 Y-36.5230
G01 X62.6180 Y-36.5815
G01 X62.5980 Y-36.6395
G01 X62.5766 Y-36.6970
G01 X62.5538 Y-36.7540
G01 X62.5171 Y-36.8384
G01 X62.4908 Y-36.8938
G01 X62.4632 Y-36.9486
G01 X62.4490 Y-36.9758
G01 X62.4343 Y-37.0028
G01 X62.4194 Y-37.0295
G01 X62.3725 Y-37.1088
G01 X62.3397 Y-37.1606
G01 X62.2881 Y-37.2368
G01 X62.2522 Y-37.2865
G01 X62.1960 Y-37.3594
G01 X62.1571 Y-37.4069
G01 X62.1170 Y-37.4533
G01 X62.0548 Y-37.5212
G01 X61.9901 Y-37.5866
G01 X61.9457 Y-37.6289
G01 X61.8771 Y-37.6903
G01 X61.8063 Y-37.7491
G01 X61.7579 Y-37.7869
G01 X61.6837 Y-37.8413
G01 X61.6331 Y-37.8760
G01 X61.5556 Y-37.9257
G01 X61.5030 Y-37.9572
G01 X61.4226 Y-38.0021
G01 X61.3407 Y-38.0440
G01 X61.2573 Y-38.0828
G01 X61.1724 Y-38.1186
G01 X61.1152 Y-38.1406
G01 X61.0574 Y-38.1613
G01 X60.9699 Y-38.1897
G01 X60.8813 Y-38.2147
G01 X60.7919 Y-38.2366
G01 X60.7017 Y-38.2551
G01 X60.6110 Y-38.2702
G01 X60.5197 Y-38.2821
G01 X60.4586 Y-38.2881
G01 X60.3975 Y-38.2926
G01 X60.3055 Y-38.2965
G01 X60.2135 Y-38.2971
G01 X60.1521 Y-38.2956
G01 X60.0908 Y-38.2926
G01 X59.9991 Y-38.2853
G01 X59.9077 Y-38.2746
G01 X59.8167 Y-38.2605
G01 X59.7264 Y-38.2431
G01 X59.6367 Y-38.2224
G01 X59.5479 Y-38.1984
G01 X59.4891 Y-38.1806
G01 X59.4019 Y-38.1512
G01 X59.3159 Y-38.1186
G01 X59.2310 Y-38.0828
G01 X59.1753 Y-38.0573
G01 X59.0928 Y-38.0164
G01 X59.0387 Y-37.9875
G01 X58.9589 Y-37.9416
G01 X58.8808 Y-37.8929
G01 X58.8046 Y-37.8413
G01 X58.7304 Y-37.7869
G01 X58.6820 Y-37.7491
G01 X58.6112 Y-37.6903
G01 X58.5426 Y-37.6289
G01 X58.4764 Y-37.5651
G01 X58.4125 Y-37.4988
G01 X58.3713 Y-37.4533
G01 X58.3116 Y-37.3833
G01 X58.2546 Y-37.3111
G01 X58.2002 Y-37.2368
G01 X58.1655 Y-37.1862
G01 X58.1320 Y-37.1348
G01 X58.0842 Y-37.0561
G01 X58.0393 Y-36.9758
G01 X57.9975 Y-36.8938
G01 X57.9712 Y-36.8384
G01 X57.9345 Y-36.7540
G01 X57.9008 Y-36.6683
G01 X57.8703 Y-36.5815
G01 X57.8518 Y-36.5230
G01 X57.8267 Y-36.4345
G01 X57.8049 Y-36.3451
G01 X57.7922 Y-36.2850
G01 X57.7759 Y-36.1944
G01 X57.7630 Y-36.1033
G01 X57.7534 Y-36.0118
G01 X57.7489 Y-35.9506
G01 X57.7458 Y-35.8893
G01 X57.7442 Y-35.7973
G01 X57.7449 Y-35.7359
G01 X57.7489 Y-35.6440
G01 X57.7534 Y-35.5828
G01 X57.7630 Y-35.4913
G01 X57.7759 Y-35.4002
G01 X57.7922 Y-35.3096
G01 X57.8118 Y-35.2197
G01 X57.8347 Y-35.1305
G01 X57.8518 Y-35.0716
G01 X57.8801 Y-34.9840
G01 X57.9117 Y-34.8976
G01 X57.9464 Y-34.8123
G01 X57.9712 Y-34.7562
G01 X58.0111 Y-34.6733
G01 X58.0540 Y-34.5918
G01 X58.0842 Y-34.5385
G01 X58.1320 Y-34.4598
G01 X58.1827 Y-34.3830
G01 X58.2361 Y-34.3081
G01 X58.2923 Y-34.2352
G01 X58.3511 Y-34.1644
G01 X58.3918 Y-34.1184
G01 X58.4335 Y-34.0734
G01 X58.4982 Y-34.0080
G01 X58.5653 Y-33.9449
G01 X58.6112 Y-33.9043
G01 X58.6820 Y-33.8455
G01 X58.7549 Y-33.7893
G01 X58.8298 Y-33.7358
G01 X58.8808 Y-33.7017
G01 X58.9327 Y-33.6689
G01 X59.0119 Y-33.6221
G01 X59.0928 Y-33.5782
G01 X59.1753 Y-33.5373
G01 X59.2592 Y-33.4995
G01 X59.3159 Y-33.4760
G01 X59.4019 Y-33.4434
G01 X59.4891 Y-33.4140
G01 X59.5479 Y-33.3962
G01 X59.6367 Y-33.3722
G01 X59.7264 Y-33.3515
G01 X59.8167 Y-33.3341
G01 X59.9077 Y-33.3200
G01 X59.9991 Y-33.3093
G01 X60.0602 Y-33.3041
G01 X60.1521 Y-33.2990
G01 X60.2135 Y-33.2975
G01 X60.3055 Y-33.2981
G01 X60.3975 Y-33.3020
G01 X60.4586 Y-33.3065
G01 X60.5502 Y-33.3161
G01 X60.6110 Y-33.3244
G01 X60.7017 Y-33.3395
G01 X60.7919 Y-33.3580
G01 X60.8516 Y-33.3722
G01 X60.9404 Y-33.3962
G01 X61.0284 Y-33.4235
G01 X61.1152 Y-33.4540
G01 X61.2009 Y-33.4876
G01 X61.2852 Y-33.5244
G01 X61.3682 Y-33.5642
G01 X61.4496 Y-33.6071
G01 X61.5294 Y-33.6530
G01 X61.6075 Y-33.7017
G01 X61.6837 Y-33.7533
G01 X61.7579 Y-33.8077
G01 X61.8301 Y-33.8648
G01 X61.9002 Y-33.9245
G01 X61.9680 Y-33.9867
G01 X62.0335 Y-34.0514
G01 X62.0758 Y-34.0958
G01 X62.1170 Y-34.1413
G01 X62.1767 Y-34.2113
G01 X62.2337 Y-34.2835
G01 X62.2881 Y-34.3578
G01 X62.3397 Y-34.4340
G01 X62.3885 Y-34.5120
G01 X62.4343 Y-34.5918
G01 X62.4772 Y-34.6733
G01 X62.5171 Y-34.7562
G01 X62.5419 Y-34.8123
G01 X62.5654 Y-34.8690
G01 X62.5980 Y-34.9551
G01 X62.6274 Y-35.0423
G01 X62.6536 Y-35.1305
G01 X62.6692 Y-35.1898
G01 X62.6834 Y-35.2495
G01 X62.7019 Y-35.3397
G01 X62.7171 Y-35.4305
G01 X62.7289 Y-35.5217
G01 X62.7374 Y-35.6134
G01 X62.7425 Y-35.7053
G01 X62.7442 Y-35.7973
G01 X61.7442 Y-35.7973
G01 X61.7423 Y-35.8709
G01 X61.7369 Y-35.9443
G01 X61.7279 Y-36.0174
G01 X61.7188 Y-36.0719
G01 X61.7036 Y-36.1439
G01 X61.6898 Y-36.1974
G01 X61.6741 Y-36.2503
G01 X61.6502 Y-36.3199
G01 X61.6300 Y-36.3713
G01 X61.6155 Y-36.4052
G01 X61.6079 Y-36.4219
G01 X61.6001 Y-36.4386
G01 X61.5756 Y-36.4881
G01 X61.5401 Y-36.5526
G01 X61.5015 Y-36.6153
G01 X61.4598 Y-36.6760
G01 X61.4267 Y-36.7201
G01 X61.3800 Y-36.7771
G01 X61.3305 Y-36.8316
G01 X61.2917 Y-36.8709
G01 X61.2378 Y-36.9210
G01 X61.1814 Y-36.9684
G01 X61.1377 Y-37.0021
G01 X61.0775 Y-37.0445
G01 X61.0310 Y-37.0743
G01 X60.9674 Y-37.1114
G01 X60.9021 Y-37.1453
G01 X60.8351 Y-37.1760
G01 X60.7668 Y-37.2033
G01 X60.7147 Y-37.2216
G01 X60.6442 Y-37.2430
G01 X60.5728 Y-37.2609
G01 X60.5187 Y-37.2720
G01 X60.4460 Y-37.2837
G01 X60.3912 Y-37.2901
G01 X60.3178 Y-37.2955
G01 X60.2442 Y-37.2973
G01 X60.1889 Y-37.2963
G01 X60.1155 Y-37.2918
G01 X60.0605 Y-37.2860
G01 X60.0059 Y-37.2783
G01 X59.9335 Y-37.2648
G01 X59.8797 Y-37.2523
G01 X59.8264 Y-37.2379
G01 X59.7736 Y-37.2216
G01 X59.7043 Y-37.1968
G01 X59.6532 Y-37.1760
G01 X59.5862 Y-37.1453
G01 X59.5371 Y-37.1202
G01 X59.4730 Y-37.0839
G01 X59.4262 Y-37.0546
G01 X59.3655 Y-37.0130
G01 X59.3213 Y-36.9798
G01 X59.2644 Y-36.9331
G01 X59.2232 Y-36.8963
G01 X59.1706 Y-36.8449
G01 X59.1204 Y-36.7909
G01 X59.0846 Y-36.7489
G01 X59.0504 Y-36.7056
G01 X59.0178 Y-36.6610
G01 X58.9868 Y-36.6153
G01 X58.9482 Y-36.5526
G01 X58.9127 Y-36.4881
G01 X58.8882 Y-36.4386
G01 X58.8655 Y-36.3883
G01 X58.8381 Y-36.3199
G01 X58.8199 Y-36.2678
G01 X58.8035 Y-36.2151
G01 X58.7891 Y-36.1618
G01 X58.7767 Y-36.1080
G01 X58.7662 Y-36.0537
G01 X58.7578 Y-35.9992
G01 X58.7514 Y-35.9443
G01 X58.7470 Y-35.8893
G01 X58.7446 Y-35.8341
G01 X58.7443 Y-35.7789
G01 X58.7460 Y-35.7237
G01 X58.7497 Y-35.6686
G01 X58.7554 Y-35.6137
G01 X58.7632 Y-35.5590
G01 X58.7730 Y-35.5047
G01 X58.7847 Y-35.4507
G01 X58.7985 Y-35.3972
G01 X58.8142 Y-35.3443
G01 X58.8318 Y-35.2920
G01 X58.8514 Y-35.2403
G01 X58.8728 Y-35.1894
G01 X58.8961 Y-35.1394
G01 X58.9213 Y-35.0902
G01 X58.9482 Y-35.0420
G01 X58.9769 Y-34.9948
G01 X59.0073 Y-34.9487
G01 X59.0393 Y-34.9038
G01 X59.0730 Y-34.8600
G01 X59.1083 Y-34.8175
G01 X59.1452 Y-34.7764
G01 X59.1835 Y-34.7366
G01 X59.2232 Y-34.6983
G01 X59.2644 Y-34.6615
G01 X59.3069 Y-34.6262
G01 X59.3506 Y-34.5925
G01 X59.3956 Y-34.5604
G01 X59.4417 Y-34.5300
G01 X59.4888 Y-34.5013
G01 X59.5371 Y-34.4744
G01 X59.5862 Y-34.4493
G01 X59.6363 Y-34.4260
G01 X59.6872 Y-34.4045
G01 X59.7388 Y-34.3850
G01 X59.7911 Y-34.3673
G01 X59.8441 Y-34.3516
G01 X59.8976 Y-34.3379
G01 X59.9515 Y-34.3261
G01 X60.0059 Y-34.3163
G01 X60.0605 Y-34.3086
G01 X60.1155 Y-34.3028
G01 X60.1705 Y-34.2991
G01 X60.2257 Y-34.2974
G01 X60.2810 Y-34.2978
G01 X60.3361 Y-34.3001
G01 X60.3912 Y-34.3045
G01 X60.4460 Y-34.3109
G01 X60.5006 Y-34.3194
G01 X60.5548 Y-34.3298
G01 X60.6086 Y-34.3423
G01 X60.6619 Y-34.3567
G01 X60.7147 Y-34.3730
G01 X60.7668 Y-34.3913
G01 X60.8182 Y-34.4115
G01 X60.8688 Y-34.4335
G01 X60.9186 Y-34.4575
G01 X60.9674 Y-34.4832
G01 X61.0153 Y-34.5107
G01 X61.0621 Y-34.5400
G01 X61.1079 Y-34.5709
G01 X61.1524 Y-34.6035
G01 X61.1957 Y-34.6378
G01 X61.2378 Y-34.6736
G01 X61.2785 Y-34.7109
G01 X61.3177 Y-34.7497
G01 X61.3556 Y-34.7900
G01 X61.3919 Y-34.8316
G01 X61.4267 Y-34.8745
G01 X61.4598 Y-34.9186
G01 X61.4914 Y-34.9639
G01 X61.5114 Y-34.9948
G01 X61.5401 Y-35.0420
G01 X61.5670 Y-35.0902
G01 X61.5922 Y-35.1394
G01 X61.6155 Y-35.1894
G01 X61.6369 Y-35.2403
G01 X61.6502 Y-35.2747
G01 X61.6684 Y-35.3268
G01 X61.6848 Y-35.3795
G01 X61.6992 Y-35.4328
G01 X61.7116 Y-35.4866
G01 X61.7221 Y-35.5409
G01 X61.7305 Y-35.5954
G01 X61.7369 Y-35.6503
G01 X61.7413 Y-35.7053
G01 X61.7431 Y-35.7421
G01 X61.7442 Y-35.7973
G01 X60.7442 Y-35.7973
G01 X60.7423 Y-35.8402
G01 X60.7396 Y-35.8646
G01 X60.7357 Y-35.8888
G01 X60.7260 Y-35.9307
G01 X60.7128 Y-35.9715
G01 X60.7037 Y-35.9943
G01 X60.6935 Y-36.0166
G01 X60.6730 Y-36.0544
G01 X60.6599 Y-36.0751
G01 X60.6458 Y-36.0951
G01 X60.6187 Y-36.1285
G01 X60.6020 Y-36.1465
G01 X60.5845 Y-36.1636
G01 X60.5518 Y-36.1915
G01 X60.5168 Y-36.2164
G01 X60.4959 Y-36.2293
G01 X60.4744 Y-36.2411
G01 X60.4524 Y-36.2519
G01 X60.4298 Y-36.2616
G01 X60.3893 Y-36.2758
G01 X60.3477 Y-36.2865
G01 X60.3054 Y-36.2935
G01 X60.2626 Y-36.2970
G01 X60.2257 Y-36.2970
G01 X60.1890 Y-36.2943
G01 X60.1526 Y-36.2889
G01 X60.1167 Y-36.2808
G01 X60.0815 Y-36.2701
G01 X60.0472 Y-36.2569
G01 X60.0139 Y-36.2411
G01 X59.9819 Y-36.2230
G01 X59.9513 Y-36.2025
G01 X59.9222 Y-36.1799
G01 X59.8950 Y-36.1552
G01 X59.8696 Y-36.1285
G01 X59.8425 Y-36.0951
G01 X59.8217 Y-36.0648
G01 X59.8032 Y-36.0330
G01 X59.7846 Y-35.9943
G01 X59.7713 Y-35.9600
G01 X59.7591 Y-35.9188
G01 X59.7505 Y-35.8767
G01 X59.7455 Y-35.8341
G01 X59.7442 Y-35.7912
G01 X59.7466 Y-35.7483
G01 X59.7526 Y-35.7058
G01 X59.7623 Y-35.6639
G01 X59.7755 Y-35.6231
G01 X59.7896 Y-35.5891
G01 X59.8091 Y-35.5509
G01 X59.8284 Y-35.5195
G01 X59.8538 Y-35.4849
G01 X59.8820 Y-35.4525
G01 X59.9129 Y-35.4227
G01 X59.9463 Y-35.3957
G01 X59.9767 Y-35.3749
G01 X60.0139 Y-35.3535
G01 X60.0528 Y-35.3354
G01 X60.0931 Y-35.3206
G01 X60.1346 Y-35.3094
G01 X60.1769 Y-35.3018
G01 X60.2196 Y-35.2979
G01 X60.2626 Y-35.2976
G01 X60.3054 Y-35.3011
G01 X60.3477 Y-35.3081
G01 X60.3834 Y-35.3171
G01 X60.4241 Y-35.3308
G01 X60.4635 Y-35.3480
G01 X60.4959 Y-35.3653
G01 X60.5321 Y-35.3885
G01 X60.5566 Y-35.4069
G01 X60.5799 Y-35.4268
G01 X60.6020 Y-35.4481
G01 X60.6228 Y-35.4707
G01 X60.6421 Y-35.4945
G01 X60.6599 Y-35.5195
G01 X60.6761 Y-35.5455
G01 X60.6880 Y-35.5670
G01 X60.7013 Y-35.5947
G01 X60.7128 Y-35.6231
G01 X60.7226 Y-35.6522
G01 X60.7306 Y-35.6818
G01 X60.7357 Y-35.7058
G01 X60.7404 Y-35.7361
G01 X60.7432 Y-35.7666
G01 X60.7442 Y-35.7973
G01 X63.2456 Y-37.5977
G01 X63.2239 Y-37.6334
G01 X63.2011 Y-37.6698
G01 X63.1543 Y-37.7418
G01 X63.1057 Y-37.8126
G01 X63.0554 Y-37.8822
G01 X63.0034 Y-37.9506
G01 X62.9497 Y-38.0177
G01 X62.8944 Y-38.0834
G01 X62.8375 Y-38.1478
G01 X62.7790 Y-38.2107
G01 X62.7190 Y-38.2722
G01 X62.6575 Y-38.3322
G01 X62.5946 Y-38.3906
G01 X62.5303 Y-38.4475
G01 X62.4645 Y-38.5028
G01 X62.3975 Y-38.5565
G01 X62.3291 Y-38.6085
G01 X62.2595 Y-38.6588
G01 X62.1886 Y-38.7074
G01 X62.1166 Y-38.7543
G01 X62.0435 Y-38.7994
G01 X61.9693 Y-38.8426
G01 X61.8940 Y-38.8840
G01 X61.8178 Y-38.9236
G01 X61.7793 Y-38.9427
G01 X61.7485 Y-38.9575
G01 X58.7398 Y-38.9575
G01 X58.7090 Y-38.9427
G01 X58.6705 Y-38.9236
G01 X58.6323 Y-38.9040
G01 X58.5943 Y-38.8840
G01 X58.5190 Y-38.8426
G01 X58.4448 Y-38.7994
G01 X58.4081 Y-38.7770
G01 X58.3717 Y-38.7543
G01 X58.2997 Y-38.7074
G01 X58.2288 Y-38.6588
G01 X58.1939 Y-38.6339
G01 X58.1592 Y-38.6085
G01 X58.0908 Y-38.5565
G01 X58.0571 Y-38.5299
G01 X57.9907 Y-38.4754
G01 X57.9257 Y-38.4193
G01 X57.8937 Y-38.3906
G01 X57.8308 Y-38.3322
G01 X57.7998 Y-38.3024
G01 X57.7391 Y-38.2416
G01 X57.7093 Y-38.2107
G01 X57.6799 Y-38.1794
G01 X57.6222 Y-38.1158
G01 X57.5661 Y-38.0507
G01 X57.5386 Y-38.0177
G01 X57.4849 Y-37.9506
G01 X57.4587 Y-37.9166
G01 X57.4329 Y-37.8822
G01 X57.3826 Y-37.8126
G01 X57.3340 Y-37.7418
G01 X57.3104 Y-37.7059
G01 X57.2872 Y-37.6698
G01 X57.2644 Y-37.6334
G01 X57.2427 Y-37.5977
G00 Z2.0000
G00 X57.2852 Y-45.2301
G01 F70.00
G01 Z-0.0800
G01 F120.00
G01 X57.3296 Y-45.1581
G01 X57.3528 Y-45.1220
G01 X57.3764 Y-45.0861
G01 X57.4250 Y-45.0153
G01 X57.4753 Y-44.9456
G01 X57.5011 Y-44.9113
G01 X57.5274 Y-44.8773
G01 X57.5810 Y-44.8102
G01 X57.6085 Y-44.7772
G01 X57.6646 Y-44.7121
G01 X57.7223 Y-44.6485
G01 X57.7517 Y-44.6172
G01 X57.7815 Y-44.5863
G01 X57.8423 Y-44.5255
G01 X57.9045 Y-44.4663
G01 X57.9361 Y-44.4373
G01 X57.9681 Y-44.4086
G01 X58.0332 Y-44.3525
G01 X58.0662 Y-44.3251
G01 X58.1333 Y-44.2714
G01 X58.2016 Y-44.2194
G01 X58.2363 Y-44.1940
G01 X58.2712 Y-44.1690
G01 X58.3421 Y-44.1204
G01 X58.3779 Y-44.0968
G01 X58.4505 Y-44.0508
G01 X58.4872 Y-44.0285
G01 X58.5614 Y-43.9853
G01 X58.6367 Y-43.9439
G01 X58.6747 Y-43.9239
G01 X58.7820 Y-43.8705
G01 X61.7908 Y-43.8703
G01 X61.8602 Y-43.9043
G01 X61.9365 Y-43.9439
G01 X62.0117 Y-43.9853
G01 X62.0859 Y-44.0285
G01 X62.1591 Y-44.0736
G01 X62.1952 Y-44.0968
G01 X62.2666 Y-44.1445
G01 X62.3369 Y-44.1940
G01 X62.3715 Y-44.2194
G01 X62.4399 Y-44.2714
G01 X62.5070 Y-44.3251
G01 X62.5400 Y-44.3525
G01 X62.6050 Y-44.4086
G01 X62.6370 Y-44.4373
G01 X62.7000 Y-44.4957
G01 X62.7614 Y-44.5557
G01 X62.8214 Y-44.6172
G01 X62.8509 Y-44.6485
G01 X62.9086 Y-44.7121
G01 X62.9647 Y-44.7772
G01 X63.0192 Y-44.8436
G01 X63.0458 Y-44.8773
G01 X63.0978 Y-44.9456
G01 X63.1481 Y-45.0153
G01 X63.1726 Y-45.0505
G01 X63.2204 Y-45.1220
G01 X63.2436 Y-45.1581
G01 X63.2880 Y-45.2302
G01 X62.7866 Y-47.0306
G01 X62.7858 Y-47.0919
G01 X62.7836 Y-47.1533
G01 X62.7798 Y-47.2145
G01 X62.7745 Y-47.2756
G01 X62.7638 Y-47.3670
G01 X62.7548 Y-47.4277
G01 X62.7443 Y-47.4882
G01 X62.7324 Y-47.5484
G01 X62.7189 Y-47.6082
G01 X62.6960 Y-47.6974
G01 X62.6789 Y-47.7563
G01 X62.6604 Y-47.8148
G01 X62.6299 Y-47.9016
G01 X62.5963 Y-47.9873
G01 X62.5721 Y-48.0437
G01 X62.5333 Y-48.1271
G01 X62.5057 Y-48.1819
G01 X62.4914 Y-48.2091
G01 X62.4768 Y-48.2361
G01 X62.4618 Y-48.2628
G01 X62.4150 Y-48.3421
G01 X62.3821 Y-48.3939
G01 X62.3305 Y-48.4701
G01 X62.2946 Y-48.5198
G01 X62.2384 Y-48.5927
G01 X62.1995 Y-48.6402
G01 X62.1390 Y-48.7095
G01 X62.0759 Y-48.7765
G01 X62.0325 Y-48.8199
G01 X61.9655 Y-48.8830
G01 X61.9195 Y-48.9236
G01 X61.8487 Y-48.9824
G01 X61.8004 Y-49.0202
G01 X61.7511 Y-49.0567
G01 X61.6755 Y-49.1093
G01 X61.6241 Y-49.1427
G01 X61.5454 Y-49.1905
G01 X61.4651 Y-49.2354
G01 X61.3831 Y-49.2773
G01 X61.3276 Y-49.3035
G01 X61.2433 Y-49.3403
G01 X61.1863 Y-49.3631
G01 X61.0999 Y-49.3946
G01 X61.0123 Y-49.4229
G01 X60.9534 Y-49.4400
G01 X60.8940 Y-49.4557
G01 X60.8044 Y-49.4764
G01 X60.7140 Y-49.4938
G01 X60.6534 Y-49.5035
G01 X60.5621 Y-49.5154
G01 X60.4705 Y-49.5238
G01 X60.3786 Y-49.5289
G01 X60.3173 Y-49.5304
G01 X60.2252 Y-49.5298
G01 X60.1639 Y-49.5276
G01 X60.1027 Y-49.5238
G01 X60.0110 Y-49.5154
G01 X59.9197 Y-49.5035
G01 X59.8290 Y-49.4884
G01 X59.7388 Y-49.4698
G01 X59.6791 Y-49.4557
G01 X59.5903 Y-49.4317
G01 X59.5316 Y-49.4139
G01 X59.4444 Y-49.3845
G01 X59.3583 Y-49.3519
G01 X59.2735 Y-49.3161
G01 X59.2177 Y-49.2906
G01 X59.1352 Y-49.2497
G01 X59.0811 Y-49.2208
G01 X59.0277 Y-49.1905
G01 X58.9491 Y-49.1427
G01 X58.8722 Y-49.0921
G01 X58.8221 Y-49.0567
G01 X58.7485 Y-49.0015
G01 X58.6770 Y-48.9435
G01 X58.6077 Y-48.8830
G01 X58.5627 Y-48.8412
G01 X58.5188 Y-48.7984
G01 X58.4549 Y-48.7321
G01 X58.4137 Y-48.6866
G01 X58.3540 Y-48.6166
G01 X58.2970 Y-48.5444
G01 X58.2604 Y-48.4951
G01 X58.2079 Y-48.4195
G01 X58.1744 Y-48.3681
G01 X58.1266 Y-48.2894
G01 X58.0964 Y-48.2361
G01 X58.0675 Y-48.1819
G01 X58.0266 Y-48.0995
G01 X58.0011 Y-48.0437
G01 X57.9653 Y-47.9589
G01 X57.9432 Y-47.9016
G01 X57.9128 Y-47.8148
G01 X57.8855 Y-47.7269
G01 X57.8615 Y-47.6380
G01 X57.8473 Y-47.5783
G01 X57.8288 Y-47.4882
G01 X57.8183 Y-47.4277
G01 X57.8054 Y-47.3366
G01 X57.7958 Y-47.2451
G01 X57.7913 Y-47.1839
G01 X57.7873 Y-47.0919
G01 X57.7868 Y-46.9999
G01 X57.7883 Y-46.9386
G01 X57.7933 Y-46.8467
G01 X57.7986 Y-46.7855
G01 X57.8093 Y-46.6941
G01 X57.8183 Y-46.6334
G01 X57.8346 Y-46.5429
G01 X57.8542 Y-46.4529
G01 X57.8771 Y-46.3638
G01 X57.8942 Y-46.3049
G01 X57.9226 Y-46.2173
G01 X57.9541 Y-46.1309
G01 X57.9769 Y-46.0739
G01 X58.0137 Y-45.9895
G01 X58.0399 Y-45.9341
G01 X58.0818 Y-45.8521
G01 X58.1114 Y-45.7983
G01 X58.1582 Y-45.7191
G01 X58.1910 Y-45.6673
G01 X58.2426 Y-45.5911
G01 X58.2786 Y-45.5413
G01 X58.3347 Y-45.4684
G01 X58.3936 Y-45.3977
G01 X58.4342 Y-45.3517
G01 X58.4972 Y-45.2847
G01 X58.5627 Y-45.2200
G01 X58.6077 Y-45.1782
G01 X58.6536 Y-45.1376
G01 X58.7244 Y-45.0787
G01 X58.7973 Y-45.0226
G01 X58.8471 Y-44.9866
G01 X58.8976 Y-44.9519
G01 X58.9751 Y-44.9022
G01 X59.0543 Y-44.8554
G01 X59.1081 Y-44.8258
G01 X59.1900 Y-44.7839
G01 X59.2455 Y-44.7577
G01 X59.3299 Y-44.7209
G01 X59.4155 Y-44.6872
G01 X59.5024 Y-44.6568
G01 X59.5609 Y-44.6382
G01 X59.6494 Y-44.6132
G01 X59.7089 Y-44.5982
G01 X59.7688 Y-44.5848
G01 X59.8592 Y-44.5674
G01 X59.9501 Y-44.5533
G01 X60.0415 Y-44.5426
G01 X60.1333 Y-44.5353
G01 X60.1946 Y-44.5323
G01 X60.2559 Y-44.5308
G01 X60.3479 Y-44.5313
G01 X60.4092 Y-44.5336
G01 X60.5011 Y-44.5398
G01 X60.5926 Y-44.5494
G01 X60.6534 Y-44.5577
G01 X60.7442 Y-44.5728
G01 X60.8343 Y-44.5913
G01 X60.9237 Y-44.6132
G01 X60.9829 Y-44.6295
G01 X61.0416 Y-44.6473
G01 X61.0999 Y-44.6666
G01 X61.1576 Y-44.6872
G01 X61.2433 Y-44.7209
G01 X61.2997 Y-44.7451
G01 X61.3555 Y-44.7706
G01 X61.4379 Y-44.8115
G01 X61.5188 Y-44.8554
G01 X61.5980 Y-44.9022
G01 X61.6499 Y-44.9350
G01 X61.7009 Y-44.9691
G01 X61.7758 Y-45.0226
G01 X61.8247 Y-45.0597
G01 X61.8726 Y-45.0981
G01 X61.9426 Y-45.1578
G01 X61.9881 Y-45.1990
G01 X62.0325 Y-45.2413
G01 X62.0972 Y-45.3067
G01 X62.1594 Y-45.3746
G01 X62.1995 Y-45.4210
G01 X62.2384 Y-45.4684
G01 X62.2946 Y-45.5413
G01 X62.3305 Y-45.5911
G01 X62.3652 Y-45.6417
G01 X62.3987 Y-45.6931
G01 X62.4309 Y-45.7453
G01 X62.4768 Y-45.8251
G01 X62.5196 Y-45.9066
G01 X62.5465 Y-45.9617
G01 X62.5721 Y-46.0175
G01 X62.6078 Y-46.1023
G01 X62.6299 Y-46.1595
G01 X62.6506 Y-46.2173
G01 X62.6698 Y-46.2756
G01 X62.6877 Y-46.3343
G01 X62.7117 Y-46.4231
G01 X62.7324 Y-46.5128
G01 X62.7498 Y-46.6032
G01 X62.7595 Y-46.6638
G01 X62.7678 Y-46.7246
G01 X62.7774 Y-46.8161
G01 X62.7836 Y-46.9079
G01 X62.7858 Y-46.9692
G01 X62.7866 Y-47.0306
G01 X61.7866 Y-47.0306
G01 X61.7848 Y-47.1042
G01 X61.7810 Y-47.1593
G01 X61.7729 Y-47.2325
G01 X61.7645 Y-47.2870
G01 X61.7541 Y-47.3413
G01 X61.7370 Y-47.4129
G01 X61.7220 Y-47.4660
G01 X61.6989 Y-47.5359
G01 X61.6793 Y-47.5876
G01 X61.6652 Y-47.6216
G01 X61.6579 Y-47.6385
G01 X61.6503 Y-47.6552
G01 X61.6180 Y-47.7214
G01 X61.5917 Y-47.7699
G01 X61.5539 Y-47.8331
G01 X61.5235 Y-47.8792
G01 X61.4803 Y-47.9389
G01 X61.4461 Y-47.9822
G01 X61.3980 Y-48.0379
G01 X61.3602 Y-48.0782
G01 X61.3075 Y-48.1296
G01 X61.2663 Y-48.1664
G01 X61.2094 Y-48.2131
G01 X61.1653 Y-48.2463
G01 X61.1199 Y-48.2778
G01 X61.0577 Y-48.3172
G01 X61.0099 Y-48.3447
G01 X60.9445 Y-48.3786
G01 X60.8776 Y-48.4093
G01 X60.8264 Y-48.4301
G01 X60.7745 Y-48.4490
G01 X60.7044 Y-48.4712
G01 X60.6510 Y-48.4856
G01 X60.5792 Y-48.5018
G01 X60.5249 Y-48.5115
G01 X60.4702 Y-48.5193
G01 X60.4153 Y-48.5251
G01 X60.3602 Y-48.5288
G01 X60.2866 Y-48.5306
G01 X60.2314 Y-48.5296
G01 X60.1762 Y-48.5265
G01 X60.1212 Y-48.5215
G01 X60.0665 Y-48.5144
G01 X60.0120 Y-48.5052
G01 X59.9400 Y-48.4900
G01 X59.8865 Y-48.4763
G01 X59.8336 Y-48.4606
G01 X59.7812 Y-48.4429
G01 X59.7296 Y-48.4234
G01 X59.6787 Y-48.4019
G01 X59.6287 Y-48.3786
G01 X59.5795 Y-48.3535
G01 X59.5313 Y-48.3266
G01 X59.4841 Y-48.2979
G01 X59.4229 Y-48.2570
G01 X59.3783 Y-48.2243
G01 X59.3350 Y-48.1901
G01 X59.2930 Y-48.1543
G01 X59.2390 Y-48.1042
G01 X59.2002 Y-48.0649
G01 X59.1629 Y-48.0242
G01 X59.1271 Y-47.9822
G01 X59.0928 Y-47.9389
G01 X59.0602 Y-47.8943
G01 X59.0292 Y-47.8486
G01 X58.9906 Y-47.7859
G01 X58.9725 Y-47.7539
G01 X58.9467 Y-47.7050
G01 X58.9228 Y-47.6552
G01 X58.9008 Y-47.6046
G01 X58.8806 Y-47.5532
G01 X58.8623 Y-47.5011
G01 X58.8459 Y-47.4484
G01 X58.8315 Y-47.3951
G01 X58.8191 Y-47.3413
G01 X58.8087 Y-47.2870
G01 X58.8002 Y-47.2325
G01 X58.7938 Y-47.1776
G01 X58.7894 Y-47.1226
G01 X58.7870 Y-47.0674
G01 X58.7867 Y-47.0122
G01 X58.7884 Y-46.9570
G01 X58.7921 Y-46.9019
G01 X58.7979 Y-46.8470
G01 X58.8056 Y-46.7923
G01 X58.8154 Y-46.7380
G01 X58.8272 Y-46.6840
G01 X58.8409 Y-46.6305
G01 X58.8566 Y-46.5776
G01 X58.8743 Y-46.5253
G01 X58.8938 Y-46.4736
G01 X58.9153 Y-46.4227
G01 X58.9386 Y-46.3727
G01 X58.9637 Y-46.3235
G01 X58.9906 Y-46.2753
G01 X59.0193 Y-46.2281
G01 X59.0497 Y-46.1820
G01 X59.0818 Y-46.1370
G01 X59.1155 Y-46.0933
G01 X59.1508 Y-46.0508
G01 X59.1876 Y-46.0097
G01 X59.2259 Y-45.9699
G01 X59.2657 Y-45.9316
G01 X59.3068 Y-45.8948
G01 X59.3493 Y-45.8595
G01 X59.3930 Y-45.8258
G01 X59.4380 Y-45.7937
G01 X59.4841 Y-45.7633
G01 X59.5313 Y-45.7346
G01 X59.5795 Y-45.7077
G01 X59.6287 Y-45.6826
G01 X59.6619 Y-45.6668
G01 X59.7125 Y-45.6448
G01 X59.7639 Y-45.6246
G01 X59.8161 Y-45.6063
G01 X59.8688 Y-45.5899
G01 X59.9221 Y-45.5755
G01 X59.9759 Y-45.5631
G01 X60.0301 Y-45.5527
G01 X60.0847 Y-45.5442
G01 X60.1395 Y-45.5378
G01 X60.1946 Y-45.5334
G01 X60.2498 Y-45.5310
G01 X60.3050 Y-45.5307
G01 X60.3602 Y-45.5324
G01 X60.4153 Y-45.5361
G01 X60.4702 Y-45.5419
G01 X60.5249 Y-45.5496
G01 X60.5792 Y-45.5594
G01 X60.6332 Y-45.5712
G01 X60.6866 Y-45.5849
G01 X60.7396 Y-45.6006
G01 X60.7919 Y-45.6183
G01 X60.8606 Y-45.6448
G01 X60.9112 Y-45.6668
G01 X60.9774 Y-45.6991
G01 X61.0419 Y-45.7346
G01 X61.0891 Y-45.7633
G01 X61.1352 Y-45.7937
G01 X61.1801 Y-45.8258
G01 X61.2382 Y-45.8711
G01 X61.2802 Y-45.9069
G01 X61.3341 Y-45.9570
G01 X61.3729 Y-45.9963
G01 X61.4224 Y-46.0508
G01 X61.4577 Y-46.0933
G01 X61.5023 Y-46.1519
G01 X61.5338 Y-46.1972
G01 X61.5732 Y-46.2594
G01 X61.6007 Y-46.3073
G01 X61.6346 Y-46.3727
G01 X61.6579 Y-46.4227
G01 X61.6793 Y-46.4736
G01 X61.7050 Y-46.5426
G01 X61.7272 Y-46.6128
G01 X61.7416 Y-46.6661
G01 X61.7541 Y-46.7199
G01 X61.7675 Y-46.7923
G01 X61.7774 Y-46.8653
G01 X61.7825 Y-46.9202
G01 X61.7856 Y-46.9754
G01 X61.7866 Y-47.0306
G01 X60.7866 Y-47.0306
G01 X60.7847 Y-47.0735
G01 X60.7792 Y-47.1161
G01 X60.7701 Y-47.1580
G01 X60.7573 Y-47.1990
G01 X60.7412 Y-47.2388
G01 X60.7304 Y-47.2609
G01 X60.7186 Y-47.2824
G01 X60.6954 Y-47.3185
G01 X60.6692 Y-47.3525
G01 X60.6401 Y-47.3841
G01 X60.6085 Y-47.4132
G01 X60.5745 Y-47.4394
G01 X60.5383 Y-47.4626
G01 X60.5168 Y-47.4744
G01 X60.4948 Y-47.4852
G01 X60.4550 Y-47.5014
G01 X60.4140 Y-47.5141
G01 X60.3721 Y-47.5232
G01 X60.3417 Y-47.5275
G01 X60.3050 Y-47.5303
G01 X60.2743 Y-47.5304
G01 X60.2437 Y-47.5287
G01 X60.2071 Y-47.5242
G01 X60.1770 Y-47.5184
G01 X60.1414 Y-47.5091
G01 X60.1124 Y-47.4993
G01 X60.0840 Y-47.4877
G01 X60.0509 Y-47.4716
G01 X60.0191 Y-47.4530
G01 X59.9937 Y-47.4358
G01 X59.9694 Y-47.4171
G01 X59.9463 Y-47.3969
G01 X59.9245 Y-47.3754
G01 X59.9001 Y-47.3478
G01 X59.8743 Y-47.3135
G01 X59.8515 Y-47.2770
G01 X59.8320 Y-47.2388
G01 X59.8158 Y-47.1990
G01 X59.8047 Y-47.1639
G01 X59.7950 Y-47.1221
G01 X59.7890 Y-47.0796
G01 X59.7866 Y-47.0367
G01 X59.7879 Y-46.9938
G01 X59.7929 Y-46.9512
G01 X59.8016 Y-46.9091
G01 X59.8118 Y-46.8738
G01 X59.8246 Y-46.8392
G01 X59.8428 Y-46.8003
G01 X59.8641 Y-46.7631
G01 X59.8887 Y-46.7278
G01 X59.9161 Y-46.6948
G01 X59.9418 Y-46.6685
G01 X59.9741 Y-46.6402
G01 X60.0088 Y-46.6149
G01 X60.0401 Y-46.5955
G01 X60.0784 Y-46.5760
G01 X60.1181 Y-46.5598
G01 X60.1591 Y-46.5471
G01 X60.2011 Y-46.5380
G01 X60.2437 Y-46.5324
G01 X60.2866 Y-46.5306
G01 X60.3295 Y-46.5324
G01 X60.3721 Y-46.5380
G01 X60.4140 Y-46.5471
G01 X60.4550 Y-46.5598
G01 X60.4892 Y-46.5735
G01 X60.5223 Y-46.5896
G01 X60.5541 Y-46.6082
G01 X60.5844 Y-46.6290
G01 X60.6132 Y-46.6520
G01 X60.6401 Y-46.6770
G01 X60.6652 Y-46.7040
G01 X60.6845 Y-46.7278
G01 X60.7057 Y-46.7579
G01 X60.7246 Y-46.7895
G01 X60.7412 Y-46.8224
G01 X60.7552 Y-46.8564
G01 X60.7668 Y-46.8913
G01 X60.7744 Y-46.9210
G01 X60.7812 Y-46.9572
G01 X60.7852 Y-46.9938
G01 X60.7866 Y-47.0306
G01 X63.2880 Y-48.8310
G01 X63.2436 Y-48.9031
G01 X63.2204 Y-48.9392
G01 X63.1967 Y-48.9751
G01 X63.1481 Y-49.0459
G01 X63.0978 Y-49.1155
G01 X63.0720 Y-49.1499
G01 X63.0458 Y-49.1839
G01 X62.9921 Y-49.2510
G01 X62.9647 Y-49.2840
G01 X62.9086 Y-49.3490
G01 X62.8509 Y-49.4127
G01 X62.8214 Y-49.4440
G01 X62.7614 Y-49.5055
G01 X62.7309 Y-49.5356
G01 X62.7000 Y-49.5655
G01 X62.6370 Y-49.6239
G01 X62.6050 Y-49.6526
G01 X62.5400 Y-49.7087
G01 X62.4736 Y-49.7632
G01 X62.4399 Y-49.7898
G01 X62.3715 Y-49.8418
G01 X62.3369 Y-49.8672
G01 X62.2666 Y-49.9167
G01 X62.2311 Y-49.9407
G01 X62.1591 Y-49.9876
G01 X62.1226 Y-50.0103
G01 X62.0859 Y-50.0326
G01 X62.0117 Y-50.0759
G01 X61.9742 Y-50.0968
G01 X61.8985 Y-50.1373
G01 X61.7913 Y-50.1906
G01 X58.7819 Y-50.1906
G01 X58.6747 Y-50.1373
G01 X58.6367 Y-50.1173
G01 X58.5614 Y-50.0759
G01 X58.4872 Y-50.0326
G01 X58.4505 Y-50.0103
G01 X58.4141 Y-49.9876
G01 X58.3421 Y-49.9407
G01 X58.2712 Y-49.8921
G01 X58.2363 Y-49.8672
G01 X58.2016 Y-49.8418
G01 X58.1333 Y-49.7898
G01 X58.0662 Y-49.7361
G01 X58.0332 Y-49.7087
G01 X57.9681 Y-49.6526
G01 X57.9361 Y-49.6239
G01 X57.8732 Y-49.5655
G01 X57.8423 Y-49.5356
G01 X57.7815 Y-49.4749
G01 X57.7517 Y-49.4440
G01 X57.7223 Y-49.4127
G01 X57.6646 Y-49.3490
G01 X57.6085 Y-49.2840
G01 X57.5810 Y-49.2510
G01 X57.5274 Y-49.1839
G01 X57.5011 Y-49.1499
G01 X57.4753 Y-49.1155
G01 X57.4250 Y-49.0459
G01 X57.3764 Y-48.9751
G01 X57.3528 Y-48.9392
G01 X57.3296 Y-48.9031
G01 X57.2852 Y-48.8310
G00 Z2.0000
G00 X57.2851 Y-50.1906
G01 F70.00
G01 Z-0.0800
G01 F120.00
G01 X57.2852 Y-43.8706
G01 X63.2880 Y-43.8703
G01 X63.2880 Y-50.1906
G01 X57.2851 Y-50.1906
G00 Z2.0000
G00 X45.6969 Y-41.9399
G01 F70.00
G01 Z-0.0800
G01 F120.00
G01 X45.6974 Y-41.9178
G01 X45.6991 Y-41.8958
G01 X45.7018 Y-41.8739
G01 X45.7055 Y-41.8521
G01 X45.7104 Y-41.8306
G01 X45.7163 Y-41.8093
G01 X45.7232 Y-41.7883
G01 X45.7311 Y-41.7677
G01 X45.7401 Y-41.7475
G01 X45.7500 Y-41.7278
G01 X45.7609 Y-41.7086
G01 X45.7727 Y-41.6899
G01 X45.7854 Y-41.6719
G01 X45.7990 Y-41.6545
G01 X45.8134 Y-41.6378
G01 X45.8287 Y-41.6218
G01 X45.8447 Y-41.6065
G01 X45.8614 Y-41.5921
G01 X45.8788 Y-41.5785
G01 X45.8968 Y-41.5658
G01 X45.9155 Y-41.5540
G01 X45.9347 Y-41.5431
G01 X45.9544 Y-41.5332
G01 X45.9746 Y-41.5242
G01 X45.9952 Y-41.5163
G01 X46.0162 Y-41.5094
G01 X46.0375 Y-41.5035
G01 X46.0590 Y-41.4986
G01 X46.0808 Y-41.4949
G01 X46.1027 Y-41.4922
G01 X46.1247 Y-41.4905
G01 X46.1468 Y-41.4900
G01 X46.1689 Y-41.4905
G01 X46.1909 Y-41.4922
G01 X46.2128 Y-41.4949
G01 X46.2346 Y-41.4986
G01 X46.2561 Y-41.5035
G01 X46.2774 Y-41.5094
G01 X46.2984 Y-41.5163
G01 X46.3190 Y-41.5242
G01 X46.3392 Y-41.5332
G01 X46.3589 Y-41.5431
G01 X46.3781 Y-41.5540
G01 X46.3968 Y-41.5658
G01 X46.4148 Y-41.5785
G01 X46.4322 Y-41.5921
G01 X46.4489 Y-41.6065
G01 X46.4649 Y-41.6218
G01 X46.4802 Y-41.6378
G01 X46.4946 Y-41.6545
G01 X46.5082 Y-41.6719
G01 X46.5209 Y-41.6899
G01 X46.5327 Y-41.7086
G01 X46.5436 Y-41.7278
G01 X46.5535 Y-41.7475
G01 X46.5625 Y-41.7677
G01 X46.5704 Y-41.7883
G01 X46.5773 Y-41.8093
G01 X46.5832 Y-41.8306
G01 X46.5881 Y-41.8521
G01 X46.5918 Y-41.8739
G01 X46.5945 Y-41.8958
G01 X46.5962 Y-41.9178
G01 X46.5967 Y-41.9399
G01 X46.5962 Y-41.9620
G01 X46.5945 Y-41.9840
G01 X46.5918 Y-42.0059
G01 X46.5881 Y-42.0277
G01 X46.5832 Y-42.0492
G01 X46.5773 Y-42.0705
G01 X46.5704 Y-42.0915
G01 X46.5625 Y-42.1121
G01 X46.5535 Y-42.1323
G01 X46.5436 Y-42.1520
G01 X46.5327 Y-42.1712
G01 X46.5209 Y-42.1899
G01 X46.5082 Y-42.2079
G01 X46.4946 Y-42.2253
G01 X46.4802 Y-42.2420
G01 X46.4649 Y-42.2580
G01 X46.4489 Y-42.2733
G01 X46.4322 Y-42.2877
G01 X46.4148 Y-42.3013
G01 X46.3968 Y-42.3140
G01 X46.3781 Y-42.3258
G01 X46.3589 Y-42.3367
G01 X46.3392 Y-42.3466
G01 X46.3190 Y-42.3556
G01 X46.2984 Y-42.3635
G01 X46.2774 Y-42.3704
G01 X46.2561 Y-42.3763
G01 X46.2346 Y-42.3812
G01 X46.2128 Y-42.3849
G01 X46.1909 Y-42.3876
G01 X46.1689 Y-42.3893
G01 X46.1468 Y-42.3898
G01 X46.1247 Y-42.3893
G01 X46.1027 Y-42.3876
G01 X46.0808 Y-42.3849
G01 X46.0590 Y-42.3812
G01 X46.0375 Y-42.3763
G01 X46.0162 Y-42.3704
G01 X45.9952 Y-42.3635
G01 X45.9746 Y-42.3556
G01 X45.9544 Y-42.3466
G01 X45.9347 Y-42.3367
G01 X45.9155 Y-42.3258
G01 X45.8968 Y-42.3140
G01 X45.8788 Y-42.3013
G01 X45.8614 Y-42.2877
G01 X45.8447 Y-42.2733
G01 X45.8287 Y-42.2580
G01 X45.8134 Y-42.2420
G01 X45.7990 Y-42.2253
G01 X45.7854 Y-42.2079
G01 X45.7727 Y-42.1899
G01 X45.7609 Y-42.1712
G01 X45.7500 Y-42.1520
G01 X45.7401 Y-42.1323
G01 X45.7311 Y-42.1121
G01 X45.7232 Y-42.0915
G01 X45.7163 Y-42.0705
G01 X45.7104 Y-42.0492
G01 X45.7055 Y-42.0277
G01 X45.7018 Y-42.0059
G01 X45.6991 Y-41.9840
G01 X45.6974 Y-41.9620
G01 X45.6969 Y-41.9399
G00 Z2.0000
G00 X42.1614 Y-38.4044
G01 F70.00
G01 Z-0.0800
G01 F120.00
G01 X42.1619 Y-38.3823
G01 X42.1636 Y-38.3603
G01 X42.1663 Y-38.3384
G01 X42.1700 Y-38.3166
G01 X42.1749 Y-38.2951
G01 X42.1808 Y-38.2738
G01 X42.1877 Y-38.2528
G01 X42.1956 Y-38.2322
G01 X42.2046 Y-38.2120
G01 X42.2145 Y-38.1923
G01 X42.2254 Y-38.1731
G01 X42.2372 Y-38.1544
G01 X42.2499 Y-38.1364
G01 X42.2635 Y-38.1190
G01 X42.2779 Y-38.1023
G01 X42.2932 Y-38.0863
G01 X42.3092 Y-38.0710
G01 X42.3259 Y-38.0566
G01 X42.3433 Y-38.0430
G01 X42.3613 Y-38.0303
G01 X42.3800 Y-38.0185
G01 X42.3992 Y-38.0076
G01 X42.4189 Y-37.9977
G01 X42.4391 Y-37.9887
G01 X42.4597 Y-37.9808
G01 X42.4807 Y-37.9739
G01 X42.5020 Y-37.9680
G01 X42.5235 Y-37.9631
G01 X42.5453 Y-37.9594
G01 X42.5672 Y-37.9567
G01 X42.5892 Y-37.9550
G01 X42.6113 Y-37.9545
G01 X42.6334 Y-37.9550
G01 X42.6554 Y-37.9567
G01 X42.6773 Y-37.9594
G01 X42.6991 Y-37.9631
G01 X42.7206 Y-37.9680
G01 X42.7419 Y-37.9739
G01 X42.7629 Y-37.9808
G01 X42.7835 Y-37.9887
G01 X42.8037 Y-37.9977
G01 X42.8234 Y-38.0076
G01 X42.8426 Y-38.0185
G01 X42.8613 Y-38.0303
G01 X42.8793 Y-38.0430
G01 X42.8967 Y-38.0566
G01 X42.9134 Y-38.0710
G01 X42.9294 Y-38.0863
G01 X42.9447 Y-38.1023
G01 X42.9591 Y-38.1190
G01 X42.9727 Y-38.1364
G01 X42.9854 Y-38.1544
G01 X42.9972 Y-38.1731
G01 X43.0081 Y-38.1923
G01 X43.0180 Y-38.2120
G01 X43.0270 Y-38.2322
G01 X43.0349 Y-38.2528
G01 X43.0418 Y-38.2738
G01 X43.0477 Y-38.2951
G01 X43.0526 Y-38.3166
G01 X43.0563 Y-38.3384
G01 X43.0590 Y-38.3603
G01 X43.0607 Y-38.3823
G01 X43.0612 Y-38.4044
G01 X43.0607 Y-38.4265
G01 X43.0590 Y-38.4485
G01 X43.0563 Y-38.4704
G01 X43.0526 Y-38.4922
G01 X43.0477 Y-38.5137
G01 X43.0418 Y-38.5350
G01 X43.0349 Y-38.5560
G01 X43.0270 Y-38.5766
G01 X43.0180 Y-38.5968
G01 X43.0081 Y-38.6165
G01 X42.9972 Y-38.6357
G01 X42.9854 Y-38.6544
G01 X42.9727 Y-38.6724
G01 X42.9591 Y-38.6898
G01 X42.9447 Y-38.7065
G01 X42.9294 Y-38.7225
G01 X42.9134 Y-38.7378
G01 X42.8967 Y-38.7522
G01 X42.8793 Y-38.7658
G01 X42.8613 Y-38.7785
G01 X42.8426 Y-38.7903
G01 X42.8234 Y-38.8012
G01 X42.8037 Y-38.8111
G01 X42.7835 Y-38.8201
G01 X42.7629 Y-38.8280
G01 X42.7419 Y-38.8349
G01 X42.7206 Y-38.8408
G01 X42.6991 Y-38.8457
G01 X42.6773 Y-38.8494
G01 X42.6554 Y-38.8521
G01 X42.6334 Y-38.8538
G01 X42.6113 Y-38.8543
G01 X42.5892 Y-38.8538
G01 X42.5672 Y-38.8521
G01 X42.5453 Y-38.8494
G01 X42.5235 Y-38.8457
G01 X42.5020 Y-38.8408
G01 X42.4807 Y-38.8349
G01 X42.4597 Y-38.8280
G01 X42.4391 Y-38.8201
G01 X42.4189 Y-38.8111
G01 X42.3992 Y-38.8012
G01 X42.3800 Y-38.7903
G01 X42.3613 Y-38.7785
G01 X42.3433 Y-38.7658
G01 X42.3259 Y-38.7522
G01 X42.3092 Y-38.7378
G01 X42.2932 Y-38.7225
G01 X42.2779 Y-38.7065
G01 X42.2635 Y-38.6898
G01 X42.2499 Y-38.6724
G01 X42.2372 Y-38.6544
G01 X42.2254 Y-38.6357
G01 X42.2145 Y-38.6165
G01 X42.2046 Y-38.5968
G01 X42.1956 Y-38.5766
G01 X42.1877 Y-38.5560
G01 X42.1808 Y-38.5350
G01 X42.1749 Y-38.5137
G01 X42.1700 Y-38.4922
G01 X42.1663 Y-38.4704
G01 X42.1636 Y-38.4485
G01 X42.1619 Y-38.4265
G01 X42.1614 Y-38.4044
G00 Z2.0000
G00 X37.9647 Y-41.9497
G01 F70.00
G01 Z-0.0800
G01 F120.00
G01 X37.9641 Y-41.9252
G01 X37.9623 Y-41.9007
G01 X37.9593 Y-41.8764
G01 X37.9551 Y-41.8522
G01 X37.9497 Y-41.8283
G01 X37.9432 Y-41.8046
G01 X37.9355 Y-41.7814
G01 X37.9267 Y-41.7585
G01 X37.9167 Y-41.7361
G01 X37.9057 Y-41.7141
G01 X37.8936 Y-41.6928
G01 X37.8805 Y-41.6721
G01 X37.8664 Y-41.6520
G01 X37.8513 Y-41.6327
G01 X37.8353 Y-41.6141
G01 X37.8183 Y-41.5964
G01 X37.8006 Y-41.5794
G01 X37.7820 Y-41.5634
G01 X37.7627 Y-41.5483
G01 X37.7426 Y-41.5342
G01 X37.7219 Y-41.5211
G01 X37.7006 Y-41.5090
G01 X37.6786 Y-41.4980
G01 X37.6562 Y-41.4880
G01 X37.6333 Y-41.4792
G01 X37.6101 Y-41.4715
G01 X37.5864 Y-41.4650
G01 X37.5625 Y-41.4596
G01 X37.5383 Y-41.4554
G01 X37.5140 Y-41.4524
G01 X37.4895 Y-41.4506
G01 X37.4650 Y-41.4500
G01 X37.4405 Y-41.4506
G01 X37.4160 Y-41.4524
G01 X37.3917 Y-41.4554
G01 X37.3675 Y-41.4596
G01 X37.3436 Y-41.4650
G01 X37.3199 Y-41.4715
G01 X37.2967 Y-41.4792
G01 X37.2738 Y-41.4880
G01 X37.2514 Y-41.4980
G01 X37.2294 Y-41.5090
G01 X37.2081 Y-41.5211
G01 X37.1874 Y-41.5342
G01 X37.1673 Y-41.5483
G01 X37.1480 Y-41.5634
G01 X37.1294 Y-41.5794
G01 X37.1117 Y-41.5964
G01 X37.0947 Y-41.6141
G01 X37.0787 Y-41.6327
G01 X37.0636 Y-41.6520
G01 X37.0495 Y-41.6721
G01 X37.0364 Y-41.6928
G01 X37.0243 Y-41.7141
G01 X37.0133 Y-41.7361
G01 X37.0033 Y-41.7585
G01 X36.9945 Y-41.7814
G01 X36.9868 Y-41.8046
G01 X36.9803 Y-41.8283
G01 X36.9749 Y-41.8522
G01 X36.9707 Y-41.8764
G01 X36.9677 Y-41.9007
G01 X36.9659 Y-41.9252
G01 X36.9653 Y-41.9497
G01 X36.9659 Y-41.9742
G01 X36.9677 Y-41.9987
G01 X36.9707 Y-42.0230
G01 X36.9749 Y-42.0472
G01 X36.9803 Y-42.0711
G01 X36.9868 Y-42.0948
G01 X36.9945 Y-42.1180
G01 X37.0033 Y-42.1409
G01 X37.0133 Y-42.1633
G01 X37.0243 Y-42.1853
G01 X37.0364 Y-42.2066
G01 X37.0495 Y-42.2273
G01 X37.0636 Y-42.2474
G01 X37.0787 Y-42.2667
G01 X37.0947 Y-42.2853
G01 X37.1117 Y-42.3030
G01 X37.1294 Y-42.3200
G01 X37.1480 Y-42.3360
G01 X37.1673 Y-42.3511
G01 X37.1874 Y-42.3652
G01 X37.2081 Y-42.3783
G01 X37.2294 Y-42.3904
G01 X37.2514 Y-42.4014
G01 X37.2738 Y-42.4114
G01 X37.2967 Y-42.4202
G01 X37.3199 Y-42.4279
G01 X37.3436 Y-42.4344
G01 X37.3675 Y-42.4398
G01 X37.3917 Y-42.4440
G01 X37.4160 Y-42.4470
G01 X37.4405 Y-42.4488
G01 X37.4650 Y-42.4494
G01 X37.4895 Y-42.4488
G01 X37.5140 Y-42.4470
G01 X37.5383 Y-42.4440
G01 X37.5625 Y-42.4398
G01 X37.5864 Y-42.4344
G01 X37.6101 Y-42.4279
G01 X37.6333 Y-42.4202
G01 X37.6562 Y-42.4114
G01 X37.6786 Y-42.4014
G01 X37.7006 Y-42.3904
G01 X37.7219 Y-42.3783
G01 X37.7426 Y-42.3652
G01 X37.7627 Y-42.3511
G01 X37.7820 Y-42.3360
G01 X37.8006 Y-42.3200
G01 X37.8183 Y-42.3030
G01 X37.8353 Y-42.2853
G01 X37.8513 Y-42.2667
G01 X37.8664 Y-42.2474
G01 X37.8805 Y-42.2273
G01 X37.8936 Y-42.2066
G01 X37.9057 Y-42.1853
G01 X37.9167 Y-42.1633
G01 X37.9267 Y-42.1409
G01 X37.9355 Y-42.1180
G01 X37.9432 Y-42.0948
G01 X37.9497 Y-42.0711
G01 X37.9551 Y-42.0472
G01 X37.9593 Y-42.0230
G01 X37.9623 Y-41.9987
G01 X37.9641 Y-41.9742
G01 X37.9647 Y-41.9497
G01 X36.9656 Y-41.9620
G01 X36.9659 Y-41.9681
G01 X36.9664 Y-41.9742
G01 X36.9674 Y-41.9864
G01 X36.9704 Y-42.0108
G01 X36.9746 Y-42.0350
G01 X36.9800 Y-42.0589
G01 X36.9865 Y-42.0826
G01 X36.9942 Y-42.1059
G01 X37.0104 Y-42.1457
G01 X37.0300 Y-42.1839
G01 X37.0426 Y-42.2049
G01 X37.0562 Y-42.2253
G01 X37.0708 Y-42.2451
G01 X37.0864 Y-42.2640
G01 X37.1029 Y-42.2822
G01 X37.1202 Y-42.2996
G01 X37.1384 Y-42.3160
G01 X37.1574 Y-42.3316
G01 X37.1771 Y-42.3462
G01 X37.1975 Y-42.3599
G01 X37.2186 Y-42.3725
G01 X37.2402 Y-42.3841
G01 X37.2793 Y-42.4017
G01 X37.3023 Y-42.4102
G01 X37.3257 Y-42.4177
G01 X37.3495 Y-42.4239
G01 X37.3735 Y-42.4290
G01 X37.3977 Y-42.4329
G01 X37.4221 Y-42.4356
G01 X37.4650 Y-42.4374
G01 X37.5079 Y-42.4356
G01 X37.5323 Y-42.4329
G01 X37.5565 Y-42.4290
G01 X37.5805 Y-42.4239
G01 X37.6043 Y-42.4177
G01 X37.6277 Y-42.4102
G01 X37.6507 Y-42.4017
G01 X37.6732 Y-42.3920
G01 X37.6953 Y-42.3813
G01 X37.7168 Y-42.3694
G01 X37.7377 Y-42.3566
G01 X37.7726 Y-42.3316
G01 X37.7916 Y-42.3160
G01 X37.8098 Y-42.2996
G01 X37.8271 Y-42.2822
G01 X37.8436 Y-42.2640
G01 X37.8592 Y-42.2451
G01 X37.8738 Y-42.2253
G01 X37.8970 Y-42.1892
G01 X37.9088 Y-42.1677
G01 X37.9196 Y-42.1457
G01 X37.9358 Y-42.1059
G01 X37.9435 Y-42.0826
G01 X37.9500 Y-42.0589
G01 X37.9554 Y-42.0350
G01 X37.9596 Y-42.0108
G01 X37.9626 Y-41.9864
G01 X37.9636 Y-41.9742
G01 X37.9641 Y-41.9681
G01 X37.9644 Y-41.9620
G00 Z2.0000
G00 X32.5831 Y-40.2971
G01 F70.00
G01 Z-0.0800
G01 F120.00
G01 X32.5836 Y-40.2750
G01 X32.5853 Y-40.2530
G01 X32.5880 Y-40.2311
G01 X32.5917 Y-40.2093
G01 X32.5966 Y-40.1878
G01 X32.6025 Y-40.1665
G01 X32.6094 Y-40.1455
G01 X32.6173 Y-40.1249
G01 X32.6263 Y-40.1047
G01 X32.6362 Y-40.0850
G01 X32.6471 Y-40.0658
G01 X32.6589 Y-40.0471
G01 X32.6716 Y-40.0291
G01 X32.6852 Y-40.0117
G01 X32.6996 Y-39.9950
G01 X32.7149 Y-39.9790
G01 X32.7309 Y-39.9637
G01 X32.7476 Y-39.9493
G01 X32.7650 Y-39.9357
G01 X32.7830 Y-39.9230
G01 X32.8017 Y-39.9112
G01 X32.8209 Y-39.9003
G01 X32.8406 Y-39.8904
G01 X32.8608 Y-39.8814
G01 X32.8814 Y-39.8735
G01 X32.9024 Y-39.8666
G01 X32.9237 Y-39.8607
G01 X32.9452 Y-39.8558
G01 X32.9670 Y-39.8521
G01 X32.9889 Y-39.8494
G01 X33.0109 Y-39.8477
G01 X33.0330 Y-39.8472
G01 X33.0551 Y-39.8477
G01 X33.0771 Y-39.8494
G01 X33.0990 Y-39.8521
G01 X33.1208 Y-39.8558
G01 X33.1423 Y-39.8607
G01 X33.1636 Y-39.8666
G01 X33.1846 Y-39.8735
G01 X33.2052 Y-39.8814
G01 X33.2254 Y-39.8904
G01 X33.2451 Y-39.9003
G01 X33.2643 Y-39.9112
G01 X33.2830 Y-39.9230
G01 X33.3010 Y-39.9357
G01 X33.3184 Y-39.9493
G01 X33.3351 Y-39.9637
G01 X33.3511 Y-39.9790
G01 X33.3664 Y-39.9950
G01 X33.3808 Y-40.0117
G01 X33.3944 Y-40.0291
G01 X33.4071 Y-40.0471
G01 X33.4189 Y-40.0658
G01 X33.4298 Y-40.0850
G01 X33.4397 Y-40.1047
G01 X33.4487 Y-40.1249
G01 X33.4566 Y-40.1455
G01 X33.4635 Y-40.1665
G01 X33.4694 Y-40.1878
G01 X33.4743 Y-40.2093
G01 X33.4780 Y-40.2311
G01 X33.4807 Y-40.2530
G01 X33.4824 Y-40.2750
G01 X33.4829 Y-40.2971
G01 X33.4824 Y-40.3192
G01 X33.4807 Y-40.3412
G01 X33.4780 Y-40.3631
G01 X33.4743 Y-40.3849
G01 X33.4694 Y-40.4064
G01 X33.4635 Y-40.4277
G01 X33.4566 Y-40.4487
G01 X33.4487 Y-40.4693
G01 X33.4397 Y-40.4895
G01 X33.4298 Y-40.5092
G01 X33.4189 Y-40.5284
G01 X33.4071 Y-40.5471
G01 X33.3944 Y-40.5651
G01 X33.3808 Y-40.5825
G01 X33.3664 Y-40.5992
G01 X33.3511 Y-40.6152
G01 X33.3351 Y-40.6305
G01 X33.3184 Y-40.6449
G01 X33.3010 Y-40.6585
G01 X33.2830 Y-40.6712
G01 X33.2643 Y-40.6830
G01 X33.2451 Y-40.6939
G01 X33.2254 Y-40.7038
G01 X33.2052 Y-40.7128
G01 X33.1846 Y-40.7207
G01 X33.1636 Y-40.7276
G01 X33.1423 Y-40.7335
G01 X33.1208 Y-40.7384
G01 X33.0990 Y-40.7421
G01 X33.0771 Y-40.7448
G01 X33.0551 Y-40.7465
G01 X33.0330 Y-40.7470
G01 X33.0109 Y-40.7465
G01 X32.9889 Y-40.7448
G01 X32.9670 Y-40.7421
G01 X32.9452 Y-40.7384
G01 X32.9237 Y-40.7335
G01 X32.9024 Y-40.7276
G01 X32.8814 Y-40.7207
G01 X32.8608 Y-40.7128
G01 X32.8406 Y-40.7038
G01 X32.8209 Y-40.6939
G01 X32.8017 Y-40.6830
G01 X32.7830 Y-40.6712
G01 X32.7650 Y-40.6585
G01 X32.7476 Y-40.6449
G01 X32.7309 Y-40.6305
G01 X32.7149 Y-40.6152
G01 X32.6996 Y-40.5992
G01 X32.6852 Y-40.5825
G01 X32.6716 Y-40.5651
G01 X32.6589 Y-40.5471
G01 X32.6471 Y-40.5284
G01 X32.6362 Y-40.5092
G01 X32.6263 Y-40.4895
G01 X32.6173 Y-40.4693
G01 X32.6094 Y-40.4487
G01 X32.6025 Y-40.4277
G01 X32.5966 Y-40.4064
G01 X32.5917 Y-40.3849
G01 X32.5880 Y-40.3631
G01 X32.5853 Y-40.3412
G01 X32.5836 Y-40.3192
G01 X32.5831 Y-40.2971
G00 Z2.0000
G00 X27.5831 Y-40.2971
G01 F70.00
G01 Z-0.0800
G01 F120.00
G01 X27.5836 Y-40.2750
G01 X27.5853 Y-40.2530
G01 X27.5880 Y-40.2311
G01 X27.5917 Y-40.2093
G01 X27.5966 Y-40.1878
G01 X27.6025 Y-40.1665
G01 X27.6094 Y-40.1455
G01 X27.6173 Y-40.1249
G01 X27.6263 Y-40.1047
G01 X27.6362 Y-40.0850
G01 X27.6471 Y-40.0658
G01 X27.6589 Y-40.0471
G01 X27.6716 Y-40.0291
G01 X27.6852 Y-40.0117
G01 X27.6996 Y-39.9950
G01 X27.7149 Y-39.9790
G01 X27.7309 Y-39.9637
G01 X27.7476 Y-39.9493
G01 X27.7650 Y-39.9357
G01 X27.7830 Y-39.9230
G01 X27.8017 Y-39.9112
G01 X27.8209 Y-39.9003
G01 X27.8406 Y-39.8904
G01 X27.8608 Y-39.8814
G01 X27.8814 Y-39.8735
G01 X27.9024 Y-39.8666
G01 X27.9237 Y-39.8607
G01 X27.9452 Y-39.8558
G01 X27.9670 Y-39.8521
G01 X27.9889 Y-39.8494
G01 X28.0109 Y-39.8477
G01 X28.0330 Y-39.8472
G01 X28.0551 Y-39.8477
G01 X28.0771 Y-39.8494
G01 X28.0990 Y-39.8521
G01 X28.1208 Y-39.8558
G01 X28.1423 Y-39.8607
G01 X28.1636 Y-39.8666
G01 X28.1846 Y-39.8735
G01 X28.2052 Y-39.8814
G01 X28.2254 Y-39.8904
G01 X28.2451 Y-39.9003
G01 X28.2643 Y-39.9112
G01 X28.2830 Y-39.9230
G01 X28.3010 Y-39.9357
G01 X28.3184 Y-39.9493
G01 X28.3351 Y-39.9637
G01 X28.3511 Y-39.9790
G01 X28.3664 Y-39.9950
G01 X28.3808 Y-40.0117
G01 X28.3944 Y-40.0291
G01 X28.4071 Y-40.0471
G01 X28.4189 Y-40.0658
G01 X28.4298 Y-40.0850
G01 X28.4397 Y-40.1047
G01 X28.4487 Y-40.1249
G01 X28.4566 Y-40.1455
G01 X28.4635 Y-40.1665
G01 X28.4694 Y-40.1878
G01 X28.4743 Y-40.2093
G01 X28.4780 Y-40.2311
G01 X28.4807 Y-40.2530
G01 X28.4824 Y-40.2750
G01 X28.4829 Y-40.2971
G01 X28.4824 Y-40.3192
G01 X28.4807 Y-40.3412
G01 X28.4780 Y-40.3631
G01 X28.4743 Y-40.3849
G01 X28.4694 Y-40.4064
G01 X28.4635 Y-40.4277
G01 X28.4566 Y-40.4487
G01 X28.4487 Y-40.4693
G01 X28.4397 Y-40.4895
G01 X28.4298 Y-40.5092
G01 X28.4189 Y-40.5284
G01 X28.4071 Y-40.5471
G01 X28.3944 Y-40.5651
G01 X28.3808 Y-40.5825
G01 X28.3664 Y-40.5992
G01 X28.3511 Y-40.6152
G01 X28.3351 Y-40.6305
G01 X28.3184 Y-40.6449
G01 X28.3010 Y-40.6585
G01 X28.2830 Y-40.6712
G01 X28.2643 Y-40.6830
G01 X28.2451 Y-40.6939
G01 X28.2254 Y-40.7038
G01 X28.2052 Y-40.7128
G01 X28.1846 Y-40.7207
G01 X28.1636 Y-40.7276
G01 X28.1423 Y-40.7335
G01 X28.1208 Y-40.7384
G01 X28.0990 Y-40.7421
G01 X28.0771 Y-40.7448
G01 X28.0551 Y-40.7465
G01 X28.0330 Y-40.7470
G01 X28.0109 Y-40.7465
G01 X27.9889 Y-40.7448
G01 X27.9670 Y-40.7421
G01 X27.9452 Y-40.7384
G01 X27.9237 Y-40.7335
G01 X27.9024 Y-40.7276
G01 X27.8814 Y-40.7207
G01 X27.8608 Y-40.7128
G01 X27.8406 Y-40.7038
G01 X27.8209 Y-40.6939
G01 X27.8017 Y-40.6830
G01 X27.7830 Y-40.6712
G01 X27.7650 Y-40.6585
G01 X27.7476 Y-40.6449
G01 X27.7309 Y-40.6305
G01 X27.7149 Y-40.6152
G01 X27.6996 Y-40.5992
G01 X27.6852 Y-40.5825
G01 X27.6716 Y-40.5651
G01 X27.6589 Y-40.5471
G01 X27.6471 Y-40.5284
G01 X27.6362 Y-40.5092
G01 X27.6263 Y-40.4895
G01 X27.6173 Y-40.4693
G01 X27.6094 Y-40.4487
G01 X27.6025 Y-40.4277
G01 X27.5966 Y-40.4064
G01 X27.5917 Y-40.3849
G01 X27.5880 Y-40.3631
G01 X27.5853 Y-40.3412
G01 X27.5836 Y-40.3192
G01 X27.5831 Y-40.2971
G00 Z2.0000
G00 X15.5807 Y-32.1195
G01 F70.00
G01 Z-0.0800
G01 F120.00
G01 X15.5789 Y-32.1439
G01 X15.5759 Y-32.1683
G01 X15.5717 Y-32.1925
G01 X15.5663 Y-32.2164
G01 X15.5598 Y-32.2401
G01 X15.5521 Y-32.2634
G01 X15.5359 Y-32.3032
G01 X15.5251 Y-32.3252
G01 X15.5133 Y-32.3467
G01 X15.5004 Y-32.3676
G01 X15.4865 Y-32.3878
G01 X15.4599 Y-32.4215
G01 X15.4434 Y-32.4397
G01 X15.4261 Y-32.4571
G01 X15.4079 Y-32.4735
G01 X15.3889 Y-32.4891
G01 X15.3692 Y-32.5037
G01 X15.3488 Y-32.5174
G01 X15.3277 Y-32.5300
G01 X15.3061 Y-32.5416
G01 X15.2670 Y-32.5592
G01 X15.2440 Y-32.5677
G01 X15.2206 Y-32.5752
G01 X15.1968 Y-32.5814
G01 X15.1728 Y-32.5865
G01 X15.1486 Y-32.5904
G01 X15.1242 Y-32.5931
G01 X15.0813 Y-32.5949
G01 X15.0384 Y-32.5931
G01 X15.0140 Y-32.5904
G01 X14.9898 Y-32.5865
G01 X14.9658 Y-32.5814
G01 X14.9420 Y-32.5752
G01 X14.9186 Y-32.5677
G01 X14.8956 Y-32.5592
G01 X14.8565 Y-32.5416
G01 X14.8349 Y-32.5300
G01 X14.8138 Y-32.5174
G01 X14.7934 Y-32.5037
G01 X14.7737 Y-32.4891
G01 X14.7547 Y-32.4735
G01 X14.7365 Y-32.4571
G01 X14.7067 Y-32.4261
G01 X14.6909 Y-32.4074
G01 X14.6761 Y-32.3878
G01 X14.6622 Y-32.3676
G01 X14.6493 Y-32.3467
G01 X14.6375 Y-32.3252
G01 X14.6267 Y-32.3032
G01 X14.6170 Y-32.2806
G01 X14.6085 Y-32.2576
G01 X14.5963 Y-32.2164
G01 X14.5909 Y-32.1925
G01 X14.5867 Y-32.1683
G01 X14.5837 Y-32.1439
G01 X14.5819 Y-32.1195
G01 X15.5810 Y-32.1072
G01 X15.5804 Y-32.1317
G01 X15.5786 Y-32.1562
G01 X15.5756 Y-32.1805
G01 X15.5714 Y-32.2047
G01 X15.5660 Y-32.2286
G01 X15.5595 Y-32.2523
G01 X15.5518 Y-32.2755
G01 X15.5430 Y-32.2984
G01 X15.5330 Y-32.3208
G01 X15.5220 Y-32.3428
G01 X15.5099 Y-32.3641
G01 X15.4968 Y-32.3848
G01 X15.4827 Y-32.4049
G01 X15.4676 Y-32.4242
G01 X15.4516 Y-32.4428
G01 X15.4346 Y-32.4605
G01 X15.4169 Y-32.4775
G01 X15.3983 Y-32.4935
G01 X15.3790 Y-32.5086
G01 X15.3589 Y-32.5227
G01 X15.3382 Y-32.5358
G01 X15.3169 Y-32.5479
G01 X15.2949 Y-32.5589
G01 X15.2725 Y-32.5689
G01 X15.2496 Y-32.5777
G01 X15.2264 Y-32.5854
G01 X15.2027 Y-32.5919
G01 X15.1788 Y-32.5973
G01 X15.1546 Y-32.6015
G01 X15.1303 Y-32.6045
G01 X15.1058 Y-32.6063
G01 X15.0813 Y-32.6069
G01 X15.0568 Y-32.6063
G01 X15.0323 Y-32.6045
G01 X15.0080 Y-32.6015
G01 X14.9838 Y-32.5973
G01 X14.9599 Y-32.5919
G01 X14.9362 Y-32.5854
G01 X14.9130 Y-32.5777
G01 X14.8901 Y-32.5689
G01 X14.8677 Y-32.5589
G01 X14.8457 Y-32.5479
G01 X14.8244 Y-32.5358
G01 X14.8037 Y-32.5227
G01 X14.7836 Y-32.5086
G01 X14.7643 Y-32.4935
G01 X14.7457 Y-32.4775
G01 X14.7280 Y-32.4605
G01 X14.7110 Y-32.4428
G01 X14.6950 Y-32.4242
G01 X14.6799 Y-32.4049
G01 X14.6658 Y-32.3848
G01 X14.6527 Y-32.3641
G01 X14.6406 Y-32.3428
G01 X14.6296 Y-32.3208
G01 X14.6196 Y-32.2984
G01 X14.6108 Y-32.2755
G01 X14.6031 Y-32.2523
G01 X14.5966 Y-32.2286
G01 X14.5912 Y-32.2047
G01 X14.5870 Y-32.1805
G01 X14.5840 Y-32.1562
G01 X14.5822 Y-32.1317
G01 X14.5816 Y-32.1072
G01 X14.5822 Y-32.0827
G01 X14.5840 Y-32.0582
G01 X14.5870 Y-32.0339
G01 X14.5912 Y-32.0097
G01 X14.5966 Y-31.9858
G01 X14.6031 Y-31.9621
G01 X14.6108 Y-31.9389
G01 X14.6196 Y-31.9160
G01 X14.6296 Y-31.8936
G01 X14.6406 Y-31.8716
G01 X14.6527 Y-31.8503
G01 X14.6658 Y-31.8296
G01 X14.6799 Y-31.8095
G01 X14.6950 Y-31.7902
G01 X14.7110 Y-31.7716
G01 X14.7280 Y-31.7539
G01 X14.7457 Y-31.7369
G01 X14.7643 Y-31.7209
G01 X14.7836 Y-31.7058
G01 X14.8037 Y-31.6917
G01 X14.8244 Y-31.6786
G01 X14.8457 Y-31.6665
G01 X14.8677 Y-31.6555
G01 X14.8901 Y-31.6455
G01 X14.9130 Y-31.6367
G01 X14.9362 Y-31.6290
G01 X14.9599 Y-31.6225
G01 X14.9838 Y-31.6171
G01 X15.0080 Y-31.6129
G01 X15.0323 Y-31.6099
G01 X15.0568 Y-31.6081
G01 X15.0813 Y-31.6075
G01 X15.1058 Y-31.6081
G01 X15.1303 Y-31.6099
G01 X15.1546 Y-31.6129
G01 X15.1788 Y-31.6171
G01 X15.2027 Y-31.6225
G01 X15.2264 Y-31.6290
G01 X15.2496 Y-31.6367
G01 X15.2725 Y-31.6455
G01 X15.2949 Y-31.6555
G01 X15.3169 Y-31.6665
G01 X15.3382 Y-31.6786
G01 X15.3589 Y-31.6917
G01 X15.3790 Y-31.7058
G01 X15.3983 Y-31.7209
G01 X15.4169 Y-31.7369
G01 X15.4346 Y-31.7539
G01 X15.4516 Y-31.7716
G01 X15.4676 Y-31.7902
G01 X15.4827 Y-31.8095
G01 X15.4968 Y-31.8296
