(G-CODE GENERATED BY FLATCAM v8.993 - www.flatcam.org - Version Date: 2020/06/05)

(Name: Karat3_134K03_TX_Ф2_низ.gbr_iso_combined_cnc)
(Type: G-code from Geometry)
(Units: MM)

(Created on Wednesday, 23 December 2020 at 04:07)

(This preprocessor is the default preprocessor used by FlatCAM.)
(It is made to work with MACH3 compatible motion controllers.)

(TOOL DIAMETER: 0.14 mm)
(Feedrate_XY: 120.0 mm/min)
(Feedrate_Z: 70.0 mm/min)
(Feedrate rapids 1500.0 mm/min)

(Z_Cut: -0.06 mm)
(Z_Move: 2.0 mm)
(Z Start: None mm)
(Z End: 25.0 mm)
(Steps per circle: 128)
(Preprocessor Geometry: default)

(X range:  -74.8500 ...    0.3500  mm)
(Y range:  -80.9500 ...    0.3500  mm)

(Spindle Speed: 10000 RPM)
G21
G90
G94



G01 F120.00
G00 Z2.0000

M03 S10000
G00 X-2.0199 Y-2.0000
G01 F70.00
G01 Z-0.0600
G01 F120.00
G01 X-2.0184 Y-2.0076
G01 X-2.0141 Y-2.0141
G01 X-2.0076 Y-2.0184
G01 X-2.0000 Y-2.0199
G01 X-1.9924 Y-2.0184
G01 X-1.9859 Y-2.0141
G01 X-1.9816 Y-2.0076
G01 X-1.9801 Y-2.0000
G01 X-1.9816 Y-1.9924
G01 X-1.9859 Y-1.9859
G01 X-1.9924 Y-1.9816
G01 X-2.0000 Y-1.9801
G01 X-2.0076 Y-1.9816
G01 X-2.0141 Y-1.9859
G01 X-2.0184 Y-1.9924
G01 X-2.0199 Y-2.0000
G00 Z2.0000
G00 X-2.0899 Y-2.0000
G01 F70.00
G01 Z-0.0600
G01 F120.00
G01 X-2.0882 Y-2.0175
G01 X-2.0831 Y-2.0344
G01 X-2.0748 Y-2.0500
G01 X-2.0636 Y-2.0636
G01 X-2.0500 Y-2.0748
G01 X-2.0344 Y-2.0831
G01 X-2.0175 Y-2.0882
G01 X-2.0000 Y-2.0899
G01 X-1.9825 Y-2.0882
G01 X-1.9656 Y-2.0831
G01 X-1.9500 Y-2.0748
G01 X-1.9364 Y-2.0636
G01 X-1.9252 Y-2.0500
G01 X-1.9169 Y-2.0344
G01 X-1.9118 Y-2.0175
G01 X-1.9101 Y-2.0000
G01 X-1.9118 Y-1.9825
G01 X-1.9169 Y-1.9656
G01 X-1.9252 Y-1.9500
G01 X-1.9364 Y-1.9364
G01 X-1.9500 Y-1.9252
G01 X-1.9656 Y-1.9169
G01 X-1.9825 Y-1.9118
G01 X-2.0000 Y-1.9101
G01 X-2.0175 Y-1.9118
G01 X-2.0344 Y-1.9169
G01 X-2.0500 Y-1.9252
G01 X-2.0636 Y-1.9364
G01 X-2.0748 Y-1.9500
G01 X-2.0831 Y-1.9656
G01 X-2.0882 Y-1.9825
G01 X-2.0899 Y-2.0000
G00 Z2.0000
G00 X-2.1600 Y-2.0000
G01 F70.00
G01 Z-0.0600
G01 F120.00
G01 X-2.1592 Y-2.0157
G01 X-2.1569 Y-2.0312
G01 X-2.1531 Y-2.0464
G01 X-2.1478 Y-2.0612
G01 X-2.1411 Y-2.0754
G01 X-2.1330 Y-2.0889
G01 X-2.1236 Y-2.1015
G01 X-2.1131 Y-2.1131
G01 X-2.1015 Y-2.1236
G01 X-2.0889 Y-2.1330
G01 X-2.0754 Y-2.1411
G01 X-2.0612 Y-2.1478
G01 X-2.0464 Y-2.1531
G01 X-2.0312 Y-2.1569
G01 X-2.0157 Y-2.1592
G01 X-2.0000 Y-2.1600
G01 X-1.9843 Y-2.1592
G01 X-1.9688 Y-2.1569
G01 X-1.9536 Y-2.1531
G01 X-1.9388 Y-2.1478
G01 X-1.9246 Y-2.1411
G01 X-1.9111 Y-2.1330
G01 X-1.8985 Y-2.1236
G01 X-1.8869 Y-2.1131
G01 X-1.8764 Y-2.1015
G01 X-1.8670 Y-2.0889
G01 X-1.8589 Y-2.0754
G01 X-1.8522 Y-2.0612
G01 X-1.8469 Y-2.0464
G01 X-1.8431 Y-2.0312
G01 X-1.8408 Y-2.0157
G01 X-1.8400 Y-2.0000
G01 X-1.8408 Y-1.9843
G01 X-1.8431 Y-1.9688
G01 X-1.8469 Y-1.9536
G01 X-1.8522 Y-1.9388
G01 X-1.8589 Y-1.9246
G01 X-1.8670 Y-1.9111
G01 X-1.8764 Y-1.8985
G01 X-1.8869 Y-1.8869
G01 X-1.8985 Y-1.8764
G01 X-1.9111 Y-1.8670
G01 X-1.9246 Y-1.8589
G01 X-1.9388 Y-1.8522
G01 X-1.9536 Y-1.8469
G01 X-1.9688 Y-1.8431
G01 X-1.9843 Y-1.8408
G01 X-2.0000 Y-1.8400
G01 X-2.0157 Y-1.8408
G01 X-2.0312 Y-1.8431
G01 X-2.0464 Y-1.8469
G01 X-2.0612 Y-1.8522
G01 X-2.0754 Y-1.8589
G01 X-2.0889 Y-1.8670
G01 X-2.1015 Y-1.8764
G01 X-2.1131 Y-1.8869
G01 X-2.1236 Y-1.8985
G01 X-2.1330 Y-1.9111
G01 X-2.1411 Y-1.9246
G01 X-2.1478 Y-1.9388
G01 X-2.1531 Y-1.9536
G01 X-2.1569 Y-1.9688
G01 X-2.1592 Y-1.9843
G01 X-2.1600 Y-2.0000
G00 Z2.0000
G00 X-2.2300 Y-2.0000
G01 F70.00
G01 Z-0.0600
G01 F120.00
G01 X-2.2289 Y-2.0225
G01 X-2.2256 Y-2.0449
G01 X-2.2201 Y-2.0668
G01 X-2.2125 Y-2.0880
G01 X-2.2028 Y-2.1084
G01 X-2.1912 Y-2.1278
G01 X-2.1778 Y-2.1459
G01 X-2.1626 Y-2.1626
G01 X-2.1459 Y-2.1778
G01 X-2.1278 Y-2.1912
G01 X-2.1084 Y-2.2028
G01 X-2.0880 Y-2.2125
G01 X-2.0668 Y-2.2201
G01 X-2.0449 Y-2.2256
G01 X-2.0225 Y-2.2289
G01 X-2.0000 Y-2.2300
G01 X-1.9775 Y-2.2289
G01 X-1.9551 Y-2.2256
G01 X-1.9332 Y-2.2201
G01 X-1.9120 Y-2.2125
G01 X-1.8916 Y-2.2028
G01 X-1.8722 Y-2.1912
G01 X-1.8541 Y-2.1778
G01 X-1.8374 Y-2.1626
G01 X-1.8222 Y-2.1459
G01 X-1.8088 Y-2.1278
G01 X-1.7972 Y-2.1084
G01 X-1.7875 Y-2.0880
G01 X-1.7799 Y-2.0668
G01 X-1.7744 Y-2.0449
G01 X-1.7711 Y-2.0225
G01 X-1.7700 Y-2.0000
G01 X-1.7711 Y-1.9775
G01 X-1.7744 Y-1.9551
G01 X-1.7799 Y-1.9332
G01 X-1.7875 Y-1.9120
G01 X-1.7972 Y-1.8916
G01 X-1.8088 Y-1.8722
G01 X-1.8222 Y-1.8541
G01 X-1.8374 Y-1.8374
G01 X-1.8541 Y-1.8222
G01 X-1.8722 Y-1.8088
G01 X-1.8916 Y-1.7972
G01 X-1.9120 Y-1.7875
G01 X-1.9332 Y-1.7799
G01 X-1.9551 Y-1.7744
G01 X-1.9775 Y-1.7711
G01 X-2.0000 Y-1.7700
G01 X-2.0225 Y-1.7711
G01 X-2.0449 Y-1.7744
G01 X-2.0668 Y-1.7799
G01 X-2.0880 Y-1.7875
G01 X-2.1084 Y-1.7972
G01 X-2.1278 Y-1.8088
G01 X-2.1459 Y-1.8222
G01 X-2.1626 Y-1.8374
G01 X-2.1778 Y-1.8541
G01 X-2.1912 Y-1.8722
G01 X-2.2028 Y-1.8916
G01 X-2.2125 Y-1.9120
G01 X-2.2201 Y-1.9332
G01 X-2.2256 Y-1.9551
G01 X-2.2289 Y-1.9775
G01 X-2.2300 Y-2.0000
G00 Z2.0000
G00 X-5.0294 Y-2.4086
G01 F70.00
G01 Z-0.0600
G01 F120.00
G01 X-5.1168 Y-2.5539
G01 X-5.1306 Y-2.5713
G01 X-5.1391 Y-2.5798
G01 X-5.1483 Y-2.5874
G01 X-5.1625 Y-2.5969
G01 X-5.1793 Y-2.6053
G01 X-5.3700 Y-2.6848
G01 X-5.3847 Y-2.6898
G01 X-5.3999 Y-2.6931
G01 X-5.4205 Y-2.6949
G01 X-5.6269 Y-2.6949
G01 X-5.6441 Y-2.6936
G01 X-5.6594 Y-2.6907
G01 X-5.6790 Y-2.6841
G01 X-5.8759 Y-2.6018
G01 X-5.8907 Y-2.5933
G01 X-5.9044 Y-2.5831
G01 X-5.9168 Y-2.5713
G01 X-5.9287 Y-2.5567
G01 X-6.0222 Y-2.4011
G01 X-6.0279 Y-2.3886
G01 X-6.0324 Y-2.3756
G01 X-6.0356 Y-2.3622
G01 X-6.0374 Y-2.3486
G01 X-6.0379 Y-2.3365
G01 X-6.0379 Y-0.9379
G01 X-6.0383 Y-0.9325
G01 X-6.0402 Y-0.9272
G01 X-6.0429 Y-0.9234
G01 X-6.0472 Y-0.9199
G01 X-6.0515 Y-0.9180
G01 X-6.0570 Y-0.9172
G01 X-6.0625 Y-0.9180
G01 X-6.0676 Y-0.9204
G01 X-6.0717 Y-0.9241
G01 X-6.0742 Y-0.9281
G01 X-6.0757 Y-0.9325
G01 X-6.0761 Y-0.9379
G01 X-6.0761 Y-2.3789
G01 X-6.0755 Y-2.3852
G01 X-6.0725 Y-2.3919
G01 X-5.9409 Y-2.6111
G01 X-5.9358 Y-2.6175
G01 X-5.9295 Y-2.6211
G01 X-5.6659 Y-2.7309
G01 X-5.6607 Y-2.7327
G01 X-5.6553 Y-2.7331
G01 X-5.3867 Y-2.7327
G01 X-5.1147 Y-2.6196
G01 X-5.1102 Y-2.6163
G01 X-5.1065 Y-2.6111
G01 X-4.9725 Y-2.3870
G01 X-4.9713 Y-2.3789
G01 X-4.9713 Y-0.9379
G01 X-4.9719 Y-0.9316
G01 X-4.9746 Y-0.9256
G01 X-4.9791 Y-0.9209
G01 X-4.9840 Y-0.9183
G01 X-4.9895 Y-0.9172
G01 X-4.9959 Y-0.9180
G01 X-5.0010 Y-0.9204
G01 X-5.0057 Y-0.9249
G01 X-5.0083 Y-0.9298
G01 X-5.0094 Y-0.9353
G01 X-5.0095 Y-2.3383
G01 X-5.0110 Y-2.3571
G01 X-5.0146 Y-2.3739
G01 X-5.0208 Y-2.3917
G01 X-5.0294 Y-2.4086
G00 Z2.0000
G00 X-5.0895 Y-2.3726
G01 F70.00
G01 Z-0.0600
G01 F120.00
G01 X-5.1741 Y-2.5136
G01 X-5.1813 Y-2.5231
G01 X-5.1901 Y-2.5312
G01 X-5.1978 Y-2.5365
G01 X-5.2063 Y-2.5407
G01 X-5.3961 Y-2.6199
G01 X-5.4093 Y-2.6237
G01 X-5.4222 Y-2.6249
G01 X-5.6252 Y-2.6249
G01 X-5.6414 Y-2.6230
G01 X-5.6521 Y-2.6195
G01 X-5.8435 Y-2.5397
G01 X-5.8525 Y-2.5347
G01 X-5.8600 Y-2.5291
G01 X-5.8667 Y-2.5225
G01 X-5.8724 Y-2.5150
G01 X-5.9592 Y-2.3703
G01 X-5.9651 Y-2.3561
G01 X-5.9678 Y-2.3408
G01 X-5.9679 Y-0.9371
G01 X-5.9689 Y-0.9231
G01 X-5.9718 Y-0.9103
G01 X-5.9765 Y-0.8981
G01 X-5.9806 Y-0.8904
G01 X-5.9882 Y-0.8797
G01 X-5.9940 Y-0.8732
G01 X-6.0039 Y-0.8647
G01 X-6.0150 Y-0.8577
G01 X-6.0229 Y-0.8539
G01 X-6.0354 Y-0.8498
G01 X-6.0439 Y-0.8481
G01 X-6.0526 Y-0.8472
G01 X-6.0657 Y-0.8476
G01 X-6.0744 Y-0.8489
G01 X-6.0870 Y-0.8523
G01 X-6.0990 Y-0.8577
G01 X-6.1065 Y-0.8622
G01 X-6.1135 Y-0.8674
G01 X-6.1230 Y-0.8764
G01 X-6.1285 Y-0.8831
G01 X-6.1355 Y-0.8942
G01 X-6.1409 Y-0.9062
G01 X-6.1434 Y-0.9146
G01 X-6.1456 Y-0.9275
G01 X-6.1461 Y-0.9371
G01 X-6.1461 Y-2.3797
G01 X-6.1456 Y-2.3893
G01 X-6.1434 Y-2.4023
G01 X-6.1393 Y-2.4147
G01 X-6.1329 Y-2.4272
G01 X-6.0005 Y-2.6479
G01 X-5.9926 Y-2.6593
G01 X-5.9803 Y-2.6716
G01 X-5.9696 Y-2.6791
G01 X-5.9572 Y-2.6853
G01 X-5.6921 Y-2.7959
G01 X-5.6745 Y-2.8013
G01 X-5.6561 Y-2.8031
G01 X-5.3913 Y-2.8031
G01 X-5.3729 Y-2.8013
G01 X-5.3553 Y-2.7959
G01 X-5.0816 Y-2.6813
G01 X-5.0706 Y-2.6743
G01 X-5.0638 Y-2.6687
G01 X-5.0548 Y-2.6593
G01 X-5.0497 Y-2.6523
G01 X-4.9145 Y-2.4272
G01 X-4.9066 Y-2.4106
G01 X-4.9023 Y-2.3937
G01 X-4.9013 Y-2.3797
G01 X-4.9013 Y-0.9371
G01 X-4.9023 Y-0.9231
G01 X-4.9052 Y-0.9103
G01 X-4.9099 Y-0.8981
G01 X-4.9164 Y-0.8867
G01 X-4.9244 Y-0.8764
G01 X-4.9339 Y-0.8674
G01 X-4.9446 Y-0.8598
G01 X-4.9563 Y-0.8539
G01 X-4.9688 Y-0.8498
G01 X-4.9817 Y-0.8476
G01 X-4.9948 Y-0.8472
G01 X-5.0120 Y-0.8498
G01 X-5.0245 Y-0.8539
G01 X-5.0399 Y-0.8622
G01 X-5.0502 Y-0.8702
G01 X-5.0592 Y-0.8797
G01 X-5.0668 Y-0.8904
G01 X-5.0727 Y-0.9021
G01 X-5.0768 Y-0.9146
G01 X-5.0790 Y-0.9275
G01 X-5.0795 Y-2.3374
G01 X-5.0802 Y-2.3468
G01 X-5.0823 Y-2.3561
G01 X-5.0855 Y-2.3649
G01 X-5.0895 Y-2.3726
G00 Z2.0000
G00 X-6.6195 Y-2.7800
G01 F70.00
G01 Z-0.0600
G01 F120.00
G01 X-6.6133 Y-2.7738
G01 X-6.6053 Y-2.7635
G01 X-6.5970 Y-2.7481
G01 X-6.5920 Y-2.7314
G01 X-6.5902 Y-2.7131
G01 X-6.5902 Y-0.9371
G01 X-6.5907 Y-0.9275
G01 X-6.5929 Y-0.9146
G01 X-6.5970 Y-0.9021
G01 X-6.6029 Y-0.8904
G01 X-6.6078 Y-0.8831
G01 X-6.6163 Y-0.8732
G01 X-6.6228 Y-0.8674
G01 X-6.6335 Y-0.8598
G01 X-6.6412 Y-0.8557
G01 X-6.6534 Y-0.8510
G01 X-6.6619 Y-0.8489
G01 X-6.6749 Y-0.8472
G01 X-7.3547 Y-0.8476
G01 X-7.3676 Y-0.8498
G01 X-7.3810 Y-0.8543
G01 X-7.6461 Y-0.9647
G01 X-7.6585 Y-0.9710
G01 X-7.6692 Y-0.9785
G01 X-7.6756 Y-0.9844
G01 X-7.6841 Y-0.9942
G01 X-7.6894 Y-1.0022
G01 X-7.8244 Y-1.2275
G01 X-7.8311 Y-1.2436
G01 X-7.8345 Y-1.2608
G01 X-7.8350 Y-2.3797
G01 X-7.8340 Y-2.3937
G01 X-7.8311 Y-2.4065
G01 X-7.8264 Y-2.4187
G01 X-7.8218 Y-2.4272
G01 X-7.6894 Y-2.6479
G01 X-7.6815 Y-2.6593
G01 X-7.6692 Y-2.6716
G01 X-7.6585 Y-2.6791
G01 X-7.6461 Y-2.6853
G01 X-7.3719 Y-2.7992
G01 X-7.3590 Y-2.8021
G01 X-7.3450 Y-2.8031
G01 X-6.6749 Y-2.8030
G01 X-6.6577 Y-2.8004
G01 X-6.6452 Y-2.7963
G01 X-6.6335 Y-2.7904
G01 X-6.6195 Y-2.7800
G00 Z2.0000
G00 X-6.6765 Y-2.7328
G01 F70.00
G01 Z-0.0600
G01 F120.00
G01 X-6.6695 Y-2.7303
G01 X-6.6646 Y-2.7261
G01 X-6.6611 Y-2.7195
G01 X-6.6602 Y-2.7123
G01 X-6.6602 Y-0.9379
G01 X-6.6606 Y-0.9325
G01 X-6.6625 Y-0.9272
G01 X-6.6658 Y-0.9227
G01 X-6.6703 Y-0.9194
G01 X-6.6756 Y-0.9175
G01 X-6.6810 Y-0.9171
G01 X-7.3478 Y-0.9173
G01 X-7.3548 Y-0.9193
G01 X-7.6216 Y-1.0305
G01 X-7.6261 Y-1.0338
G01 X-7.6298 Y-1.0390
G01 X-7.7614 Y-1.2582
G01 X-7.7638 Y-1.2631
G01 X-7.7648 Y-1.2676
G01 X-7.7650 Y-2.3789
G01 X-7.7646 Y-2.3843
G01 X-7.7627 Y-2.3896
G01 X-7.6298 Y-2.6111
G01 X-7.6247 Y-2.6175
G01 X-7.6184 Y-2.6211
G01 X-7.3515 Y-2.7322
G01 X-7.3442 Y-2.7331
G01 X-6.6765 Y-2.7328
G00 Z2.0000
G00 X-6.8384 Y-2.6949
G01 F70.00
G01 Z-0.0600
G01 F120.00
G01 X-6.8247 Y-2.6942
G01 X-6.8128 Y-2.6926
G01 X-6.8010 Y-2.6898
G01 X-6.7880 Y-2.6855
G01 X-6.7754 Y-2.6800
G01 X-6.7635 Y-2.6732
G01 X-6.7522 Y-2.6653
G01 X-6.7431 Y-2.6575
G01 X-6.7335 Y-2.6477
G01 X-6.7259 Y-2.6383
G01 X-6.7183 Y-2.6269
G01 X-6.7126 Y-2.6163
G01 X-6.7072 Y-2.6037
G01 X-6.7035 Y-2.5923
G01 X-6.7004 Y-2.5789
G01 X-6.6989 Y-2.5669
G01 X-6.6984 Y-2.5549
G01 X-6.6984 Y-1.0953
G01 X-6.6999 Y-1.0747
G01 X-6.7044 Y-1.0546
G01 X-6.7111 Y-1.0370
G01 X-6.7210 Y-1.0189
G01 X-6.7335 Y-1.0025
G01 X-6.7469 Y-0.9893
G01 X-6.7635 Y-0.9770
G01 X-6.7801 Y-0.9680
G01 X-6.7977 Y-0.9613
G01 X-6.8178 Y-0.9568
G01 X-6.8384 Y-0.9553
G01 X-7.3158 Y-0.9553
G01 X-7.3347 Y-0.9568
G01 X-7.3533 Y-0.9609
G01 X-7.3679 Y-0.9660
G01 X-7.5601 Y-1.0461
G01 X-7.5782 Y-1.0558
G01 X-7.5946 Y-1.0681
G01 X-7.6103 Y-1.0839
G01 X-7.6232 Y-1.1020
G01 X-7.7086 Y-1.2445
G01 X-7.7161 Y-1.2599
G01 X-7.7222 Y-1.2779
G01 X-7.7258 Y-1.2964
G01 X-7.7268 Y-1.3136
G01 X-7.7268 Y-2.3365
G01 X-7.7253 Y-2.3571
G01 X-7.7208 Y-2.3772
G01 X-7.7155 Y-2.3917
G01 X-7.7086 Y-2.4056
G01 X-7.6223 Y-2.5496
G01 X-7.6091 Y-2.5675
G01 X-7.5946 Y-2.5820
G01 X-7.5782 Y-2.5943
G01 X-7.5601 Y-2.6040
G01 X-7.3615 Y-2.6866
G01 X-7.3500 Y-2.6902
G01 X-7.3381 Y-2.6928
G01 X-7.3158 Y-2.6949
G01 X-6.8384 Y-2.6949
G00 Z2.0000
G00 X-6.8384 Y-2.6249
G01 F70.00
G01 Z-0.0600
G01 F120.00
G01 X-6.8256 Y-2.6237
G01 X-6.8124 Y-2.6199
G01 X-6.8009 Y-2.6141
G01 X-6.7901 Y-2.6056
G01 X-6.7811 Y-2.5952
G01 X-6.7747 Y-2.5841
G01 X-6.7705 Y-2.5719
G01 X-6.7685 Y-2.5584
G01 X-6.7684 Y-1.0953
G01 X-6.7693 Y-1.0842
G01 X-6.7716 Y-1.0741
G01 X-6.7755 Y-1.0646
G01 X-6.7807 Y-1.0557
G01 X-6.7871 Y-1.0476
G01 X-6.7946 Y-1.0406
G01 X-6.8031 Y-1.0348
G01 X-6.8124 Y-1.0303
G01 X-6.8222 Y-1.0272
G01 X-6.8324 Y-1.0255
G01 X-7.3141 Y-1.0253
G01 X-7.3244 Y-1.0260
G01 X-7.3345 Y-1.0283
G01 X-7.5308 Y-1.1097
G01 X-7.5399 Y-1.1145
G01 X-7.5482 Y-1.1205
G01 X-7.5567 Y-1.1290
G01 X-7.5631 Y-1.1380
G01 X-7.6473 Y-1.2783
G01 X-7.6518 Y-1.2875
G01 X-7.6549 Y-1.2974
G01 X-7.6568 Y-1.3136
G01 X-7.6568 Y-2.3365
G01 X-7.6561 Y-2.3468
G01 X-7.6535 Y-2.3577
G01 X-7.6473 Y-2.3718
G01 X-7.5627 Y-2.5128
G01 X-7.5556 Y-2.5225
G01 X-7.5476 Y-2.5302
G01 X-7.5399 Y-2.5356
G01 X-7.5308 Y-2.5404
G01 X-7.3361 Y-2.6213
G01 X-7.3252 Y-2.6240
G01 X-7.3149 Y-2.6249
G01 X-6.8384 Y-2.6249
G00 Z2.0000
G00 X-7.7219 Y-4.5638
G01 F70.00
G01 Z-0.0600
G01 F120.00
G01 X-7.8225 Y-4.5638
G01 X-7.8225 Y-4.6644
G01 X-7.8139 Y-4.6481
G01 X-7.8042 Y-4.6329
G01 X-7.7932 Y-4.6186
G01 X-7.7810 Y-4.6053
G01 X-7.7677 Y-4.5931
G01 X-7.7534 Y-4.5821
G01 X-7.7382 Y-4.5724
G01 X-7.7219 Y-4.5638
G00 Z2.0000
G00 X-8.7486 Y-5.7125
G01 F70.00
G01 Z-0.0600
G01 F120.00
G01 X-8.7471 Y-5.7201
G01 X-8.7428 Y-5.7266
G01 X-8.7363 Y-5.7309
G01 X-8.7287 Y-5.7324
G01 X-8.7211 Y-5.7309
G01 X-8.7146 Y-5.7266
G01 X-8.7103 Y-5.7201
G01 X-8.7088 Y-5.7125
G01 X-8.7103 Y-5.7049
G01 X-8.7146 Y-5.6984
G01 X-8.7211 Y-5.6941
G01 X-8.7287 Y-5.6926
G01 X-8.7363 Y-5.6941
G01 X-8.7428 Y-5.6984
G01 X-8.7471 Y-5.7049
G01 X-8.7486 Y-5.7125
G00 Z2.0000
G00 X-8.8186 Y-5.7125
G01 F70.00
G01 Z-0.0600
G01 F120.00
G01 X-8.8169 Y-5.7300
G01 X-8.8118 Y-5.7469
G01 X-8.8035 Y-5.7625
G01 X-8.7923 Y-5.7761
G01 X-8.7787 Y-5.7873
G01 X-8.7631 Y-5.7956
G01 X-8.7462 Y-5.8007
G01 X-8.7287 Y-5.8024
G01 X-8.7112 Y-5.8007
G01 X-8.6943 Y-5.7956
G01 X-8.6787 Y-5.7873
G01 X-8.6651 Y-5.7761
G01 X-8.6539 Y-5.7625
G01 X-8.6456 Y-5.7469
G01 X-8.6405 Y-5.7300
G01 X-8.6388 Y-5.7125
G01 X-8.6405 Y-5.6950
G01 X-8.6456 Y-5.6781
G01 X-8.6539 Y-5.6625
G01 X-8.6651 Y-5.6489
G01 X-8.6787 Y-5.6377
G01 X-8.6943 Y-5.6294
G01 X-8.7112 Y-5.6243
G01 X-8.7287 Y-5.6226
G01 X-8.7462 Y-5.6243
G01 X-8.7631 Y-5.6294
G01 X-8.7787 Y-5.6377
G01 X-8.7923 Y-5.6489
G01 X-8.8035 Y-5.6625
G01 X-8.8118 Y-5.6781
G01 X-8.8169 Y-5.6950
G01 X-8.8186 Y-5.7125
G00 Z2.0000
G00 X-8.8887 Y-5.7125
G01 F70.00
G01 Z-0.0600
G01 F120.00
G01 X-8.8879 Y-5.7282
G01 X-8.8856 Y-5.7437
G01 X-8.8818 Y-5.7589
G01 X-8.8765 Y-5.7737
G01 X-8.8698 Y-5.7879
G01 X-8.8617 Y-5.8014
G01 X-8.8523 Y-5.8140
G01 X-8.8418 Y-5.8256
G01 X-8.8302 Y-5.8361
G01 X-8.8176 Y-5.8455
G01 X-8.8041 Y-5.8536
G01 X-8.7899 Y-5.8603
G01 X-8.7751 Y-5.8656
G01 X-8.7599 Y-5.8694
G01 X-8.7444 Y-5.8717
G01 X-8.7287 Y-5.8725
G01 X-8.7130 Y-5.8717
G01 X-8.6975 Y-5.8694
G01 X-8.6823 Y-5.8656
G01 X-8.6675 Y-5.8603
G01 X-8.6533 Y-5.8536
G01 X-8.6398 Y-5.8455
G01 X-8.6272 Y-5.8361
G01 X-8.6156 Y-5.8256
G01 X-8.6051 Y-5.8140
G01 X-8.5957 Y-5.8014
G01 X-8.5876 Y-5.7879
G01 X-8.5809 Y-5.7737
G01 X-8.5756 Y-5.7589
G01 X-8.5718 Y-5.7437
G01 X-8.5695 Y-5.7282
G01 X-8.5687 Y-5.7125
G01 X-8.5695 Y-5.6968
G01 X-8.5718 Y-5.6813
G01 X-8.5756 Y-5.6661
G01 X-8.5809 Y-5.6513
G01 X-8.5876 Y-5.6371
G01 X-8.5957 Y-5.6236
G01 X-8.6051 Y-5.6110
G01 X-8.6156 Y-5.5994
G01 X-8.6272 Y-5.5889
G01 X-8.6398 Y-5.5795
G01 X-8.6533 Y-5.5714
G01 X-8.6675 Y-5.5647
G01 X-8.6823 Y-5.5594
G01 X-8.6975 Y-5.5556
G01 X-8.7130 Y-5.5533
G01 X-8.7287 Y-5.5525
G01 X-8.7444 Y-5.5533
G01 X-8.7599 Y-5.5556
G01 X-8.7751 Y-5.5594
G01 X-8.7899 Y-5.5647
G01 X-8.8041 Y-5.5714
G01 X-8.8176 Y-5.5795
G01 X-8.8302 Y-5.5889
G01 X-8.8418 Y-5.5994
G01 X-8.8523 Y-5.6110
G01 X-8.8617 Y-5.6236
G01 X-8.8698 Y-5.6371
G01 X-8.8765 Y-5.6513
G01 X-8.8818 Y-5.6661
G01 X-8.8856 Y-5.6813
G01 X-8.8879 Y-5.6968
G01 X-8.8887 Y-5.7125
G00 Z2.0000
G00 X-8.9587 Y-5.7125
G01 F70.00
G01 Z-0.0600
G01 F120.00
G01 X-8.9576 Y-5.7350
G01 X-8.9543 Y-5.7574
G01 X-8.9488 Y-5.7793
G01 X-8.9412 Y-5.8005
G01 X-8.9315 Y-5.8209
G01 X-8.9199 Y-5.8403
G01 X-8.9065 Y-5.8584
G01 X-8.8913 Y-5.8751
G01 X-8.8746 Y-5.8903
G01 X-8.8565 Y-5.9037
G01 X-8.8371 Y-5.9153
G01 X-8.8167 Y-5.9250
G01 X-8.7955 Y-5.9326
G01 X-8.7736 Y-5.9381
G01 X-8.7512 Y-5.9414
G01 X-8.7287 Y-5.9425
G01 X-8.7062 Y-5.9414
G01 X-8.6838 Y-5.9381
G01 X-8.6619 Y-5.9326
G01 X-8.6407 Y-5.9250
G01 X-8.6203 Y-5.9153
G01 X-8.6009 Y-5.9037
G01 X-8.5828 Y-5.8903
G01 X-8.5661 Y-5.8751
G01 X-8.5509 Y-5.8584
G01 X-8.5375 Y-5.8403
G01 X-8.5259 Y-5.8209
G01 X-8.5162 Y-5.8005
G01 X-8.5086 Y-5.7793
G01 X-8.5031 Y-5.7574
G01 X-8.4998 Y-5.7350
G01 X-8.4987 Y-5.7125
G01 X-8.4998 Y-5.6900
G01 X-8.5031 Y-5.6676
G01 X-8.5086 Y-5.6457
G01 X-8.5162 Y-5.6245
G01 X-8.5259 Y-5.6041
G01 X-8.5375 Y-5.5847
G01 X-8.5509 Y-5.5666
G01 X-8.5661 Y-5.5499
G01 X-8.5828 Y-5.5347
G01 X-8.6009 Y-5.5213
G01 X-8.6203 Y-5.5097
G01 X-8.6407 Y-5.5000
G01 X-8.6619 Y-5.4924
G01 X-8.6838 Y-5.4869
G01 X-8.7062 Y-5.4836
G01 X-8.7287 Y-5.4825
G01 X-8.7512 Y-5.4836
G01 X-8.7736 Y-5.4869
G01 X-8.7955 Y-5.4924
G01 X-8.8167 Y-5.5000
G01 X-8.8371 Y-5.5097
G01 X-8.8565 Y-5.5213
G01 X-8.8746 Y-5.5347
G01 X-8.8913 Y-5.5499
G01 X-8.9065 Y-5.5666
G01 X-8.9199 Y-5.5847
G01 X-8.9315 Y-5.6041
G01 X-8.9412 Y-5.6245
G01 X-8.9488 Y-5.6457
G01 X-8.9543 Y-5.6676
G01 X-8.9576 Y-5.6900
G01 X-8.9587 Y-5.7125
G00 Z2.0000
G00 X-7.8925 Y-6.6275
G01 F70.00
G01 Z-0.0600
G01 F120.00
G01 X-7.8765 Y-6.6364
G01 X-7.8627 Y-6.6467
G01 X-7.8503 Y-6.6585
G01 X-7.8384 Y-6.6732
G01 X-7.8286 Y-6.6893
G01 X-7.8216 Y-6.7050
G01 X-7.8166 Y-6.7215
G01 X-7.8137 Y-6.7384
G01 X-7.8128 Y-6.7521
G01 X-7.8128 Y-6.8529
G01 X-7.8137 Y-6.8666
G01 X-7.8155 Y-6.8785
G01 X-7.8216 Y-6.9000
G01 X-7.8302 Y-6.9187
G01 X-7.8425 Y-6.9373
G01 X-7.8563 Y-6.9526
G01 X-7.8653 Y-6.9605
G01 X-7.8750 Y-6.9676
G01 X-7.8853 Y-6.9738
G01 X-7.8961 Y-6.9792
G01 X-7.9171 Y-6.9866
G01 X-7.9289 Y-6.9891
G01 X-7.9408 Y-6.9907
G01 X-8.2773 Y-6.9912
G01 X-8.2773 Y-8.0906
G01 X-6.6573 Y-8.0906
G01 X-6.6573 Y-6.9911
G01 X-6.6693 Y-6.9901
G01 X-6.6828 Y-6.9878
G01 X-6.6945 Y-6.9847
G01 X-6.7073 Y-6.9799
G01 X-6.7182 Y-6.9747
G01 X-6.7300 Y-6.9676
G01 X-6.7410 Y-6.9594
G01 X-6.7512 Y-6.9502
G01 X-6.7604 Y-6.9400
G01 X-6.7686 Y-6.9290
G01 X-6.7756 Y-6.9172
G01 X-6.7809 Y-6.9064
G01 X-6.7856 Y-6.8935
G01 X-6.7888 Y-6.8819
G01 X-6.7911 Y-6.8683
G01 X-6.7921 Y-6.8546
G01 X-6.7918 Y-6.7435
G01 X-6.7904 Y-6.7316
G01 X-6.7880 Y-6.7198
G01 X-6.7846 Y-6.7083
G01 X-6.7802 Y-6.6971
G01 X-6.7723 Y-6.6818
G01 X-6.7636 Y-6.6690
G01 X-6.7536 Y-6.6573
G01 X-6.7423 Y-6.6467
G01 X-6.7300 Y-6.6374
G01 X-6.7167 Y-6.6295
G01 X-6.7010 Y-6.6226
G01 X-6.6862 Y-6.6180
G01 X-6.6693 Y-6.6149
G01 X-6.6522 Y-6.6138
G01 X-4.4615 Y-6.6138
G01 X-4.4426 Y-6.6151
G01 X-4.4275 Y-6.6180
G01 X-4.4127 Y-6.6226
G01 X-4.3985 Y-6.6287
G01 X-4.3851 Y-6.6364
G01 X-4.3740 Y-6.6445
G01 X-4.3504 Y-6.6647
G01 X-4.2920 Y-6.7103
G01 X-4.2314 Y-6.7530
G01 X-4.1688 Y-6.7926
G01 X-4.1043 Y-6.8292
G01 X-4.0381 Y-6.8625
G01 X-3.9891 Y-6.8843
G01 X-3.9699 Y-6.8957
G01 X-3.9590 Y-6.9042
G01 X-3.9478 Y-6.9150
G01 X-3.9390 Y-6.9256
G01 X-3.9312 Y-6.9370
G01 X-3.9238 Y-6.9506
G01 X-3.9186 Y-6.9634
G01 X-3.9146 Y-6.9766
G01 X-3.9118 Y-6.9919
G01 X-3.9106 Y-7.0108
G01 X-3.9181 Y-8.4782
G01 X-3.9197 Y-8.4987
G01 X-3.9238 Y-8.5171
G01 X-3.9303 Y-8.5347
G01 X-3.9391 Y-8.5513
G01 X-3.9501 Y-8.5666
G01 X-3.9630 Y-8.5803
G01 X-3.9777 Y-8.5921
G01 X-3.9938 Y-8.6019
G01 X-4.0111 Y-8.6094
G01 X-4.0292 Y-8.6145
G01 X-4.0427 Y-8.6167
G01 X-4.0564 Y-8.6175
G01 X-4.3912 Y-8.6175
G01 X-4.3912 Y-12.3375
G01 X-3.9824 Y-12.3375
G01 X-3.9687 Y-12.3384
G01 X-3.9535 Y-12.3409
G01 X-3.9337 Y-12.3469
G01 X-3.9151 Y-12.3557
G01 X-3.8966 Y-12.3682
G01 X-3.8816 Y-12.3822
G01 X-3.8677 Y-12.3997
G01 X-3.8576 Y-12.4176
G01 X-3.8502 Y-12.4369
G01 X-3.8454 Y-12.4587
G01 X-3.8441 Y-12.4775
G01 X-3.8441 Y-16.5006
G01 X-3.8452 Y-16.5177
G01 X-3.8472 Y-16.5296
G01 X-3.8502 Y-16.5412
G01 X-3.8541 Y-16.5526
G01 X-3.8591 Y-16.5635
G01 X-3.8649 Y-16.5740
G01 X-3.8717 Y-16.5840
G01 X-3.8792 Y-16.5933
G01 X-3.8876 Y-16.6020
G01 X-3.8966 Y-16.6099
G01 X-3.9063 Y-16.6170
G01 X-3.9166 Y-16.6232
G01 X-3.9274 Y-16.6286
G01 X-3.9484 Y-16.6360
G01 X-3.9602 Y-16.6385
G01 X-3.9721 Y-16.6401
G01 X-3.9841 Y-16.6406
G01 X-5.3137 Y-16.6406
G01 X-5.3137 Y-16.7606
G01 X-5.0187 Y-16.7606
G01 X-5.0016 Y-16.7619
G01 X-4.9864 Y-16.7648
G01 X-4.9684 Y-16.7706
G01 X-4.9514 Y-16.7788
G01 X-4.9356 Y-16.7892
G01 X-4.9202 Y-16.8028
G01 X-4.9080 Y-16.8172
G01 X-4.8978 Y-16.8331
G01 X-4.8898 Y-16.8502
G01 X-4.8842 Y-16.8683
G01 X-4.8815 Y-16.8835
G01 X-4.8804 Y-16.9006
G01 X-4.8804 Y-18.5006
G01 X-4.8822 Y-18.5228
G01 X-4.8875 Y-18.5445
G01 X-4.8961 Y-18.5651
G01 X-4.9080 Y-18.5840
G01 X-4.9226 Y-18.6008
G01 X-4.9398 Y-18.6151
G01 X-4.9590 Y-18.6264
G01 X-4.9781 Y-18.6341
G01 X-4.9965 Y-18.6385
G01 X-5.0170 Y-18.6406
G01 X-5.3138 Y-18.6406
G01 X-5.3138 Y-18.7606
G01 X-3.9755 Y-18.7609
G01 X-3.9551 Y-18.7636
G01 X-3.9353 Y-18.7694
G01 X-3.9166 Y-18.7780
G01 X-3.8994 Y-18.7892
G01 X-3.8839 Y-18.8028
G01 X-3.8697 Y-18.8200
G01 X-3.8591 Y-18.8377
G01 X-3.8512 Y-18.8567
G01 X-3.8462 Y-18.8767
G01 X-3.8442 Y-18.8954
G01 X-3.8441 Y-18.9995
G01 X-3.8454 Y-19.0166
G01 X-3.8502 Y-19.0384
G01 X-3.8583 Y-19.0592
G01 X-3.8697 Y-19.0784
G01 X-3.8839 Y-19.0955
G01 X-3.8927 Y-19.1038
G01 X-3.9021 Y-19.1112
G01 X-3.9212 Y-19.1228
G01 X-3.9321 Y-19.1277
G01 X-3.9703 Y-19.1425
G01 X-4.0381 Y-19.1725
G01 X-4.1043 Y-19.2058
G01 X-4.1688 Y-19.2424
G01 X-4.2314 Y-19.2820
G01 X-4.2920 Y-19.3247
G01 X-4.3504 Y-19.3703
G01 X-4.4065 Y-19.4187
G01 X-4.4602 Y-19.4698
G01 X-4.5113 Y-19.5235
G01 X-4.5597 Y-19.5796
G01 X-4.6053 Y-19.6380
G01 X-4.6480 Y-19.6986
G01 X-4.6876 Y-19.7612
G01 X-4.7242 Y-19.8257
G01 X-4.7575 Y-19.8919
G01 X-4.7875 Y-19.9597
G01 X-4.8142 Y-20.0288
G01 X-4.8374 Y-20.0992
G01 X-4.8572 Y-20.1706
G01 X-4.8734 Y-20.2429
G01 X-4.8861 Y-20.3159
G01 X-4.8952 Y-20.3895
G01 X-4.9006 Y-20.4634
G01 X-4.9025 Y-20.5375
G01 X-4.9006 Y-20.6116
G01 X-4.8952 Y-20.6855
G01 X-4.8861 Y-20.7591
G01 X-4.8734 Y-20.8321
G01 X-4.8572 Y-20.9044
G01 X-4.8374 Y-20.9758
G01 X-4.8142 Y-21.0462
G01 X-4.7875 Y-21.1153
G01 X-4.7575 Y-21.1831
G01 X-4.7242 Y-21.2493
G01 X-4.6876 Y-21.3138
G01 X-4.6480 Y-21.3764
G01 X-4.6053 Y-21.4370
G01 X-4.5597 Y-21.4954
G01 X-4.5113 Y-21.5515
G01 X-4.4602 Y-21.6052
G01 X-4.4065 Y-21.6563
G01 X-4.3504 Y-21.7047
G01 X-4.2920 Y-21.7503
G01 X-4.2314 Y-21.7930
G01 X-4.1688 Y-21.8326
G01 X-4.1043 Y-21.8692
G01 X-4.0381 Y-21.9025
G01 X-3.9703 Y-21.9325
G01 X-3.9012 Y-21.9592
G01 X-3.8308 Y-21.9824
G01 X-3.7594 Y-22.0022
G01 X-3.6871 Y-22.0184
G01 X-3.6141 Y-22.0311
G01 X-3.5405 Y-22.0402
G01 X-3.4666 Y-22.0456
G01 X-3.3925 Y-22.0475
G01 X-3.3184 Y-22.0456
G01 X-3.2445 Y-22.0402
G01 X-3.1709 Y-22.0311
G01 X-3.0979 Y-22.0184
G01 X-3.0256 Y-22.0022
G01 X-2.9542 Y-21.9824
G01 X-2.8838 Y-21.9592
G01 X-2.8147 Y-21.9325
G01 X-2.7469 Y-21.9025
G01 X-2.6807 Y-21.8692
G01 X-2.6162 Y-21.8326
G01 X-2.5536 Y-21.7930
G01 X-2.4930 Y-21.7503
G01 X-2.4346 Y-21.7047
G01 X-2.3785 Y-21.6563
G01 X-2.3248 Y-21.6052
G01 X-2.2737 Y-21.5515
G01 X-2.2598 Y-21.5357
G01 X-2.2499 Y-21.5262
G01 X-2.2390 Y-21.5178
G01 X-2.2289 Y-21.5113
G01 X-2.2183 Y-21.5057
G01 X-2.2056 Y-21.5004
G01 X-2.1924 Y-21.4964
G01 X-2.1790 Y-21.4937
G01 X-2.1670 Y-21.4925
G01 X-2.1533 Y-21.4923
G01 X-2.1396 Y-21.4935
G01 X-2.1261 Y-21.4960
G01 X-2.1129 Y-21.4998
G01 X-2.1001 Y-21.5050
G01 X-2.0879 Y-21.5113
G01 X-2.0764 Y-21.5188
G01 X-2.0657 Y-21.5274
G01 X-2.0559 Y-21.5370
G01 X-2.0470 Y-21.5475
G01 X-2.0392 Y-21.5588
G01 X-2.0326 Y-21.5708
G01 X-2.0272 Y-21.5835
G01 X-2.0235 Y-21.5949
G01 X-2.0208 Y-21.6066
G01 X-2.0191 Y-21.6185
G01 X-2.0184 Y-21.6305
G01 X-2.0184 Y-22.7499
G01 X-2.0199 Y-22.7687
G01 X-2.0245 Y-22.7888
G01 X-2.0311 Y-22.8065
G01 X-2.0401 Y-22.8231
G01 X-2.0491 Y-22.8356
G01 X-2.0582 Y-22.8459
G01 X-2.0696 Y-22.8564
G01 X-2.0821 Y-22.8655
G01 X-2.0955 Y-22.8732
G01 X-2.1096 Y-22.8794
G01 X-2.1244 Y-22.8840
G01 X-2.1379 Y-22.8866
G01 X-2.1533 Y-22.8881
G01 X-2.1704 Y-22.8876
G01 X-2.1963 Y-22.8837
G01 X-2.2577 Y-22.8761
G01 X-2.3194 Y-22.8716
G01 X-2.3812 Y-22.8700
G01 X-2.4430 Y-22.8716
G01 X-2.5047 Y-22.8761
G01 X-2.5661 Y-22.8837
G01 X-2.6270 Y-22.8943
G01 X-2.6873 Y-22.9078
G01 X-2.7469 Y-22.9243
G01 X-2.8057 Y-22.9437
G01 X-2.8634 Y-22.9660
G01 X-2.9199 Y-22.9910
G01 X-2.9751 Y-23.0188
G01 X-3.0289 Y-23.0493
G01 X-3.0812 Y-23.0824
G01 X-3.1318 Y-23.1180
G01 X-3.1805 Y-23.1560
G01 X-3.2273 Y-23.1964
G01 X-3.2721 Y-23.2391
G01 X-3.3148 Y-23.2839
G01 X-3.3552 Y-23.3307
G01 X-3.3932 Y-23.3794
G01 X-3.4288 Y-23.4300
G01 X-3.4619 Y-23.4823
G01 X-3.4924 Y-23.5361
G01 X-3.5202 Y-23.5913
G01 X-3.5452 Y-23.6478
G01 X-3.5675 Y-23.7055
G01 X-3.5869 Y-23.7643
G01 X-3.6034 Y-23.8239
G01 X-3.6169 Y-23.8842
G01 X-3.6275 Y-23.9451
G01 X-3.6351 Y-24.0065
G01 X-3.6396 Y-24.0682
G01 X-3.6412 Y-24.1300
G01 X-3.6396 Y-24.1918
G01 X-3.6351 Y-24.2535
G01 X-3.6275 Y-24.3149
G01 X-3.6169 Y-24.3758
G01 X-3.6034 Y-24.4361
G01 X-3.5869 Y-24.4957
G01 X-3.5675 Y-24.5545
G01 X-3.5452 Y-24.6122
G01 X-3.5202 Y-24.6687
G01 X-3.4924 Y-24.7239
G01 X-3.4619 Y-24.7777
G01 X-3.4288 Y-24.8300
G01 X-3.3932 Y-24.8806
G01 X-3.3552 Y-24.9293
G01 X-3.3148 Y-24.9761
G01 X-3.2721 Y-25.0209
G01 X-3.2273 Y-25.0636
G01 X-3.1805 Y-25.1040
G01 X-3.1318 Y-25.1420
G01 X-3.0812 Y-25.1776
G01 X-3.0289 Y-25.2107
G01 X-2.9751 Y-25.2412
G01 X-2.9199 Y-25.2690
G01 X-2.8634 Y-25.2940
G01 X-2.8057 Y-25.3163
G01 X-2.7469 Y-25.3357
G01 X-2.6873 Y-25.3522
G01 X-2.6270 Y-25.3657
G01 X-2.5661 Y-25.3763
G01 X-2.5047 Y-25.3839
G01 X-2.4430 Y-25.3884
G01 X-2.3812 Y-25.3900
G01 X-2.3194 Y-25.3884
G01 X-2.2577 Y-25.3839
G01 X-2.1963 Y-25.3763
G01 X-2.1704 Y-25.3724
G01 X-2.1533 Y-25.3719
G01 X-2.1362 Y-25.3736
G01 X-2.1194 Y-25.3774
G01 X-2.1033 Y-25.3832
G01 X-2.0879 Y-25.3909
G01 X-2.0737 Y-25.4004
G01 X-2.0607 Y-25.4116
G01 X-2.0491 Y-25.4244
G01 X-2.0401 Y-25.4369
G01 X-2.0319 Y-25.4520
G01 X-2.0260 Y-25.4663
G01 X-2.0222 Y-25.4795
G01 X-2.0195 Y-25.4947
G01 X-2.0184 Y-25.5101
G01 X-2.0185 Y-27.6126
G01 X-2.0193 Y-27.6246
G01 X-2.0215 Y-27.6382
G01 X-2.0245 Y-27.6499
G01 X-2.0285 Y-27.6613
G01 X-2.0334 Y-27.6722
G01 X-2.0393 Y-27.6828
G01 X-2.0461 Y-27.6927
G01 X-2.0537 Y-27.7021
G01 X-4.0410 Y-29.8880
G01 X-4.0494 Y-29.8966
G01 X-4.0599 Y-29.9054
G01 X-4.0713 Y-29.9131
G01 X-4.0817 Y-29.9190
G01 X-4.0927 Y-29.9239
G01 X-4.1057 Y-29.9284
G01 X-4.1173 Y-29.9312
G01 X-4.1309 Y-29.9332
G01 X-4.1429 Y-29.9338
G01 X-4.1566 Y-29.9333
G01 X-4.1685 Y-29.9318
G01 X-4.1819 Y-29.9288
G01 X-4.2449 Y-29.9082
G01 X-4.3163 Y-29.8884
G01 X-4.3886 Y-29.8722
G01 X-4.4616 Y-29.8595
G01 X-4.5352 Y-29.8504
G01 X-4.6091 Y-29.8450
G01 X-4.6832 Y-29.8431
G01 X-4.7573 Y-29.8450
G01 X-4.8312 Y-29.8504
G01 X-4.9048 Y-29.8595
G01 X-4.9778 Y-29.8722
G01 X-5.0501 Y-29.8884
G01 X-5.1215 Y-29.9082
G01 X-5.1919 Y-29.9314
G01 X-5.2610 Y-29.9581
G01 X-5.3288 Y-29.9881
G01 X-5.3950 Y-30.0214
G01 X-5.4595 Y-30.0580
G01 X-5.5221 Y-30.0976
G01 X-5.5827 Y-30.1403
G01 X-5.6411 Y-30.1859
G01 X-5.6972 Y-30.2343
G01 X-5.7509 Y-30.2854
G01 X-5.8020 Y-30.3391
G01 X-5.8504 Y-30.3952
G01 X-5.8960 Y-30.4536
G01 X-5.9387 Y-30.5142
G01 X-5.9783 Y-30.5768
G01 X-6.0149 Y-30.6413
G01 X-6.0482 Y-30.7075
G01 X-6.0782 Y-30.7753
G01 X-6.1049 Y-30.8444
G01 X-6.1281 Y-30.9148
G01 X-6.1479 Y-30.9862
G01 X-6.1641 Y-31.0585
G01 X-6.1768 Y-31.1315
G01 X-6.1859 Y-31.2051
G01 X-6.1913 Y-31.2790
G01 X-6.1932 Y-31.3531
G01 X-6.1913 Y-31.4272
G01 X-6.1859 Y-31.5011
G01 X-6.1768 Y-31.5747
G01 X-6.1641 Y-31.6477
G01 X-6.1479 Y-31.7200
G01 X-6.1281 Y-31.7914
G01 X-6.1049 Y-31.8618
G01 X-6.0782 Y-31.9309
G01 X-6.0482 Y-31.9987
G01 X-6.0149 Y-32.0649
G01 X-5.9783 Y-32.1294
G01 X-5.9387 Y-32.1920
G01 X-5.8960 Y-32.2526
G01 X-5.8504 Y-32.3110
G01 X-5.8020 Y-32.3671
G01 X-5.7509 Y-32.4208
G01 X-5.6972 Y-32.4719
G01 X-5.6411 Y-32.5203
G01 X-5.5827 Y-32.5659
G01 X-5.5221 Y-32.6086
G01 X-5.4595 Y-32.6482
G01 X-5.3950 Y-32.6848
G01 X-5.3288 Y-32.7181
G01 X-5.2610 Y-32.7481
G01 X-5.1919 Y-32.7748
G01 X-5.1215 Y-32.7980
G01 X-5.0501 Y-32.8178
G01 X-4.9778 Y-32.8340
G01 X-4.9048 Y-32.8467
G01 X-4.8312 Y-32.8558
G01 X-4.7573 Y-32.8612
G01 X-4.6832 Y-32.8631
G01 X-4.6091 Y-32.8612
G01 X-4.5352 Y-32.8558
G01 X-4.4616 Y-32.8467
G01 X-4.3886 Y-32.8340
G01 X-4.3163 Y-32.8178
G01 X-4.2449 Y-32.7980
G01 X-4.1745 Y-32.7748
G01 X-4.1054 Y-32.7481
G01 X-4.0376 Y-32.7181
G01 X-3.9714 Y-32.6848
G01 X-3.9069 Y-32.6482
G01 X-3.8443 Y-32.6086
G01 X-3.7837 Y-32.5659
G01 X-3.7253 Y-32.5203
G01 X-3.6692 Y-32.4719
G01 X-3.6155 Y-32.4208
G01 X-3.5644 Y-32.3671
G01 X-3.5160 Y-32.3110
G01 X-3.4704 Y-32.2526
G01 X-3.4277 Y-32.1920
G01 X-3.3881 Y-32.1294
G01 X-3.3515 Y-32.0649
G01 X-3.3182 Y-31.9987
G01 X-3.2882 Y-31.9309
G01 X-3.2615 Y-31.8618
G01 X-3.2383 Y-31.7914
G01 X-3.2185 Y-31.7200
G01 X-3.2023 Y-31.6477
G01 X-3.1896 Y-31.5747
G01 X-3.1805 Y-31.5011
G01 X-3.1751 Y-31.4272
G01 X-3.1732 Y-31.3531
G01 X-3.1751 Y-31.2790
G01 X-3.1805 Y-31.2051
G01 X-3.1896 Y-31.1315
G01 X-3.2023 Y-31.0585
G01 X-3.2185 Y-30.9862
G01 X-3.2383 Y-30.9148
G01 X-3.2615 Y-30.8444
G01 X-3.2882 Y-30.7753
G01 X-3.3122 Y-30.7208
G01 X-3.3162 Y-30.7095
G01 X-3.3192 Y-30.6978
G01 X-3.3212 Y-30.6859
G01 X-3.3222 Y-30.6722
G01 X-3.3218 Y-30.6584
G01 X-3.3204 Y-30.6465
G01 X-3.3180 Y-30.6347
G01 X-3.3146 Y-30.6232
G01 X-3.3094 Y-30.6104
G01 X-3.3039 Y-30.5997
G01 X-3.2956 Y-30.5867
G01 X-3.2858 Y-30.5747
G01 X-1.1317 Y-28.2052
G01 X-1.1141 Y-28.1849
G01 X-1.0986 Y-28.1651
G01 X-1.0842 Y-28.1446
G01 X-1.0707 Y-28.1234
G01 X-1.0583 Y-28.1016
G01 X-1.0470 Y-28.0792
G01 X-1.0368 Y-28.0563
G01 X-1.0278 Y-28.0328
G01 X-1.0199 Y-28.0090
G01 X-1.0132 Y-27.9848
G01 X-1.0077 Y-27.9604
G01 X-1.0034 Y-27.9356
G01 X-1.0003 Y-27.9107
G01 X-0.9984 Y-27.8857
G01 X-0.9978 Y-27.8589
G01 X-0.9978 Y-7.6217
G01 X-0.9984 Y-7.5953
G01 X-1.0002 Y-7.5707
G01 X-1.0032 Y-7.5462
G01 X-1.0074 Y-7.5218
G01 X-1.0127 Y-7.4977
G01 X-1.0192 Y-7.4739
G01 X-1.0268 Y-7.4504
G01 X-1.0356 Y-7.4273
G01 X-1.0455 Y-7.4047
G01 X-1.0564 Y-7.3825
G01 X-1.0685 Y-7.3610
G01 X-1.0815 Y-7.3400
G01 X-1.0955 Y-7.3197
G01 X-1.1106 Y-7.3001
G01 X-1.1276 Y-7.2799
G01 X-2.0053 Y-6.2913
G01 X-2.0128 Y-6.2819
G01 X-2.0194 Y-6.2718
G01 X-2.0252 Y-6.2613
G01 X-2.0300 Y-6.2502
G01 X-2.0364 Y-6.2288
G01 X-2.0393 Y-6.2067
G01 X-2.0388 Y-6.1860
G01 X-2.0348 Y-6.1640
G01 X-2.0288 Y-6.1461
G01 X-1.9975 Y-6.0753
G01 X-1.9708 Y-6.0062
G01 X-1.9476 Y-5.9358
G01 X-1.9278 Y-5.8644
G01 X-1.9116 Y-5.7921
G01 X-1.8989 Y-5.7191
G01 X-1.8898 Y-5.6455
G01 X-1.8844 Y-5.5716
G01 X-1.8825 Y-5.4975
G01 X-1.8844 Y-5.4234
G01 X-1.8898 Y-5.3495
G01 X-1.8989 Y-5.2759
G01 X-1.9116 Y-5.2029
G01 X-1.9278 Y-5.1306
G01 X-1.9476 Y-5.0592
G01 X-1.9708 Y-4.9888
G01 X-1.9975 Y-4.9197
G01 X-2.0275 Y-4.8519
G01 X-2.0608 Y-4.7857
G01 X-2.0974 Y-4.7212
G01 X-2.1370 Y-4.6586
G01 X-2.1797 Y-4.5980
G01 X-2.2253 Y-4.5396
G01 X-2.2737 Y-4.4835
G01 X-2.3248 Y-4.4298
G01 X-2.3785 Y-4.3787
G01 X-2.4346 Y-4.3303
G01 X-2.4930 Y-4.2847
G01 X-2.5536 Y-4.2420
G01 X-2.6162 Y-4.2024
G01 X-2.6807 Y-4.1658
G01 X-2.7469 Y-4.1325
G01 X-2.8147 Y-4.1025
G01 X-2.8838 Y-4.0758
G01 X-2.9542 Y-4.0526
G01 X-3.0256 Y-4.0328
G01 X-3.0979 Y-4.0166
G01 X-3.1709 Y-4.0039
G01 X-3.2445 Y-3.9948
G01 X-3.3184 Y-3.9894
G01 X-3.3925 Y-3.9875
G01 X-3.4666 Y-3.9894
G01 X-3.5405 Y-3.9948
G01 X-3.6141 Y-4.0039
G01 X-3.6871 Y-4.0166
G01 X-3.7594 Y-4.0328
G01 X-3.8308 Y-4.0526
G01 X-3.9012 Y-4.0758
G01 X-3.9703 Y-4.1025
G01 X-4.0381 Y-4.1325
G01 X-4.1043 Y-4.1658
G01 X-4.1688 Y-4.2024
G01 X-4.2314 Y-4.2420
G01 X-4.2920 Y-4.2847
G01 X-4.3504 Y-4.3303
G01 X-4.4065 Y-4.3787
G01 X-4.4602 Y-4.4298
G01 X-4.4846 Y-4.4552
G01 X-4.4991 Y-4.4673
G01 X-4.5152 Y-4.4773
G01 X-4.5308 Y-4.4844
G01 X-4.5488 Y-4.4900
G01 X-4.5674 Y-4.4931
G01 X-4.5811 Y-4.4938
G01 X-7.8925 Y-4.4938
G01 X-7.8925 Y-6.6275
G00 Z2.0000
G00 X-7.8225 Y-6.5891
G01 F70.00
G01 Z-0.0600
G01 F120.00
G01 X-7.8043 Y-6.6053
G01 X-7.7889 Y-6.6226
G01 X-7.7740 Y-6.6436
G01 X-7.7626 Y-6.6648
G01 X-7.7626 Y-6.5186
G01 X-7.7810 Y-6.5023
G01 X-7.7965 Y-6.4850
G01 X-7.8113 Y-6.4640
G01 X-7.8225 Y-6.4432
G01 X-7.8225 Y-6.5891
G00 Z2.0000
G00 X-7.7626 Y-6.9402
G01 F70.00
G01 Z-0.0600
G01 F120.00
G01 X-7.7714 Y-6.9569
G01 X-7.7811 Y-6.9721
G01 X-7.7921 Y-6.9864
G01 X-7.8043 Y-6.9997
G01 X-7.8176 Y-7.0119
G01 X-7.8319 Y-7.0229
G01 X-7.8471 Y-7.0326
G01 X-7.8634 Y-7.0412
G01 X-7.7626 Y-7.0412
G01 X-7.7626 Y-6.9402
G00 Z2.0000
G00 X-7.6926 Y-7.1112
G01 F70.00
G01 Z-0.0600
G01 F120.00
G01 X-8.0173 Y-7.1112
G01 X-8.0293 Y-7.1117
G01 X-8.0412 Y-7.1133
G01 X-8.0579 Y-7.1172
G01 X-8.0725 Y-7.1225
G01 X-8.0878 Y-7.1302
G01 X-8.1007 Y-7.1388
G01 X-8.1126 Y-7.1486
G01 X-8.1244 Y-7.1611
G01 X-8.1347 Y-7.1749
G01 X-8.1424 Y-7.1883
G01 X-8.1485 Y-7.2024
G01 X-8.1531 Y-7.2172
G01 X-8.1560 Y-7.2324
G01 X-8.1573 Y-7.2478
G01 X-8.1572 Y-7.8564
G01 X-8.1562 Y-7.8683
G01 X-8.1539 Y-7.8819
G01 X-8.1502 Y-7.8951
G01 X-8.1453 Y-7.9079
G01 X-8.1391 Y-7.9202
G01 X-8.1318 Y-7.9318
G01 X-8.1233 Y-7.9426
G01 X-8.1138 Y-7.9526
G01 X-8.1048 Y-7.9605
G01 X-8.0951 Y-7.9676
G01 X-8.0848 Y-7.9738
G01 X-8.0740 Y-7.9792
G01 X-8.0628 Y-7.9836
G01 X-8.0513 Y-7.9870
G01 X-8.0395 Y-7.9894
G01 X-8.0276 Y-7.9908
G01 X-7.4223 Y-7.9912
G01 X-7.3956 Y-7.9988
G01 X-7.3614 Y-8.0056
G01 X-7.3373 Y-8.0085
G01 X-7.3025 Y-8.0101
G01 X-7.2677 Y-8.0085
G01 X-7.2436 Y-8.0056
G01 X-7.2094 Y-7.9988
G01 X-7.1827 Y-7.9912
G01 X-6.9173 Y-7.9912
G01 X-6.9002 Y-7.9901
G01 X-6.8883 Y-7.9882
G01 X-6.8767 Y-7.9852
G01 X-6.8653 Y-7.9812
G01 X-6.8544 Y-7.9763
G01 X-6.8439 Y-7.9704
G01 X-6.8339 Y-7.9636
G01 X-6.8246 Y-7.9561
G01 X-6.8159 Y-7.9477
G01 X-6.8069 Y-7.9373
G01 X-6.7999 Y-7.9275
G01 X-6.7938 Y-7.9172
G01 X-6.7886 Y-7.9064
G01 X-6.7838 Y-7.8935
G01 X-6.7807 Y-7.8819
G01 X-6.7786 Y-7.8700
G01 X-6.7775 Y-7.8581
G01 X-6.7776 Y-7.2426
G01 X-6.7788 Y-7.2307
G01 X-6.7815 Y-7.2172
G01 X-6.7855 Y-7.2040
G01 X-6.7900 Y-7.1929
G01 X-6.7955 Y-7.1822
G01 X-6.8028 Y-7.1706
G01 X-6.8113 Y-7.1598
G01 X-6.8195 Y-7.1510
G01 X-6.8298 Y-7.1419
G01 X-6.8395 Y-7.1348
G01 X-6.8498 Y-7.1286
G01 X-6.8621 Y-7.1225
G01 X-6.8750 Y-7.1177
G01 X-6.8866 Y-7.1146
G01 X-6.9002 Y-7.1123
G01 X-6.9124 Y-7.1113
G01 X-6.9124 Y-6.4938
G01 X-6.3325 Y-6.4938
G01 X-6.3103 Y-6.4920
G01 X-6.2886 Y-6.4867
G01 X-6.2680 Y-6.4781
G01 X-6.2505 Y-6.4673
G01 X-6.2335 Y-6.4528
G01 X-6.2190 Y-6.4358
G01 X-6.2074 Y-6.4167
G01 X-6.1990 Y-6.3961
G01 X-6.1943 Y-6.3760
G01 X-6.1925 Y-6.3538
G01 X-6.1926 Y-4.7486
G01 X-6.1943 Y-4.7316
G01 X-6.1980 Y-4.7148
G01 X-6.2038 Y-4.6986
G01 X-6.2124 Y-4.6818
G01 X-6.2221 Y-4.6677
G01 X-6.2335 Y-4.6548
G01 X-6.2464 Y-4.6434
G01 X-6.2620 Y-4.6328
G01 X-6.2773 Y-4.6251
G01 X-6.2952 Y-4.6189
G01 X-6.3137 Y-4.6151
G01 X-6.3308 Y-4.6138
G01 X-7.6377 Y-4.6139
G01 X-7.6547 Y-4.6156
G01 X-7.6715 Y-4.6193
G01 X-7.6877 Y-4.6251
G01 X-7.7045 Y-4.6337
G01 X-7.7186 Y-4.6434
G01 X-7.7315 Y-4.6548
G01 X-7.7429 Y-4.6677
G01 X-7.7535 Y-4.6833
G01 X-7.7612 Y-4.6986
G01 X-7.7674 Y-4.7165
G01 X-7.7712 Y-4.7350
G01 X-7.7725 Y-4.7521
G01 X-7.7725 Y-6.3572
G01 X-7.7707 Y-6.3760
G01 X-7.7665 Y-6.3944
G01 X-7.7591 Y-6.4137
G01 X-7.7499 Y-6.4301
G01 X-7.7385 Y-6.4452
G01 X-7.7252 Y-6.4587
G01 X-7.7103 Y-6.4702
G01 X-7.6926 Y-6.4802
G01 X-7.6926 Y-7.1112
G00 Z2.0000
G00 X-7.6226 Y-7.1812
G01 F70.00
G01 Z-0.0600
G01 F120.00
G01 X-8.0224 Y-7.1814
G01 X-8.0384 Y-7.1845
G01 X-8.0465 Y-7.1876
G01 X-8.0540 Y-7.1916
G01 X-8.0668 Y-7.2017
G01 X-8.0769 Y-7.2145
G01 X-8.0813 Y-7.2228
G01 X-8.0845 Y-7.2317
G01 X-8.0865 Y-7.2409
G01 X-8.0873 Y-7.2503
G01 X-8.0873 Y-7.8521
G01 X-8.0858 Y-7.8657
G01 X-8.0813 Y-7.8796
G01 X-8.0745 Y-7.8915
G01 X-8.0656 Y-7.9019
G01 X-8.0562 Y-7.9094
G01 X-8.0449 Y-7.9155
G01 X-8.0326 Y-7.9195
G01 X-8.0207 Y-7.9211
G01 X-7.4109 Y-7.9212
G01 X-7.3819 Y-7.9301
G01 X-7.3633 Y-7.9343
G01 X-7.3339 Y-7.9386
G01 X-7.3025 Y-7.9401
G01 X-7.2711 Y-7.9386
G01 X-7.2417 Y-7.9343
G01 X-7.2231 Y-7.9301
G01 X-7.1941 Y-7.9212
G01 X-6.9104 Y-7.9209
G01 X-6.8978 Y-7.9184
G01 X-6.8866 Y-7.9141
G01 X-6.8763 Y-7.9079
G01 X-6.8666 Y-7.8995
G01 X-6.8586 Y-7.8894
G01 X-6.8526 Y-7.8780
G01 X-6.8488 Y-7.8657
G01 X-6.8473 Y-7.8529
G01 X-6.8475 Y-7.2461
G01 X-6.8488 Y-7.2367
G01 X-6.8514 Y-7.2276
G01 X-6.8552 Y-7.2190
G01 X-6.8596 Y-7.2116
G01 X-6.8649 Y-7.2048
G01 X-6.8716 Y-7.1982
G01 X-6.8791 Y-7.1925
G01 X-6.8866 Y-7.1883
G01 X-6.8986 Y-7.1837
G01 X-6.9122 Y-7.1814
G01 X-6.9824 Y-7.1812
G01 X-6.9824 Y-6.4238
G01 X-6.3282 Y-6.4237
G01 X-6.3180 Y-6.4223
G01 X-6.3089 Y-6.4197
G01 X-6.3003 Y-6.4159
G01 X-6.2915 Y-6.4105
G01 X-6.2842 Y-6.4045
G01 X-6.2773 Y-6.3969
G01 X-6.2716 Y-6.3883
G01 X-6.2675 Y-6.3798
G01 X-6.2638 Y-6.3675
G01 X-6.2625 Y-6.3538
G01 X-6.2625 Y-4.7521
G01 X-6.2634 Y-4.7427
G01 X-6.2655 Y-4.7335
G01 X-6.2689 Y-4.7246
G01 X-6.2729 Y-4.7171
G01 X-6.2784 Y-4.7094
G01 X-6.2849 Y-4.7025
G01 X-6.2922 Y-4.6966
G01 X-6.2995 Y-4.6921
G01 X-6.3073 Y-4.6885
G01 X-6.3155 Y-4.6859
G01 X-6.3316 Y-4.6838
G01 X-7.6342 Y-4.6838
G01 X-7.6436 Y-4.6847
G01 X-7.6528 Y-4.6868
G01 X-7.6617 Y-4.6902
G01 X-7.6692 Y-4.6942
G01 X-7.6769 Y-4.6997
G01 X-7.6838 Y-4.7062
G01 X-7.6897 Y-4.7135
G01 X-7.6942 Y-4.7208
G01 X-7.6978 Y-4.7286
G01 X-7.7004 Y-4.7368
G01 X-7.7020 Y-4.7452
G01 X-7.7025 Y-4.7538
G01 X-7.7025 Y-6.3555
G01 X-7.7006 Y-6.3700
G01 X-7.6958 Y-6.3837
G01 X-7.6882 Y-6.3962
G01 X-7.6782 Y-6.4068
G01 X-7.6663 Y-6.4151
G01 X-7.6528 Y-6.4208
G01 X-7.6394 Y-6.4235
G01 X-7.6226 Y-6.4238
G01 X-7.6226 Y-7.1812
G00 Z2.0000
G00 X-8.1067 Y-7.0612
G01 F70.00
G01 Z-0.0600
G01 F120.00
G01 X-8.2073 Y-7.0612
G01 X-8.2073 Y-7.1618
G01 X-8.1987 Y-7.1455
G01 X-8.1890 Y-7.1303
G01 X-8.1780 Y-7.1160
G01 X-8.1658 Y-7.1027
G01 X-8.1525 Y-7.0905
G01 X-8.1382 Y-7.0795
G01 X-8.1230 Y-7.0698
G01 X-8.1067 Y-7.0612
G00 Z2.0000
G00 X-8.2073 Y-7.9406
G01 F70.00
G01 Z-0.0600
G01 F120.00
G01 X-8.2073 Y-8.0206
G01 X-8.1414 Y-8.0206
G01 X-8.1621 Y-8.0033
G01 X-8.1796 Y-7.9844
G01 X-8.1947 Y-7.9635
G01 X-8.2073 Y-7.9406
G00 Z2.0000
G00 X-8.1414 Y-9.0406
G01 F70.00
G01 Z-0.0600
G01 F120.00
G01 X-8.2073 Y-9.0406
G01 X-8.2073 Y-9.1206
G01 X-8.1947 Y-9.0977
G01 X-8.1796 Y-9.0768
G01 X-8.1621 Y-9.0579
G01 X-8.1414 Y-9.0406
G00 Z2.0000
G00 X-9.4273 Y-9.1206
G01 F70.00
G01 Z-0.0600
G01 F120.00
G01 X-9.4273 Y-8.9200
G01 X-9.4359 Y-8.9363
G01 X-9.4456 Y-8.9515
G01 X-9.4566 Y-8.9658
G01 X-9.4688 Y-8.9791
G01 X-9.4821 Y-8.9913
G01 X-9.4964 Y-9.0023
G01 X-9.5116 Y-9.0120
G01 X-9.5272 Y-9.0203
G01 X-9.5116 Y-9.0286
G01 X-9.4964 Y-9.0383
G01 X-9.4821 Y-9.0493
G01 X-9.4688 Y-9.0615
G01 X-9.4566 Y-9.0748
G01 X-9.4456 Y-9.0891
G01 X-9.4359 Y-9.1043
G01 X-9.4273 Y-9.1206
G00 Z2.0000
G00 X-9.5272 Y-8.0409
G01 F70.00
G01 Z-0.0600
G01 F120.00
G01 X-9.5116 Y-8.0492
G01 X-9.4964 Y-8.0589
G01 X-9.4821 Y-8.0699
G01 X-9.4688 Y-8.0821
G01 X-9.4566 Y-8.0954
G01 X-9.4456 Y-8.1097
G01 X-9.4359 Y-8.1249
G01 X-9.4273 Y-8.1412
G01 X-9.4273 Y-7.9406
G01 X-9.4359 Y-7.9569
G01 X-9.4456 Y-7.9721
G01 X-9.4566 Y-7.9864
G01 X-9.4688 Y-7.9997
G01 X-9.4821 Y-8.0119
G01 X-9.4964 Y-8.0229
G01 X-9.5116 Y-8.0326
G01 X-9.5272 Y-8.0409
G00 Z2.0000
G00 X-9.4273 Y-7.1618
G01 F70.00
G01 Z-0.0600
G01 F120.00
G01 X-9.4273 Y-7.0612
G01 X-9.5279 Y-7.0612
G01 X-9.5116 Y-7.0698
G01 X-9.4964 Y-7.0795
G01 X-9.4821 Y-7.0905
G01 X-9.4688 Y-7.1027
G01 X-9.4566 Y-7.1160
G01 X-9.4456 Y-7.1303
G01 X-9.4359 Y-7.1455
G01 X-9.4273 Y-7.1618
G00 Z2.0000
G00 X-9.6785 Y-7.0412
G01 F70.00
G01 Z-0.0600
G01 F120.00
G01 X-9.6948 Y-7.0326
G01 X-9.7100 Y-7.0229
G01 X-9.7243 Y-7.0119
G01 X-9.7376 Y-6.9997
G01 X-9.7498 Y-6.9864
G01 X-9.7608 Y-6.9721
G01 X-9.7705 Y-6.9569
G01 X-9.7793 Y-6.9402
G01 X-9.7793 Y-7.0412
G01 X-9.6785 Y-7.0412
G00 Z2.0000
G00 X-10.6995 Y-6.9402
G01 F70.00
G01 Z-0.0600
G01 F120.00
G01 X-10.7070 Y-6.9547
G01 X-10.7151 Y-6.9679
G01 X-10.7242 Y-6.9804
G01 X-10.7341 Y-6.9922
G01 X-10.7449 Y-7.0033
G01 X-10.7565 Y-7.0135
G01 X-10.7709 Y-7.0244
G01 X-10.7840 Y-7.0326
G01 X-10.7976 Y-7.0399
G01 X-10.8117 Y-7.0462
G01 X-10.8263 Y-7.0514
G01 X-10.8412 Y-7.0555
G01 X-10.8564 Y-7.0585
G01 X-10.8717 Y-7.0604
G01 X-10.9073 Y-7.0612
G01 X-10.9073 Y-7.1618
G01 X-10.9000 Y-7.1477
G01 X-10.8919 Y-7.1345
G01 X-10.8829 Y-7.1220
G01 X-10.8729 Y-7.1102
G01 X-10.8621 Y-7.0991
G01 X-10.8505 Y-7.0889
G01 X-10.8361 Y-7.0780
G01 X-10.8230 Y-7.0698
G01 X-10.8094 Y-7.0625
G01 X-10.7953 Y-7.0562
G01 X-10.7807 Y-7.0510
G01 X-10.7658 Y-7.0469
G01 X-10.7507 Y-7.0439
G01 X-10.7353 Y-7.0420
G01 X-10.6995 Y-7.0412
G01 X-10.6995 Y-6.9402
G00 Z2.0000
G00 X-10.8479 Y-6.4250
G01 F70.00
G01 Z-0.0600
G01 F120.00
G01 X-10.8239 Y-6.4314
G01 X-10.8023 Y-6.4399
G01 X-10.7796 Y-6.4520
G01 X-10.7605 Y-6.4653
G01 X-10.7412 Y-6.4823
G01 X-10.7258 Y-6.4996
G01 X-10.7109 Y-6.5207
G01 X-10.6995 Y-6.5418
G01 X-10.6995 Y-6.3710
G01 X-10.7298 Y-6.3843
G01 X-10.7783 Y-6.4029
G01 X-10.8275 Y-6.4192
G01 X-10.8479 Y-6.4250
G00 Z2.0000
G00 X-10.9273 Y-7.4619
G01 F70.00
G01 Z-0.0600
G01 F120.00
G01 X-10.9372 Y-7.4805
G01 X-10.9502 Y-7.4997
G01 X-10.9652 Y-7.5173
G01 X-10.9821 Y-7.5332
G01 X-11.0006 Y-7.5471
G01 X-11.0206 Y-7.5589
G01 X-11.0417 Y-7.5684
G01 X-11.0641 Y-7.5757
G01 X-11.0429 Y-7.5849
G01 X-11.0228 Y-7.5965
G01 X-11.0041 Y-7.6102
G01 X-10.9852 Y-7.6277
G01 X-10.9686 Y-7.6474
G01 X-10.9559 Y-7.6668
G01 X-10.9453 Y-7.6874
G01 X-10.9371 Y-7.7091
G01 X-10.9304 Y-7.7366
G01 X-10.9283 Y-7.7519
G01 X-10.9274 Y-7.7673
G01 X-10.9273 Y-8.1124
G01 X-10.8909 Y-8.1124
G01 X-10.8746 Y-8.0915
G01 X-10.8545 Y-8.0716
G01 X-10.8318 Y-8.0546
G01 X-10.8074 Y-8.0409
G01 X-10.8296 Y-8.0286
G01 X-10.8485 Y-8.0152
G01 X-10.8658 Y-7.9997
G01 X-10.8829 Y-7.9804
G01 X-10.8961 Y-7.9614
G01 X-10.9071 Y-7.9410
G01 X-10.9159 Y-7.9195
G01 X-10.9227 Y-7.8947
G01 X-10.9260 Y-7.8743
G01 X-10.9273 Y-7.8538
G01 X-10.9273 Y-7.4619
G00 Z2.0000
G00 X-10.8297 Y-9.0326
G01 F70.00
G01 Z-0.0600
G01 F120.00
G01 X-10.9273 Y-9.0326
G01 X-10.9273 Y-9.3725
G01 X-10.9283 Y-9.3931
G01 X-10.9308 Y-9.4109
G01 X-10.9342 Y-9.4260
G01 X-10.9387 Y-9.4408
G01 X-10.9443 Y-9.4552
G01 X-10.9509 Y-9.4692
G01 X-10.9585 Y-9.4827
G01 X-10.9671 Y-9.4955
G01 X-10.9766 Y-9.5077
G01 X-10.9888 Y-9.5210
G01 X-11.0001 Y-9.5315
G01 X-11.0122 Y-9.5412
G01 X-11.0271 Y-9.5513
G01 X-11.0406 Y-9.5589
G01 X-11.0569 Y-9.5665
G01 X-11.0739 Y-9.5727
G01 X-11.0888 Y-9.5768
G01 X-11.1090 Y-9.5806
G01 X-11.1321 Y-9.5824
G01 X-11.2874 Y-9.5825
G01 X-11.2874 Y-10.2930
G01 X-11.2637 Y-10.2803
G01 X-11.2396 Y-10.2710
G01 X-11.2121 Y-10.2643
G01 X-11.1865 Y-10.2615
G01 X-10.6201 Y-10.2612
G01 X-10.6201 Y-10.0200
G01 X-10.7199 Y-10.0200
G01 X-10.7456 Y-10.0181
G01 X-10.7658 Y-10.0143
G01 X-10.7856 Y-10.0086
G01 X-10.8024 Y-10.0020
G01 X-10.8208 Y-9.9927
G01 X-10.8403 Y-9.9802
G01 X-10.8583 Y-9.9656
G01 X-10.8746 Y-9.9491
G01 X-10.8890 Y-9.9309
G01 X-10.9013 Y-9.9113
G01 X-10.9113 Y-9.8904
G01 X-10.9190 Y-9.8685
G01 X-10.9242 Y-9.8459
G01 X-10.9265 Y-9.8280
G01 X-10.9273 Y-9.8100
G01 X-10.9273 Y-9.2100
G01 X-10.9260 Y-9.1869
G01 X-10.9222 Y-9.1640
G01 X-10.9159 Y-9.1417
G01 X-10.9071 Y-9.1202
G01 X-10.8961 Y-9.0998
G01 X-10.8829 Y-9.0808
G01 X-10.8676 Y-9.0633
G01 X-10.8505 Y-9.0477
G01 X-10.8297 Y-9.0326
G00 Z2.0000
G00 X-10.9973 Y-9.6150
G01 F70.00
G01 Z-0.0600
G01 F120.00
G01 X-11.0207 Y-9.6271
G01 X-11.0430 Y-9.6361
G01 X-11.0659 Y-9.6433
G01 X-11.0894 Y-9.6484
G01 X-11.1064 Y-9.6508
G01 X-11.1270 Y-9.6523
G01 X-11.2174 Y-9.6525
G01 X-11.2174 Y-10.1942
G01 X-11.1968 Y-10.1920
G01 X-11.1762 Y-10.1912
G01 X-10.6901 Y-10.1912
G01 X-10.6901 Y-10.0900
G01 X-10.7379 Y-10.0892
G01 X-10.7584 Y-10.0870
G01 X-10.7753 Y-10.0839
G01 X-10.7953 Y-10.0789
G01 X-10.8116 Y-10.0736
G01 X-10.8308 Y-10.0660
G01 X-10.8493 Y-10.0569
G01 X-10.8671 Y-10.0466
G01 X-10.8841 Y-10.0349
G01 X-10.9002 Y-10.0220
G01 X-10.9153 Y-10.0080
G01 X-10.9293 Y-9.9929
G01 X-10.9422 Y-9.9768
G01 X-10.9539 Y-9.9598
G01 X-10.9642 Y-9.9420
G01 X-10.9760 Y-9.9172
G01 X-10.9852 Y-9.8913
G01 X-10.9919 Y-9.8646
G01 X-10.9960 Y-9.8374
G01 X-10.9973 Y-9.8100
G01 X-10.9973 Y-9.6150
G00 Z2.0000
G00 X-11.0673 Y-9.7154
G01 F70.00
G01 Z-0.0600
G01 F120.00
G01 X-11.0859 Y-9.7187
G01 X-11.1073 Y-9.7212
G01 X-11.1471 Y-9.7225
G01 X-11.1469 Y-10.1212
G01 X-10.8775 Y-10.1212
G01 X-10.9009 Y-10.1080
G01 X-10.9258 Y-10.0911
G01 X-10.9491 Y-10.0722
G01 X-10.9678 Y-10.0544
G01 X-10.9879 Y-10.0320
G01 X-11.0059 Y-10.0080
G01 X-11.0197 Y-9.9862
G01 X-11.0337 Y-9.9596
G01 X-11.0438 Y-9.9360
G01 X-11.0535 Y-9.9075
G01 X-11.0597 Y-9.8825
G01 X-11.0641 Y-9.8571
G01 X-11.0660 Y-9.8400
G01 X-11.0672 Y-9.8186
G01 X-11.0673 Y-9.7154
G00 Z2.0000
G00 X-12.2076 Y-10.1602
G01 F70.00
G01 Z-0.0600
G01 F120.00
G01 X-12.2164 Y-10.1769
G01 X-12.2276 Y-10.1942
G01 X-12.2405 Y-10.2103
G01 X-12.2549 Y-10.2251
G01 X-12.2707 Y-10.2383
G01 X-12.2877 Y-10.2500
G01 X-12.3057 Y-10.2599
G01 X-12.3240 Y-10.2678
G01 X-12.3079 Y-10.2726
G01 X-12.2911 Y-10.2792
G01 X-12.2749 Y-10.2872
G01 X-12.2595 Y-10.2966
G01 X-12.2450 Y-10.3072
G01 X-12.2314 Y-10.3191
G01 X-12.2189 Y-10.3321
G01 X-12.2076 Y-10.3460
G01 X-12.2076 Y-10.1602
G00 Z2.0000
G00 X-12.3084 Y-9.5825
G01 F70.00
G01 Z-0.0600
G01 F120.00
G01 X-12.2921 Y-9.5911
G01 X-12.2769 Y-9.6008
G01 X-12.2626 Y-9.6118
G01 X-12.2493 Y-9.6240
G01 X-12.2371 Y-9.6373
G01 X-12.2261 Y-9.6516
G01 X-12.2164 Y-9.6668
G01 X-12.2076 Y-9.6835
G01 X-12.2076 Y-9.5825
G01 X-12.3084 Y-9.5825
G00 Z2.0000
G00 X-13.9739 Y-9.7025
G01 F70.00
G01 Z-0.0600
G01 F120.00
G01 X-13.9739 Y-9.4425
G01 X-14.3433 Y-9.4422
G01 X-14.3518 Y-9.4410
G01 X-14.3601 Y-9.4387
G01 X-14.3680 Y-9.4354
G01 X-14.3762 Y-9.4307
G01 X-14.3830 Y-9.4255
G01 X-14.3892 Y-9.4195
G01 X-14.3950 Y-9.4121
G01 X-14.3994 Y-9.4047
G01 X-14.4052 Y-9.3895
G01 X-14.4073 Y-9.3734
G01 X-14.4073 Y-8.8592
G01 X-14.6673 Y-8.8592
G01 X-14.6673 Y-9.7025
G01 X-13.9739 Y-9.7025
G00 Z2.0000
G00 X-14.0439 Y-9.6325
G01 F70.00
G01 Z-0.0600
G01 F120.00
G01 X-14.0439 Y-9.5125
G01 X-14.3373 Y-9.5125
G01 X-14.3561 Y-9.5112
G01 X-14.3696 Y-9.5087
G01 X-14.3828 Y-9.5049
G01 X-14.3956 Y-9.4998
G01 X-14.4063 Y-9.4943
G01 X-14.4179 Y-9.4870
G01 X-14.4287 Y-9.4785
G01 X-14.4387 Y-9.4690
G01 X-14.4477 Y-9.4586
G01 X-14.4591 Y-9.4415
G01 X-14.4685 Y-9.4213
G01 X-14.4743 Y-9.4015
G01 X-14.4770 Y-9.3811
G01 X-14.4773 Y-8.9292
G01 X-14.5973 Y-8.9292
G01 X-14.5973 Y-9.6325
G01 X-14.0439 Y-9.6325
G00 Z2.0000
G00 X-14.5273 Y-9.4619
G01 F70.00
G01 Z-0.0600
G01 F120.00
G01 X-14.5273 Y-9.5625
G01 X-14.4267 Y-9.5625
G01 X-14.4430 Y-9.5539
G01 X-14.4582 Y-9.5442
G01 X-14.4725 Y-9.5332
G01 X-14.4858 Y-9.5210
G01 X-14.4980 Y-9.5077
G01 X-14.5090 Y-9.4934
G01 X-14.5187 Y-9.4782
G01 X-14.5273 Y-9.4619
G00 Z2.0000
G00 X-14.0656 Y-10.2812
G01 F70.00
G01 Z-0.0600
G01 F120.00
G01 X-14.1662 Y-10.2812
G01 X-14.1662 Y-10.3818
G01 X-14.1576 Y-10.3655
G01 X-14.1479 Y-10.3503
G01 X-14.1369 Y-10.3360
G01 X-14.1247 Y-10.3227
G01 X-14.1114 Y-10.3105
G01 X-14.0971 Y-10.2995
G01 X-14.0819 Y-10.2898
G01 X-14.0656 Y-10.2812
G00 Z2.0000
G00 X-14.1862 Y-11.3014
G01 F70.00
G01 Z-0.0600
G01 F120.00
G01 X-14.2002 Y-11.3265
G01 X-14.2091 Y-11.3391
G01 X-14.2179 Y-11.3500
G01 X-14.1862 Y-11.3378
G01 X-14.1862 Y-11.3014
G00 Z2.0000
G00 X-14.0412 Y-12.3825
G01 F70.00
G01 Z-0.0600
G01 F120.00
G01 X-14.0401 Y-12.4050
G01 X-14.0368 Y-12.4274
G01 X-14.0313 Y-12.4493
G01 X-14.0237 Y-12.4705
G01 X-14.0140 Y-12.4909
G01 X-14.0024 Y-12.5103
G01 X-13.9890 Y-12.5284
G01 X-13.9738 Y-12.5451
G01 X-13.9571 Y-12.5603
G01 X-13.9390 Y-12.5737
G01 X-13.9196 Y-12.5853
G01 X-13.8992 Y-12.5950
G01 X-13.8780 Y-12.6026
G01 X-13.8561 Y-12.6081
G01 X-13.8337 Y-12.6114
G01 X-13.8112 Y-12.6125
G01 X-13.7887 Y-12.6114
G01 X-13.7663 Y-12.6081
G01 X-13.7444 Y-12.6026
G01 X-13.7232 Y-12.5950
G01 X-13.7028 Y-12.5853
G01 X-13.6834 Y-12.5737
G01 X-13.6653 Y-12.5603
G01 X-13.6486 Y-12.5451
G01 X-13.6334 Y-12.5284
G01 X-13.6200 Y-12.5103
G01 X-13.6084 Y-12.4909
G01 X-13.5987 Y-12.4705
G01 X-13.5911 Y-12.4493
G01 X-13.5856 Y-12.4274
G01 X-13.5823 Y-12.4050
G01 X-13.5812 Y-12.3825
G01 X-13.5823 Y-12.3600
G01 X-13.5856 Y-12.3376
G01 X-13.5911 Y-12.3157
G01 X-13.5987 Y-12.2945
G01 X-13.6084 Y-12.2741
G01 X-13.6200 Y-12.2547
G01 X-13.6334 Y-12.2366
G01 X-13.6486 Y-12.2199
G01 X-13.6653 Y-12.2047
G01 X-13.6834 Y-12.1913
G01 X-13.7028 Y-12.1797
G01 X-13.7232 Y-12.1700
G01 X-13.7444 Y-12.1624
G01 X-13.7663 Y-12.1569
G01 X-13.7887 Y-12.1536
G01 X-13.8112 Y-12.1525
G01 X-13.8337 Y-12.1536
G01 X-13.8561 Y-12.1569
G01 X-13.8780 Y-12.1624
G01 X-13.8992 Y-12.1700
G01 X-13.9196 Y-12.1797
G01 X-13.9390 Y-12.1913
G01 X-13.9571 Y-12.2047
G01 X-13.9738 Y-12.2199
G01 X-13.9890 Y-12.2366
G01 X-14.0024 Y-12.2547
G01 X-14.0140 Y-12.2741
G01 X-14.0237 Y-12.2945
G01 X-14.0313 Y-12.3157
G01 X-14.0368 Y-12.3376
G01 X-14.0401 Y-12.3600
G01 X-14.0412 Y-12.3825
G00 Z2.0000
G00 X-13.9712 Y-12.3825
G01 F70.00
G01 Z-0.0600
G01 F120.00
G01 X-13.9704 Y-12.3982
G01 X-13.9681 Y-12.4137
G01 X-13.9643 Y-12.4289
G01 X-13.9590 Y-12.4437
G01 X-13.9523 Y-12.4579
G01 X-13.9442 Y-12.4714
G01 X-13.9348 Y-12.4840
G01 X-13.9243 Y-12.4956
G01 X-13.9127 Y-12.5061
G01 X-13.9001 Y-12.5155
G01 X-13.8866 Y-12.5236
G01 X-13.8724 Y-12.5303
G01 X-13.8576 Y-12.5356
G01 X-13.8424 Y-12.5394
G01 X-13.8269 Y-12.5417
G01 X-13.8112 Y-12.5425
G01 X-13.7955 Y-12.5417
G01 X-13.7800 Y-12.5394
G01 X-13.7648 Y-12.5356
G01 X-13.7500 Y-12.5303
G01 X-13.7358 Y-12.5236
G01 X-13.7223 Y-12.5155
G01 X-13.7097 Y-12.5061
G01 X-13.6981 Y-12.4956
G01 X-13.6876 Y-12.4840
G01 X-13.6782 Y-12.4714
G01 X-13.6701 Y-12.4579
G01 X-13.6634 Y-12.4437
G01 X-13.6581 Y-12.4289
G01 X-13.6543 Y-12.4137
G01 X-13.6520 Y-12.3982
G01 X-13.6512 Y-12.3825
G01 X-13.6520 Y-12.3668
G01 X-13.6543 Y-12.3513
G01 X-13.6581 Y-12.3361
G01 X-13.6634 Y-12.3213
G01 X-13.6701 Y-12.3071
G01 X-13.6782 Y-12.2936
G01 X-13.6876 Y-12.2810
G01 X-13.6981 Y-12.2694
G01 X-13.7097 Y-12.2589
G01 X-13.7223 Y-12.2495
G01 X-13.7358 Y-12.2414
G01 X-13.7500 Y-12.2347
G01 X-13.7648 Y-12.2294
G01 X-13.7800 Y-12.2256
G01 X-13.7955 Y-12.2233
G01 X-13.8112 Y-12.2225
G01 X-13.8269 Y-12.2233
G01 X-13.8424 Y-12.2256
G01 X-13.8576 Y-12.2294
G01 X-13.8724 Y-12.2347
G01 X-13.8866 Y-12.2414
G01 X-13.9001 Y-12.2495
G01 X-13.9127 Y-12.2589
G01 X-13.9243 Y-12.2694
G01 X-13.9348 Y-12.2810
G01 X-13.9442 Y-12.2936
G01 X-13.9523 Y-12.3071
G01 X-13.9590 Y-12.3213
G01 X-13.9643 Y-12.3361
G01 X-13.9681 Y-12.3513
G01 X-13.9704 Y-12.3668
G01 X-13.9712 Y-12.3825
G00 Z2.0000
G00 X-13.9011 Y-12.3825
G01 F70.00
G01 Z-0.0600
G01 F120.00
G01 X-13.8994 Y-12.4000
G01 X-13.8943 Y-12.4169
G01 X-13.8860 Y-12.4325
G01 X-13.8748 Y-12.4461
G01 X-13.8612 Y-12.4573
G01 X-13.8456 Y-12.4656
G01 X-13.8287 Y-12.4707
G01 X-13.8112 Y-12.4724
G01 X-13.7937 Y-12.4707
G01 X-13.7768 Y-12.4656
G01 X-13.7612 Y-12.4573
G01 X-13.7476 Y-12.4461
G01 X-13.7364 Y-12.4325
G01 X-13.7281 Y-12.4169
G01 X-13.7230 Y-12.4000
G01 X-13.7213 Y-12.3825
G01 X-13.7230 Y-12.3650
G01 X-13.7281 Y-12.3481
G01 X-13.7364 Y-12.3325
G01 X-13.7476 Y-12.3189
G01 X-13.7612 Y-12.3077
G01 X-13.7768 Y-12.2994
G01 X-13.7937 Y-12.2943
G01 X-13.8112 Y-12.2926
G01 X-13.8287 Y-12.2943
G01 X-13.8456 Y-12.2994
G01 X-13.8612 Y-12.3077
G01 X-13.8748 Y-12.3189
G01 X-13.8860 Y-12.3325
G01 X-13.8943 Y-12.3481
G01 X-13.8994 Y-12.3650
G01 X-13.9011 Y-12.3825
G00 Z2.0000
G00 X-13.8311 Y-12.3825
G01 F70.00
G01 Z-0.0600
G01 F120.00
G01 X-13.8296 Y-12.3901
G01 X-13.8253 Y-12.3966
G01 X-13.8188 Y-12.4009
G01 X-13.8112 Y-12.4024
G01 X-13.8036 Y-12.4009
G01 X-13.7971 Y-12.3966
G01 X-13.7928 Y-12.3901
G01 X-13.7913 Y-12.3825
G01 X-13.7928 Y-12.3749
G01 X-13.7971 Y-12.3684
G01 X-13.8036 Y-12.3641
G01 X-13.8112 Y-12.3626
G01 X-13.8188 Y-12.3641
G01 X-13.8253 Y-12.3684
G01 X-13.8296 Y-12.3749
G01 X-13.8311 Y-12.3825
G00 Z2.0000
G00 X-14.4057 Y-13.3195
G01 F70.00
G01 Z-0.0600
G01 F120.00
G01 X-14.3961 Y-13.3381
G01 X-14.3876 Y-13.3597
G01 X-14.3815 Y-13.3821
G01 X-14.3783 Y-13.4025
G01 X-14.3770 Y-13.4256
G01 X-14.3780 Y-13.4462
G01 X-14.3810 Y-13.4666
G01 X-14.3868 Y-13.4890
G01 X-14.3940 Y-13.5083
G01 X-14.4043 Y-13.5291
G01 X-14.4168 Y-13.5486
G01 X-14.4297 Y-13.5647
G01 X-14.4441 Y-13.5795
G01 X-14.4619 Y-13.5943
G01 X-14.4790 Y-13.6057
G01 X-14.4975 Y-13.6156
G01 X-14.2778 Y-13.6156
G01 X-14.2237 Y-13.4128
G01 X-14.2834 Y-13.3870
G01 X-14.3322 Y-13.3626
G01 X-14.3796 Y-13.3359
G01 X-14.4057 Y-13.3195
G00 Z2.0000
G00 X-14.3083 Y-13.4526
G01 F70.00
G01 Z-0.0600
G01 F120.00
G01 X-14.3087 Y-13.4565
G01 X-14.3094 Y-13.4623
G01 X-14.3070 Y-13.4532
G01 X-14.3083 Y-13.4526
G00 Z2.0000
G00 X-14.3280 Y-13.5321
G01 F70.00
G01 Z-0.0600
G01 F120.00
G01 X-14.3310 Y-13.5391
G01 X-14.3340 Y-13.5456
G01 X-14.3316 Y-13.5456
G01 X-14.3280 Y-13.5321
G00 Z2.0000
G00 X-14.7838 Y-13.6356
G01 F70.00
G01 Z-0.0600
G01 F120.00
G01 X-14.8844 Y-13.6356
G01 X-14.8844 Y-13.7362
G01 X-14.8758 Y-13.7199
G01 X-14.8661 Y-13.7047
G01 X-14.8551 Y-13.6904
G01 X-14.8429 Y-13.6771
G01 X-14.8296 Y-13.6649
G01 X-14.8153 Y-13.6539
G01 X-14.8001 Y-13.6442
G01 X-14.7838 Y-13.6356
G00 Z2.0000
G00 X-16.2937 Y-13.4738
G01 F70.00
G01 Z-0.0600
G01 F120.00
G01 X-16.1931 Y-13.4738
G01 X-16.1931 Y-13.3732
G01 X-16.2017 Y-13.3895
G01 X-16.2114 Y-13.4047
G01 X-16.2224 Y-13.4190
G01 X-16.2346 Y-13.4323
G01 X-16.2479 Y-13.4445
G01 X-16.2622 Y-13.4555
G01 X-16.2774 Y-13.4652
G01 X-16.2937 Y-13.4738
G00 Z2.0000
G00 X-17.0192 Y-13.5694
G01 F70.00
G01 Z-0.0600
G01 F120.00
G01 X-17.0018 Y-13.5463
G01 X-16.9819 Y-13.5262
G01 X-16.9700 Y-13.5165
G01 X-16.9574 Y-13.5076
G01 X-16.9325 Y-13.4938
G01 X-17.0087 Y-13.4938
G01 X-17.0192 Y-13.5694
G00 Z2.0000
G00 X-16.8106 Y-14.0244
G01 F70.00
G01 Z-0.0600
G01 F120.00
G01 X-16.8106 Y-13.9238
G01 X-16.8602 Y-13.9234
G01 X-16.8756 Y-13.9219
G01 X-16.8909 Y-13.9192
G01 X-16.9084 Y-13.9147
G01 X-16.9254 Y-13.9087
G01 X-16.9419 Y-13.9013
G01 X-16.9576 Y-13.8925
G01 X-16.9726 Y-13.8823
G01 X-16.9885 Y-13.8692
G01 X-17.0014 Y-13.8565
G01 X-17.0131 Y-13.8427
G01 X-17.0249 Y-13.8258
G01 X-17.0339 Y-13.8101
G01 X-17.0415 Y-13.7937
G01 X-17.0479 Y-13.7757
G01 X-17.0658 Y-13.9038
G01 X-16.9954 Y-13.9039
G01 X-16.9723 Y-13.9057
G01 X-16.9571 Y-13.9084
G01 X-16.9421 Y-13.9121
G01 X-16.9250 Y-13.9179
G01 X-16.9108 Y-13.9240
G01 X-16.8949 Y-13.9324
G01 X-16.8797 Y-13.9421
G01 X-16.8654 Y-13.9531
G01 X-16.8521 Y-13.9653
G01 X-16.8399 Y-13.9786
G01 X-16.8289 Y-13.9929
G01 X-16.8192 Y-14.0081
G01 X-16.8106 Y-14.0244
G00 Z2.0000
G00 X-18.0854 Y-13.8282
G01 F70.00
G01 Z-0.0600
G01 F120.00
G01 X-18.1028 Y-13.8513
G01 X-18.1227 Y-13.8714
G01 X-18.1346 Y-13.8811
G01 X-18.1472 Y-13.8900
G01 X-18.1721 Y-13.9038
G01 X-18.0959 Y-13.9038
G01 X-18.0854 Y-13.8282
G00 Z2.0000
G00 X-18.1679 Y-13.4938
G01 F70.00
G01 Z-0.0600
G01 F120.00
G01 X-18.1492 Y-13.5038
G01 X-18.1299 Y-13.5168
G01 X-18.1123 Y-13.5319
G01 X-18.0981 Y-13.5469
G01 X-18.0854 Y-13.5632
G01 X-18.0731 Y-13.5829
G01 X-18.0641 Y-13.6015
G01 X-18.0567 Y-13.6219
G01 X-18.0388 Y-13.4938
G01 X-18.1679 Y-13.4938
G00 Z2.0000
G00 X-18.5731 Y-13.3732
G01 F70.00
G01 Z-0.0600
G01 F120.00
G01 X-18.5731 Y-13.4738
G01 X-18.4725 Y-13.4738
G01 X-18.4888 Y-13.4652
G01 X-18.5040 Y-13.4555
G01 X-18.5183 Y-13.4445
G01 X-18.5316 Y-13.4323
G01 X-18.5438 Y-13.4190
G01 X-18.5548 Y-13.4047
G01 X-18.5645 Y-13.3895
G01 X-18.5731 Y-13.3732
G00 Z2.0000
G00 X-18.4900 Y-13.9238
G01 F70.00
G01 Z-0.0600
G01 F120.00
G01 X-18.5906 Y-13.9238
G01 X-18.5906 Y-14.0244
G01 X-18.5820 Y-14.0081
G01 X-18.5723 Y-13.9929
G01 X-18.5613 Y-13.9786
G01 X-18.5491 Y-13.9653
G01 X-18.5358 Y-13.9531
G01 X-18.5215 Y-13.9421
G01 X-18.5063 Y-13.9324
G01 X-18.4900 Y-13.9238
G00 Z2.0000
G00 X-18.6106 Y-14.1480
G01 F70.00
G01 Z-0.0600
G01 F120.00
G01 X-18.6193 Y-14.1646
G01 X-18.6291 Y-14.1798
G01 X-18.6402 Y-14.1941
G01 X-18.6524 Y-14.2074
G01 X-18.6658 Y-14.2196
G01 X-18.6801 Y-14.2306
G01 X-18.6954 Y-14.2404
G01 X-18.7124 Y-14.2492
G01 X-18.6106 Y-14.2496
G01 X-18.6106 Y-14.1480
G00 Z2.0000
G00 X-19.4910 Y-14.2458
G01 F70.00
G01 Z-0.0600
G01 F120.00
G01 X-19.5162 Y-14.2317
G01 X-19.5288 Y-14.2228
G01 X-19.5407 Y-14.2130
G01 X-19.5518 Y-14.2023
G01 X-19.5621 Y-14.1909
G01 X-19.5716 Y-14.1787
G01 X-19.5802 Y-14.1659
G01 X-19.5877 Y-14.1524
G01 X-19.5943 Y-14.1385
G01 X-19.6036 Y-14.1118
G01 X-19.6072 Y-14.0968
G01 X-19.6096 Y-14.0816
G01 X-19.6109 Y-14.0663
G01 X-19.6112 Y-14.0519
G01 X-19.7118 Y-14.0519
G01 X-19.6867 Y-14.0659
G01 X-19.6740 Y-14.0748
G01 X-19.6621 Y-14.0846
G01 X-19.6509 Y-14.0952
G01 X-19.6405 Y-14.1067
G01 X-19.6310 Y-14.1189
G01 X-19.6224 Y-14.1317
G01 X-19.6092 Y-14.1568
G01 X-19.6035 Y-14.1712
G01 X-19.5988 Y-14.1859
G01 X-19.5952 Y-14.2009
G01 X-19.5928 Y-14.2162
G01 X-19.5912 Y-14.2453
G01 X-19.4910 Y-14.2458
G00 Z2.0000
G00 X-19.7118 Y-13.4119
G01 F70.00
G01 Z-0.0600
G01 F120.00
G01 X-19.6112 Y-13.4119
G01 X-19.6112 Y-13.3113
G01 X-19.6198 Y-13.3276
G01 X-19.6295 Y-13.3428
G01 X-19.6405 Y-13.3571
G01 X-19.6527 Y-13.3704
G01 X-19.6660 Y-13.3826
G01 X-19.6803 Y-13.3936
G01 X-19.6955 Y-13.4033
G01 X-19.7118 Y-13.4119
G00 Z2.0000
G00 X-19.6083 Y-12.1189
G01 F70.00
G01 Z-0.0600
G01 F120.00
G01 X-19.6049 Y-12.1027
G01 X-19.5998 Y-12.0854
G01 X-19.5932 Y-12.0686
G01 X-19.5864 Y-12.0547
G01 X-19.5772 Y-12.0392
G01 X-19.5683 Y-12.0265
G01 X-19.5585 Y-12.0146
G01 X-19.5461 Y-12.0017
G01 X-19.5461 Y-11.8431
G01 X-19.5560 Y-11.8617
G01 X-19.5690 Y-11.8809
G01 X-19.5840 Y-11.8985
G01 X-19.6009 Y-11.9144
G01 X-19.6194 Y-11.9283
G01 X-19.6371 Y-11.9389
G01 X-19.6581 Y-11.9487
G01 X-19.6801 Y-11.9561
G01 X-19.7053 Y-11.9614
G01 X-19.7309 Y-11.9636
G01 X-19.9923 Y-11.9637
G01 X-19.9887 Y-11.9919
G01 X-19.7883 Y-11.9923
G01 X-19.7729 Y-11.9938
G01 X-19.7552 Y-11.9970
G01 X-19.7378 Y-12.0017
G01 X-19.7232 Y-12.0069
G01 X-19.7045 Y-12.0155
G01 X-19.6867 Y-12.0259
G01 X-19.6700 Y-12.0379
G01 X-19.6545 Y-12.0516
G01 X-19.6405 Y-12.0667
G01 X-19.6280 Y-12.0831
G01 X-19.6172 Y-12.1006
G01 X-19.6083 Y-12.1189
G00 Z2.0000
G00 X-18.4725 Y-11.4938
G01 F70.00
G01 Z-0.0600
G01 F120.00
G01 X-18.5731 Y-11.4938
G01 X-18.5731 Y-11.5944
G01 X-18.5645 Y-11.5781
G01 X-18.5548 Y-11.5629
G01 X-18.5438 Y-11.5486
G01 X-18.5316 Y-11.5353
G01 X-18.5183 Y-11.5231
G01 X-18.5040 Y-11.5121
G01 X-18.4888 Y-11.5024
G01 X-18.4725 Y-11.4938
G00 Z2.0000
G00 X-18.5731 Y-10.5732
G01 F70.00
G01 Z-0.0600
G01 F120.00
G01 X-18.5731 Y-10.6738
G01 X-18.4725 Y-10.6738
G01 X-18.4888 Y-10.6652
G01 X-18.5040 Y-10.6555
G01 X-18.5183 Y-10.6445
G01 X-18.5316 Y-10.6323
G01 X-18.5438 Y-10.6190
G01 X-18.5548 Y-10.6047
G01 X-18.5645 Y-10.5895
G01 X-18.5731 Y-10.5732
G00 Z2.0000
G00 X-19.5461 Y-10.0643
G01 F70.00
G01 Z-0.0600
G01 F120.00
G01 X-19.5461 Y-9.9637
G01 X-19.6467 Y-9.9637
G01 X-19.6304 Y-9.9723
G01 X-19.6152 Y-9.9820
G01 X-19.6009 Y-9.9930
G01 X-19.5876 Y-10.0052
G01 X-19.5754 Y-10.0185
G01 X-19.5644 Y-10.0328
G01 X-19.5547 Y-10.0480
G01 X-19.5461 Y-10.0643
G00 Z2.0000
G00 X-18.6941 Y-9.3551
G01 F70.00
G01 Z-0.0600
G01 F120.00
G01 X-18.6774 Y-9.3639
G01 X-18.6622 Y-9.3736
G01 X-18.6479 Y-9.3846
G01 X-18.6346 Y-9.3968
G01 X-18.6224 Y-9.4101
G01 X-18.6114 Y-9.4244
G01 X-18.6017 Y-9.4396
G01 X-18.5931 Y-9.4559
G01 X-18.5931 Y-9.3551
G01 X-18.6941 Y-9.3551
G00 Z2.0000
G00 X-18.7524 Y-8.2947
G01 F70.00
G01 Z-0.0600
G01 F120.00
G01 X-18.7509 Y-8.3023
G01 X-18.7466 Y-8.3088
G01 X-18.7401 Y-8.3131
G01 X-18.7325 Y-8.3146
G01 X-18.7249 Y-8.3131
G01 X-18.7184 Y-8.3088
G01 X-18.7141 Y-8.3023
G01 X-18.7126 Y-8.2947
G01 X-18.7141 Y-8.2871
G01 X-18.7184 Y-8.2806
G01 X-18.7249 Y-8.2763
G01 X-18.7325 Y-8.2748
G01 X-18.7401 Y-8.2763
G01 X-18.7466 Y-8.2806
G01 X-18.7509 Y-8.2871
G01 X-18.7524 Y-8.2947
G00 Z2.0000
G00 X-18.8224 Y-8.2947
G01 F70.00
G01 Z-0.0600
G01 F120.00
G01 X-18.8207 Y-8.3122
G01 X-18.8156 Y-8.3291
G01 X-18.8073 Y-8.3447
G01 X-18.7961 Y-8.3583
G01 X-18.7825 Y-8.3695
G01 X-18.7669 Y-8.3778
G01 X-18.7500 Y-8.3829
G01 X-18.7325 Y-8.3846
G01 X-18.7150 Y-8.3829
G01 X-18.6981 Y-8.3778
G01 X-18.6825 Y-8.3695
G01 X-18.6689 Y-8.3583
G01 X-18.6577 Y-8.3447
G01 X-18.6494 Y-8.3291
G01 X-18.6443 Y-8.3122
G01 X-18.6426 Y-8.2947
G01 X-18.6443 Y-8.2772
G01 X-18.6494 Y-8.2603
G01 X-18.6577 Y-8.2447
G01 X-18.6689 Y-8.2311
G01 X-18.6825 Y-8.2199
G01 X-18.6981 Y-8.2116
G01 X-18.7150 Y-8.2065
G01 X-18.7325 Y-8.2048
G01 X-18.7500 Y-8.2065
G01 X-18.7669 Y-8.2116
G01 X-18.7825 Y-8.2199
G01 X-18.7961 Y-8.2311
G01 X-18.8073 Y-8.2447
G01 X-18.8156 Y-8.2603
G01 X-18.8207 Y-8.2772
G01 X-18.8224 Y-8.2947
G00 Z2.0000
G00 X-18.8925 Y-8.2947
G01 F70.00
G01 Z-0.0600
G01 F120.00
G01 X-18.8917 Y-8.3104
G01 X-18.8894 Y-8.3259
G01 X-18.8856 Y-8.3411
G01 X-18.8803 Y-8.3559
G01 X-18.8736 Y-8.3701
G01 X-18.8655 Y-8.3836
G01 X-18.8561 Y-8.3962
G01 X-18.8456 Y-8.4078
G01 X-18.8340 Y-8.4183
G01 X-18.8214 Y-8.4277
G01 X-18.8079 Y-8.4358
G01 X-18.7937 Y-8.4425
G01 X-18.7789 Y-8.4478
G01 X-18.7637 Y-8.4516
G01 X-18.7482 Y-8.4539
G01 X-18.7325 Y-8.4547
G01 X-18.7168 Y-8.4539
G01 X-18.7013 Y-8.4516
G01 X-18.6861 Y-8.4478
G01 X-18.6713 Y-8.4425
G01 X-18.6571 Y-8.4358
G01 X-18.6436 Y-8.4277
G01 X-18.6310 Y-8.4183
G01 X-18.6194 Y-8.4078
G01 X-18.6089 Y-8.3962
G01 X-18.5995 Y-8.3836
G01 X-18.5914 Y-8.3701
G01 X-18.5847 Y-8.3559
G01 X-18.5794 Y-8.3411
G01 X-18.5756 Y-8.3259
G01 X-18.5733 Y-8.3104
G01 X-18.5725 Y-8.2947
G01 X-18.5733 Y-8.2790
G01 X-18.5756 Y-8.2635
G01 X-18.5794 Y-8.2483
G01 X-18.5847 Y-8.2335
G01 X-18.5914 Y-8.2193
G01 X-18.5995 Y-8.2058
G01 X-18.6089 Y-8.1932
G01 X-18.6194 Y-8.1816
G01 X-18.6310 Y-8.1711
G01 X-18.6436 Y-8.1617
G01 X-18.6571 Y-8.1536
G01 X-18.6713 Y-8.1469
G01 X-18.6861 Y-8.1416
G01 X-18.7013 Y-8.1378
G01 X-18.7168 Y-8.1355
G01 X-18.7325 Y-8.1347
G01 X-18.7482 Y-8.1355
G01 X-18.7637 Y-8.1378
G01 X-18.7789 Y-8.1416
G01 X-18.7937 Y-8.1469
G01 X-18.8079 Y-8.1536
G01 X-18.8214 Y-8.1617
G01 X-18.8340 Y-8.1711
G01 X-18.8456 Y-8.1816
G01 X-18.8561 Y-8.1932
G01 X-18.8655 Y-8.2058
G01 X-18.8736 Y-8.2193
G01 X-18.8803 Y-8.2335
G01 X-18.8856 Y-8.2483
G01 X-18.8894 Y-8.2635
G01 X-18.8917 Y-8.2790
G01 X-18.8925 Y-8.2947
G00 Z2.0000
G00 X-18.9625 Y-8.2947
G01 F70.00
G01 Z-0.0600
G01 F120.00
G01 X-18.9614 Y-8.3172
G01 X-18.9581 Y-8.3396
G01 X-18.9526 Y-8.3615
G01 X-18.9450 Y-8.3827
G01 X-18.9353 Y-8.4031
G01 X-18.9237 Y-8.4225
G01 X-18.9103 Y-8.4406
G01 X-18.8951 Y-8.4573
G01 X-18.8784 Y-8.4725
G01 X-18.8603 Y-8.4859
G01 X-18.8409 Y-8.4975
G01 X-18.8205 Y-8.5072
G01 X-18.7993 Y-8.5148
G01 X-18.7774 Y-8.5203
G01 X-18.7550 Y-8.5236
G01 X-18.7325 Y-8.5247
G01 X-18.7100 Y-8.5236
G01 X-18.6876 Y-8.5203
G01 X-18.6657 Y-8.5148
G01 X-18.6445 Y-8.5072
G01 X-18.6241 Y-8.4975
G01 X-18.6047 Y-8.4859
G01 X-18.5866 Y-8.4725
G01 X-18.5699 Y-8.4573
G01 X-18.5547 Y-8.4406
G01 X-18.5413 Y-8.4225
G01 X-18.5297 Y-8.4031
G01 X-18.5200 Y-8.3827
G01 X-18.5124 Y-8.3615
G01 X-18.5069 Y-8.3396
G01 X-18.5036 Y-8.3172
G01 X-18.5025 Y-8.2947
G01 X-18.5036 Y-8.2722
G01 X-18.5069 Y-8.2498
G01 X-18.5124 Y-8.2279
G01 X-18.5200 Y-8.2067
G01 X-18.5297 Y-8.1863
G01 X-18.5413 Y-8.1669
G01 X-18.5547 Y-8.1488
G01 X-18.5699 Y-8.1321
G01 X-18.5866 Y-8.1169
G01 X-18.6047 Y-8.1035
G01 X-18.6241 Y-8.0919
G01 X-18.6445 Y-8.0822
G01 X-18.6657 Y-8.0746
G01 X-18.6876 Y-8.0691
G01 X-18.7100 Y-8.0658
G01 X-18.7325 Y-8.0647
G01 X-18.7550 Y-8.0658
G01 X-18.7774 Y-8.0691
G01 X-18.7993 Y-8.0746
G01 X-18.8205 Y-8.0822
G01 X-18.8409 Y-8.0919
G01 X-18.8603 Y-8.1035
G01 X-18.8784 Y-8.1169
G01 X-18.8951 Y-8.1321
G01 X-18.9103 Y-8.1488
G01 X-18.9237 Y-8.1669
G01 X-18.9353 Y-8.1863
G01 X-18.9450 Y-8.2067
G01 X-18.9526 Y-8.2279
G01 X-18.9581 Y-8.2498
G01 X-18.9614 Y-8.2722
G01 X-18.9625 Y-8.2947
G00 Z2.0000
G00 X-19.9378 Y-7.4457
G01 F70.00
G01 Z-0.0600
G01 F120.00
G01 X-19.9464 Y-7.4440
G01 X-19.9550 Y-7.4435
G01 X-21.2559 Y-7.4435
G01 X-21.2712 Y-7.4454
G01 X-21.2857 Y-7.4506
G01 X-21.2987 Y-7.4588
G01 X-21.3097 Y-7.4698
G01 X-21.3159 Y-7.4790
G01 X-21.3209 Y-7.4899
G01 X-21.3240 Y-7.5015
G01 X-21.3250 Y-7.5126
G01 X-21.3250 Y-9.1135
G01 X-21.3235 Y-9.1280
G01 X-21.3186 Y-9.1427
G01 X-21.3112 Y-9.1552
G01 X-21.3007 Y-9.1665
G01 X-21.2910 Y-9.1735
G01 X-21.2802 Y-9.1788
G01 X-21.2678 Y-9.1823
G01 X-21.2559 Y-9.1835
G01 X-19.9550 Y-9.1835
G01 X-19.9397 Y-9.1818
G01 X-19.9251 Y-9.1768
G01 X-19.9119 Y-9.1687
G01 X-19.9010 Y-9.1581
G01 X-19.8480 Y-9.1760
G01 X-19.8061 Y-9.1875
G01 X-19.7621 Y-9.1974
G01 X-19.7176 Y-9.2052
G01 X-19.6744 Y-9.2105
G01 X-19.6268 Y-9.2141
G01 X-19.5825 Y-9.2151
G01 X-18.4531 Y-9.2151
G01 X-18.4531 Y-10.4855
G01 X-18.4523 Y-10.4941
G01 X-18.4503 Y-10.5033
G01 X-18.4474 Y-10.5114
G01 X-18.4436 Y-10.5190
G01 X-18.4388 Y-10.5262
G01 X-18.4332 Y-10.5327
G01 X-18.4268 Y-10.5385
G01 X-18.4198 Y-10.5434
G01 X-18.4115 Y-10.5478
G01 X-18.4026 Y-10.5510
G01 X-18.3925 Y-10.5532
G01 X-18.3831 Y-10.5538
G01 X-16.3822 Y-10.5538
G01 X-16.3669 Y-10.5519
G01 X-16.3532 Y-10.5471
G01 X-16.3407 Y-10.5395
G01 X-16.3301 Y-10.5295
G01 X-16.3226 Y-10.5190
G01 X-16.3175 Y-10.5082
G01 X-16.3143 Y-10.4966
G01 X-16.3131 Y-10.4847
G01 X-16.3131 Y-8.8838
G01 X-16.3140 Y-8.8727
G01 X-16.3166 Y-8.8618
G01 X-16.3206 Y-8.8523
G01 X-16.3259 Y-8.8435
G01 X-16.3324 Y-8.8355
G01 X-16.3400 Y-8.8286
G01 X-16.3486 Y-8.8229
G01 X-16.3579 Y-8.8185
G01 X-16.3686 Y-8.8153
G01 X-16.3788 Y-8.8139
G01 X-17.1226 Y-8.8138
G01 X-17.0922 Y-8.7664
G01 X-17.0708 Y-8.7286
G01 X-17.0497 Y-8.6867
G01 X-17.0321 Y-8.6469
G01 X-17.0159 Y-8.6048
G01 X-17.0017 Y-8.5619
G01 X-16.9893 Y-8.5167
G01 X-16.9798 Y-8.4743
G01 X-16.9720 Y-8.4298
G01 X-16.9665 Y-8.3849
G01 X-16.9632 Y-8.3399
G01 X-16.9621 Y-8.2947
G01 X-16.9632 Y-8.2495
G01 X-16.9665 Y-8.2045
G01 X-16.9719 Y-8.1605
G01 X-16.9798 Y-8.1151
G01 X-16.9897 Y-8.0711
G01 X-17.0017 Y-8.0275
G01 X-17.0153 Y-7.9862
G01 X-17.0321 Y-7.9425
G01 X-17.0497 Y-7.9027
G01 X-17.0716 Y-7.8593
G01 X-17.0930 Y-7.8215
G01 X-17.1172 Y-7.7833
G01 X-17.1432 Y-7.7464
G01 X-17.1710 Y-7.7108
G01 X-17.2005 Y-7.6766
G01 X-17.2317 Y-7.6439
G01 X-17.2644 Y-7.6127
G01 X-17.2973 Y-7.5843
G01 X-17.3356 Y-7.5544
G01 X-17.3711 Y-7.5294
G01 X-17.4093 Y-7.5052
G01 X-17.4486 Y-7.4830
G01 X-17.4874 Y-7.4634
G01 X-17.5319 Y-7.4437
G01 X-17.5724 Y-7.4281
G01 X-17.6153 Y-7.4139
G01 X-17.6589 Y-7.4019
G01 X-17.7013 Y-7.3923
G01 X-17.7491 Y-7.3840
G01 X-17.7923 Y-7.3787
G01 X-17.8373 Y-7.3754
G01 X-17.8825 Y-7.3743
G01 X-19.5825 Y-7.3743
G01 X-19.6268 Y-7.3753
G01 X-19.6727 Y-7.3787
G01 X-19.7176 Y-7.3842
G01 X-19.7621 Y-7.3920
G01 X-19.8045 Y-7.4015
G01 X-19.8497 Y-7.4139
G01 X-19.8910 Y-7.4275
G01 X-19.9378 Y-7.4457
G00 Z2.0000
G00 X-18.9625 Y-6.3897
G01 F70.00
G01 Z-0.0600
G01 F120.00
G01 X-18.9614 Y-6.4122
G01 X-18.9581 Y-6.4346
G01 X-18.9526 Y-6.4565
G01 X-18.9450 Y-6.4777
G01 X-18.9353 Y-6.4981
G01 X-18.9237 Y-6.5175
G01 X-18.9103 Y-6.5356
G01 X-18.8951 Y-6.5523
G01 X-18.8784 Y-6.5675
G01 X-18.8603 Y-6.5809
G01 X-18.8409 Y-6.5925
G01 X-18.8205 Y-6.6022
G01 X-18.7993 Y-6.6098
G01 X-18.7774 Y-6.6153
G01 X-18.7550 Y-6.6186
G01 X-18.7325 Y-6.6197
G01 X-18.7100 Y-6.6186
G01 X-18.6876 Y-6.6153
G01 X-18.6657 Y-6.6098
G01 X-18.6445 Y-6.6022
G01 X-18.6241 Y-6.5925
G01 X-18.6047 Y-6.5809
G01 X-18.5866 Y-6.5675
G01 X-18.5699 Y-6.5523
G01 X-18.5547 Y-6.5356
G01 X-18.5413 Y-6.5175
G01 X-18.5297 Y-6.4981
G01 X-18.5200 Y-6.4777
G01 X-18.5124 Y-6.4565
G01 X-18.5069 Y-6.4346
G01 X-18.5036 Y-6.4122
G01 X-18.5025 Y-6.3897
G01 X-18.5036 Y-6.3672
G01 X-18.5069 Y-6.3448
G01 X-18.5124 Y-6.3229
G01 X-18.5200 Y-6.3017
G01 X-18.5297 Y-6.2813
G01 X-18.5413 Y-6.2619
G01 X-18.5547 Y-6.2438
G01 X-18.5699 Y-6.2271
G01 X-18.5866 Y-6.2119
G01 X-18.6047 Y-6.1985
G01 X-18.6241 Y-6.1869
G01 X-18.6445 Y-6.1772
G01 X-18.6657 Y-6.1696
G01 X-18.6876 Y-6.1641
G01 X-18.7100 Y-6.1608
G01 X-18.7325 Y-6.1597
G01 X-18.7550 Y-6.1608
G01 X-18.7774 Y-6.1641
G01 X-18.7993 Y-6.1696
G01 X-18.8205 Y-6.1772
G01 X-18.8409 Y-6.1869
G01 X-18.8603 Y-6.1985
G01 X-18.8784 Y-6.2119
G01 X-18.8951 Y-6.2271
G01 X-18.9103 Y-6.2438
G01 X-18.9237 Y-6.2619
G01 X-18.9353 Y-6.2813
G01 X-18.9450 Y-6.3017
G01 X-18.9526 Y-6.3229
G01 X-18.9581 Y-6.3448
G01 X-18.9614 Y-6.3672
G01 X-18.9625 Y-6.3897
G00 Z2.0000
G00 X-18.8925 Y-6.3897
G01 F70.00
G01 Z-0.0600
G01 F120.00
G01 X-18.8917 Y-6.4054
G01 X-18.8894 Y-6.4209
G01 X-18.8856 Y-6.4361
G01 X-18.8803 Y-6.4509
G01 X-18.8736 Y-6.4651
G01 X-18.8655 Y-6.4786
G01 X-18.8561 Y-6.4912
G01 X-18.8456 Y-6.5028
G01 X-18.8340 Y-6.5133
G01 X-18.8214 Y-6.5227
G01 X-18.8079 Y-6.5308
G01 X-18.7937 Y-6.5375
G01 X-18.7789 Y-6.5428
G01 X-18.7637 Y-6.5466
G01 X-18.7482 Y-6.5489
G01 X-18.7325 Y-6.5497
G01 X-18.7168 Y-6.5489
G01 X-18.7013 Y-6.5466
G01 X-18.6861 Y-6.5428
G01 X-18.6713 Y-6.5375
G01 X-18.6571 Y-6.5308
G01 X-18.6436 Y-6.5227
G01 X-18.6310 Y-6.5133
G01 X-18.6194 Y-6.5028
G01 X-18.6089 Y-6.4912
G01 X-18.5995 Y-6.4786
G01 X-18.5914 Y-6.4651
G01 X-18.5847 Y-6.4509
G01 X-18.5794 Y-6.4361
G01 X-18.5756 Y-6.4209
G01 X-18.5733 Y-6.4054
G01 X-18.5725 Y-6.3897
G01 X-18.5733 Y-6.3740
G01 X-18.5756 Y-6.3585
G01 X-18.5794 Y-6.3433
G01 X-18.5847 Y-6.3285
G01 X-18.5914 Y-6.3143
G01 X-18.5995 Y-6.3008
G01 X-18.6089 Y-6.2882
G01 X-18.6194 Y-6.2766
G01 X-18.6310 Y-6.2661
G01 X-18.6436 Y-6.2567
G01 X-18.6571 Y-6.2486
G01 X-18.6713 Y-6.2419
G01 X-18.6861 Y-6.2366
G01 X-18.7013 Y-6.2328
G01 X-18.7168 Y-6.2305
G01 X-18.7325 Y-6.2297
G01 X-18.7482 Y-6.2305
G01 X-18.7637 Y-6.2328
G01 X-18.7789 Y-6.2366
G01 X-18.7937 Y-6.2419
G01 X-18.8079 Y-6.2486
G01 X-18.8214 Y-6.2567
G01 X-18.8340 Y-6.2661
G01 X-18.8456 Y-6.2766
G01 X-18.8561 Y-6.2882
G01 X-18.8655 Y-6.3008
G01 X-18.8736 Y-6.3143
G01 X-18.8803 Y-6.3285
G01 X-18.8856 Y-6.3433
G01 X-18.8894 Y-6.3585
G01 X-18.8917 Y-6.3740
G01 X-18.8925 Y-6.3897
G00 Z2.0000
G00 X-18.8224 Y-6.3897
G01 F70.00
G01 Z-0.0600
G01 F120.00
G01 X-18.8207 Y-6.4072
G01 X-18.8156 Y-6.4241
G01 X-18.8073 Y-6.4397
G01 X-18.7961 Y-6.4533
G01 X-18.7825 Y-6.4645
G01 X-18.7669 Y-6.4728
G01 X-18.7500 Y-6.4779
G01 X-18.7325 Y-6.4796
G01 X-18.7150 Y-6.4779
G01 X-18.6981 Y-6.4728
G01 X-18.6825 Y-6.4645
G01 X-18.6689 Y-6.4533
G01 X-18.6577 Y-6.4397
G01 X-18.6494 Y-6.4241
G01 X-18.6443 Y-6.4072
G01 X-18.6426 Y-6.3897
G01 X-18.6443 Y-6.3722
G01 X-18.6494 Y-6.3553
G01 X-18.6577 Y-6.3397
G01 X-18.6689 Y-6.3261
G01 X-18.6825 Y-6.3149
G01 X-18.6981 Y-6.3066
G01 X-18.7150 Y-6.3015
G01 X-18.7325 Y-6.2998
G01 X-18.7500 Y-6.3015
G01 X-18.7669 Y-6.3066
G01 X-18.7825 Y-6.3149
G01 X-18.7961 Y-6.3261
G01 X-18.8073 Y-6.3397
G01 X-18.8156 Y-6.3553
G01 X-18.8207 Y-6.3722
G01 X-18.8224 Y-6.3897
G00 Z2.0000
G00 X-18.7524 Y-6.3897
G01 F70.00
G01 Z-0.0600
G01 F120.00
G01 X-18.7509 Y-6.3973
G01 X-18.7466 Y-6.4038
G01 X-18.7401 Y-6.4081
G01 X-18.7325 Y-6.4096
G01 X-18.7249 Y-6.4081
G01 X-18.7184 Y-6.4038
G01 X-18.7141 Y-6.3973
G01 X-18.7126 Y-6.3897
G01 X-18.7141 Y-6.3821
G01 X-18.7184 Y-6.3756
G01 X-18.7249 Y-6.3713
G01 X-18.7325 Y-6.3698
G01 X-18.7401 Y-6.3713
G01 X-18.7466 Y-6.3756
G01 X-18.7509 Y-6.3821
G01 X-18.7524 Y-6.3897
G00 Z2.0000
G00 X-19.9377 Y-5.3338
G01 F70.00
G01 Z-0.0600
G01 F120.00
G01 X-19.8926 Y-5.3513
G01 X-19.8497 Y-5.3655
G01 X-19.8061 Y-5.3775
G01 X-19.7621 Y-5.3874
G01 X-19.7176 Y-5.3952
G01 X-19.6727 Y-5.4007
G01 X-19.6277 Y-5.4040
G01 X-19.5842 Y-5.4051
G01 X-17.8816 Y-5.4051
G01 X-17.8373 Y-5.4040
G01 X-17.7923 Y-5.4007
G01 X-17.7474 Y-5.3952
G01 X-17.7038 Y-5.3876
G01 X-17.6589 Y-5.3775
G01 X-17.6137 Y-5.3650
G01 X-17.5724 Y-5.3513
G01 X-17.5319 Y-5.3357
G01 X-17.4890 Y-5.3168
G01 X-17.4471 Y-5.2956
G01 X-17.4093 Y-5.2742
G01 X-17.3726 Y-5.2509
G01 X-17.3342 Y-5.2240
G01 X-17.2979 Y-5.1956
G01 X-17.2631 Y-5.1655
G01 X-17.2317 Y-5.1355
G01 X-17.2017 Y-5.1041
G01 X-17.1710 Y-5.0686
G01 X-17.1422 Y-5.0316
G01 X-17.1172 Y-4.9961
G01 X-17.0939 Y-4.9594
G01 X-17.0708 Y-4.9186
G01 X-17.0497 Y-4.8767
G01 X-17.0321 Y-4.8369
G01 X-17.0197 Y-4.8048
G01 X-11.9488 Y-4.8048
G01 X-11.9592 Y-4.8196
G01 X-11.9846 Y-4.8599
G01 X-12.0077 Y-4.9005
G01 X-12.0294 Y-4.9439
G01 X-12.0484 Y-4.9866
G01 X-12.0655 Y-5.0310
G01 X-12.0804 Y-5.0762
G01 X-12.0929 Y-5.1213
G01 X-12.1036 Y-5.1686
G01 X-12.1117 Y-5.2155
G01 X-12.1175 Y-5.2627
G01 X-12.1209 Y-5.3085
G01 X-12.1222 Y-5.3595
G01 X-12.1210 Y-5.4054
G01 X-12.1174 Y-5.4537
G01 X-12.1117 Y-5.5001
G01 X-12.1036 Y-5.5470
G01 X-12.0931 Y-5.5935
G01 X-12.0809 Y-5.6377
G01 X-12.0649 Y-5.6862
G01 X-12.0484 Y-5.7290
G01 X-12.0283 Y-5.7741
G01 X-12.0077 Y-5.8151
G01 X-11.9842 Y-5.8565
G01 X-11.9587 Y-5.8967
G01 X-11.9313 Y-5.9356
G01 X-11.9020 Y-5.9732
G01 X-11.8709 Y-6.0092
G01 X-11.8381 Y-6.0437
G01 X-11.8049 Y-6.0754
G01 X-11.7662 Y-6.1087
G01 X-11.7300 Y-6.1369
G01 X-11.6897 Y-6.1653
G01 X-11.6509 Y-6.1898
G01 X-11.6095 Y-6.2133
G01 X-11.5669 Y-6.2347
G01 X-11.5234 Y-6.2540
G01 X-11.4790 Y-6.2711
G01 X-11.4338 Y-6.2860
G01 X-11.3879 Y-6.2987
G01 X-11.3431 Y-6.3088
G01 X-11.2928 Y-6.3175
G01 X-11.2473 Y-6.3231
G01 X-11.1989 Y-6.3267
G01 X-11.1522 Y-6.3278
G01 X-11.1046 Y-6.3266
G01 X-11.0571 Y-6.3231
G01 X-11.0116 Y-6.3175
G01 X-10.9613 Y-6.3088
G01 X-10.9165 Y-6.2987
G01 X-10.8698 Y-6.2858
G01 X-10.8254 Y-6.2711
G01 X-10.7810 Y-6.2540
G01 X-10.7375 Y-6.2347
G01 X-10.6957 Y-6.2137
G01 X-10.6535 Y-6.1898
G01 X-10.6140 Y-6.1648
G01 X-10.5751 Y-6.1374
G01 X-10.5595 Y-6.1254
G01 X-10.5595 Y-7.1812
G01 X-10.7182 Y-7.1812
G01 X-10.7326 Y-7.1829
G01 X-10.7409 Y-7.1853
G01 X-10.7495 Y-7.1891
G01 X-10.7576 Y-7.1940
G01 X-10.7649 Y-7.1999
G01 X-10.7714 Y-7.2068
G01 X-10.7764 Y-7.2138
G01 X-10.7809 Y-7.2220
G01 X-10.7843 Y-7.2309
G01 X-10.7865 Y-7.2409
G01 X-10.7873 Y-7.2512
G01 X-10.7873 Y-7.8521
G01 X-10.7863 Y-7.8632
G01 X-10.7835 Y-7.8740
G01 X-10.7790 Y-7.8842
G01 X-10.7725 Y-7.8943
G01 X-10.7617 Y-7.9053
G01 X-10.7488 Y-7.9137
G01 X-10.7343 Y-7.9191
G01 X-10.7190 Y-7.9212
G01 X-9.6156 Y-7.9212
G01 X-9.6045 Y-7.9200
G01 X-9.5937 Y-7.9171
G01 X-9.5828 Y-7.9121
G01 X-9.5736 Y-7.9059
G01 X-9.5654 Y-7.8982
G01 X-9.5582 Y-7.8886
G01 X-9.5526 Y-7.8780
G01 X-9.5492 Y-7.8674
G01 X-9.5473 Y-7.8512
G01 X-9.5473 Y-7.2503
G01 X-9.5479 Y-7.2418
G01 X-9.5496 Y-7.2334
G01 X-9.5556 Y-7.2182
G01 X-9.5601 Y-7.2109
G01 X-9.5654 Y-7.2042
G01 X-9.5716 Y-7.1982
G01 X-9.5784 Y-7.1930
G01 X-9.5858 Y-7.1887
G01 X-9.5937 Y-7.1853
G01 X-9.6020 Y-7.1829
G01 X-9.6104 Y-7.1815
G01 X-9.9193 Y-7.1812
G01 X-9.9193 Y-5.3172
G01 X-9.9208 Y-5.2867
G01 X-9.9254 Y-5.2556
G01 X-9.9331 Y-5.2252
G01 X-9.9430 Y-5.1972
G01 X-9.9571 Y-5.1672
G01 X-9.9732 Y-5.1402
G01 X-9.9919 Y-5.1150
G01 X-10.0118 Y-5.0930
G01 X-10.8470 Y-4.2577
G01 X-10.8684 Y-4.2383
G01 X-10.8821 Y-4.2276
G01 X-10.8964 Y-4.2176
G01 X-10.9204 Y-4.2032
G01 X-10.9519 Y-4.1883
G01 X-10.9782 Y-4.1789
G01 X-10.9959 Y-4.1740
G01 X-11.0120 Y-4.1704
G01 X-11.0397 Y-4.1663
G01 X-11.0728 Y-4.1646
G01 X-17.0197 Y-4.1646
G01 X-17.0321 Y-4.1325
G01 X-17.0497 Y-4.0927
G01 X-17.0708 Y-4.0508
G01 X-17.0939 Y-4.0100
G01 X-17.1172 Y-3.9733
G01 X-17.1422 Y-3.9378
G01 X-17.1710 Y-3.9008
G01 X-17.2017 Y-3.8653
G01 X-17.2317 Y-3.8339
G01 X-17.2631 Y-3.8039
G01 X-17.2993 Y-3.7727
G01 X-17.3342 Y-3.7454
G01 X-17.3697 Y-3.7204
G01 X-17.4093 Y-3.6952
G01 X-17.4501 Y-3.6722
G01 X-17.4890 Y-3.6526
G01 X-17.5287 Y-3.6350
G01 X-17.5740 Y-3.6175
G01 X-17.6153 Y-3.6039
G01 X-17.6572 Y-3.5923
G01 X-17.7029 Y-3.5820
G01 X-17.7491 Y-3.5740
G01 X-17.7923 Y-3.5687
G01 X-17.8356 Y-3.5655
G01 X-17.8825 Y-3.5643
G01 X-19.5834 Y-3.5643
G01 X-19.6277 Y-3.5654
G01 X-19.6727 Y-3.5687
G01 X-19.7176 Y-3.5742
G01 X-19.7621 Y-3.5820
G01 X-19.8061 Y-3.5919
G01 X-19.8497 Y-3.6039
G01 X-19.8926 Y-3.6181
G01 X-19.9377 Y-3.6356
G01 X-19.9487 Y-3.6265
G01 X-19.9608 Y-3.6200
G01 X-19.9739 Y-3.6160
G01 X-19.9876 Y-3.6147
G01 X-21.2885 Y-3.6147
G01 X-21.3004 Y-3.6159
G01 X-21.3120 Y-3.6191
G01 X-21.3228 Y-3.6242
G01 X-21.3320 Y-3.6306
G01 X-21.3428 Y-3.6416
G01 X-21.3509 Y-3.6548
G01 X-21.3559 Y-3.6694
G01 X-21.3576 Y-3.6847
G01 X-21.3576 Y-5.2856
G01 X-21.3564 Y-5.2975
G01 X-21.3532 Y-5.3091
G01 X-21.3481 Y-5.3199
G01 X-21.3417 Y-5.3291
G01 X-21.3307 Y-5.3399
G01 X-21.3175 Y-5.3480
G01 X-21.3029 Y-5.3530
G01 X-21.2876 Y-5.3547
G01 X-19.9867 Y-5.3547
G01 X-19.9731 Y-5.3532
G01 X-19.9600 Y-5.3490
G01 X-19.9480 Y-5.3424
G01 X-19.9377 Y-5.3338
G00 Z2.0000
G00 X-18.9625 Y-4.4847
G01 F70.00
G01 Z-0.0600
G01 F120.00
G01 X-18.9614 Y-4.5072
G01 X-18.9581 Y-4.5296
G01 X-18.9526 Y-4.5515
G01 X-18.9450 Y-4.5727
G01 X-18.9353 Y-4.5931
G01 X-18.9237 Y-4.6125
G01 X-18.9103 Y-4.6306
G01 X-18.8951 Y-4.6473
G01 X-18.8784 Y-4.6625
G01 X-18.8603 Y-4.6759
G01 X-18.8409 Y-4.6875
G01 X-18.8205 Y-4.6972
G01 X-18.7993 Y-4.7048
G01 X-18.7774 Y-4.7103
G01 X-18.7550 Y-4.7136
G01 X-18.7325 Y-4.7147
G01 X-18.7100 Y-4.7136
G01 X-18.6876 Y-4.7103
G01 X-18.6657 Y-4.7048
G01 X-18.6445 Y-4.6972
G01 X-18.6241 Y-4.6875
G01 X-18.6047 Y-4.6759
G01 X-18.5866 Y-4.6625
G01 X-18.5699 Y-4.6473
G01 X-18.5547 Y-4.6306
G01 X-18.5413 Y-4.6125
G01 X-18.5297 Y-4.5931
G01 X-18.5200 Y-4.5727
G01 X-18.5124 Y-4.5515
G01 X-18.5069 Y-4.5296
G01 X-18.5036 Y-4.5072
G01 X-18.5025 Y-4.4847
G01 X-18.5036 Y-4.4622
G01 X-18.5069 Y-4.4398
G01 X-18.5124 Y-4.4179
G01 X-18.5200 Y-4.3967
G01 X-18.5297 Y-4.3763
G01 X-18.5413 Y-4.3569
G01 X-18.5547 Y-4.3388
G01 X-18.5699 Y-4.3221
G01 X-18.5866 Y-4.3069
G01 X-18.6047 Y-4.2935
G01 X-18.6241 Y-4.2819
G01 X-18.6445 Y-4.2722
G01 X-18.6657 Y-4.2646
G01 X-18.6876 Y-4.2591
G01 X-18.7100 Y-4.2558
G01 X-18.7325 Y-4.2547
G01 X-18.7550 Y-4.2558
G01 X-18.7774 Y-4.2591
G01 X-18.7993 Y-4.2646
G01 X-18.8205 Y-4.2722
G01 X-18.8409 Y-4.2819
G01 X-18.8603 Y-4.2935
G01 X-18.8784 Y-4.3069
G01 X-18.8951 Y-4.3221
G01 X-18.9103 Y-4.3388
G01 X-18.9237 Y-4.3569
G01 X-18.9353 Y-4.3763
G01 X-18.9450 Y-4.3967
G01 X-18.9526 Y-4.4179
G01 X-18.9581 Y-4.4398
G01 X-18.9614 Y-4.4622
G01 X-18.9625 Y-4.4847
G00 Z2.0000
G00 X-18.8925 Y-4.4847
G01 F70.00
G01 Z-0.0600
G01 F120.00
G01 X-18.8917 Y-4.5004
G01 X-18.8894 Y-4.5159
G01 X-18.8856 Y-4.5311
G01 X-18.8803 Y-4.5459
G01 X-18.8736 Y-4.5601
G01 X-18.8655 Y-4.5736
G01 X-18.8561 Y-4.5862
G01 X-18.8456 Y-4.5978
G01 X-18.8340 Y-4.6083
G01 X-18.8214 Y-4.6177
G01 X-18.8079 Y-4.6258
G01 X-18.7937 Y-4.6325
G01 X-18.7789 Y-4.6378
G01 X-18.7637 Y-4.6416
G01 X-18.7482 Y-4.6439
G01 X-18.7325 Y-4.6447
G01 X-18.7168 Y-4.6439
G01 X-18.7013 Y-4.6416
G01 X-18.6861 Y-4.6378
G01 X-18.6713 Y-4.6325
G01 X-18.6571 Y-4.6258
G01 X-18.6436 Y-4.6177
G01 X-18.6310 Y-4.6083
G01 X-18.6194 Y-4.5978
G01 X-18.6089 Y-4.5862
G01 X-18.5995 Y-4.5736
G01 X-18.5914 Y-4.5601
G01 X-18.5847 Y-4.5459
G01 X-18.5794 Y-4.5311
G01 X-18.5756 Y-4.5159
G01 X-18.5733 Y-4.5004
G01 X-18.5725 Y-4.4847
G01 X-18.5733 Y-4.4690
G01 X-18.5756 Y-4.4535
G01 X-18.5794 Y-4.4383
G01 X-18.5847 Y-4.4235
G01 X-18.5914 Y-4.4093
G01 X-18.5995 Y-4.3958
G01 X-18.6089 Y-4.3832
G01 X-18.6194 Y-4.3716
G01 X-18.6310 Y-4.3611
G01 X-18.6436 Y-4.3517
G01 X-18.6571 Y-4.3436
G01 X-18.6713 Y-4.3369
G01 X-18.6861 Y-4.3316
G01 X-18.7013 Y-4.3278
G01 X-18.7168 Y-4.3255
G01 X-18.7325 Y-4.3247
G01 X-18.7482 Y-4.3255
G01 X-18.7637 Y-4.3278
G01 X-18.7789 Y-4.3316
G01 X-18.7937 Y-4.3369
G01 X-18.8079 Y-4.3436
G01 X-18.8214 Y-4.3517
G01 X-18.8340 Y-4.3611
G01 X-18.8456 Y-4.3716
G01 X-18.8561 Y-4.3832
G01 X-18.8655 Y-4.3958
G01 X-18.8736 Y-4.4093
G01 X-18.8803 Y-4.4235
G01 X-18.8856 Y-4.4383
G01 X-18.8894 Y-4.4535
G01 X-18.8917 Y-4.4690
G01 X-18.8925 Y-4.4847
G00 Z2.0000
G00 X-18.8224 Y-4.4847
G01 F70.00
G01 Z-0.0600
G01 F120.00
G01 X-18.8207 Y-4.5022
G01 X-18.8156 Y-4.5191
G01 X-18.8073 Y-4.5347
G01 X-18.7961 Y-4.5483
G01 X-18.7825 Y-4.5595
G01 X-18.7669 Y-4.5678
G01 X-18.7500 Y-4.5729
G01 X-18.7325 Y-4.5746
G01 X-18.7150 Y-4.5729
G01 X-18.6981 Y-4.5678
G01 X-18.6825 Y-4.5595
G01 X-18.6689 Y-4.5483
G01 X-18.6577 Y-4.5347
G01 X-18.6494 Y-4.5191
G01 X-18.6443 Y-4.5022
G01 X-18.6426 Y-4.4847
G01 X-18.6443 Y-4.4672
G01 X-18.6494 Y-4.4503
G01 X-18.6577 Y-4.4347
G01 X-18.6689 Y-4.4211
G01 X-18.6825 Y-4.4099
G01 X-18.6981 Y-4.4016
G01 X-18.7150 Y-4.3965
G01 X-18.7325 Y-4.3948
G01 X-18.7500 Y-4.3965
G01 X-18.7669 Y-4.4016
G01 X-18.7825 Y-4.4099
G01 X-18.7961 Y-4.4211
G01 X-18.8073 Y-4.4347
G01 X-18.8156 Y-4.4503
G01 X-18.8207 Y-4.4672
G01 X-18.8224 Y-4.4847
G00 Z2.0000
G00 X-18.7524 Y-4.4847
G01 F70.00
G01 Z-0.0600
G01 F120.00
G01 X-18.7509 Y-4.4923
G01 X-18.7466 Y-4.4988
G01 X-18.7401 Y-4.5031
G01 X-18.7325 Y-4.5046
G01 X-18.7249 Y-4.5031
G01 X-18.7184 Y-4.4988
G01 X-18.7141 Y-4.4923
G01 X-18.7126 Y-4.4847
G01 X-18.7141 Y-4.4771
G01 X-18.7184 Y-4.4706
G01 X-18.7249 Y-4.4663
G01 X-18.7325 Y-4.4648
G01 X-18.7401 Y-4.4663
G01 X-18.7466 Y-4.4706
G01 X-18.7509 Y-4.4771
G01 X-18.7524 Y-4.4847
G00 Z2.0000
G00 X-17.2075 Y-5.3997
G01 F70.00
G01 Z-0.0600
G01 F120.00
G01 X-17.2026 Y-5.3852
G01 X-17.1969 Y-5.3727
G01 X-17.1899 Y-5.3609
G01 X-17.1819 Y-5.3497
G01 X-17.1691 Y-5.3358
G01 X-17.1367 Y-5.3076
G01 X-17.0972 Y-5.2700
G01 X-17.0596 Y-5.2305
G01 X-17.0240 Y-5.1892
G01 X-16.9905 Y-5.1463
G01 X-16.9591 Y-5.1017
G01 X-16.9299 Y-5.0558
G01 X-16.9159 Y-5.0385
G01 X-16.9059 Y-5.0290
G01 X-16.8965 Y-5.0216
G01 X-16.8864 Y-5.0149
G01 X-16.8743 Y-5.0085
G01 X-16.8633 Y-5.0038
G01 X-16.8502 Y-4.9996
G01 X-16.8384 Y-4.9971
G01 X-16.8265 Y-4.9955
G01 X-16.8145 Y-4.9950
G01 X-12.4326 Y-4.9950
G01 X-12.4206 Y-4.9955
G01 X-12.4069 Y-4.9974
G01 X-12.3870 Y-5.0026
G01 X-12.3681 Y-5.0108
G01 X-12.3506 Y-5.0216
G01 X-12.3348 Y-5.0348
G01 X-12.3212 Y-5.0503
G01 X-12.3099 Y-5.0675
G01 X-12.3013 Y-5.0862
G01 X-12.2956 Y-5.1060
G01 X-12.2928 Y-5.1264
G01 X-12.2930 Y-5.1453
G01 X-12.2996 Y-5.1876
G01 X-12.3066 Y-5.2441
G01 X-12.3108 Y-5.3009
G01 X-12.3122 Y-5.3578
G01 X-12.3108 Y-5.4147
G01 X-12.3066 Y-5.4715
G01 X-12.2996 Y-5.5280
G01 X-12.2899 Y-5.5841
G01 X-12.2774 Y-5.6396
G01 X-12.2622 Y-5.6945
G01 X-12.2444 Y-5.7486
G01 X-12.2239 Y-5.8017
G01 X-12.2008 Y-5.8537
G01 X-12.1752 Y-5.9046
G01 X-12.1471 Y-5.9541
G01 X-12.1167 Y-6.0022
G01 X-12.0839 Y-6.0488
G01 X-12.0489 Y-6.0937
G01 X-12.0117 Y-6.1368
G01 X-11.9724 Y-6.1780
G01 X-11.9312 Y-6.2173
G01 X-11.8881 Y-6.2545
G01 X-11.8432 Y-6.2895
G01 X-11.7966 Y-6.3223
G01 X-11.7485 Y-6.3527
G01 X-11.6990 Y-6.3808
G01 X-11.6481 Y-6.4064
G01 X-11.5961 Y-6.4295
G01 X-11.5430 Y-6.4500
G01 X-11.4889 Y-6.4678
G01 X-11.4340 Y-6.4830
G01 X-11.3785 Y-6.4955
G01 X-11.3224 Y-6.5052
G01 X-11.2659 Y-6.5122
G01 X-11.2091 Y-6.5164
G01 X-11.1522 Y-6.5178
G01 X-11.0953 Y-6.5164
G01 X-11.0385 Y-6.5122
G01 X-10.9820 Y-6.5052
G01 X-10.9034 Y-6.4915
G01 X-10.8829 Y-6.4910
G01 X-10.8624 Y-6.4935
G01 X-10.8426 Y-6.4990
G01 X-10.8222 Y-6.5082
G01 X-10.8050 Y-6.5194
G01 X-10.7883 Y-6.5343
G01 X-10.7743 Y-6.5516
G01 X-10.7639 Y-6.5694
G01 X-10.7563 Y-6.5886
G01 X-10.7515 Y-6.6086
G01 X-10.7497 Y-6.6291
G01 X-10.7498 Y-6.8546
G01 X-10.7521 Y-6.8768
G01 X-10.7579 Y-6.8984
G01 X-10.7632 Y-6.9111
G01 X-10.7705 Y-6.9246
G01 X-10.7783 Y-6.9360
G01 X-10.7872 Y-6.9465
G01 X-10.7970 Y-6.9561
G01 X-10.8091 Y-6.9657
G01 X-10.8222 Y-6.9738
G01 X-10.8346 Y-6.9799
G01 X-10.8458 Y-6.9841
G01 X-10.8574 Y-6.9874
G01 X-10.8794 Y-6.9908
G01 X-10.9773 Y-6.9912
G01 X-10.9773 Y-7.3725
G01 X-10.9780 Y-7.3862
G01 X-10.9797 Y-7.3981
G01 X-10.9844 Y-7.4164
G01 X-10.9907 Y-7.4324
G01 X-10.9999 Y-7.4488
G01 X-11.0113 Y-7.4639
G01 X-11.0246 Y-7.4774
G01 X-11.0381 Y-7.4879
G01 X-11.0544 Y-7.4976
G01 X-11.0718 Y-7.5049
G01 X-11.0934 Y-7.5104
G01 X-11.1053 Y-7.5120
G01 X-11.1173 Y-7.5125
G01 X-13.3306 Y-7.5125
G01 X-13.3306 Y-7.6325
G01 X-13.0339 Y-7.6325
G01 X-13.0134 Y-7.6346
G01 X-12.9950 Y-7.6390
G01 X-12.9744 Y-7.6474
G01 X-12.9553 Y-7.6590
G01 X-12.9383 Y-7.6735
G01 X-12.9238 Y-7.6905
G01 X-12.9130 Y-7.7080
G01 X-12.9044 Y-7.7286
G01 X-12.8991 Y-7.7503
G01 X-12.8973 Y-7.7725
G01 X-12.8973 Y-9.3725
G01 X-12.8982 Y-9.3879
G01 X-12.9011 Y-9.4048
G01 X-12.9067 Y-9.4229
G01 X-12.9155 Y-9.4415
G01 X-12.9259 Y-9.4573
G01 X-12.9383 Y-9.4715
G01 X-12.9525 Y-9.4839
G01 X-12.9683 Y-9.4943
G01 X-12.9853 Y-9.5025
G01 X-13.0033 Y-9.5083
G01 X-13.0202 Y-9.5114
G01 X-13.0356 Y-9.5125
G01 X-13.3306 Y-9.5125
G01 X-13.3306 Y-9.6325
G01 X-12.3961 Y-9.6325
G01 X-12.3824 Y-9.6334
G01 X-12.3672 Y-9.6359
G01 X-12.3539 Y-9.6396
G01 X-12.3395 Y-9.6452
G01 X-12.3244 Y-9.6533
G01 X-12.3103 Y-9.6632
G01 X-12.2976 Y-9.6747
G01 X-12.2864 Y-9.6877
G01 X-12.2769 Y-9.7020
G01 X-12.2691 Y-9.7173
G01 X-12.2634 Y-9.7335
G01 X-12.2596 Y-9.7503
G01 X-12.2578 Y-9.7725
G01 X-12.2578 Y-10.0729
G01 X-12.2599 Y-10.0951
G01 X-12.2654 Y-10.1167
G01 X-12.2736 Y-10.1357
G01 X-12.2854 Y-10.1546
G01 X-12.2988 Y-10.1702
G01 X-12.3144 Y-10.1836
G01 X-12.3318 Y-10.1947
G01 X-12.3507 Y-10.2030
G01 X-12.3705 Y-10.2085
G01 X-12.3910 Y-10.2110
G01 X-14.2362 Y-10.2112
G01 X-14.2362 Y-11.2137
G01 X-14.2383 Y-11.2359
G01 X-14.2408 Y-11.2476
G01 X-14.2444 Y-11.2591
G01 X-14.2519 Y-11.2764
G01 X-14.2627 Y-11.2939
G01 X-14.2760 Y-11.3097
G01 X-14.2914 Y-11.3234
G01 X-14.3087 Y-11.3346
G01 X-14.3580 Y-11.3595
G01 X-14.4075 Y-11.3876
G01 X-14.4556 Y-11.4180
G01 X-14.5022 Y-11.4508
G01 X-14.5471 Y-11.4858
G01 X-14.5902 Y-11.5230
G01 X-14.6314 Y-11.5623
G01 X-14.6707 Y-11.6035
G01 X-14.7079 Y-11.6466
G01 X-14.7429 Y-11.6915
G01 X-14.7757 Y-11.7381
G01 X-14.8061 Y-11.7862
G01 X-14.8342 Y-11.8357
G01 X-14.8598 Y-11.8866
G01 X-14.8829 Y-11.9386
G01 X-14.9034 Y-11.9917
G01 X-14.9212 Y-12.0458
G01 X-14.9364 Y-12.1007
G01 X-14.9489 Y-12.1562
G01 X-14.9586 Y-12.2123
G01 X-14.9656 Y-12.2688
G01 X-14.9698 Y-12.3256
G01 X-14.9712 Y-12.3825
G01 X-14.9698 Y-12.4394
G01 X-14.9656 Y-12.4962
G01 X-14.9586 Y-12.5527
G01 X-14.9489 Y-12.6088
G01 X-14.9364 Y-12.6643
G01 X-14.9212 Y-12.7192
G01 X-14.9034 Y-12.7733
G01 X-14.8829 Y-12.8264
G01 X-14.8598 Y-12.8784
G01 X-14.8342 Y-12.9293
G01 X-14.8061 Y-12.9788
G01 X-14.7757 Y-13.0269
G01 X-14.7429 Y-13.0735
G01 X-14.7079 Y-13.1184
G01 X-14.6707 Y-13.1615
G01 X-14.6314 Y-13.2027
G01 X-14.5902 Y-13.2420
G01 X-14.5471 Y-13.2792
G01 X-14.4942 Y-13.3207
G01 X-14.4844 Y-13.3303
G01 X-14.4756 Y-13.3408
G01 X-14.4687 Y-13.3507
G01 X-14.4627 Y-13.3611
G01 X-14.4540 Y-13.3817
G01 X-14.4488 Y-13.4034
G01 X-14.4470 Y-13.4256
G01 X-14.4475 Y-13.4376
G01 X-14.4490 Y-13.4495
G01 X-14.4546 Y-13.4711
G01 X-14.4635 Y-13.4916
G01 X-14.4756 Y-13.5104
G01 X-14.4904 Y-13.5270
G01 X-14.5078 Y-13.5410
G01 X-14.5271 Y-13.5522
G01 X-14.5382 Y-13.5568
G01 X-14.5496 Y-13.5605
G01 X-14.5664 Y-13.5641
G01 X-14.5853 Y-13.5656
G01 X-14.9544 Y-13.5656
G01 X-14.9544 Y-15.4856
G01 X-12.3910 Y-15.4858
G01 X-12.3773 Y-15.4871
G01 X-12.3655 Y-15.4894
G01 X-12.3539 Y-15.4927
G01 X-12.3427 Y-15.4969
G01 X-12.3318 Y-15.5021
G01 X-12.3215 Y-15.5082
G01 X-12.3103 Y-15.5163
G01 X-12.3013 Y-15.5242
G01 X-12.2929 Y-15.5329
G01 X-12.2844 Y-15.5436
G01 X-12.2769 Y-15.5551
G01 X-12.2713 Y-15.5657
G01 X-12.2666 Y-15.5768
G01 X-12.2624 Y-15.5899
G01 X-12.2599 Y-15.6017
G01 X-12.2583 Y-15.6136
G01 X-12.2578 Y-15.9467
G01 X-12.2587 Y-15.9604
G01 X-12.2609 Y-15.9740
G01 X-12.2660 Y-15.9922
G01 X-12.2736 Y-16.0095
G01 X-12.2824 Y-16.0242
G01 X-12.2941 Y-16.0390
G01 X-12.3064 Y-16.0510
G01 X-12.3215 Y-16.0624
G01 X-12.3380 Y-16.0716
G01 X-12.3555 Y-16.0785
G01 X-12.3773 Y-16.0835
G01 X-12.3978 Y-16.0850
G01 X-13.7275 Y-16.0850
G01 X-13.7275 Y-16.2050
G01 X-13.4307 Y-16.2050
G01 X-13.4102 Y-16.2071
G01 X-13.3918 Y-16.2115
G01 X-13.3727 Y-16.2192
G01 X-13.3535 Y-16.2305
G01 X-13.3363 Y-16.2448
G01 X-13.3217 Y-16.2616
G01 X-13.3098 Y-16.2805
G01 X-13.3012 Y-16.3011
G01 X-13.2959 Y-16.3228
G01 X-13.2941 Y-16.3450
G01 X-13.2941 Y-17.9450
G01 X-13.2950 Y-17.9604
G01 X-13.2979 Y-17.9773
G01 X-13.3035 Y-17.9954
G01 X-13.3123 Y-18.0140
G01 X-13.3227 Y-18.0298
G01 X-13.3351 Y-18.0440
G01 X-13.3493 Y-18.0564
G01 X-13.3651 Y-18.0668
G01 X-13.3821 Y-18.0750
G01 X-13.4001 Y-18.0808
G01 X-13.4153 Y-18.0837
G01 X-13.4324 Y-18.0850
G01 X-13.7275 Y-18.0850
G01 X-13.7275 Y-18.2050
G01 X-12.3927 Y-18.2051
G01 X-12.3773 Y-18.2065
G01 X-12.3638 Y-18.2092
G01 X-12.3490 Y-18.2138
G01 X-12.3364 Y-18.2192
G01 X-12.3244 Y-18.2258
G01 X-12.3131 Y-18.2336
G01 X-12.3013 Y-18.2436
G01 X-12.2918 Y-18.2536
G01 X-12.2844 Y-18.2630
G01 X-12.2777 Y-18.2730
G01 X-12.2720 Y-18.2836
G01 X-12.2672 Y-18.2946
G01 X-12.2634 Y-18.3060
G01 X-12.2605 Y-18.3177
G01 X-12.2587 Y-18.3296
G01 X-12.2579 Y-18.3416
G01 X-12.2578 Y-19.9061
G01 X-12.2593 Y-19.9266
G01 X-12.2638 Y-19.9467
G01 X-14.5581 Y-27.5168
G01 X-14.5628 Y-27.5297
G01 X-14.5711 Y-27.5467
G01 X-14.5817 Y-27.5623
G01 X-14.5943 Y-27.5764
G01 X-14.6087 Y-27.5886
G01 X-14.6246 Y-27.5988
G01 X-14.6417 Y-27.6068
G01 X-14.6598 Y-27.6124
G01 X-14.6784 Y-27.6155
G01 X-14.6921 Y-27.6162
G01 X-15.4844 Y-27.6162
G01 X-15.4844 Y-29.7362
G01 X-13.3644 Y-29.7362
G01 X-13.3644 Y-27.6126
G01 X-13.3770 Y-27.6091
G01 X-13.3898 Y-27.6042
G01 X-13.4020 Y-27.5980
G01 X-13.4137 Y-27.5907
G01 X-13.4245 Y-27.5822
G01 X-13.4344 Y-27.5727
G01 X-13.4434 Y-27.5623
G01 X-13.4513 Y-27.5511
G01 X-13.4581 Y-27.5392
G01 X-13.4637 Y-27.5266
G01 X-13.4680 Y-27.5136
G01 X-13.4710 Y-27.5002
G01 X-13.4727 Y-27.4865
G01 X-13.4730 Y-27.4728
G01 X-13.4720 Y-27.4591
G01 X-13.4697 Y-27.4456
G01 X-11.2596 Y-20.1522
G01 X-11.2525 Y-20.1264
G01 X-11.2470 Y-20.1020
G01 X-11.2427 Y-20.0773
G01 X-11.2397 Y-20.0525
G01 X-11.2378 Y-20.0275
G01 X-11.2372 Y-20.0008
G01 X-11.2372 Y-15.6256
G01 X-11.2365 Y-15.6119
G01 X-11.2344 Y-15.5979
G01 X-11.2344 Y-13.4533
G01 X-11.2365 Y-13.4393
G01 X-11.2372 Y-13.4256
G01 X-11.2372 Y-12.4695
G01 X-11.2359 Y-12.4524
G01 X-11.2326 Y-12.4355
G01 X-11.2278 Y-12.4208
G01 X-11.2206 Y-12.4052
G01 X-11.2116 Y-12.3906
G01 X-11.2009 Y-12.3772
G01 X-11.1886 Y-12.3652
G01 X-11.1750 Y-12.3548
G01 X-11.1570 Y-12.3446
G01 X-11.1395 Y-12.3377
G01 X-11.1211 Y-12.3333
G01 X-11.1006 Y-12.3312
G01 X-10.4235 Y-12.3312
G01 X-10.4029 Y-12.3330
G01 X-10.3828 Y-12.3378
G01 X-10.3699 Y-12.3426
G01 X-10.3591 Y-12.3478
G01 X-10.3473 Y-12.3549
G01 X-10.3362 Y-12.3632
G01 X-10.3260 Y-12.3724
G01 X-10.3168 Y-12.3827
G01 X-10.3086 Y-12.3937
G01 X-10.3016 Y-12.4056
G01 X-10.2938 Y-12.4229
G01 X-10.2187 Y-12.6352
G01 X-10.2148 Y-12.6483
G01 X-10.2121 Y-12.6618
G01 X-10.2107 Y-12.6806
G01 X-10.2118 Y-12.6994
G01 X-10.2154 Y-12.7179
G01 X-10.2214 Y-12.7358
G01 X-10.2299 Y-12.7526
G01 X-10.2405 Y-12.7682
G01 X-10.2530 Y-12.7822
G01 X-10.2674 Y-12.7944
G01 X-10.2803 Y-12.8029
G01 X-10.2956 Y-12.8106
G01 X-10.3118 Y-12.8164
G01 X-10.3268 Y-12.8198
G01 X-10.3472 Y-12.8219
G01 X-10.4262 Y-12.8219
G01 X-10.4262 Y-16.5419
G01 X-9.8230 Y-16.5420
G01 X-9.8025 Y-16.5443
G01 X-9.7842 Y-16.5490
G01 X-9.7666 Y-16.5562
G01 X-9.7502 Y-16.5656
G01 X-9.7405 Y-16.5727
G01 X-9.7315 Y-16.5807
G01 X-9.7231 Y-16.5894
G01 X-9.7156 Y-16.5988
G01 X-9.7038 Y-16.6178
G01 X-9.6987 Y-16.6287
G01 X-9.6946 Y-16.6400
G01 X-9.5871 Y-17.0739
G01 X-9.5847 Y-17.0874
G01 X-9.5835 Y-17.1027
G01 X-9.5848 Y-17.1249
G01 X-9.5891 Y-17.1450
G01 X-9.5962 Y-17.1643
G01 X-9.6062 Y-17.1822
G01 X-9.6131 Y-17.1920
G01 X-9.6221 Y-17.2024
G01 X-9.6654 Y-17.2438
G01 X-9.7097 Y-17.2904
G01 X-9.7517 Y-17.3391
G01 X-9.7913 Y-17.3898
G01 X-9.8283 Y-17.4423
G01 X-9.8627 Y-17.4966
G01 X-9.8944 Y-17.5526
G01 X-9.9233 Y-17.6100
G01 X-9.9493 Y-17.6688
G01 X-9.9725 Y-17.7288
G01 X-9.9927 Y-17.7898
G01 X-10.0098 Y-17.8518
G01 X-10.0239 Y-17.9145
G01 X-10.0349 Y-17.9779
G01 X-10.0428 Y-18.0417
G01 X-10.0475 Y-18.1058
G01 X-10.0491 Y-18.1701
G01 X-10.0475 Y-18.2344
G01 X-10.0428 Y-18.2985
G01 X-10.0349 Y-18.3623
G01 X-10.0239 Y-18.4257
G01 X-10.0098 Y-18.4884
G01 X-9.9927 Y-18.5504
G01 X-9.9725 Y-18.6114
G01 X-9.9493 Y-18.6714
G01 X-9.9233 Y-18.7302
G01 X-9.8944 Y-18.7876
G01 X-9.8627 Y-18.8436
G01 X-9.8283 Y-18.8979
G01 X-9.7913 Y-18.9504
G01 X-9.7517 Y-19.0011
G01 X-9.7097 Y-19.0498
G01 X-9.6654 Y-19.0964
G01 X-9.6188 Y-19.1407
G01 X-9.5958 Y-19.1611
G01 X-9.5865 Y-19.1713
G01 X-9.5783 Y-19.1823
G01 X-9.5721 Y-19.1926
G01 X-9.5661 Y-19.2049
G01 X-9.5618 Y-19.2162
G01 X-9.5582 Y-19.2294
G01 X-9.5558 Y-19.2430
G01 X-9.5548 Y-19.2549
G01 X-9.5550 Y-19.2687
G01 X-9.5563 Y-19.2806
G01 X-9.5608 Y-19.3007
G01 X-9.5682 Y-19.3200
G01 X-9.5783 Y-19.3379
G01 X-9.5910 Y-19.3541
G01 X-9.6059 Y-19.3683
G01 X-9.6228 Y-19.3802
G01 X-9.6412 Y-19.3894
G01 X-9.6624 Y-19.3963
G01 X-9.6776 Y-19.3990
G01 X-9.6930 Y-19.4001
G01 X-10.0491 Y-19.4001
G01 X-10.0491 Y-20.2201
G01 X-9.9291 Y-20.2201
G01 X-9.9291 Y-19.6601
G01 X-9.9284 Y-19.6464
G01 X-9.9264 Y-19.6328
G01 X-9.9236 Y-19.6211
G01 X-9.9197 Y-19.6097
G01 X-9.9149 Y-19.5987
G01 X-9.9092 Y-19.5881
G01 X-9.9026 Y-19.5781
G01 X-9.8951 Y-19.5687
G01 X-9.8869 Y-19.5599
G01 X-9.8779 Y-19.5519
G01 X-9.8683 Y-19.5447
G01 X-9.8581 Y-19.5383
G01 X-9.8474 Y-19.5328
G01 X-9.8363 Y-19.5283
G01 X-9.8248 Y-19.5247
G01 X-9.8130 Y-19.5222
G01 X-9.8011 Y-19.5206
G01 X-9.7891 Y-19.5201
G01 X-7.6891 Y-19.5201
G01 X-7.6686 Y-19.5216
G01 X-7.6501 Y-19.5256
G01 X-7.6324 Y-19.5321
G01 X-7.6142 Y-19.5418
G01 X-7.5977 Y-19.5541
G01 X-7.5831 Y-19.5687
G01 X-7.5717 Y-19.5838
G01 X-7.5618 Y-19.6018
G01 X-7.5551 Y-19.6195
G01 X-7.5506 Y-19.6396
G01 X-7.5491 Y-19.6601
G01 X-7.5491 Y-20.2201
G01 X-7.4291 Y-20.2201
G01 X-7.4291 Y-19.4001
G01 X-7.7852 Y-19.4001
G01 X-7.8040 Y-19.3986
G01 X-7.8208 Y-19.3950
G01 X-7.8417 Y-19.3874
G01 X-7.8612 Y-19.3765
G01 X-7.8787 Y-19.3627
G01 X-7.8938 Y-19.3462
G01 X-7.9061 Y-19.3276
G01 X-7.9153 Y-19.3073
G01 X-7.9211 Y-19.2857
G01 X-7.9228 Y-19.2738
G01 X-7.9234 Y-19.2618
G01 X-7.9219 Y-19.2396
G01 X-7.9197 Y-19.2278
G01 X-7.9164 Y-19.2162
G01 X-7.9077 Y-19.1956
G01 X-7.9017 Y-19.1852
G01 X-7.8949 Y-19.1753
G01 X-7.8800 Y-19.1587
G01 X-7.8594 Y-19.1407
G01 X-7.8128 Y-19.0964
G01 X-7.7685 Y-19.0498
G01 X-7.7265 Y-19.0011
G01 X-7.6869 Y-18.9504
G01 X-7.6499 Y-18.8979
G01 X-7.6155 Y-18.8436
G01 X-7.5838 Y-18.7876
G01 X-7.5549 Y-18.7302
G01 X-7.5289 Y-18.6714
G01 X-7.5057 Y-18.6114
G01 X-7.4855 Y-18.5504
G01 X-7.4684 Y-18.4884
G01 X-7.4543 Y-18.4257
G01 X-7.4433 Y-18.3623
G01 X-7.4354 Y-18.2985
G01 X-7.4307 Y-18.2344
G01 X-7.4291 Y-18.1701
G01 X-7.4307 Y-18.1058
G01 X-7.4354 Y-18.0417
G01 X-7.4433 Y-17.9779
G01 X-7.4543 Y-17.9145
G01 X-7.4684 Y-17.8518
G01 X-7.4855 Y-17.7898
G01 X-7.5057 Y-17.7288
G01 X-7.5289 Y-17.6688
G01 X-7.5549 Y-17.6100
G01 X-7.5838 Y-17.5526
G01 X-7.6155 Y-17.4966
G01 X-7.6499 Y-17.4423
G01 X-7.6869 Y-17.3898
G01 X-7.7265 Y-17.3391
G01 X-7.7685 Y-17.2904
G01 X-7.8128 Y-17.2438
G01 X-7.8594 Y-17.1995
G01 X-7.9081 Y-17.1575
G01 X-7.9588 Y-17.1179
G01 X-8.0113 Y-17.0809
G01 X-8.0656 Y-17.0465
G01 X-8.1216 Y-17.0148
G01 X-8.1790 Y-16.9859
G01 X-8.2378 Y-16.9599
G01 X-8.2978 Y-16.9367
G01 X-8.3588 Y-16.9165
G01 X-8.4026 Y-16.9044
G01 X-8.4140 Y-16.9006
G01 X-8.4327 Y-16.8917
G01 X-8.4512 Y-16.8792
G01 X-8.4640 Y-16.8676
G01 X-8.4752 Y-16.8545
G01 X-8.4856 Y-16.8387
G01 X-8.4931 Y-16.8232
G01 X-8.4991 Y-16.8052
G01 X-8.5231 Y-16.7071
G01 X-8.5252 Y-16.6884
G01 X-8.5247 Y-16.6678
G01 X-8.5215 Y-16.6492
G01 X-8.5159 Y-16.6312
G01 X-8.5079 Y-16.6142
G01 X-8.4967 Y-16.5969
G01 X-8.4842 Y-16.5828
G01 X-8.4700 Y-16.5704
G01 X-8.4558 Y-16.5609
G01 X-8.4420 Y-16.5539
G01 X-8.4259 Y-16.5479
G01 X-8.4093 Y-16.5440
G01 X-8.3888 Y-16.5419
G01 X-8.3062 Y-16.5419
G01 X-8.3062 Y-12.8219
G01 X-8.9762 Y-12.8218
G01 X-8.9967 Y-12.8195
G01 X-9.0150 Y-12.8148
G01 X-9.0341 Y-12.8069
G01 X-9.0504 Y-12.7972
G01 X-9.0665 Y-12.7843
G01 X-9.0805 Y-12.7691
G01 X-9.0922 Y-12.7520
G01 X-9.1012 Y-12.7334
G01 X-9.3082 Y-12.1487
G01 X-9.3136 Y-12.1290
G01 X-9.3155 Y-12.1156
G01 X-9.3162 Y-12.1020
G01 X-9.3162 Y-10.1703
G01 X-9.3244 Y-10.1613
G01 X-9.3327 Y-10.1504
G01 X-9.3399 Y-10.1387
G01 X-9.3460 Y-10.1264
G01 X-9.3508 Y-10.1135
G01 X-9.3543 Y-10.1002
G01 X-9.3564 Y-10.0866
G01 X-9.3573 Y-10.0729
G01 X-9.3573 Y-6.9912
G01 X-9.5925 Y-6.9912
G01 X-9.6096 Y-6.9897
G01 X-9.6281 Y-6.9857
G01 X-9.6442 Y-6.9799
G01 X-9.6610 Y-6.9713
G01 X-9.6766 Y-6.9605
G01 X-9.6905 Y-6.9477
G01 X-9.7025 Y-6.9332
G01 X-9.7125 Y-6.9172
G01 X-9.7203 Y-6.9000
G01 X-9.7253 Y-6.8835
G01 X-9.7282 Y-6.8666
G01 X-9.7291 Y-6.8512
G01 X-9.7291 Y-5.3198
G01 X-9.7297 Y-5.2931
G01 X-9.7316 Y-5.2681
G01 X-9.7346 Y-5.2432
G01 X-9.7389 Y-5.2185
G01 X-9.7444 Y-5.1941
G01 X-9.7511 Y-5.1700
G01 X-9.7589 Y-5.1462
G01 X-9.7680 Y-5.1228
G01 X-9.7781 Y-5.0999
G01 X-9.7894 Y-5.0776
G01 X-9.8017 Y-5.0558
G01 X-9.8151 Y-5.0346
G01 X-9.8295 Y-5.0141
G01 X-9.8449 Y-4.9944
G01 X-9.8613 Y-4.9754
G01 X-9.8798 Y-4.9560
G01 X-10.7107 Y-4.1251
G01 X-10.7301 Y-4.1066
G01 X-10.7491 Y-4.0902
G01 X-10.7688 Y-4.0748
G01 X-10.7893 Y-4.0604
G01 X-10.8105 Y-4.0470
G01 X-10.8323 Y-4.0347
G01 X-10.8546 Y-4.0234
G01 X-10.8775 Y-4.0133
G01 X-10.9009 Y-4.0042
G01 X-10.9247 Y-3.9964
G01 X-10.9488 Y-3.9897
G01 X-10.9732 Y-3.9842
G01 X-10.9979 Y-3.9799
G01 X-11.0228 Y-3.9769
G01 X-11.0478 Y-3.9750
G01 X-11.0745 Y-3.9744
G01 X-16.8213 Y-3.9742
G01 X-16.8333 Y-3.9731
G01 X-16.8451 Y-3.9710
G01 X-16.8568 Y-3.9678
G01 X-16.8680 Y-3.9637
G01 X-16.8789 Y-3.9586
G01 X-16.8894 Y-3.9527
G01 X-16.8992 Y-3.9458
G01 X-16.9085 Y-3.9381
G01 X-16.9194 Y-3.9271
G01 X-16.9279 Y-3.9164
G01 X-16.9591 Y-3.8677
G01 X-16.9905 Y-3.8231
G01 X-17.0240 Y-3.7802
G01 X-17.0596 Y-3.7389
G01 X-17.0972 Y-3.6994
G01 X-17.1367 Y-3.6618
G01 X-17.1780 Y-3.6262
G01 X-17.2209 Y-3.5927
G01 X-17.2655 Y-3.5613
G01 X-17.3115 Y-3.5321
G01 X-17.3590 Y-3.5053
G01 X-17.4077 Y-3.4807
G01 X-17.4575 Y-3.4587
G01 X-17.5084 Y-3.4390
G01 X-17.5601 Y-3.4219
G01 X-17.6127 Y-3.4074
G01 X-17.6658 Y-3.3955
G01 X-17.7195 Y-3.3861
G01 X-17.7736 Y-3.3795
G01 X-17.8280 Y-3.3755
G01 X-17.8842 Y-3.3741
G01 X-19.5808 Y-3.3741
G01 X-19.6370 Y-3.3755
G01 X-19.6914 Y-3.3795
G01 X-19.7455 Y-3.3861
G01 X-19.7992 Y-3.3955
G01 X-19.8523 Y-3.4074
G01 X-19.9049 Y-3.4217
G01 X-19.9167 Y-3.4236
G01 X-19.9304 Y-3.4247
G01 X-22.1810 Y-3.4247
G01 X-22.1810 Y-3.5447
G01 X-21.8842 Y-3.5447
G01 X-21.8637 Y-3.5468
G01 X-21.8453 Y-3.5512
G01 X-21.8247 Y-3.5596
G01 X-21.8056 Y-3.5712
G01 X-21.7886 Y-3.5857
G01 X-21.7741 Y-3.6027
G01 X-21.7625 Y-3.6218
G01 X-21.7541 Y-3.6424
G01 X-21.7491 Y-3.6642
G01 X-21.7476 Y-3.6847
G01 X-21.7476 Y-5.2847
G01 X-21.7485 Y-5.3001
G01 X-21.7514 Y-5.3170
G01 X-21.7570 Y-5.3351
G01 X-21.7650 Y-5.3522
G01 X-21.7762 Y-5.3695
G01 X-21.7886 Y-5.3837
G01 X-21.8028 Y-5.3961
G01 X-21.8186 Y-5.4065
G01 X-21.8356 Y-5.4147
G01 X-21.8536 Y-5.4205
G01 X-21.8705 Y-5.4236
G01 X-21.8859 Y-5.4247
G01 X-22.1810 Y-5.4247
G01 X-22.1810 Y-5.5447
G01 X-21.0225 Y-5.5447
G01 X-21.0218 Y-5.5260
G01 X-21.0191 Y-5.5090
G01 X-21.0143 Y-5.4925
G01 X-21.0076 Y-5.4768
G01 X-20.9989 Y-5.4619
G01 X-20.9885 Y-5.4483
G01 X-20.9765 Y-5.4360
G01 X-20.9623 Y-5.4247
G01 X-21.2893 Y-5.4247
G01 X-21.3047 Y-5.4236
G01 X-21.3216 Y-5.4205
G01 X-21.3412 Y-5.4140
G01 X-21.3596 Y-5.4048
G01 X-21.3764 Y-5.3929
G01 X-21.3902 Y-5.3800
G01 X-21.4030 Y-5.3639
G01 X-21.4127 Y-5.3476
G01 X-21.4205 Y-5.3286
G01 X-21.4252 Y-5.3103
G01 X-21.4271 Y-5.2967
G01 X-21.4276 Y-5.2847
G01 X-21.4272 Y-3.6744
G01 X-21.4258 Y-3.6625
G01 X-21.4234 Y-3.6507
G01 X-21.4200 Y-3.6392
G01 X-21.4156 Y-3.6280
G01 X-21.4102 Y-3.6172
G01 X-21.4040 Y-3.6069
G01 X-21.3969 Y-3.5972
G01 X-21.3890 Y-3.5882
G01 X-21.3803 Y-3.5798
G01 X-21.3710 Y-3.5723
G01 X-21.3610 Y-3.5655
G01 X-21.3505 Y-3.5596
G01 X-21.3396 Y-3.5547
G01 X-21.3282 Y-3.5507
G01 X-21.3166 Y-3.5477
G01 X-21.3047 Y-3.5458
G01 X-21.2876 Y-3.5447
G01 X-19.9859 Y-3.5447
G01 X-19.9705 Y-3.5458
G01 X-19.9569 Y-3.5481
G01 X-19.9437 Y-3.5518
G01 X-19.9296 Y-3.5573
G01 X-19.9145 Y-3.5516
G01 X-19.8684 Y-3.5364
G01 X-19.8232 Y-3.5240
G01 X-19.7740 Y-3.5130
G01 X-19.7278 Y-3.5050
G01 X-19.6796 Y-3.4990
G01 X-19.6311 Y-3.4955
G01 X-19.5842 Y-3.4943
G01 X-17.8825 Y-3.4943
G01 X-17.8305 Y-3.4957
G01 X-17.7854 Y-3.4990
G01 X-17.7406 Y-3.5045
G01 X-17.6893 Y-3.5133
G01 X-17.6385 Y-3.5248
G01 X-17.5950 Y-3.5369
G01 X-17.5521 Y-3.5511
G01 X-17.5035 Y-3.5697
G01 X-17.4560 Y-3.5909
G01 X-17.4156 Y-3.6112
G01 X-17.3763 Y-3.6335
G01 X-17.3322 Y-3.6612
G01 X-17.2911 Y-3.6902
G01 X-17.2516 Y-3.7213
G01 X-17.2174 Y-3.7508
G01 X-17.1846 Y-3.7820
G01 X-17.1486 Y-3.8196
G01 X-17.1147 Y-3.8591
G01 X-17.0870 Y-3.8947
G01 X-17.0609 Y-3.9316
G01 X-17.0330 Y-3.9755
G01 X-17.0074 Y-4.0209
G01 X-16.9872 Y-4.0612
G01 X-16.9723 Y-4.0946
G01 X-11.0728 Y-4.0946
G01 X-11.0380 Y-4.0962
G01 X-11.0122 Y-4.0993
G01 X-10.9780 Y-4.1063
G01 X-10.9414 Y-4.1174
G01 X-10.9235 Y-4.1243
G01 X-10.9029 Y-4.1335
G01 X-10.8859 Y-4.1423
G01 X-10.8589 Y-4.1584
G01 X-10.8404 Y-4.1713
G01 X-10.8253 Y-4.1831
G01 X-10.7969 Y-4.2088
G01 X-9.9611 Y-5.0447
G01 X-9.9367 Y-5.0719
G01 X-9.9141 Y-5.1028
G01 X-9.8945 Y-5.1357
G01 X-9.8860 Y-5.1529
G01 X-9.8777 Y-5.1720
G01 X-9.8661 Y-5.2049
G01 X-9.8568 Y-5.2420
G01 X-9.8512 Y-5.2799
G01 X-9.8493 Y-5.3164
G01 X-9.8493 Y-7.1112
G01 X-9.6156 Y-7.1112
G01 X-9.6002 Y-7.1123
G01 X-9.5866 Y-7.1146
G01 X-9.5718 Y-7.1188
G01 X-9.5574 Y-7.1246
G01 X-9.5424 Y-7.1329
G01 X-9.5298 Y-7.1419
G01 X-9.5183 Y-7.1522
G01 X-9.5080 Y-7.1637
G01 X-9.4990 Y-7.1763
G01 X-9.4907 Y-7.1913
G01 X-9.4849 Y-7.2057
G01 X-9.4811 Y-7.2189
G01 X-9.4784 Y-7.2341
G01 X-9.4773 Y-7.2495
G01 X-9.4773 Y-7.8529
G01 X-9.4791 Y-7.8734
G01 X-9.4838 Y-7.8935
G01 X-9.4922 Y-7.9141
G01 X-9.5028 Y-7.9318
G01 X-9.5171 Y-7.9490
G01 X-9.5325 Y-7.9626
G01 X-9.5498 Y-7.9738
G01 X-9.5701 Y-7.9830
G01 X-9.5917 Y-7.9888
G01 X-9.6121 Y-7.9911
G01 X-10.7225 Y-7.9911
G01 X-10.7378 Y-7.9897
G01 X-10.7513 Y-7.9870
G01 X-10.7645 Y-7.9830
