(G-CODE GENERATED BY FLATCAM v8.993 - www.flatcam.org - Version Date: 2020/06/05)

(Name: Karat3_134K03_TX_Ф1_верх.gbr_iso_combined_1_cnc)
(Type: G-code from Geometry)
(Units: MM)

(Created on Wednesday, 23 December 2020 at 20:20)

(This preprocessor is the default preprocessor used by FlatCAM.)
(It is made to work with MACH3 compatible motion controllers.)

(TOOL DIAMETER: 2.0 mm)
(Feedrate_XY: 120.0 mm/min)
(Feedrate_Z: 70.0 mm/min)
(Feedrate rapids 1500.0 mm/min)

(Z_Cut: -0.08 mm)
(Z_Move: 2.0 mm)
(Z Start: None mm)
(Z End: 25.0 mm)
(Steps per circle: 128)
(Preprocessor Geometry: default)

(X range:    4.3422 ...   70.8656  mm)
(Y range:  -76.3028 ...   -3.9850  mm)

(Spindle Speed: 10000 RPM)
G21
G90
G94



G01 F120.00
G00 Z2.0000

M03 S10000
G00 X18.8823 Y-4.4833
G01 F70.00
G01 Z-0.0800
G01 F120.00
G01 X18.8815 Y-4.4999
G01 X18.8793 Y-4.5144
G01 X18.8756 Y-4.5286
G01 X18.8707 Y-4.5424
G01 X18.8643 Y-4.5557
G01 X18.8567 Y-4.5683
G01 X18.8479 Y-4.5801
G01 X18.8380 Y-4.5909
G01 X18.8271 Y-4.6007
G01 X18.8153 Y-4.6095
G01 X18.8027 Y-4.6170
G01 X18.7894 Y-4.6232
G01 X18.7755 Y-4.6281
G01 X18.7612 Y-4.6317
G01 X18.7467 Y-4.6338
G01 X18.7320 Y-4.6344
G01 X18.7173 Y-4.6337
G01 X18.7028 Y-4.6315
G01 X18.6886 Y-4.6278
G01 X18.6748 Y-4.6229
G01 X18.6615 Y-4.6165
G01 X18.6489 Y-4.6089
G01 X18.6371 Y-4.6001
G01 X18.6263 Y-4.5902
G01 X18.6165 Y-4.5793
G01 X18.6077 Y-4.5675
G01 X18.6002 Y-4.5549
G01 X18.5940 Y-4.5416
G01 X18.5891 Y-4.5277
G01 X18.5855 Y-4.5134
G01 X18.5834 Y-4.4989
G01 X18.5828 Y-4.4842
G01 X18.5835 Y-4.4695
G01 X18.5857 Y-4.4550
G01 X18.5894 Y-4.4408
G01 X18.5943 Y-4.4270
G01 X18.6007 Y-4.4137
G01 X18.6083 Y-4.4011
G01 X18.6171 Y-4.3893
G01 X18.6270 Y-4.3785
G01 X18.6379 Y-4.3687
G01 X18.6497 Y-4.3599
G01 X18.6623 Y-4.3524
G01 X18.6756 Y-4.3462
G01 X18.6895 Y-4.3413
G01 X18.7038 Y-4.3377
G01 X18.7183 Y-4.3356
G01 X18.7330 Y-4.3350
G01 X18.7477 Y-4.3357
G01 X18.7622 Y-4.3379
G01 X18.7764 Y-4.3416
G01 X18.7902 Y-4.3465
G01 X18.8035 Y-4.3529
G01 X18.8161 Y-4.3605
G01 X18.8279 Y-4.3693
G01 X18.8387 Y-4.3792
G01 X18.8485 Y-4.3901
G01 X18.8573 Y-4.4019
G01 X18.8648 Y-4.4145
G01 X18.8710 Y-4.4278
G01 X18.8759 Y-4.4417
G01 X18.8795 Y-4.4560
G01 X18.8816 Y-4.4705
G01 X18.8823 Y-4.4833
G00 Z2.0000
G00 X18.8823 Y-8.2933
G01 F70.00
G01 Z-0.0800
G01 F120.00
G01 X18.8815 Y-8.3099
G01 X18.8793 Y-8.3244
G01 X18.8756 Y-8.3386
G01 X18.8707 Y-8.3524
G01 X18.8643 Y-8.3657
G01 X18.8567 Y-8.3783
G01 X18.8479 Y-8.3901
G01 X18.8380 Y-8.4009
G01 X18.8271 Y-8.4107
G01 X18.8153 Y-8.4195
G01 X18.8027 Y-8.4270
G01 X18.7894 Y-8.4332
G01 X18.7755 Y-8.4381
G01 X18.7612 Y-8.4417
G01 X18.7467 Y-8.4438
G01 X18.7320 Y-8.4444
G01 X18.7173 Y-8.4437
G01 X18.7028 Y-8.4415
G01 X18.6886 Y-8.4378
G01 X18.6748 Y-8.4329
G01 X18.6615 Y-8.4265
G01 X18.6489 Y-8.4189
G01 X18.6371 Y-8.4101
G01 X18.6263 Y-8.4002
G01 X18.6165 Y-8.3893
G01 X18.6077 Y-8.3775
G01 X18.6002 Y-8.3649
G01 X18.5940 Y-8.3516
G01 X18.5891 Y-8.3377
G01 X18.5855 Y-8.3234
G01 X18.5834 Y-8.3089
G01 X18.5828 Y-8.2942
G01 X18.5835 Y-8.2795
G01 X18.5857 Y-8.2650
G01 X18.5894 Y-8.2508
G01 X18.5943 Y-8.2370
G01 X18.6007 Y-8.2237
G01 X18.6083 Y-8.2111
G01 X18.6171 Y-8.1993
G01 X18.6270 Y-8.1885
G01 X18.6379 Y-8.1787
G01 X18.6497 Y-8.1699
G01 X18.6623 Y-8.1624
G01 X18.6756 Y-8.1562
G01 X18.6895 Y-8.1513
G01 X18.7038 Y-8.1477
G01 X18.7183 Y-8.1456
G01 X18.7330 Y-8.1450
G01 X18.7477 Y-8.1457
G01 X18.7622 Y-8.1479
G01 X18.7764 Y-8.1516
G01 X18.7902 Y-8.1565
G01 X18.8035 Y-8.1629
G01 X18.8161 Y-8.1705
G01 X18.8279 Y-8.1793
G01 X18.8387 Y-8.1892
G01 X18.8485 Y-8.2001
G01 X18.8573 Y-8.2119
G01 X18.8648 Y-8.2245
G01 X18.8710 Y-8.2378
G01 X18.8759 Y-8.2517
G01 X18.8795 Y-8.2660
G01 X18.8816 Y-8.2805
G01 X18.8823 Y-8.2933
G00 Z2.0000
G00 X20.8890 Y-17.7940
G01 F70.00
G01 Z-0.0800
G01 F120.00
G01 X26.8919 Y-17.7940
G01 X26.8919 Y-24.1144
G01 X25.2058 Y-24.1144
G01 X25.1646 Y-24.0798
G01 X25.0907 Y-24.0229
G01 X25.0141 Y-23.9697
G01 X24.9350 Y-23.9203
G01 X24.8645 Y-23.8805
G01 X24.7812 Y-23.8386
G01 X24.6959 Y-23.8008
G01 X24.6204 Y-23.7715
G01 X24.5321 Y-23.7416
G01 X24.4542 Y-23.7194
G01 X24.4185 Y-23.7102
G01 X24.3635 Y-23.6978
G01 X24.3153 Y-23.6882
G01 X24.2476 Y-23.6768
G01 X24.1550 Y-23.6653
G01 X24.0620 Y-23.6585
G01 X23.9688 Y-23.6562
G01 X23.8756 Y-23.6585
G01 X23.7826 Y-23.6653
G01 X23.6900 Y-23.6768
G01 X23.6223 Y-23.6882
G01 X23.5741 Y-23.6978
G01 X23.5191 Y-23.7102
G01 X23.4834 Y-23.7194
G01 X23.4055 Y-23.7416
G01 X23.3172 Y-23.7715
G01 X23.2417 Y-23.8008
G01 X23.1564 Y-23.8386
G01 X23.0731 Y-23.8805
G01 X23.0026 Y-23.9203
G01 X22.9235 Y-23.9697
G01 X22.8469 Y-24.0229
G01 X22.7730 Y-24.0798
G01 X22.7318 Y-24.1144
G01 X20.8890 Y-24.1144
G01 X20.8890 Y-17.7940
G00 Z2.0000
G00 X21.8890 Y-23.1144
G01 F70.00
G01 Z-0.0800
G01 F120.00
G01 X21.8890 Y-18.7940
G01 X25.8919 Y-18.7940
G01 X25.8919 Y-23.1144
G01 X25.5328 Y-23.1144
G01 X25.4597 Y-23.0688
G01 X25.3574 Y-23.0103
G01 X25.2923 Y-22.9760
G01 X25.2308 Y-22.9453
G01 X25.1865 Y-22.9243
G01 X25.0786 Y-22.8769
G01 X24.9688 Y-22.8341
G01 X24.9226 Y-22.8176
G01 X24.8574 Y-22.7959
G01 X24.7871 Y-22.7741
G01 X24.6734 Y-22.7431
G01 X24.5826 Y-22.7221
G01 X24.5105 Y-22.7073
G01 X24.3943 Y-22.6876
G01 X24.2775 Y-22.6727
G01 X24.2041 Y-22.6660
G01 X24.1356 Y-22.6610
G01 X24.0866 Y-22.6586
G01 X23.9688 Y-22.6562
G01 X23.8510 Y-22.6586
G01 X23.7775 Y-22.6627
G01 X23.7090 Y-22.6679
G01 X23.6601 Y-22.6727
G01 X23.5433 Y-22.6876
G01 X23.4271 Y-22.7073
G01 X23.3550 Y-22.7221
G01 X23.2642 Y-22.7431
G01 X23.1505 Y-22.7741
G01 X23.1035 Y-22.7883
G01 X23.0382 Y-22.8098
G01 X22.9688 Y-22.8341
G01 X22.8590 Y-22.8769
G01 X22.7511 Y-22.9243
G01 X22.7068 Y-22.9453
G01 X22.6453 Y-22.9760
G01 X22.5802 Y-23.0103
G01 X22.4779 Y-23.0688
G01 X22.4048 Y-23.1144
G01 X21.8890 Y-23.1144
G00 Z2.0000
G00 X24.8919 Y-21.7671
G01 F70.00
G01 Z-0.0800
G01 F120.00
G01 X24.7657 Y-21.7385
G01 X24.6573 Y-21.7177
G01 X24.5410 Y-21.6984
G01 X24.4681 Y-21.6885
G01 X24.3877 Y-21.6788
G01 X24.2777 Y-21.6687
G01 X24.1602 Y-21.6609
G01 X24.0866 Y-21.6582
G01 X24.0056 Y-21.6564
G01 X23.8952 Y-21.6571
G01 X23.7774 Y-21.6609
G01 X23.7039 Y-21.6654
G01 X23.6232 Y-21.6716
G01 X23.5134 Y-21.6831
G01 X23.3966 Y-21.6984
G01 X23.2803 Y-21.7177
G01 X23.1719 Y-21.7385
G01 X23.0928 Y-21.7561
G01 X23.0212 Y-21.7731
G01 X22.8890 Y-21.8088
G01 X22.8890 Y-19.7940
G01 X24.8919 Y-19.7940
G01 X24.8919 Y-21.7671
G00 Z2.0000
G00 X15.0813 Y-32.6487
G01 F70.00
G01 Z-0.0800
G01 F120.00
G01 X15.0380 Y-32.6269
G01 X15.0044 Y-32.6118
G01 X14.9588 Y-32.5936
G01 X14.9130 Y-32.5777
G01 X14.8901 Y-32.5689
G01 X14.8677 Y-32.5589
G01 X14.8457 Y-32.5479
G01 X14.8244 Y-32.5358
G01 X14.8037 Y-32.5227
G01 X14.7836 Y-32.5086
G01 X14.7643 Y-32.4935
G01 X14.7457 Y-32.4775
G01 X14.7280 Y-32.4605
G01 X14.7110 Y-32.4428
G01 X14.6950 Y-32.4242
G01 X14.6799 Y-32.4049
G01 X14.6658 Y-32.3848
G01 X14.6527 Y-32.3641
G01 X14.6406 Y-32.3428
G01 X14.6296 Y-32.3208
G01 X14.6196 Y-32.2984
G01 X14.6108 Y-32.2755
G01 X14.6031 Y-32.2523
G01 X14.5966 Y-32.2286
G01 X14.5912 Y-32.2047
G01 X14.5870 Y-32.1805
G01 X14.5840 Y-32.1562
G01 X14.5822 Y-32.1317
G01 X14.5816 Y-32.1072
G01 X14.5822 Y-32.0827
G01 X14.5840 Y-32.0582
G01 X14.5870 Y-32.0339
G01 X14.5912 Y-32.0097
G01 X14.5966 Y-31.9858
G01 X14.6031 Y-31.9621
G01 X14.6108 Y-31.9389
G01 X14.6196 Y-31.9160
G01 X14.6296 Y-31.8936
G01 X14.6406 Y-31.8716
G01 X14.6527 Y-31.8503
G01 X14.6658 Y-31.8296
G01 X14.6799 Y-31.8095
G01 X14.6950 Y-31.7902
G01 X14.7110 Y-31.7716
G01 X14.7280 Y-31.7539
G01 X14.7457 Y-31.7369
G01 X14.7643 Y-31.7209
G01 X14.7836 Y-31.7058
G01 X14.8037 Y-31.6917
G01 X14.8244 Y-31.6786
G01 X14.8457 Y-31.6665
G01 X14.8677 Y-31.6555
G01 X14.8901 Y-31.6455
G01 X14.9130 Y-31.6367
G01 X14.9362 Y-31.6290
G01 X14.9599 Y-31.6225
G01 X14.9838 Y-31.6171
G01 X15.0080 Y-31.6129
G01 X15.0323 Y-31.6099
G01 X15.0568 Y-31.6081
G01 X15.0813 Y-31.6075
G01 X15.1058 Y-31.6081
G01 X15.1303 Y-31.6099
G01 X15.1546 Y-31.6129
G01 X15.1788 Y-31.6171
G01 X15.2027 Y-31.6225
G01 X15.2264 Y-31.6290
G01 X15.2496 Y-31.6367
G01 X15.2725 Y-31.6455
G01 X15.2949 Y-31.6555
G01 X15.3169 Y-31.6665
G01 X15.3382 Y-31.6786
G01 X15.3589 Y-31.6917
G01 X15.3790 Y-31.7058
G01 X15.3983 Y-31.7209
G01 X15.4169 Y-31.7369
G01 X15.4346 Y-31.7539
G01 X15.4516 Y-31.7716
G01 X15.4676 Y-31.7902
G01 X15.4827 Y-31.8095
G01 X15.4968 Y-31.8296
G01 X15.5099 Y-31.8503
G01 X15.5220 Y-31.8716
G01 X15.5330 Y-31.8936
G01 X15.5430 Y-31.9160
G01 X15.5518 Y-31.9389
G01 X15.5595 Y-31.9621
G01 X15.5660 Y-31.9858
G01 X15.5714 Y-32.0097
G01 X15.5756 Y-32.0339
G01 X15.5786 Y-32.0582
G01 X15.5804 Y-32.0827
G01 X15.5810 Y-32.1072
G01 X15.5804 Y-32.1317
G01 X15.5786 Y-32.1562
G01 X15.5756 Y-32.1805
G01 X15.5714 Y-32.2047
G01 X15.5660 Y-32.2286
G01 X15.5595 Y-32.2523
G01 X15.5518 Y-32.2755
G01 X15.5430 Y-32.2984
G01 X15.5330 Y-32.3208
G01 X15.5220 Y-32.3428
G01 X15.5099 Y-32.3641
G01 X15.4968 Y-32.3848
G01 X15.4827 Y-32.4049
G01 X15.4676 Y-32.4242
G01 X15.4516 Y-32.4428
G01 X15.4346 Y-32.4605
G01 X15.4169 Y-32.4775
G01 X15.3983 Y-32.4935
G01 X15.3790 Y-32.5086
G01 X15.3589 Y-32.5227
G01 X15.3382 Y-32.5358
G01 X15.3169 Y-32.5479
G01 X15.2949 Y-32.5589
G01 X15.2725 Y-32.5689
G01 X15.2496 Y-32.5777
G01 X15.2038 Y-32.5936
G01 X15.1582 Y-32.6118
G01 X15.1246 Y-32.6269
G01 X15.0813 Y-32.6487
G00 Z2.0000
G00 X5.3416 Y-27.3447
G01 F70.00
G01 Z-0.0800
G01 F120.00
G01 X5.3410 Y-27.3692
G01 X5.3392 Y-27.3937
G01 X5.3362 Y-27.4180
G01 X5.3320 Y-27.4422
G01 X5.3266 Y-27.4661
G01 X5.3201 Y-27.4898
G01 X5.3124 Y-27.5130
G01 X5.3036 Y-27.5359
G01 X5.2936 Y-27.5583
G01 X5.2826 Y-27.5803
G01 X5.2705 Y-27.6016
G01 X5.2574 Y-27.6223
G01 X5.2433 Y-27.6424
G01 X5.2282 Y-27.6617
G01 X5.2122 Y-27.6803
G01 X5.1952 Y-27.6980
G01 X5.1775 Y-27.7150
G01 X5.1589 Y-27.7310
G01 X5.1396 Y-27.7461
G01 X5.1195 Y-27.7602
G01 X5.0988 Y-27.7733
G01 X5.0775 Y-27.7854
G01 X5.0555 Y-27.7964
G01 X5.0331 Y-27.8064
G01 X5.0102 Y-27.8152
G01 X4.9870 Y-27.8229
G01 X4.9633 Y-27.8294
G01 X4.9394 Y-27.8348
G01 X4.9152 Y-27.8390
G01 X4.8909 Y-27.8420
G01 X4.8664 Y-27.8438
G01 X4.8419 Y-27.8444
G01 X4.8174 Y-27.8438
G01 X4.7929 Y-27.8420
G01 X4.7686 Y-27.8390
G01 X4.7444 Y-27.8348
G01 X4.7205 Y-27.8294
G01 X4.6968 Y-27.8229
G01 X4.6736 Y-27.8152
G01 X4.6507 Y-27.8064
G01 X4.6283 Y-27.7964
G01 X4.6063 Y-27.7854
G01 X4.5850 Y-27.7733
G01 X4.5643 Y-27.7602
G01 X4.5442 Y-27.7461
G01 X4.5249 Y-27.7310
G01 X4.5063 Y-27.7150
G01 X4.4886 Y-27.6980
G01 X4.4716 Y-27.6803
G01 X4.4556 Y-27.6617
G01 X4.4405 Y-27.6424
G01 X4.4264 Y-27.6223
G01 X4.4133 Y-27.6016
G01 X4.4012 Y-27.5803
G01 X4.3902 Y-27.5583
G01 X4.3802 Y-27.5359
G01 X4.3714 Y-27.5130
G01 X4.3637 Y-27.4898
G01 X4.3572 Y-27.4661
G01 X4.3518 Y-27.4422
G01 X4.3476 Y-27.4180
G01 X4.3446 Y-27.3937
G01 X4.3428 Y-27.3692
G01 X4.3422 Y-27.3447
G01 X4.3428 Y-27.3202
G01 X4.3446 Y-27.2957
G01 X4.3476 Y-27.2714
G01 X4.3518 Y-27.2472
G01 X4.3572 Y-27.2233
G01 X4.3637 Y-27.1996
G01 X4.3714 Y-27.1764
G01 X4.3802 Y-27.1535
G01 X4.3902 Y-27.1311
G01 X4.4012 Y-27.1091
G01 X4.4133 Y-27.0878
G01 X4.4264 Y-27.0671
G01 X4.4405 Y-27.0470
G01 X4.4556 Y-27.0277
G01 X4.4716 Y-27.0091
G01 X4.4886 Y-26.9914
G01 X4.5063 Y-26.9744
G01 X4.5249 Y-26.9584
G01 X4.5442 Y-26.9433
G01 X4.5643 Y-26.9292
G01 X4.5850 Y-26.9161
G01 X4.6063 Y-26.9040
G01 X4.6283 Y-26.8930
G01 X4.6507 Y-26.8830
G01 X4.6736 Y-26.8742
G01 X4.6968 Y-26.8665
G01 X4.7205 Y-26.8600
G01 X4.7444 Y-26.8546
G01 X4.7686 Y-26.8504
G01 X4.7929 Y-26.8474
G01 X4.8174 Y-26.8456
G01 X4.8419 Y-26.8450
G01 X4.8664 Y-26.8456
G01 X4.8909 Y-26.8474
G01 X4.9152 Y-26.8504
G01 X4.9394 Y-26.8546
G01 X4.9633 Y-26.8600
G01 X4.9870 Y-26.8665
G01 X5.0102 Y-26.8742
G01 X5.0331 Y-26.8830
G01 X5.0555 Y-26.8930
G01 X5.0775 Y-26.9040
G01 X5.0988 Y-26.9161
G01 X5.1195 Y-26.9292
G01 X5.1396 Y-26.9433
G01 X5.1589 Y-26.9584
G01 X5.1775 Y-26.9744
G01 X5.1952 Y-26.9914
G01 X5.2122 Y-27.0091
G01 X5.2282 Y-27.0277
G01 X5.2433 Y-27.0470
G01 X5.2574 Y-27.0671
G01 X5.2705 Y-27.0878
G01 X5.2826 Y-27.1091
G01 X5.2936 Y-27.1311
G01 X5.3036 Y-27.1535
G01 X5.3124 Y-27.1764
G01 X5.3201 Y-27.1996
G01 X5.3266 Y-27.2233
G01 X5.3320 Y-27.2472
G01 X5.3362 Y-27.2714
G01 X5.3392 Y-27.2957
G01 X5.3410 Y-27.3202
G01 X5.3416 Y-27.3447
G00 Z2.0000
G00 X37.4997 Y-41.0000
G01 F70.00
G01 Z-0.0800
G01 F120.00
G01 X37.4991 Y-41.0245
G01 X37.4973 Y-41.0490
G01 X37.4943 Y-41.0733
G01 X37.4901 Y-41.0975
G01 X37.4847 Y-41.1214
G01 X37.4782 Y-41.1451
G01 X37.4705 Y-41.1683
G01 X37.4617 Y-41.1912
G01 X37.4517 Y-41.2136
G01 X37.4407 Y-41.2356
G01 X37.4286 Y-41.2569
G01 X37.4155 Y-41.2776
G01 X37.4014 Y-41.2977
G01 X37.3863 Y-41.3170
G01 X37.3703 Y-41.3356
G01 X37.3533 Y-41.3533
G01 X37.3356 Y-41.3703
G01 X37.3170 Y-41.3863
G01 X37.2977 Y-41.4014
G01 X37.2776 Y-41.4155
G01 X37.2569 Y-41.4286
G01 X37.2356 Y-41.4407
G01 X37.2136 Y-41.4517
G01 X37.1912 Y-41.4617
G01 X37.1683 Y-41.4705
G01 X37.1451 Y-41.4782
G01 X37.1214 Y-41.4847
G01 X37.0975 Y-41.4901
G01 X37.0733 Y-41.4943
G01 X37.0490 Y-41.4973
G01 X37.0245 Y-41.4991
G01 X37.0000 Y-41.4997
G01 X36.9755 Y-41.4991
G01 X36.9510 Y-41.4973
G01 X36.9267 Y-41.4943
G01 X36.9025 Y-41.4901
G01 X36.8786 Y-41.4847
G01 X36.8549 Y-41.4782
G01 X36.8317 Y-41.4705
G01 X36.8088 Y-41.4617
G01 X36.7864 Y-41.4517
G01 X36.7644 Y-41.4407
G01 X36.7431 Y-41.4286
G01 X36.7224 Y-41.4155
G01 X36.7023 Y-41.4014
G01 X36.6830 Y-41.3863
G01 X36.6644 Y-41.3703
G01 X36.6467 Y-41.3533
G01 X36.6297 Y-41.3356
G01 X36.6137 Y-41.3170
G01 X36.5986 Y-41.2977
G01 X36.5845 Y-41.2776
G01 X36.5714 Y-41.2569
G01 X36.5593 Y-41.2356
G01 X36.5483 Y-41.2136
G01 X36.5383 Y-41.1912
G01 X36.5295 Y-41.1683
G01 X36.5218 Y-41.1451
G01 X36.5153 Y-41.1214
G01 X36.5099 Y-41.0975
G01 X36.5057 Y-41.0733
G01 X36.5027 Y-41.0490
G01 X36.5009 Y-41.0245
G01 X36.5003 Y-41.0000
G01 X36.5009 Y-40.9755
G01 X36.5027 Y-40.9510
G01 X36.5057 Y-40.9267
G01 X36.5099 Y-40.9025
G01 X36.5153 Y-40.8786
G01 X36.5218 Y-40.8549
G01 X36.5295 Y-40.8317
G01 X36.5383 Y-40.8088
G01 X36.5483 Y-40.7864
G01 X36.5593 Y-40.7644
G01 X36.5714 Y-40.7431
G01 X36.5845 Y-40.7224
G01 X36.5986 Y-40.7023
G01 X36.6137 Y-40.6830
G01 X36.6297 Y-40.6644
G01 X36.6467 Y-40.6467
G01 X36.6644 Y-40.6297
G01 X36.6830 Y-40.6137
G01 X36.7023 Y-40.5986
G01 X36.7224 Y-40.5845
G01 X36.7431 Y-40.5714
G01 X36.7644 Y-40.5593
G01 X36.7864 Y-40.5483
G01 X36.8088 Y-40.5383
G01 X36.8317 Y-40.5295
G01 X36.8549 Y-40.5218
G01 X36.8786 Y-40.5153
G01 X36.9025 Y-40.5099
G01 X36.9267 Y-40.5057
G01 X36.9510 Y-40.5027
G01 X36.9755 Y-40.5009
G01 X37.0000 Y-40.5003
G01 X37.0245 Y-40.5009
G01 X37.0490 Y-40.5027
G01 X37.0733 Y-40.5057
G01 X37.0975 Y-40.5099
G01 X37.1214 Y-40.5153
G01 X37.1451 Y-40.5218
G01 X37.1683 Y-40.5295
G01 X37.1912 Y-40.5383
G01 X37.2136 Y-40.5483
G01 X37.2356 Y-40.5593
G01 X37.2569 Y-40.5714
G01 X37.2776 Y-40.5845
G01 X37.2977 Y-40.5986
G01 X37.3170 Y-40.6137
G01 X37.3356 Y-40.6297
G01 X37.3533 Y-40.6467
G01 X37.3703 Y-40.6644
G01 X37.3863 Y-40.6830
G01 X37.4014 Y-40.7023
G01 X37.4155 Y-40.7224
G01 X37.4286 Y-40.7431
G01 X37.4407 Y-40.7644
G01 X37.4517 Y-40.7864
G01 X37.4617 Y-40.8088
G01 X37.4705 Y-40.8317
G01 X37.4782 Y-40.8549
G01 X37.4847 Y-40.8786
G01 X37.4901 Y-40.9025
G01 X37.4943 Y-40.9267
G01 X37.4973 Y-40.9510
G01 X37.4991 Y-40.9755
G01 X37.4997 Y-41.0000
G00 Z2.0000
G00 X57.2427 Y-38.9575
G01 F70.00
G01 Z-0.0800
G01 F120.00
G01 X57.2427 Y-32.6371
G01 X63.2456 Y-32.6371
G01 X63.2456 Y-38.9575
G01 X57.2427 Y-38.9575
G00 Z2.0000
G00 X58.2427 Y-37.9575
G01 F70.00
G01 Z-0.0800
G01 F120.00
G01 X58.2427 Y-33.6371
G01 X62.2456 Y-33.6371
G01 X62.2456 Y-37.9575
G01 X58.2427 Y-37.9575
G00 Z2.0000
G00 X60.2427 Y-35.6371
G01 F70.00
G01 Z-0.0800
G01 F120.00
G01 X60.2456 Y-35.6371
G01 X60.2456 Y-35.9575
G01 X60.2427 Y-35.9575
G01 X60.2427 Y-35.6371
G00 Z2.0000
G00 X59.2427 Y-34.6371
G01 F70.00
G01 Z-0.0800
G01 F120.00
G01 X61.2456 Y-34.6371
G01 X61.2456 Y-36.9575
G01 X59.2427 Y-36.9575
G01 X59.2427 Y-34.6371
G00 Z2.0000
G00 X58.2852 Y-44.8702
G01 F70.00
G01 Z-0.0800
G01 F120.00
G01 X62.2880 Y-44.8702
G01 X62.2880 Y-49.1906
G01 X58.2851 Y-49.1906
G01 X58.2852 Y-44.8702
G00 Z2.0000
G00 X60.2852 Y-46.8702
G01 F70.00
G01 Z-0.0800
G01 F120.00
G01 X60.2880 Y-46.8702
G01 X60.2880 Y-47.1906
G01 X60.2852 Y-47.1906
G01 X60.2852 Y-46.8702
G00 Z2.0000
G00 X59.2852 Y-48.1906
G01 F70.00
G01 Z-0.0800
G01 F120.00
G01 X59.2852 Y-45.8702
G01 X61.2880 Y-45.8702
G01 X61.2880 Y-48.1906
G01 X59.2852 Y-48.1906
G00 Z2.0000
G00 X57.2851 Y-50.1906
G01 F70.00
G01 Z-0.0800
G01 F120.00
G01 X57.2852 Y-43.8702
G01 X63.2880 Y-43.8702
G01 X63.2880 Y-50.1906
G01 X57.2851 Y-50.1906
G00 Z2.0000
G00 X55.5860 Y-70.6041
G01 F70.00
G01 Z-0.0800
G01 F120.00
G01 X55.5854 Y-70.6286
G01 X55.5836 Y-70.6531
G01 X55.5806 Y-70.6774
G01 X55.5764 Y-70.7016
G01 X55.5710 Y-70.7255
G01 X55.5645 Y-70.7492
G01 X55.5568 Y-70.7724
G01 X55.5480 Y-70.7953
G01 X55.5380 Y-70.8177
G01 X55.5270 Y-70.8397
G01 X55.5149 Y-70.8610
G01 X55.5018 Y-70.8817
G01 X55.4877 Y-70.9018
G01 X55.4726 Y-70.9211
G01 X55.4566 Y-70.9397
G01 X55.4396 Y-70.9574
G01 X55.4219 Y-70.9744
G01 X55.4033 Y-70.9904
G01 X55.3840 Y-71.0055
G01 X55.3639 Y-71.0196
G01 X55.3432 Y-71.0327
G01 X55.3219 Y-71.0448
G01 X55.2999 Y-71.0558
G01 X55.2775 Y-71.0658
G01 X55.2546 Y-71.0746
G01 X55.2314 Y-71.0823
G01 X55.2077 Y-71.0888
G01 X55.1838 Y-71.0942
G01 X55.1596 Y-71.0984
G01 X55.1353 Y-71.1014
G01 X55.1108 Y-71.1032
G01 X55.0863 Y-71.1038
G01 X55.0618 Y-71.1032
G01 X55.0373 Y-71.1014
G01 X55.0130 Y-71.0984
G01 X54.9888 Y-71.0942
G01 X54.9649 Y-71.0888
G01 X54.9412 Y-71.0823
G01 X54.9180 Y-71.0746
G01 X54.8951 Y-71.0658
G01 X54.8727 Y-71.0558
G01 X54.8507 Y-71.0448
G01 X54.8294 Y-71.0327
G01 X54.8087 Y-71.0196
G01 X54.7886 Y-71.0055
G01 X54.7693 Y-70.9904
G01 X54.7507 Y-70.9744
G01 X54.7330 Y-70.9574
G01 X54.7160 Y-70.9397
G01 X54.7000 Y-70.9211
G01 X54.6849 Y-70.9018
G01 X54.6708 Y-70.8817
G01 X54.6577 Y-70.8610
G01 X54.6456 Y-70.8397
G01 X54.6346 Y-70.8177
G01 X54.6246 Y-70.7953
G01 X54.6158 Y-70.7724
G01 X54.6081 Y-70.7492
G01 X54.6016 Y-70.7255
G01 X54.5962 Y-70.7016
G01 X54.5920 Y-70.6774
G01 X54.5890 Y-70.6531
G01 X54.5872 Y-70.6286
G01 X54.5866 Y-70.6041
G01 X54.5872 Y-70.5796
G01 X54.5890 Y-70.5551
G01 X54.5920 Y-70.5308
G01 X54.5962 Y-70.5066
G01 X54.6016 Y-70.4827
G01 X54.6081 Y-70.4590
G01 X54.6158 Y-70.4358
G01 X54.6246 Y-70.4129
G01 X54.6346 Y-70.3905
G01 X54.6456 Y-70.3685
G01 X54.6577 Y-70.3472
G01 X54.6708 Y-70.3265
G01 X54.6849 Y-70.3064
G01 X54.7000 Y-70.2871
G01 X54.7160 Y-70.2685
G01 X54.7330 Y-70.2508
G01 X54.7507 Y-70.2338
G01 X54.7693 Y-70.2178
G01 X54.7886 Y-70.2027
G01 X54.8087 Y-70.1886
G01 X54.8294 Y-70.1755
G01 X54.8507 Y-70.1634
G01 X54.8727 Y-70.1524
G01 X54.8951 Y-70.1424
G01 X54.9180 Y-70.1336
G01 X54.9412 Y-70.1259
G01 X54.9649 Y-70.1194
G01 X54.9888 Y-70.1140
G01 X55.0130 Y-70.1098
G01 X55.0373 Y-70.1068
G01 X55.0618 Y-70.1050
G01 X55.0863 Y-70.1044
G01 X55.1108 Y-70.1050
G01 X55.1353 Y-70.1068
G01 X55.1596 Y-70.1098
G01 X55.1838 Y-70.1140
G01 X55.2077 Y-70.1194
G01 X55.2314 Y-70.1259
G01 X55.2546 Y-70.1336
G01 X55.2775 Y-70.1424
G01 X55.2999 Y-70.1524
G01 X55.3219 Y-70.1634
G01 X55.3432 Y-70.1755
G01 X55.3639 Y-70.1886
G01 X55.3840 Y-70.2027
G01 X55.4033 Y-70.2178
G01 X55.4219 Y-70.2338
G01 X55.4396 Y-70.2508
G01 X55.4566 Y-70.2685
G01 X55.4726 Y-70.2871
G01 X55.4877 Y-70.3064
G01 X55.5018 Y-70.3265
G01 X55.5149 Y-70.3472
G01 X55.5270 Y-70.3685
G01 X55.5380 Y-70.3905
G01 X55.5480 Y-70.4129
G01 X55.5568 Y-70.4358
G01 X55.5645 Y-70.4590
G01 X55.5710 Y-70.4827
G01 X55.5764 Y-70.5066
G01 X55.5806 Y-70.5308
G01 X55.5836 Y-70.5551
G01 X55.5854 Y-70.5796
G01 X55.5860 Y-70.6041
G00 Z2.0000
G00 X65.8674 Y-75.7056
G01 F70.00
G01 Z-0.0800
G01 F120.00
G01 X65.8728 Y-75.6817
G01 X65.8793 Y-75.6580
G01 X65.8870 Y-75.6348
G01 X65.8958 Y-75.6119
G01 X65.9058 Y-75.5895
G01 X65.9168 Y-75.5675
G01 X65.9289 Y-75.5462
G01 X65.9420 Y-75.5255
G01 X65.9561 Y-75.5054
G01 X65.9712 Y-75.4861
G01 X65.9872 Y-75.4675
G01 X66.0042 Y-75.4498
G01 X66.0219 Y-75.4328
G01 X66.0405 Y-75.4168
G01 X66.0598 Y-75.4017
G01 X66.0799 Y-75.3876
G01 X66.1006 Y-75.3745
G01 X66.1219 Y-75.3624
G01 X66.1439 Y-75.3514
G01 X66.1663 Y-75.3414
G01 X66.1892 Y-75.3326
G01 X66.2124 Y-75.3249
G01 X66.2361 Y-75.3184
G01 X66.2600 Y-75.3130
G01 X66.2842 Y-75.3088
G01 X66.3085 Y-75.3058
G01 X66.3330 Y-75.3040
G01 X66.3575 Y-75.3034
G01 X66.3820 Y-75.3040
G01 X66.4065 Y-75.3058
G01 X66.4308 Y-75.3088
G01 X66.4550 Y-75.3130
G01 X66.4789 Y-75.3184
G01 X66.5026 Y-75.3249
G01 X66.5258 Y-75.3326
G01 X66.5487 Y-75.3414
G01 X66.5711 Y-75.3514
G01 X66.5931 Y-75.3624
G01 X66.6144 Y-75.3745
G01 X66.6351 Y-75.3876
G01 X66.6552 Y-75.4017
G01 X66.6745 Y-75.4168
G01 X66.6931 Y-75.4328
G01 X66.7108 Y-75.4498
G01 X66.7278 Y-75.4675
G01 X66.7438 Y-75.4861
G01 X66.7589 Y-75.5054
G01 X66.7730 Y-75.5255
G01 X66.7861 Y-75.5462
G01 X66.7982 Y-75.5675
G01 X66.8092 Y-75.5895
G01 X66.8192 Y-75.6119
G01 X66.8280 Y-75.6348
G01 X66.8357 Y-75.6580
G01 X66.8422 Y-75.6817
G01 X66.8476 Y-75.7056
G01 X66.8518 Y-75.7298
G01 X66.8548 Y-75.7541
G01 X66.8566 Y-75.7786
G01 X66.8572 Y-75.8031
G01 X66.8566 Y-75.8276
G01 X66.8548 Y-75.8521
G01 X66.8518 Y-75.8764
G01 X66.8476 Y-75.9006
G01 X66.8422 Y-75.9245
G01 X66.8357 Y-75.9482
G01 X66.8280 Y-75.9714
G01 X66.8192 Y-75.9943
G01 X66.8092 Y-76.0167
G01 X66.7982 Y-76.0387
G01 X66.7861 Y-76.0600
G01 X66.7730 Y-76.0807
G01 X66.7589 Y-76.1008
G01 X66.7438 Y-76.1201
G01 X66.7278 Y-76.1387
G01 X66.7108 Y-76.1564
G01 X66.6931 Y-76.1734
G01 X66.6745 Y-76.1894
G01 X66.6552 Y-76.2045
G01 X66.6351 Y-76.2186
G01 X66.6144 Y-76.2317
G01 X66.5931 Y-76.2438
G01 X66.5711 Y-76.2548
G01 X66.5487 Y-76.2648
G01 X66.5258 Y-76.2736
G01 X66.5026 Y-76.2813
G01 X66.4789 Y-76.2878
G01 X66.4550 Y-76.2932
G01 X66.4308 Y-76.2974
G01 X66.4065 Y-76.3004
G01 X66.3820 Y-76.3022
G01 X66.3575 Y-76.3028
G01 X66.3330 Y-76.3022
G01 X66.3085 Y-76.3004
G01 X66.2842 Y-76.2974
G01 X66.2600 Y-76.2932
G01 X66.2361 Y-76.2878
G01 X66.2124 Y-76.2813
G01 X66.1892 Y-76.2736
G01 X66.1663 Y-76.2648
G01 X66.1439 Y-76.2548
G01 X66.1219 Y-76.2438
G01 X66.1006 Y-76.2317
G01 X66.0799 Y-76.2186
G01 X66.0598 Y-76.2045
G01 X66.0405 Y-76.1894
G01 X66.0219 Y-76.1734
G01 X66.0042 Y-76.1564
G01 X65.9872 Y-76.1387
G01 X65.9712 Y-76.1201
G01 X65.9561 Y-76.1008
G01 X65.9420 Y-76.0807
G01 X65.9289 Y-76.0600
G01 X65.9168 Y-76.0387
G01 X65.9058 Y-76.0167
G01 X65.8958 Y-75.9943
G01 X65.8870 Y-75.9714
G01 X65.8793 Y-75.9482
G01 X65.8728 Y-75.9245
G01 X65.8674 Y-75.9006
G01 X65.8632 Y-75.8764
G01 X65.8602 Y-75.8521
G01 X65.8584 Y-75.8276
G01 X65.8578 Y-75.8031
G01 X65.8584 Y-75.7786
G01 X65.8602 Y-75.7541
G01 X65.8632 Y-75.7298
G01 X65.8674 Y-75.7056
G00 Z2.0000
G00 X64.3541 Y-16.1900
G01 F70.00
G01 Z-0.0800
G01 F120.00
G01 X64.3767 Y-16.1576
G01 X64.3966 Y-16.1267
G01 X64.4153 Y-16.0950
G01 X64.4329 Y-16.0626
G01 X64.4492 Y-16.0296
G01 X64.4643 Y-15.9961
G01 X64.4782 Y-15.9620
G01 X64.4908 Y-15.9274
G01 X64.5022 Y-15.8924
G01 X64.5122 Y-15.8569
G01 X64.5209 Y-15.8212
G01 X64.5283 Y-15.7851
G01 X64.5344 Y-15.7488
G01 X64.5391 Y-15.7123
G01 X64.5425 Y-15.6756
G01 X64.5445 Y-15.6389
G01 X64.5452 Y-15.6021
G01 X64.5452 Y-10.4915
G01 X70.3826 Y-10.4915
G01 X70.4439 Y-10.4896
G01 X70.4806 Y-10.4867
G01 X70.5172 Y-10.4824
G01 X70.5777 Y-10.4723
G01 X70.6137 Y-10.4645
G01 X70.6448 Y-10.4565
G01 X70.7079 Y-10.4842
G01 X70.7719 Y-10.5092
G01 X70.8065 Y-10.5218
G01 X70.8656 Y-10.5414
G01 X70.8656 Y-16.4944
G01 X64.5042 Y-16.4944
G01 X64.4908 Y-16.4526
G01 X64.4782 Y-16.4180
G01 X64.4643 Y-16.3839
G01 X64.4439 Y-16.3393
G01 X64.4271 Y-16.3065
G01 X64.4030 Y-16.2638
G01 X64.3767 Y-16.2224
G01 X64.3541 Y-16.1900
G00 Z2.0000
G00 X65.5452 Y-15.4944
G01 F70.00
G01 Z-0.0800
G01 F120.00
G01 X65.5452 Y-11.4915
G01 X69.8656 Y-11.4915
G01 X69.8656 Y-15.4944
G01 X65.5452 Y-15.4944
G00 Z2.0000
G00 X66.5452 Y-14.4944
G01 F70.00
G01 Z-0.0800
G01 F120.00
G01 X66.5452 Y-12.4915
G01 X68.8656 Y-12.4915
G01 X68.8656 Y-14.4944
G01 X66.5452 Y-14.4944
G00 Z2.0000
G00 X67.5452 Y-13.4944
G01 F70.00
G01 Z-0.0800
G01 F120.00
G01 X67.5452 Y-13.4915
G01 X67.8656 Y-13.4915
G01 X67.8656 Y-13.4944
G01 X67.5452 Y-13.4944
G00 Z2.0000
G00 X66.8572 Y-4.4847
G01 F70.00
G01 Z-0.0800
G01 F120.00
G01 X66.8566 Y-4.5092
G01 X66.8548 Y-4.5337
G01 X66.8518 Y-4.5580
G01 X66.8476 Y-4.5822
G01 X66.8422 Y-4.6061
G01 X66.8357 Y-4.6298
G01 X66.8280 Y-4.6530
G01 X66.8192 Y-4.6759
G01 X66.8092 Y-4.6983
G01 X66.7982 Y-4.7203
G01 X66.7861 Y-4.7416
G01 X66.7730 Y-4.7623
G01 X66.7589 Y-4.7824
G01 X66.7438 Y-4.8017
G01 X66.7278 Y-4.8203
G01 X66.7108 Y-4.8380
G01 X66.6931 Y-4.8550
G01 X66.6745 Y-4.8710
G01 X66.6552 Y-4.8861
G01 X66.6351 Y-4.9002
G01 X66.6144 Y-4.9133
G01 X66.5931 Y-4.9254
G01 X66.5711 Y-4.9364
G01 X66.5487 Y-4.9464
G01 X66.5258 Y-4.9552
G01 X66.5026 Y-4.9629
G01 X66.4789 Y-4.9694
G01 X66.4550 Y-4.9748
G01 X66.4308 Y-4.9790
G01 X66.4065 Y-4.9820
G01 X66.3820 Y-4.9838
G01 X66.3575 Y-4.9844
G01 X66.3330 Y-4.9838
G01 X66.3085 Y-4.9820
G01 X66.2842 Y-4.9790
G01 X66.2600 Y-4.9748
G01 X66.2361 Y-4.9694
G01 X66.2124 Y-4.9629
G01 X66.1892 Y-4.9552
G01 X66.1663 Y-4.9464
G01 X66.1439 Y-4.9364
G01 X66.1219 Y-4.9254
G01 X66.1006 Y-4.9133
G01 X66.0799 Y-4.9002
G01 X66.0598 Y-4.8861
G01 X66.0405 Y-4.8710
G01 X66.0219 Y-4.8550
G01 X66.0042 Y-4.8380
G01 X65.9872 Y-4.8203
G01 X65.9712 Y-4.8017
G01 X65.9561 Y-4.7824
G01 X65.9420 Y-4.7623
G01 X65.9289 Y-4.7416
G01 X65.9168 Y-4.7203
G01 X65.9058 Y-4.6983
G01 X65.8958 Y-4.6759
G01 X65.8870 Y-4.6530
G01 X65.8793 Y-4.6298
G01 X65.8728 Y-4.6061
G01 X65.8674 Y-4.5822
G01 X65.8632 Y-4.5580
G01 X65.8602 Y-4.5337
G01 X65.8584 Y-4.5092
G01 X65.8578 Y-4.4847
G01 X65.8584 Y-4.4602
G01 X65.8602 Y-4.4357
G01 X65.8632 Y-4.4114
G01 X65.8674 Y-4.3872
G01 X65.8728 Y-4.3633
G01 X65.8793 Y-4.3396
G01 X65.8870 Y-4.3164
G01 X65.8958 Y-4.2935
G01 X65.9058 Y-4.2711
G01 X65.9168 Y-4.2491
G01 X65.9289 Y-4.2278
G01 X65.9420 Y-4.2071
G01 X65.9561 Y-4.1870
G01 X65.9712 Y-4.1677
G01 X65.9872 Y-4.1491
G01 X66.0042 Y-4.1314
G01 X66.0219 Y-4.1144
G01 X66.0405 Y-4.0984
G01 X66.0598 Y-4.0833
G01 X66.0799 Y-4.0692
G01 X66.1006 Y-4.0561
G01 X66.1219 Y-4.0440
G01 X66.1439 Y-4.0330
G01 X66.1663 Y-4.0230
G01 X66.1892 Y-4.0142
G01 X66.2124 Y-4.0065
G01 X66.2361 Y-4.0000
G01 X66.2600 Y-3.9946
G01 X66.2842 Y-3.9904
G01 X66.3085 Y-3.9874
G01 X66.3330 Y-3.9856
G01 X66.3575 Y-3.9850
G01 X66.3820 Y-3.9856
G01 X66.4065 Y-3.9874
G01 X66.4308 Y-3.9904
G01 X66.4550 Y-3.9946
G01 X66.4789 Y-4.0000
G01 X66.5026 Y-4.0065
G01 X66.5258 Y-4.0142
G01 X66.5487 Y-4.0230
G01 X66.5711 Y-4.0330
G01 X66.5931 Y-4.0440
G01 X66.6144 Y-4.0561
G01 X66.6351 Y-4.0692
G01 X66.6552 Y-4.0833
G01 X66.6745 Y-4.0984
G01 X66.6931 Y-4.1144
G01 X66.7108 Y-4.1314
G01 X66.7278 Y-4.1491
G01 X66.7438 Y-4.1677
G01 X66.7589 Y-4.1870
G01 X66.7730 Y-4.2071
G01 X66.7861 Y-4.2278
G01 X66.7982 Y-4.2491
G01 X66.8092 Y-4.2711
G01 X66.8192 Y-4.2935
G01 X66.8280 Y-4.3164
G01 X66.8357 Y-4.3396
G01 X66.8422 Y-4.3633
G01 X66.8476 Y-4.3872
G01 X66.8518 Y-4.4114
G01 X66.8548 Y-4.4357
G01 X66.8566 Y-4.4602
G01 X66.8572 Y-4.4847
G00 Z2.0000
G00 X41.9872 Y-10.5596
G01 F70.00
G01 Z-0.0800
G01 F120.00
G01 X41.9872 Y-10.5567
G01 X42.3076 Y-10.5567
G01 X42.3076 Y-10.5596
G01 X41.9872 Y-10.5596
G00 Z2.0000
G00 X40.9872 Y-11.5596
G01 F70.00
G01 Z-0.0800
G01 F120.00
G01 X40.9872 Y-9.5567
G01 X43.3076 Y-9.5567
G01 X43.3076 Y-11.5596
G01 X40.9872 Y-11.5596
G00 Z2.0000
G00 X39.9872 Y-12.5596
G01 F70.00
G01 Z-0.0800
G01 F120.00
G01 X39.9872 Y-8.5567
G01 X44.3076 Y-8.5567
G01 X44.3076 Y-12.5596
G01 X39.9872 Y-12.5596
G00 Z2.0000
G00 X38.9872 Y-7.5567
G01 F70.00
G01 Z-0.0800
G01 F120.00
G01 X45.3076 Y-7.5567
G01 X45.3076 Y-13.5596
G01 X38.9872 Y-13.5596
G01 X38.9872 Y-7.5567
G00 Z2.0000
M05
G00 Z2.0000
G00 Z25.00

