(G-CODE GENERATED BY FLATCAM v8.993 - www.flatcam.org - Version Date: 2020/06/05)

(Name: Karat3_134K03_TX.drl_cnc)
(Type: G-code from Excellon)
(Units: MM)

(Created on Wednesday, 23 December 2020 at 20:21)

(This preprocessor is the default preprocessor used by FlatCAM.)
(It is made to work with MACH3 compatible motion controllers.)


(TOOLS DIAMETER: )
(Tool: 1 -> Dia: 0.6)
(Tool: 2 -> Dia: 0.8)
(Tool: 3 -> Dia: 1.0)
(Tool: 4 -> Dia: 2.0)
(Tool: 5 -> Dia: 3.0)

(FEEDRATE Z: )
(Tool: 1 -> Feedrate: 70.0)
(Tool: 2 -> Feedrate: 70.0)
(Tool: 3 -> Feedrate: 70.0)
(Tool: 4 -> Feedrate: 70.0)
(Tool: 5 -> Feedrate: 70.0)

(FEEDRATE RAPIDS: )
(Tool: 1 -> Feedrate Rapids: 1500)
(Tool: 2 -> Feedrate Rapids: 1500)
(Tool: 3 -> Feedrate Rapids: 1500)
(Tool: 4 -> Feedrate Rapids: 1500)
(Tool: 5 -> Feedrate Rapids: 1500)

(Z_CUT: )
(Tool: 1 -> Z_Cut: -1.8)
(Tool: 2 -> Z_Cut: -1.8)
(Tool: 3 -> Z_Cut: -1.8)
(Tool: 4 -> Z_Cut: -1.8)
(Tool: 5 -> Z_Cut: -1.8)

(Tools Offset: )
(Tool: 1 -> Offset Z: -0.0)
(Tool: 2 -> Offset Z: -0.0)
(Tool: 3 -> Offset Z: -0.0)
(Tool: 4 -> Offset Z: -0.0)

(Z_MOVE: )
(Tool: 1 -> Z_Move: 2)
(Tool: 2 -> Z_Move: 2)
(Tool: 3 -> Z_Move: 2)
(Tool: 4 -> Z_Move: 2)
(Tool: 5 -> Z_Move: 2)

(Z Toolchange: 5.0 mm)
(X,Y Toolchange: 0.00, 0.00 mm)
(Z Start: None mm)
(Z End: 2.0 mm)
(Steps per circle: 128)
(Preprocessor Excellon: default)

(X range:    1.2100 ...   73.4000  mm)
(Y range:  -77.3000 ...   -1.7000  mm)

(Spindle Speed: 10000.0 RPM)
G21
G90
G94



G01 F70.00

M5
G00 Z5.0000
T1
G00 X0.0000 Y0.0000                
M6
(MSG, Change to Tool Dia = 0.60 ||| Total drills for tool T1 = 81)
M0
G00 Z5.0000

M03 S10000
G00 X33.1800 Y-50.9200
G01 Z-1.8000
G01 Z0
G00 Z2.0000
G00 X44.4500 Y-50.9200
G01 Z-1.8000
G01 Z0
G00 Z2.0000
G00 X52.9400 Y-54.0900
G01 Z-1.8000
G01 Z0
G00 Z2.0000
G00 X52.9400 Y-56.2700
G01 Z-1.8000
G01 Z0
G00 Z2.0000
G00 X52.9400 Y-58.4600
G01 Z-1.8000
G01 Z0
G00 Z2.0000
G00 X52.9400 Y-62.1500
G01 Z-1.8000
G01 Z0
G00 Z2.0000
G00 X52.9400 Y-64.3300
G01 Z-1.8000
G01 Z0
G00 Z2.0000
G00 X52.9400 Y-66.5100
G01 Z-1.8000
G01 Z0
G00 Z2.0000
G00 X57.6300 Y-66.5100
G01 Z-1.8000
G01 Z0
G00 Z2.0000
G00 X57.6300 Y-62.1500
G01 Z-1.8000
G01 Z0
G00 Z2.0000
G00 X57.6300 Y-58.4600
G01 Z-1.8000
G01 Z0
G00 Z2.0000
G00 X62.6800 Y-61.2500
G01 Z-1.8000
G01 Z0
G00 Z2.0000
G00 X72.2300 Y-72.3100
G01 Z-1.8000
G01 Z0
G00 Z2.0000
G00 X69.1300 Y-58.3400
G01 Z-1.8000
G01 Z0
G00 Z2.0000
G00 X62.6800 Y-58.7500
G01 Z-1.8000
G01 Z0
G00 Z2.0000
G00 X62.6800 Y-56.2500
G01 Z-1.8000
G01 Z0
G00 Z2.0000
G00 X57.6300 Y-54.0900
G01 Z-1.8000
G01 Z0
G00 Z2.0000
G00 X57.7800 Y-49.5300
G01 Z-1.8000
G01 Z0
G00 Z2.0000
G00 X62.8600 Y-49.5300
G01 Z-1.8000
G01 Z0
G00 Z2.0000
G00 X62.8600 Y-44.4500
G01 Z-1.8000
G01 Z0
G00 Z2.0000
G00 X63.0200 Y-41.2700
G01 Z-1.8000
G01 Z0
G00 Z2.0000
G00 X62.8200 Y-38.3000
G01 Z-1.8000
G01 Z0
G00 Z2.0000
G00 X73.1000 Y-39.6100
G01 Z-1.8000
G01 Z0
G00 Z2.0000
G00 X69.0900 Y-33.8900
G01 Z-1.8000
G01 Z0
G00 Z2.0000
G00 X62.8200 Y-33.2200
G01 Z-1.8000
G01 Z0
G00 Z2.0000
G00 X61.2400 Y-24.3700
G01 Z-1.8000
G01 Z0
G00 Z2.0000
G00 X58.7400 Y-24.3700
G01 Z-1.8000
G01 Z0
G00 Z2.0000
G00 X56.2000 Y-18.8900
G01 Z-1.8000
G01 Z0
G00 Z2.0000
G00 X58.7000 Y-18.8900
G01 Z-1.8000
G01 Z0
G00 Z2.0000
G00 X61.2000 Y-18.8900
G01 Z-1.8000
G01 Z0
G00 Z2.0000
G00 X62.3900 Y-16.1900
G01 Z-1.8000
G01 Z0
G00 Z2.0000
G00 X65.2100 Y-16.0700
G01 Z-1.8000
G01 Z0
G00 Z2.0000
G00 X71.4400 Y-21.1900
G01 Z-1.8000
G01 Z0
G00 Z2.0000
G00 X70.2900 Y-16.0700
G01 Z-1.8000
G01 Z0
G00 Z2.0000
G00 X70.2900 Y-10.9900
G01 Z-1.8000
G01 Z0
G00 Z2.0000
G00 X71.4400 Y-8.7300
G01 Z-1.8000
G01 Z0
G00 Z2.0000
G00 X70.0000 Y-2.0000
G01 Z-1.8000
G01 Z0
G00 Z2.0000
G00 X65.2100 Y-10.9900
G01 Z-1.8000
G01 Z0
G00 Z2.0000
G00 X57.0300 Y-7.0600
G01 Z-1.8000
G01 Z0
G00 Z2.0000
G00 X48.2600 Y-6.0300
G01 Z-1.8000
G01 Z0
G00 Z2.0000
G00 X44.7300 Y-8.0600
G01 Z-1.8000
G01 Z0
G00 Z2.0000
G00 X39.6500 Y-4.4800
G01 Z-1.8000
G01 Z0
G00 Z2.0000
G00 X33.7700 Y-4.4000
G01 Z-1.8000
G01 Z0
G00 Z2.0000
G00 X39.6500 Y-8.0600
G01 Z-1.8000
G01 Z0
G00 Z2.0000
G00 X39.6500 Y-13.1400
G01 Z-1.8000
G01 Z0
G00 Z2.0000
G00 X44.7300 Y-13.1400
G01 Z-1.8000
G01 Z0
G00 Z2.0000
G00 X48.2600 Y-13.1800
G01 Z-1.8000
G01 Z0
G00 Z2.0000
G00 X49.3700 Y-19.2100
G01 Z-1.8000
G01 Z0
G00 Z2.0000
G00 X49.6100 Y-22.1800
G01 Z-1.8000
G01 Z0
G00 Z2.0000
G00 X56.2400 Y-24.3700
G01 Z-1.8000
G01 Z0
G00 Z2.0000
G00 X57.1500 Y-29.6800
G01 Z-1.8000
G01 Z0
G00 Z2.0000
G00 X57.7400 Y-33.2200
G01 Z-1.8000
G01 Z0
G00 Z2.0000
G00 X57.7400 Y-38.3000
G01 Z-1.8000
G01 Z0
G00 Z2.0000
G00 X57.7800 Y-44.4500
G01 Z-1.8000
G01 Z0
G00 Z2.0000
G00 X54.0500 Y-41.9900
G01 Z-1.8000
G01 Z0
G00 Z2.0000
G00 X36.3500 Y-38.6900
G01 Z-1.8000
G01 Z0
G00 Z2.0000
G00 X35.5200 Y-29.6800
G01 Z-1.8000
G01 Z0
G00 Z2.0000
G00 X26.4700 Y-23.4500
G01 Z-1.8000
G01 Z0
G00 Z2.0000
G00 X23.9300 Y-23.4500
G01 Z-1.8000
G01 Z0
G00 Z2.0000
G00 X23.9700 Y-25.5600
G01 Z-1.8000
G01 Z0
G00 Z2.0000
G00 X21.3900 Y-23.4500
G01 Z-1.8000
G01 Z0
G00 Z2.0000
G00 X21.3900 Y-18.3700
G01 Z-1.8000
G01 Z0
G00 Z2.0000
G00 X23.9300 Y-18.3700
G01 Z-1.8000
G01 Z0
G00 Z2.0000
G00 X26.4700 Y-18.3700
G01 Z-1.8000
G01 Z0
G00 Z2.0000
G00 X28.8100 Y-18.8100
G01 Z-1.8000
G01 Z0
G00 Z2.0000
G00 X33.8000 Y-18.5700
G01 Z-1.8000
G01 Z0
G00 Z2.0000
G00 X28.5600 Y-14.2100
G01 Z-1.8000
G01 Z0
G00 Z2.0000
G00 X22.5400 Y-6.3900
G01 Z-1.8000
G01 Z0
G00 Z2.0000
G00 X18.7300 Y-8.2900
G01 Z-1.8000
G01 Z0
G00 Z2.0000
G00 X18.7300 Y-6.3900
G01 Z-1.8000
G01 Z0
G00 Z2.0000
G00 X18.7300 Y-4.4800
G01 Z-1.8000
G01 Z0
G00 Z2.0000
G00 X15.8300 Y-6.0300
G01 Z-1.8000
G01 Z0
G00 Z2.0000
G00 X11.1500 Y-5.3600
G01 Z-1.8000
G01 Z0
G00 Z2.0000
G00 X8.7300 Y-5.7100
G01 Z-1.8000
G01 Z0
G00 Z2.0000
G00 X2.0000 Y-2.0000
G01 Z-1.8000
G01 Z0
G00 Z2.0000
G00 X5.2400 Y-7.6200
G01 Z-1.8000
G01 Z0
G00 Z2.0000
G00 X6.1500 Y-10.0400
G01 Z-1.8000
G01 Z0
G00 Z2.0000
G00 X8.1700 Y-11.7400
G01 Z-1.8000
G01 Z0
G00 Z2.0000
G00 X13.8100 Y-12.3800
G01 Z-1.8000
G01 Z0
G00 Z2.0000
G00 X16.9800 Y-19.4400
G01 Z-1.8000
G01 Z0
G00 Z2.0000
G00 X1.5100 Y-33.1800
G01 Z-1.8000
G01 Z0
G00 Z2.0000
G01 F70.00

M5
G00 Z5.0000
T2
G00 X0.0000 Y0.0000                
M6
(MSG, Change to Tool Dia = 0.80 ||| Total drills for tool T2 = 29)
M0
G00 Z5.0000

M03 S10000
G00 X27.6500 Y-50.0500
G01 Z-1.8000
G01 Z0
G00 Z2.0000
G00 X27.6500 Y-45.0500
G01 Z-1.8000
G01 Z0
G00 Z2.0000
G00 X27.1100 Y-34.3700
G01 Z-1.8000
G01 Z0
G00 Z2.0000
G00 X27.1100 Y-31.8300
G01 Z-1.8000
G01 Z0
G00 Z2.0000
G00 X10.1300 Y-24.1300
G01 Z-1.8000
G01 Z0
G00 Z2.0000
G00 X10.8700 Y-27.4600
G01 Z-1.8000
G01 Z0
G00 Z2.0000
G00 X10.4400 Y-32.0700
G01 Z-1.8000
G01 Z0
G00 Z2.0000
G00 X4.6800 Y-31.3500
G01 Z-1.8000
G01 Z0
G00 Z2.0000
G00 X2.3800 Y-24.1300
G01 Z-1.8000
G01 Z0
G00 Z2.0000
G00 X3.3900 Y-20.5400
G01 Z-1.8000
G01 Z0
G00 Z2.0000
G00 X8.7400 Y-20.7100
G01 Z-1.8000
G01 Z0
G00 Z2.0000
G00 X8.7400 Y-18.1700
G01 Z-1.8000
G01 Z0
G00 Z2.0000
G00 X3.3900 Y-5.5000
G01 Z-1.8000
G01 Z0
G00 Z2.0000
G00 X52.3300 Y-8.9800
G01 Z-1.8000
G01 Z0
G00 Z2.0000
G00 X52.3300 Y-16.7300
G01 Z-1.8000
G01 Z0
G00 Z2.0000
G00 X50.0100 Y-33.2600
G01 Z-1.8000
G01 Z0
G00 Z2.0000
G00 X52.5500 Y-33.2600
G01 Z-1.8000
G01 Z0
G00 Z2.0000
G00 X52.5500 Y-35.8000
G01 Z-1.8000
G01 Z0
G00 Z2.0000
G00 X50.0100 Y-35.8000
G01 Z-1.8000
G01 Z0
G00 Z2.0000
G00 X45.0800 Y-41.7900
G01 Z-1.8000
G01 Z0
G00 Z2.0000
G00 X49.9600 Y-45.1300
G01 Z-1.8000
G01 Z0
G00 Z2.0000
G00 X49.9600 Y-50.1300
G01 Z-1.8000
G01 Z0
G00 Z2.0000
G00 X66.5000 Y-58.0000
G01 Z-1.8000
G01 Z0
G00 Z2.0000
G00 X72.2300 Y-61.6700
G01 Z-1.8000
G01 Z0
G00 Z2.0000
G00 X66.5000 Y-65.7500
G01 Z-1.8000
G01 Z0
G00 Z2.0000
G00 X62.2700 Y-66.4400
G01 Z-1.8000
G01 Z0
G00 Z2.0000
G00 X59.6900 Y-76.8400
G01 Z-1.8000
G01 Z0
G00 Z2.0000
G00 X38.9500 Y-50.1100
G01 Z-1.8000
G01 Z0
G00 Z2.0000
G00 X38.9500 Y-45.1100
G01 Z-1.8000
G01 Z0
G00 Z2.0000
G01 F70.00

M5
G00 Z5.0000
T3
G00 X0.0000 Y0.0000                
M6
(MSG, Change to Tool Dia = 1.00 ||| Total drills for tool T3 = 9)
M0
G00 Z5.0000

M03 S10000
G00 X39.9300 Y-37.1100
G01 Z-1.8000
G01 Z0
G00 Z2.0000
G00 X42.4700 Y-37.1100
G01 Z-1.8000
G01 Z0
G00 Z2.0000
G00 X45.0100 Y-37.1100
G01 Z-1.8000
G01 Z0
G00 Z2.0000
G00 X70.7400 Y-25.7800
G01 Z-1.8000
G01 Z0
G00 Z2.0000
G00 X70.7400 Y-28.3200
G01 Z-1.8000
G01 Z0
G00 Z2.0000
G00 X70.7400 Y-30.8600
G01 Z-1.8000
G01 Z0
G00 Z2.0000
G00 X70.7400 Y-49.9100
G01 Z-1.8000
G01 Z0
G00 Z2.0000
G00 X70.7400 Y-52.4500
G01 Z-1.8000
G01 Z0
G00 Z2.0000
G00 X70.7400 Y-54.9900
G01 Z-1.8000
G01 Z0
G00 Z2.0000
G01 F70.00

M5
G00 Z5.0000
T4
G00 X0.0000 Y0.0000                
M6
(MSG, Change to Tool Dia = 2.00 ||| Total drills for tool T4 = 4)
M0
G00 Z5.0000

M03 S10000
G00 X15.0800 Y-32.1100
G01 Z-1.8000
G01 Z0
G00 Z2.0000
G00 X4.8400 Y-27.3400
G01 Z-1.8000
G01 Z0
G00 Z2.0000
G00 X37.0000 Y-41.0000
G01 Z-1.8000
G01 Z0
G00 Z2.0000
G00 X55.0900 Y-70.6000
G01 Z-1.8000
G01 Z0
G00 Z2.0000
M05
G00 Z2.00

