(G-CODE GENERATED BY FLATCAM v8.993 - www.flatcam.org - Version Date: 2020/06/05)

(Name: Karat3_134K03_TX.drl3mm_cnc)
(Type: G-code from Geometry)
(Units: MM)

(Created on Wednesday, 23 December 2020 at 23:11)

(This preprocessor is the default preprocessor used by FlatCAM.)
(It is made to work with MACH3 compatible motion controllers.)

(TOOL DIAMETER: 2.0 mm)
(Feedrate_XY: 120.0 mm/min)
(Feedrate_Z: 70.0 mm/min)
(Feedrate rapids 1500.0 mm/min)

(Z_Cut: -1.7 mm)
(DepthPerCut: 0.10000000000000014 mm <=>17 passes)
(Z_Move: 2.0 mm)
(Z Start: None mm)
(Z End: 25.0 mm)
(Steps per circle: 128)
(Preprocessor Geometry: default)

(X range:   65.8600 ...   66.8600  mm)
(Y range:  -76.3000 ...   -3.9800  mm)

(Spindle Speed: 10000 RPM)
G21
G90
G94



G01 F120.00
G00 Z2.0000

M03 S10000
G00 X66.8600 Y-4.4800
G01 F70.00
G01 Z-0.1000
G01 F120.00
G01 X66.8576 Y-4.5290
G01 X66.8504 Y-4.5775
G01 X66.8385 Y-4.6251
G01 X66.8219 Y-4.6713
G01 X66.8010 Y-4.7157
G01 X66.7757 Y-4.7578
G01 X66.7465 Y-4.7972
G01 X66.7136 Y-4.8336
G01 X66.6772 Y-4.8665
G01 X66.6378 Y-4.8957
G01 X66.5957 Y-4.9210
G01 X66.5513 Y-4.9419
G01 X66.5051 Y-4.9585
G01 X66.4575 Y-4.9704
G01 X66.4090 Y-4.9776
G01 X66.3600 Y-4.9800
G01 X66.3110 Y-4.9776
G01 X66.2625 Y-4.9704
G01 X66.2149 Y-4.9585
G01 X66.1687 Y-4.9419
G01 X66.1243 Y-4.9210
G01 X66.0822 Y-4.8957
G01 X66.0428 Y-4.8665
G01 X66.0064 Y-4.8336
G01 X65.9735 Y-4.7972
G01 X65.9443 Y-4.7578
G01 X65.9190 Y-4.7157
G01 X65.8981 Y-4.6713
G01 X65.8815 Y-4.6251
G01 X65.8696 Y-4.5775
G01 X65.8624 Y-4.5290
G01 X65.8600 Y-4.4800
G01 X65.8624 Y-4.4310
G01 X65.8696 Y-4.3825
G01 X65.8815 Y-4.3349
G01 X65.8981 Y-4.2887
G01 X65.9190 Y-4.2443
G01 X65.9443 Y-4.2022
G01 X65.9735 Y-4.1628
G01 X66.0064 Y-4.1264
G01 X66.0428 Y-4.0935
G01 X66.0822 Y-4.0643
G01 X66.1243 Y-4.0390
G01 X66.1687 Y-4.0181
G01 X66.2149 Y-4.0015
G01 X66.2625 Y-3.9896
G01 X66.3110 Y-3.9824
G01 X66.3600 Y-3.9800
G01 X66.4090 Y-3.9824
G01 X66.4575 Y-3.9896
G01 X66.5051 Y-4.0015
G01 X66.5513 Y-4.0181
G01 X66.5957 Y-4.0390
G01 X66.6378 Y-4.0643
G01 X66.6772 Y-4.0935
G01 X66.7136 Y-4.1264
G01 X66.7465 Y-4.1628
G01 X66.7757 Y-4.2022
G01 X66.8010 Y-4.2443
G01 X66.8219 Y-4.2887
G01 X66.8385 Y-4.3349
G01 X66.8504 Y-4.3825
G01 X66.8576 Y-4.4310
G01 X66.8600 Y-4.4800
G00 X66.8600 Y-4.4800
G01 F70.00
G01 Z-0.2000
G01 F120.00
G01 X66.8576 Y-4.5290
G01 X66.8504 Y-4.5775
G01 X66.8385 Y-4.6251
G01 X66.8219 Y-4.6713
G01 X66.8010 Y-4.7157
G01 X66.7757 Y-4.7578
G01 X66.7465 Y-4.7972
G01 X66.7136 Y-4.8336
G01 X66.6772 Y-4.8665
G01 X66.6378 Y-4.8957
G01 X66.5957 Y-4.9210
G01 X66.5513 Y-4.9419
G01 X66.5051 Y-4.9585
G01 X66.4575 Y-4.9704
G01 X66.4090 Y-4.9776
G01 X66.3600 Y-4.9800
G01 X66.3110 Y-4.9776
G01 X66.2625 Y-4.9704
G01 X66.2149 Y-4.9585
G01 X66.1687 Y-4.9419
G01 X66.1243 Y-4.9210
G01 X66.0822 Y-4.8957
G01 X66.0428 Y-4.8665
G01 X66.0064 Y-4.8336
G01 X65.9735 Y-4.7972
G01 X65.9443 Y-4.7578
G01 X65.9190 Y-4.7157
G01 X65.8981 Y-4.6713
G01 X65.8815 Y-4.6251
G01 X65.8696 Y-4.5775
G01 X65.8624 Y-4.5290
G01 X65.8600 Y-4.4800
G01 X65.8624 Y-4.4310
G01 X65.8696 Y-4.3825
G01 X65.8815 Y-4.3349
G01 X65.8981 Y-4.2887
G01 X65.9190 Y-4.2443
G01 X65.9443 Y-4.2022
G01 X65.9735 Y-4.1628
G01 X66.0064 Y-4.1264
G01 X66.0428 Y-4.0935
G01 X66.0822 Y-4.0643
G01 X66.1243 Y-4.0390
G01 X66.1687 Y-4.0181
G01 X66.2149 Y-4.0015
G01 X66.2625 Y-3.9896
G01 X66.3110 Y-3.9824
G01 X66.3600 Y-3.9800
G01 X66.4090 Y-3.9824
G01 X66.4575 Y-3.9896
G01 X66.5051 Y-4.0015
G01 X66.5513 Y-4.0181
G01 X66.5957 Y-4.0390
G01 X66.6378 Y-4.0643
G01 X66.6772 Y-4.0935
G01 X66.7136 Y-4.1264
G01 X66.7465 Y-4.1628
G01 X66.7757 Y-4.2022
G01 X66.8010 Y-4.2443
G01 X66.8219 Y-4.2887
G01 X66.8385 Y-4.3349
G01 X66.8504 Y-4.3825
G01 X66.8576 Y-4.4310
G01 X66.8600 Y-4.4800
G00 X66.8600 Y-4.4800
G01 F70.00
G01 Z-0.3000
G01 F120.00
G01 X66.8576 Y-4.5290
G01 X66.8504 Y-4.5775
G01 X66.8385 Y-4.6251
G01 X66.8219 Y-4.6713
G01 X66.8010 Y-4.7157
G01 X66.7757 Y-4.7578
G01 X66.7465 Y-4.7972
G01 X66.7136 Y-4.8336
G01 X66.6772 Y-4.8665
G01 X66.6378 Y-4.8957
G01 X66.5957 Y-4.9210
G01 X66.5513 Y-4.9419
G01 X66.5051 Y-4.9585
G01 X66.4575 Y-4.9704
G01 X66.4090 Y-4.9776
G01 X66.3600 Y-4.9800
G01 X66.3110 Y-4.9776
G01 X66.2625 Y-4.9704
G01 X66.2149 Y-4.9585
G01 X66.1687 Y-4.9419
G01 X66.1243 Y-4.9210
G01 X66.0822 Y-4.8957
G01 X66.0428 Y-4.8665
G01 X66.0064 Y-4.8336
G01 X65.9735 Y-4.7972
G01 X65.9443 Y-4.7578
G01 X65.9190 Y-4.7157
G01 X65.8981 Y-4.6713
G01 X65.8815 Y-4.6251
G01 X65.8696 Y-4.5775
G01 X65.8624 Y-4.5290
G01 X65.8600 Y-4.4800
G01 X65.8624 Y-4.4310
G01 X65.8696 Y-4.3825
G01 X65.8815 Y-4.3349
G01 X65.8981 Y-4.2887
G01 X65.9190 Y-4.2443
G01 X65.9443 Y-4.2022
G01 X65.9735 Y-4.1628
G01 X66.0064 Y-4.1264
G01 X66.0428 Y-4.0935
G01 X66.0822 Y-4.0643
G01 X66.1243 Y-4.0390
G01 X66.1687 Y-4.0181
G01 X66.2149 Y-4.0015
G01 X66.2625 Y-3.9896
G01 X66.3110 Y-3.9824
G01 X66.3600 Y-3.9800
G01 X66.4090 Y-3.9824
G01 X66.4575 Y-3.9896
G01 X66.5051 Y-4.0015
G01 X66.5513 Y-4.0181
G01 X66.5957 Y-4.0390
G01 X66.6378 Y-4.0643
G01 X66.6772 Y-4.0935
G01 X66.7136 Y-4.1264
G01 X66.7465 Y-4.1628
G01 X66.7757 Y-4.2022
G01 X66.8010 Y-4.2443
G01 X66.8219 Y-4.2887
G01 X66.8385 Y-4.3349
G01 X66.8504 Y-4.3825
G01 X66.8576 Y-4.4310
G01 X66.8600 Y-4.4800
G00 X66.8600 Y-4.4800
G01 F70.00
G01 Z-0.4000
G01 F120.00
G01 X66.8576 Y-4.5290
G01 X66.8504 Y-4.5775
G01 X66.8385 Y-4.6251
G01 X66.8219 Y-4.6713
G01 X66.8010 Y-4.7157
G01 X66.7757 Y-4.7578
G01 X66.7465 Y-4.7972
G01 X66.7136 Y-4.8336
G01 X66.6772 Y-4.8665
G01 X66.6378 Y-4.8957
G01 X66.5957 Y-4.9210
G01 X66.5513 Y-4.9419
G01 X66.5051 Y-4.9585
G01 X66.4575 Y-4.9704
G01 X66.4090 Y-4.9776
G01 X66.3600 Y-4.9800
G01 X66.3110 Y-4.9776
G01 X66.2625 Y-4.9704
G01 X66.2149 Y-4.9585
G01 X66.1687 Y-4.9419
G01 X66.1243 Y-4.9210
G01 X66.0822 Y-4.8957
G01 X66.0428 Y-4.8665
G01 X66.0064 Y-4.8336
G01 X65.9735 Y-4.7972
G01 X65.9443 Y-4.7578
G01 X65.9190 Y-4.7157
G01 X65.8981 Y-4.6713
G01 X65.8815 Y-4.6251
G01 X65.8696 Y-4.5775
G01 X65.8624 Y-4.5290
G01 X65.8600 Y-4.4800
G01 X65.8624 Y-4.4310
G01 X65.8696 Y-4.3825
G01 X65.8815 Y-4.3349
G01 X65.8981 Y-4.2887
G01 X65.9190 Y-4.2443
G01 X65.9443 Y-4.2022
G01 X65.9735 Y-4.1628
G01 X66.0064 Y-4.1264
G01 X66.0428 Y-4.0935
G01 X66.0822 Y-4.0643
G01 X66.1243 Y-4.0390
G01 X66.1687 Y-4.0181
G01 X66.2149 Y-4.0015
G01 X66.2625 Y-3.9896
G01 X66.3110 Y-3.9824
G01 X66.3600 Y-3.9800
G01 X66.4090 Y-3.9824
G01 X66.4575 Y-3.9896
G01 X66.5051 Y-4.0015
G01 X66.5513 Y-4.0181
G01 X66.5957 Y-4.0390
G01 X66.6378 Y-4.0643
G01 X66.6772 Y-4.0935
G01 X66.7136 Y-4.1264
G01 X66.7465 Y-4.1628
G01 X66.7757 Y-4.2022
G01 X66.8010 Y-4.2443
G01 X66.8219 Y-4.2887
G01 X66.8385 Y-4.3349
G01 X66.8504 Y-4.3825
G01 X66.8576 Y-4.4310
G01 X66.8600 Y-4.4800
G00 X66.8600 Y-4.4800
G01 F70.00
G01 Z-0.5000
G01 F120.00
G01 X66.8576 Y-4.5290
G01 X66.8504 Y-4.5775
G01 X66.8385 Y-4.6251
G01 X66.8219 Y-4.6713
G01 X66.8010 Y-4.7157
G01 X66.7757 Y-4.7578
G01 X66.7465 Y-4.7972
G01 X66.7136 Y-4.8336
G01 X66.6772 Y-4.8665
G01 X66.6378 Y-4.8957
G01 X66.5957 Y-4.9210
G01 X66.5513 Y-4.9419
G01 X66.5051 Y-4.9585
G01 X66.4575 Y-4.9704
G01 X66.4090 Y-4.9776
G01 X66.3600 Y-4.9800
G01 X66.3110 Y-4.9776
G01 X66.2625 Y-4.9704
G01 X66.2149 Y-4.9585
G01 X66.1687 Y-4.9419
G01 X66.1243 Y-4.9210
G01 X66.0822 Y-4.8957
G01 X66.0428 Y-4.8665
G01 X66.0064 Y-4.8336
G01 X65.9735 Y-4.7972
G01 X65.9443 Y-4.7578
G01 X65.9190 Y-4.7157
G01 X65.8981 Y-4.6713
G01 X65.8815 Y-4.6251
G01 X65.8696 Y-4.5775
G01 X65.8624 Y-4.5290
G01 X65.8600 Y-4.4800
G01 X65.8624 Y-4.4310
G01 X65.8696 Y-4.3825
G01 X65.8815 Y-4.3349
G01 X65.8981 Y-4.2887
G01 X65.9190 Y-4.2443
G01 X65.9443 Y-4.2022
G01 X65.9735 Y-4.1628
G01 X66.0064 Y-4.1264
G01 X66.0428 Y-4.0935
G01 X66.0822 Y-4.0643
G01 X66.1243 Y-4.0390
G01 X66.1687 Y-4.0181
G01 X66.2149 Y-4.0015
G01 X66.2625 Y-3.9896
G01 X66.3110 Y-3.9824
G01 X66.3600 Y-3.9800
G01 X66.4090 Y-3.9824
G01 X66.4575 Y-3.9896
G01 X66.5051 Y-4.0015
G01 X66.5513 Y-4.0181
G01 X66.5957 Y-4.0390
G01 X66.6378 Y-4.0643
G01 X66.6772 Y-4.0935
G01 X66.7136 Y-4.1264
G01 X66.7465 Y-4.1628
G01 X66.7757 Y-4.2022
G01 X66.8010 Y-4.2443
G01 X66.8219 Y-4.2887
G01 X66.8385 Y-4.3349
G01 X66.8504 Y-4.3825
G01 X66.8576 Y-4.4310
G01 X66.8600 Y-4.4800
G00 X66.8600 Y-4.4800
G01 F70.00
G01 Z-0.6000
G01 F120.00
G01 X66.8576 Y-4.5290
G01 X66.8504 Y-4.5775
G01 X66.8385 Y-4.6251
G01 X66.8219 Y-4.6713
G01 X66.8010 Y-4.7157
G01 X66.7757 Y-4.7578
G01 X66.7465 Y-4.7972
G01 X66.7136 Y-4.8336
G01 X66.6772 Y-4.8665
G01 X66.6378 Y-4.8957
G01 X66.5957 Y-4.9210
G01 X66.5513 Y-4.9419
G01 X66.5051 Y-4.9585
G01 X66.4575 Y-4.9704
G01 X66.4090 Y-4.9776
G01 X66.3600 Y-4.9800
G01 X66.3110 Y-4.9776
G01 X66.2625 Y-4.9704
G01 X66.2149 Y-4.9585
G01 X66.1687 Y-4.9419
G01 X66.1243 Y-4.9210
G01 X66.0822 Y-4.8957
G01 X66.0428 Y-4.8665
G01 X66.0064 Y-4.8336
G01 X65.9735 Y-4.7972
G01 X65.9443 Y-4.7578
G01 X65.9190 Y-4.7157
G01 X65.8981 Y-4.6713
G01 X65.8815 Y-4.6251
G01 X65.8696 Y-4.5775
G01 X65.8624 Y-4.5290
G01 X65.8600 Y-4.4800
G01 X65.8624 Y-4.4310
G01 X65.8696 Y-4.3825
G01 X65.8815 Y-4.3349
G01 X65.8981 Y-4.2887
G01 X65.9190 Y-4.2443
G01 X65.9443 Y-4.2022
G01 X65.9735 Y-4.1628
G01 X66.0064 Y-4.1264
G01 X66.0428 Y-4.0935
G01 X66.0822 Y-4.0643
G01 X66.1243 Y-4.0390
G01 X66.1687 Y-4.0181
G01 X66.2149 Y-4.0015
G01 X66.2625 Y-3.9896
G01 X66.3110 Y-3.9824
G01 X66.3600 Y-3.9800
G01 X66.4090 Y-3.9824
G01 X66.4575 Y-3.9896
G01 X66.5051 Y-4.0015
G01 X66.5513 Y-4.0181
G01 X66.5957 Y-4.0390
G01 X66.6378 Y-4.0643
G01 X66.6772 Y-4.0935
G01 X66.7136 Y-4.1264
G01 X66.7465 Y-4.1628
G01 X66.7757 Y-4.2022
G01 X66.8010 Y-4.2443
G01 X66.8219 Y-4.2887
G01 X66.8385 Y-4.3349
G01 X66.8504 Y-4.3825
G01 X66.8576 Y-4.4310
G01 X66.8600 Y-4.4800
G00 X66.8600 Y-4.4800
G01 F70.00
G01 Z-0.7000
G01 F120.00
G01 X66.8576 Y-4.5290
G01 X66.8504 Y-4.5775
G01 X66.8385 Y-4.6251
G01 X66.8219 Y-4.6713
G01 X66.8010 Y-4.7157
G01 X66.7757 Y-4.7578
G01 X66.7465 Y-4.7972
G01 X66.7136 Y-4.8336
G01 X66.6772 Y-4.8665
G01 X66.6378 Y-4.8957
G01 X66.5957 Y-4.9210
G01 X66.5513 Y-4.9419
G01 X66.5051 Y-4.9585
G01 X66.4575 Y-4.9704
G01 X66.4090 Y-4.9776
G01 X66.3600 Y-4.9800
G01 X66.3110 Y-4.9776
G01 X66.2625 Y-4.9704
G01 X66.2149 Y-4.9585
G01 X66.1687 Y-4.9419
G01 X66.1243 Y-4.9210
G01 X66.0822 Y-4.8957
G01 X66.0428 Y-4.8665
G01 X66.0064 Y-4.8336
G01 X65.9735 Y-4.7972
G01 X65.9443 Y-4.7578
G01 X65.9190 Y-4.7157
G01 X65.8981 Y-4.6713
G01 X65.8815 Y-4.6251
G01 X65.8696 Y-4.5775
G01 X65.8624 Y-4.5290
G01 X65.8600 Y-4.4800
G01 X65.8624 Y-4.4310
G01 X65.8696 Y-4.3825
G01 X65.8815 Y-4.3349
G01 X65.8981 Y-4.2887
G01 X65.9190 Y-4.2443
G01 X65.9443 Y-4.2022
G01 X65.9735 Y-4.1628
G01 X66.0064 Y-4.1264
G01 X66.0428 Y-4.0935
G01 X66.0822 Y-4.0643
G01 X66.1243 Y-4.0390
G01 X66.1687 Y-4.0181
G01 X66.2149 Y-4.0015
G01 X66.2625 Y-3.9896
G01 X66.3110 Y-3.9824
G01 X66.3600 Y-3.9800
G01 X66.4090 Y-3.9824
G01 X66.4575 Y-3.9896
G01 X66.5051 Y-4.0015
G01 X66.5513 Y-4.0181
G01 X66.5957 Y-4.0390
G01 X66.6378 Y-4.0643
G01 X66.6772 Y-4.0935
G01 X66.7136 Y-4.1264
G01 X66.7465 Y-4.1628
G01 X66.7757 Y-4.2022
G01 X66.8010 Y-4.2443
G01 X66.8219 Y-4.2887
G01 X66.8385 Y-4.3349
G01 X66.8504 Y-4.3825
G01 X66.8576 Y-4.4310
G01 X66.8600 Y-4.4800
G00 X66.8600 Y-4.4800
G01 F70.00
G01 Z-0.8000
G01 F120.00
G01 X66.8576 Y-4.5290
G01 X66.8504 Y-4.5775
G01 X66.8385 Y-4.6251
G01 X66.8219 Y-4.6713
G01 X66.8010 Y-4.7157
G01 X66.7757 Y-4.7578
G01 X66.7465 Y-4.7972
G01 X66.7136 Y-4.8336
G01 X66.6772 Y-4.8665
G01 X66.6378 Y-4.8957
G01 X66.5957 Y-4.9210
G01 X66.5513 Y-4.9419
G01 X66.5051 Y-4.9585
G01 X66.4575 Y-4.9704
G01 X66.4090 Y-4.9776
G01 X66.3600 Y-4.9800
G01 X66.3110 Y-4.9776
G01 X66.2625 Y-4.9704
G01 X66.2149 Y-4.9585
G01 X66.1687 Y-4.9419
G01 X66.1243 Y-4.9210
G01 X66.0822 Y-4.8957
G01 X66.0428 Y-4.8665
G01 X66.0064 Y-4.8336
G01 X65.9735 Y-4.7972
G01 X65.9443 Y-4.7578
G01 X65.9190 Y-4.7157
G01 X65.8981 Y-4.6713
G01 X65.8815 Y-4.6251
G01 X65.8696 Y-4.5775
G01 X65.8624 Y-4.5290
G01 X65.8600 Y-4.4800
G01 X65.8624 Y-4.4310
G01 X65.8696 Y-4.3825
G01 X65.8815 Y-4.3349
G01 X65.8981 Y-4.2887
G01 X65.9190 Y-4.2443
G01 X65.9443 Y-4.2022
G01 X65.9735 Y-4.1628
G01 X66.0064 Y-4.1264
G01 X66.0428 Y-4.0935
G01 X66.0822 Y-4.0643
G01 X66.1243 Y-4.0390
G01 X66.1687 Y-4.0181
G01 X66.2149 Y-4.0015
G01 X66.2625 Y-3.9896
G01 X66.3110 Y-3.9824
G01 X66.3600 Y-3.9800
G01 X66.4090 Y-3.9824
G01 X66.4575 Y-3.9896
G01 X66.5051 Y-4.0015
G01 X66.5513 Y-4.0181
G01 X66.5957 Y-4.0390
G01 X66.6378 Y-4.0643
G01 X66.6772 Y-4.0935
G01 X66.7136 Y-4.1264
G01 X66.7465 Y-4.1628
G01 X66.7757 Y-4.2022
G01 X66.8010 Y-4.2443
G01 X66.8219 Y-4.2887
G01 X66.8385 Y-4.3349
G01 X66.8504 Y-4.3825
G01 X66.8576 Y-4.4310
G01 X66.8600 Y-4.4800
G00 X66.8600 Y-4.4800
G01 F70.00
G01 Z-0.9000
G01 F120.00
G01 X66.8576 Y-4.5290
G01 X66.8504 Y-4.5775
G01 X66.8385 Y-4.6251
G01 X66.8219 Y-4.6713
G01 X66.8010 Y-4.7157
G01 X66.7757 Y-4.7578
G01 X66.7465 Y-4.7972
G01 X66.7136 Y-4.8336
G01 X66.6772 Y-4.8665
G01 X66.6378 Y-4.8957
G01 X66.5957 Y-4.9210
G01 X66.5513 Y-4.9419
G01 X66.5051 Y-4.9585
G01 X66.4575 Y-4.9704
G01 X66.4090 Y-4.9776
G01 X66.3600 Y-4.9800
G01 X66.3110 Y-4.9776
G01 X66.2625 Y-4.9704
G01 X66.2149 Y-4.9585
G01 X66.1687 Y-4.9419
G01 X66.1243 Y-4.9210
G01 X66.0822 Y-4.8957
G01 X66.0428 Y-4.8665
G01 X66.0064 Y-4.8336
G01 X65.9735 Y-4.7972
G01 X65.9443 Y-4.7578
G01 X65.9190 Y-4.7157
G01 X65.8981 Y-4.6713
G01 X65.8815 Y-4.6251
G01 X65.8696 Y-4.5775
G01 X65.8624 Y-4.5290
G01 X65.8600 Y-4.4800
G01 X65.8624 Y-4.4310
G01 X65.8696 Y-4.3825
G01 X65.8815 Y-4.3349
G01 X65.8981 Y-4.2887
G01 X65.9190 Y-4.2443
G01 X65.9443 Y-4.2022
G01 X65.9735 Y-4.1628
G01 X66.0064 Y-4.1264
G01 X66.0428 Y-4.0935
G01 X66.0822 Y-4.0643
G01 X66.1243 Y-4.0390
G01 X66.1687 Y-4.0181
G01 X66.2149 Y-4.0015
G01 X66.2625 Y-3.9896
G01 X66.3110 Y-3.9824
G01 X66.3600 Y-3.9800
G01 X66.4090 Y-3.9824
G01 X66.4575 Y-3.9896
G01 X66.5051 Y-4.0015
G01 X66.5513 Y-4.0181
G01 X66.5957 Y-4.0390
G01 X66.6378 Y-4.0643
G01 X66.6772 Y-4.0935
G01 X66.7136 Y-4.1264
G01 X66.7465 Y-4.1628
G01 X66.7757 Y-4.2022
G01 X66.8010 Y-4.2443
G01 X66.8219 Y-4.2887
G01 X66.8385 Y-4.3349
G01 X66.8504 Y-4.3825
G01 X66.8576 Y-4.4310
G01 X66.8600 Y-4.4800
G00 X66.8600 Y-4.4800
G01 F70.00
G01 Z-1.0000
G01 F120.00
G01 X66.8576 Y-4.5290
G01 X66.8504 Y-4.5775
G01 X66.8385 Y-4.6251
G01 X66.8219 Y-4.6713
G01 X66.8010 Y-4.7157
G01 X66.7757 Y-4.7578
G01 X66.7465 Y-4.7972
G01 X66.7136 Y-4.8336
G01 X66.6772 Y-4.8665
G01 X66.6378 Y-4.8957
G01 X66.5957 Y-4.9210
G01 X66.5513 Y-4.9419
G01 X66.5051 Y-4.9585
G01 X66.4575 Y-4.9704
G01 X66.4090 Y-4.9776
G01 X66.3600 Y-4.9800
G01 X66.3110 Y-4.9776
G01 X66.2625 Y-4.9704
G01 X66.2149 Y-4.9585
G01 X66.1687 Y-4.9419
G01 X66.1243 Y-4.9210
G01 X66.0822 Y-4.8957
G01 X66.0428 Y-4.8665
G01 X66.0064 Y-4.8336
G01 X65.9735 Y-4.7972
G01 X65.9443 Y-4.7578
G01 X65.9190 Y-4.7157
G01 X65.8981 Y-4.6713
G01 X65.8815 Y-4.6251
G01 X65.8696 Y-4.5775
G01 X65.8624 Y-4.5290
G01 X65.8600 Y-4.4800
G01 X65.8624 Y-4.4310
G01 X65.8696 Y-4.3825
G01 X65.8815 Y-4.3349
G01 X65.8981 Y-4.2887
G01 X65.9190 Y-4.2443
G01 X65.9443 Y-4.2022
G01 X65.9735 Y-4.1628
G01 X66.0064 Y-4.1264
G01 X66.0428 Y-4.0935
G01 X66.0822 Y-4.0643
G01 X66.1243 Y-4.0390
G01 X66.1687 Y-4.0181
G01 X66.2149 Y-4.0015
G01 X66.2625 Y-3.9896
G01 X66.3110 Y-3.9824
G01 X66.3600 Y-3.9800
G01 X66.4090 Y-3.9824
G01 X66.4575 Y-3.9896
G01 X66.5051 Y-4.0015
G01 X66.5513 Y-4.0181
G01 X66.5957 Y-4.0390
G01 X66.6378 Y-4.0643
G01 X66.6772 Y-4.0935
G01 X66.7136 Y-4.1264
G01 X66.7465 Y-4.1628
G01 X66.7757 Y-4.2022
G01 X66.8010 Y-4.2443
G01 X66.8219 Y-4.2887
G01 X66.8385 Y-4.3349
G01 X66.8504 Y-4.3825
G01 X66.8576 Y-4.4310
G01 X66.8600 Y-4.4800
G00 X66.8600 Y-4.4800
G01 F70.00
G01 Z-1.1000
G01 F120.00
G01 X66.8576 Y-4.5290
G01 X66.8504 Y-4.5775
G01 X66.8385 Y-4.6251
G01 X66.8219 Y-4.6713
G01 X66.8010 Y-4.7157
G01 X66.7757 Y-4.7578
G01 X66.7465 Y-4.7972
G01 X66.7136 Y-4.8336
G01 X66.6772 Y-4.8665
G01 X66.6378 Y-4.8957
G01 X66.5957 Y-4.9210
G01 X66.5513 Y-4.9419
G01 X66.5051 Y-4.9585
G01 X66.4575 Y-4.9704
G01 X66.4090 Y-4.9776
G01 X66.3600 Y-4.9800
G01 X66.3110 Y-4.9776
G01 X66.2625 Y-4.9704
G01 X66.2149 Y-4.9585
G01 X66.1687 Y-4.9419
G01 X66.1243 Y-4.9210
G01 X66.0822 Y-4.8957
G01 X66.0428 Y-4.8665
G01 X66.0064 Y-4.8336
G01 X65.9735 Y-4.7972
G01 X65.9443 Y-4.7578
G01 X65.9190 Y-4.7157
G01 X65.8981 Y-4.6713
G01 X65.8815 Y-4.6251
G01 X65.8696 Y-4.5775
G01 X65.8624 Y-4.5290
G01 X65.8600 Y-4.4800
G01 X65.8624 Y-4.4310
G01 X65.8696 Y-4.3825
G01 X65.8815 Y-4.3349
G01 X65.8981 Y-4.2887
G01 X65.9190 Y-4.2443
G01 X65.9443 Y-4.2022
G01 X65.9735 Y-4.1628
G01 X66.0064 Y-4.1264
G01 X66.0428 Y-4.0935
G01 X66.0822 Y-4.0643
G01 X66.1243 Y-4.0390
G01 X66.1687 Y-4.0181
G01 X66.2149 Y-4.0015
G01 X66.2625 Y-3.9896
G01 X66.3110 Y-3.9824
G01 X66.3600 Y-3.9800
G01 X66.4090 Y-3.9824
G01 X66.4575 Y-3.9896
G01 X66.5051 Y-4.0015
G01 X66.5513 Y-4.0181
G01 X66.5957 Y-4.0390
G01 X66.6378 Y-4.0643
G01 X66.6772 Y-4.0935
G01 X66.7136 Y-4.1264
G01 X66.7465 Y-4.1628
G01 X66.7757 Y-4.2022
G01 X66.8010 Y-4.2443
G01 X66.8219 Y-4.2887
G01 X66.8385 Y-4.3349
G01 X66.8504 Y-4.3825
G01 X66.8576 Y-4.4310
G01 X66.8600 Y-4.4800
G00 X66.8600 Y-4.4800
G01 F70.00
G01 Z-1.2000
G01 F120.00
G01 X66.8576 Y-4.5290
G01 X66.8504 Y-4.5775
G01 X66.8385 Y-4.6251
G01 X66.8219 Y-4.6713
G01 X66.8010 Y-4.7157
G01 X66.7757 Y-4.7578
G01 X66.7465 Y-4.7972
G01 X66.7136 Y-4.8336
G01 X66.6772 Y-4.8665
G01 X66.6378 Y-4.8957
G01 X66.5957 Y-4.9210
G01 X66.5513 Y-4.9419
G01 X66.5051 Y-4.9585
G01 X66.4575 Y-4.9704
G01 X66.4090 Y-4.9776
G01 X66.3600 Y-4.9800
G01 X66.3110 Y-4.9776
G01 X66.2625 Y-4.9704
G01 X66.2149 Y-4.9585
G01 X66.1687 Y-4.9419
G01 X66.1243 Y-4.9210
G01 X66.0822 Y-4.8957
G01 X66.0428 Y-4.8665
G01 X66.0064 Y-4.8336
G01 X65.9735 Y-4.7972
G01 X65.9443 Y-4.7578
G01 X65.9190 Y-4.7157
G01 X65.8981 Y-4.6713
G01 X65.8815 Y-4.6251
G01 X65.8696 Y-4.5775
G01 X65.8624 Y-4.5290
G01 X65.8600 Y-4.4800
G01 X65.8624 Y-4.4310
G01 X65.8696 Y-4.3825
G01 X65.8815 Y-4.3349
G01 X65.8981 Y-4.2887
G01 X65.9190 Y-4.2443
G01 X65.9443 Y-4.2022
G01 X65.9735 Y-4.1628
G01 X66.0064 Y-4.1264
G01 X66.0428 Y-4.0935
G01 X66.0822 Y-4.0643
G01 X66.1243 Y-4.0390
G01 X66.1687 Y-4.0181
G01 X66.2149 Y-4.0015
G01 X66.2625 Y-3.9896
G01 X66.3110 Y-3.9824
G01 X66.3600 Y-3.9800
G01 X66.4090 Y-3.9824
G01 X66.4575 Y-3.9896
G01 X66.5051 Y-4.0015
G01 X66.5513 Y-4.0181
G01 X66.5957 Y-4.0390
G01 X66.6378 Y-4.0643
G01 X66.6772 Y-4.0935
G01 X66.7136 Y-4.1264
G01 X66.7465 Y-4.1628
G01 X66.7757 Y-4.2022
G01 X66.8010 Y-4.2443
G01 X66.8219 Y-4.2887
G01 X66.8385 Y-4.3349
G01 X66.8504 Y-4.3825
G01 X66.8576 Y-4.4310
G01 X66.8600 Y-4.4800
G00 X66.8600 Y-4.4800
G01 F70.00
G01 Z-1.3000
G01 F120.00
G01 X66.8576 Y-4.5290
G01 X66.8504 Y-4.5775
G01 X66.8385 Y-4.6251
G01 X66.8219 Y-4.6713
G01 X66.8010 Y-4.7157
G01 X66.7757 Y-4.7578
G01 X66.7465 Y-4.7972
G01 X66.7136 Y-4.8336
G01 X66.6772 Y-4.8665
G01 X66.6378 Y-4.8957
G01 X66.5957 Y-4.9210
G01 X66.5513 Y-4.9419
G01 X66.5051 Y-4.9585
G01 X66.4575 Y-4.9704
G01 X66.4090 Y-4.9776
G01 X66.3600 Y-4.9800
G01 X66.3110 Y-4.9776
G01 X66.2625 Y-4.9704
G01 X66.2149 Y-4.9585
G01 X66.1687 Y-4.9419
G01 X66.1243 Y-4.9210
G01 X66.0822 Y-4.8957
G01 X66.0428 Y-4.8665
G01 X66.0064 Y-4.8336
G01 X65.9735 Y-4.7972
G01 X65.9443 Y-4.7578
G01 X65.9190 Y-4.7157
G01 X65.8981 Y-4.6713
G01 X65.8815 Y-4.6251
G01 X65.8696 Y-4.5775
G01 X65.8624 Y-4.5290
G01 X65.8600 Y-4.4800
G01 X65.8624 Y-4.4310
G01 X65.8696 Y-4.3825
G01 X65.8815 Y-4.3349
G01 X65.8981 Y-4.2887
G01 X65.9190 Y-4.2443
G01 X65.9443 Y-4.2022
G01 X65.9735 Y-4.1628
G01 X66.0064 Y-4.1264
G01 X66.0428 Y-4.0935
G01 X66.0822 Y-4.0643
G01 X66.1243 Y-4.0390
G01 X66.1687 Y-4.0181
G01 X66.2149 Y-4.0015
G01 X66.2625 Y-3.9896
G01 X66.3110 Y-3.9824
G01 X66.3600 Y-3.9800
G01 X66.4090 Y-3.9824
G01 X66.4575 Y-3.9896
G01 X66.5051 Y-4.0015
G01 X66.5513 Y-4.0181
G01 X66.5957 Y-4.0390
G01 X66.6378 Y-4.0643
G01 X66.6772 Y-4.0935
G01 X66.7136 Y-4.1264
G01 X66.7465 Y-4.1628
G01 X66.7757 Y-4.2022
G01 X66.8010 Y-4.2443
G01 X66.8219 Y-4.2887
G01 X66.8385 Y-4.3349
G01 X66.8504 Y-4.3825
G01 X66.8576 Y-4.4310
G01 X66.8600 Y-4.4800
G00 X66.8600 Y-4.4800
G01 F70.00
G01 Z-1.4000
G01 F120.00
G01 X66.8576 Y-4.5290
G01 X66.8504 Y-4.5775
G01 X66.8385 Y-4.6251
G01 X66.8219 Y-4.6713
G01 X66.8010 Y-4.7157
G01 X66.7757 Y-4.7578
G01 X66.7465 Y-4.7972
G01 X66.7136 Y-4.8336
G01 X66.6772 Y-4.8665
G01 X66.6378 Y-4.8957
G01 X66.5957 Y-4.9210
G01 X66.5513 Y-4.9419
G01 X66.5051 Y-4.9585
G01 X66.4575 Y-4.9704
G01 X66.4090 Y-4.9776
G01 X66.3600 Y-4.9800
G01 X66.3110 Y-4.9776
G01 X66.2625 Y-4.9704
G01 X66.2149 Y-4.9585
G01 X66.1687 Y-4.9419
G01 X66.1243 Y-4.9210
G01 X66.0822 Y-4.8957
G01 X66.0428 Y-4.8665
G01 X66.0064 Y-4.8336
G01 X65.9735 Y-4.7972
G01 X65.9443 Y-4.7578
G01 X65.9190 Y-4.7157
G01 X65.8981 Y-4.6713
G01 X65.8815 Y-4.6251
G01 X65.8696 Y-4.5775
G01 X65.8624 Y-4.5290
G01 X65.8600 Y-4.4800
G01 X65.8624 Y-4.4310
G01 X65.8696 Y-4.3825
G01 X65.8815 Y-4.3349
G01 X65.8981 Y-4.2887
G01 X65.9190 Y-4.2443
G01 X65.9443 Y-4.2022
G01 X65.9735 Y-4.1628
G01 X66.0064 Y-4.1264
G01 X66.0428 Y-4.0935
G01 X66.0822 Y-4.0643
G01 X66.1243 Y-4.0390
G01 X66.1687 Y-4.0181
G01 X66.2149 Y-4.0015
G01 X66.2625 Y-3.9896
G01 X66.3110 Y-3.9824
G01 X66.3600 Y-3.9800
G01 X66.4090 Y-3.9824
G01 X66.4575 Y-3.9896
G01 X66.5051 Y-4.0015
G01 X66.5513 Y-4.0181
G01 X66.5957 Y-4.0390
G01 X66.6378 Y-4.0643
G01 X66.6772 Y-4.0935
G01 X66.7136 Y-4.1264
G01 X66.7465 Y-4.1628
G01 X66.7757 Y-4.2022
G01 X66.8010 Y-4.2443
G01 X66.8219 Y-4.2887
G01 X66.8385 Y-4.3349
G01 X66.8504 Y-4.3825
G01 X66.8576 Y-4.4310
G01 X66.8600 Y-4.4800
G00 X66.8600 Y-4.4800
G01 F70.00
G01 Z-1.5000
G01 F120.00
G01 X66.8576 Y-4.5290
G01 X66.8504 Y-4.5775
G01 X66.8385 Y-4.6251
G01 X66.8219 Y-4.6713
G01 X66.8010 Y-4.7157
G01 X66.7757 Y-4.7578
G01 X66.7465 Y-4.7972
G01 X66.7136 Y-4.8336
G01 X66.6772 Y-4.8665
G01 X66.6378 Y-4.8957
G01 X66.5957 Y-4.9210
G01 X66.5513 Y-4.9419
G01 X66.5051 Y-4.9585
G01 X66.4575 Y-4.9704
G01 X66.4090 Y-4.9776
G01 X66.3600 Y-4.9800
G01 X66.3110 Y-4.9776
G01 X66.2625 Y-4.9704
G01 X66.2149 Y-4.9585
G01 X66.1687 Y-4.9419
G01 X66.1243 Y-4.9210
G01 X66.0822 Y-4.8957
G01 X66.0428 Y-4.8665
G01 X66.0064 Y-4.8336
G01 X65.9735 Y-4.7972
G01 X65.9443 Y-4.7578
G01 X65.9190 Y-4.7157
G01 X65.8981 Y-4.6713
G01 X65.8815 Y-4.6251
G01 X65.8696 Y-4.5775
G01 X65.8624 Y-4.5290
G01 X65.8600 Y-4.4800
G01 X65.8624 Y-4.4310
G01 X65.8696 Y-4.3825
G01 X65.8815 Y-4.3349
G01 X65.8981 Y-4.2887
G01 X65.9190 Y-4.2443
G01 X65.9443 Y-4.2022
G01 X65.9735 Y-4.1628
G01 X66.0064 Y-4.1264
G01 X66.0428 Y-4.0935
G01 X66.0822 Y-4.0643
G01 X66.1243 Y-4.0390
G01 X66.1687 Y-4.0181
G01 X66.2149 Y-4.0015
G01 X66.2625 Y-3.9896
G01 X66.3110 Y-3.9824
G01 X66.3600 Y-3.9800
G01 X66.4090 Y-3.9824
G01 X66.4575 Y-3.9896
G01 X66.5051 Y-4.0015
G01 X66.5513 Y-4.0181
G01 X66.5957 Y-4.0390
G01 X66.6378 Y-4.0643
G01 X66.6772 Y-4.0935
G01 X66.7136 Y-4.1264
G01 X66.7465 Y-4.1628
G01 X66.7757 Y-4.2022
G01 X66.8010 Y-4.2443
G01 X66.8219 Y-4.2887
G01 X66.8385 Y-4.3349
G01 X66.8504 Y-4.3825
G01 X66.8576 Y-4.4310
G01 X66.8600 Y-4.4800
G00 X66.8600 Y-4.4800
G01 F70.00
G01 Z-1.6000
G01 F120.00
G01 X66.8576 Y-4.5290
G01 X66.8504 Y-4.5775
G01 X66.8385 Y-4.6251
G01 X66.8219 Y-4.6713
G01 X66.8010 Y-4.7157
G01 X66.7757 Y-4.7578
G01 X66.7465 Y-4.7972
G01 X66.7136 Y-4.8336
G01 X66.6772 Y-4.8665
G01 X66.6378 Y-4.8957
G01 X66.5957 Y-4.9210
G01 X66.5513 Y-4.9419
G01 X66.5051 Y-4.9585
G01 X66.4575 Y-4.9704
G01 X66.4090 Y-4.9776
G01 X66.3600 Y-4.9800
G01 X66.3110 Y-4.9776
G01 X66.2625 Y-4.9704
G01 X66.2149 Y-4.9585
G01 X66.1687 Y-4.9419
G01 X66.1243 Y-4.9210
G01 X66.0822 Y-4.8957
G01 X66.0428 Y-4.8665
G01 X66.0064 Y-4.8336
G01 X65.9735 Y-4.7972
G01 X65.9443 Y-4.7578
G01 X65.9190 Y-4.7157
G01 X65.8981 Y-4.6713
G01 X65.8815 Y-4.6251
G01 X65.8696 Y-4.5775
G01 X65.8624 Y-4.5290
G01 X65.8600 Y-4.4800
G01 X65.8624 Y-4.4310
G01 X65.8696 Y-4.3825
G01 X65.8815 Y-4.3349
G01 X65.8981 Y-4.2887
G01 X65.9190 Y-4.2443
G01 X65.9443 Y-4.2022
G01 X65.9735 Y-4.1628
G01 X66.0064 Y-4.1264
G01 X66.0428 Y-4.0935
G01 X66.0822 Y-4.0643
G01 X66.1243 Y-4.0390
G01 X66.1687 Y-4.0181
G01 X66.2149 Y-4.0015
G01 X66.2625 Y-3.9896
G01 X66.3110 Y-3.9824
G01 X66.3600 Y-3.9800
G01 X66.4090 Y-3.9824
G01 X66.4575 Y-3.9896
G01 X66.5051 Y-4.0015
G01 X66.5513 Y-4.0181
G01 X66.5957 Y-4.0390
G01 X66.6378 Y-4.0643
G01 X66.6772 Y-4.0935
G01 X66.7136 Y-4.1264
G01 X66.7465 Y-4.1628
G01 X66.7757 Y-4.2022
G01 X66.8010 Y-4.2443
G01 X66.8219 Y-4.2887
G01 X66.8385 Y-4.3349
G01 X66.8504 Y-4.3825
G01 X66.8576 Y-4.4310
G01 X66.8600 Y-4.4800
G00 X66.8600 Y-4.4800
G01 F70.00
G01 Z-1.7000
G01 F120.00
G01 X66.8576 Y-4.5290
G01 X66.8504 Y-4.5775
G01 X66.8385 Y-4.6251
G01 X66.8219 Y-4.6713
G01 X66.8010 Y-4.7157
G01 X66.7757 Y-4.7578
G01 X66.7465 Y-4.7972
G01 X66.7136 Y-4.8336
G01 X66.6772 Y-4.8665
G01 X66.6378 Y-4.8957
G01 X66.5957 Y-4.9210
G01 X66.5513 Y-4.9419
G01 X66.5051 Y-4.9585
G01 X66.4575 Y-4.9704
G01 X66.4090 Y-4.9776
G01 X66.3600 Y-4.9800
G01 X66.3110 Y-4.9776
G01 X66.2625 Y-4.9704
G01 X66.2149 Y-4.9585
G01 X66.1687 Y-4.9419
G01 X66.1243 Y-4.9210
G01 X66.0822 Y-4.8957
G01 X66.0428 Y-4.8665
G01 X66.0064 Y-4.8336
G01 X65.9735 Y-4.7972
G01 X65.9443 Y-4.7578
G01 X65.9190 Y-4.7157
G01 X65.8981 Y-4.6713
G01 X65.8815 Y-4.6251
G01 X65.8696 Y-4.5775
G01 X65.8624 Y-4.5290
G01 X65.8600 Y-4.4800
G01 X65.8624 Y-4.4310
G01 X65.8696 Y-4.3825
G01 X65.8815 Y-4.3349
G01 X65.8981 Y-4.2887
G01 X65.9190 Y-4.2443
G01 X65.9443 Y-4.2022
G01 X65.9735 Y-4.1628
G01 X66.0064 Y-4.1264
G01 X66.0428 Y-4.0935
G01 X66.0822 Y-4.0643
G01 X66.1243 Y-4.0390
G01 X66.1687 Y-4.0181
G01 X66.2149 Y-4.0015
G01 X66.2625 Y-3.9896
G01 X66.3110 Y-3.9824
G01 X66.3600 Y-3.9800
G01 X66.4090 Y-3.9824
G01 X66.4575 Y-3.9896
G01 X66.5051 Y-4.0015
G01 X66.5513 Y-4.0181
G01 X66.5957 Y-4.0390
G01 X66.6378 Y-4.0643
G01 X66.6772 Y-4.0935
G01 X66.7136 Y-4.1264
G01 X66.7465 Y-4.1628
G01 X66.7757 Y-4.2022
G01 X66.8010 Y-4.2443
G01 X66.8219 Y-4.2887
G01 X66.8385 Y-4.3349
G01 X66.8504 Y-4.3825
G01 X66.8576 Y-4.4310
G01 X66.8600 Y-4.4800
G00 Z2.0000
G00 X66.8600 Y-75.8000
G01 F70.00
G01 Z-0.1000
G01 F120.00
G01 X66.8576 Y-75.8490
G01 X66.8504 Y-75.8975
G01 X66.8385 Y-75.9451
G01 X66.8219 Y-75.9913
G01 X66.8010 Y-76.0357
G01 X66.7757 Y-76.0778
G01 X66.7465 Y-76.1172
G01 X66.7136 Y-76.1536
G01 X66.6772 Y-76.1865
G01 X66.6378 Y-76.2157
G01 X66.5957 Y-76.2410
G01 X66.5513 Y-76.2619
G01 X66.5051 Y-76.2785
G01 X66.4575 Y-76.2904
G01 X66.4090 Y-76.2976
G01 X66.3600 Y-76.3000
G01 X66.3110 Y-76.2976
G01 X66.2625 Y-76.2904
G01 X66.2149 Y-76.2785
G01 X66.1687 Y-76.2619
G01 X66.1243 Y-76.2410
G01 X66.0822 Y-76.2157
G01 X66.0428 Y-76.1865
G01 X66.0064 Y-76.1536
G01 X65.9735 Y-76.1172
G01 X65.9443 Y-76.0778
G01 X65.9190 Y-76.0357
G01 X65.8981 Y-75.9913
G01 X65.8815 Y-75.9451
G01 X65.8696 Y-75.8975
G01 X65.8624 Y-75.8490
G01 X65.8600 Y-75.8000
G01 X65.8624 Y-75.7510
G01 X65.8696 Y-75.7025
G01 X65.8815 Y-75.6549
G01 X65.8981 Y-75.6087
G01 X65.9190 Y-75.5643
G01 X65.9443 Y-75.5222
G01 X65.9735 Y-75.4828
G01 X66.0064 Y-75.4464
G01 X66.0428 Y-75.4135
G01 X66.0822 Y-75.3843
G01 X66.1243 Y-75.3590
G01 X66.1687 Y-75.3381
G01 X66.2149 Y-75.3215
G01 X66.2625 Y-75.3096
G01 X66.3110 Y-75.3024
G01 X66.3600 Y-75.3000
G01 X66.4090 Y-75.3024
G01 X66.4575 Y-75.3096
G01 X66.5051 Y-75.3215
G01 X66.5513 Y-75.3381
G01 X66.5957 Y-75.3590
G01 X66.6378 Y-75.3843
G01 X66.6772 Y-75.4135
G01 X66.7136 Y-75.4464
G01 X66.7465 Y-75.4828
G01 X66.7757 Y-75.5222
G01 X66.8010 Y-75.5643
G01 X66.8219 Y-75.6087
G01 X66.8385 Y-75.6549
G01 X66.8504 Y-75.7025
G01 X66.8576 Y-75.7510
G01 X66.8600 Y-75.8000
G00 X66.8600 Y-75.8000
G01 F70.00
G01 Z-0.2000
G01 F120.00
G01 X66.8576 Y-75.8490
G01 X66.8504 Y-75.8975
G01 X66.8385 Y-75.9451
G01 X66.8219 Y-75.9913
G01 X66.8010 Y-76.0357
G01 X66.7757 Y-76.0778
G01 X66.7465 Y-76.1172
G01 X66.7136 Y-76.1536
G01 X66.6772 Y-76.1865
G01 X66.6378 Y-76.2157
G01 X66.5957 Y-76.2410
G01 X66.5513 Y-76.2619
G01 X66.5051 Y-76.2785
G01 X66.4575 Y-76.2904
G01 X66.4090 Y-76.2976
G01 X66.3600 Y-76.3000
G01 X66.3110 Y-76.2976
G01 X66.2625 Y-76.2904
G01 X66.2149 Y-76.2785
G01 X66.1687 Y-76.2619
G01 X66.1243 Y-76.2410
G01 X66.0822 Y-76.2157
G01 X66.0428 Y-76.1865
G01 X66.0064 Y-76.1536
G01 X65.9735 Y-76.1172
G01 X65.9443 Y-76.0778
G01 X65.9190 Y-76.0357
G01 X65.8981 Y-75.9913
G01 X65.8815 Y-75.9451
G01 X65.8696 Y-75.8975
G01 X65.8624 Y-75.8490
G01 X65.8600 Y-75.8000
G01 X65.8624 Y-75.7510
G01 X65.8696 Y-75.7025
G01 X65.8815 Y-75.6549
G01 X65.8981 Y-75.6087
G01 X65.9190 Y-75.5643
G01 X65.9443 Y-75.5222
G01 X65.9735 Y-75.4828
G01 X66.0064 Y-75.4464
G01 X66.0428 Y-75.4135
G01 X66.0822 Y-75.3843
G01 X66.1243 Y-75.3590
G01 X66.1687 Y-75.3381
G01 X66.2149 Y-75.3215
G01 X66.2625 Y-75.3096
G01 X66.3110 Y-75.3024
G01 X66.3600 Y-75.3000
G01 X66.4090 Y-75.3024
G01 X66.4575 Y-75.3096
G01 X66.5051 Y-75.3215
G01 X66.5513 Y-75.3381
G01 X66.5957 Y-75.3590
G01 X66.6378 Y-75.3843
G01 X66.6772 Y-75.4135
G01 X66.7136 Y-75.4464
G01 X66.7465 Y-75.4828
G01 X66.7757 Y-75.5222
G01 X66.8010 Y-75.5643
G01 X66.8219 Y-75.6087
G01 X66.8385 Y-75.6549
G01 X66.8504 Y-75.7025
G01 X66.8576 Y-75.7510
G01 X66.8600 Y-75.8000
G00 X66.8600 Y-75.8000
G01 F70.00
G01 Z-0.3000
G01 F120.00
G01 X66.8576 Y-75.8490
G01 X66.8504 Y-75.8975
G01 X66.8385 Y-75.9451
G01 X66.8219 Y-75.9913
G01 X66.8010 Y-76.0357
G01 X66.7757 Y-76.0778
G01 X66.7465 Y-76.1172
G01 X66.7136 Y-76.1536
G01 X66.6772 Y-76.1865
G01 X66.6378 Y-76.2157
G01 X66.5957 Y-76.2410
G01 X66.5513 Y-76.2619
G01 X66.5051 Y-76.2785
G01 X66.4575 Y-76.2904
G01 X66.4090 Y-76.2976
G01 X66.3600 Y-76.3000
G01 X66.3110 Y-76.2976
G01 X66.2625 Y-76.2904
G01 X66.2149 Y-76.2785
G01 X66.1687 Y-76.2619
G01 X66.1243 Y-76.2410
G01 X66.0822 Y-76.2157
G01 X66.0428 Y-76.1865
G01 X66.0064 Y-76.1536
G01 X65.9735 Y-76.1172
G01 X65.9443 Y-76.0778
G01 X65.9190 Y-76.0357
G01 X65.8981 Y-75.9913
G01 X65.8815 Y-75.9451
G01 X65.8696 Y-75.8975
G01 X65.8624 Y-75.8490
G01 X65.8600 Y-75.8000
G01 X65.8624 Y-75.7510
G01 X65.8696 Y-75.7025
G01 X65.8815 Y-75.6549
G01 X65.8981 Y-75.6087
G01 X65.9190 Y-75.5643
G01 X65.9443 Y-75.5222
G01 X65.9735 Y-75.4828
G01 X66.0064 Y-75.4464
G01 X66.0428 Y-75.4135
G01 X66.0822 Y-75.3843
G01 X66.1243 Y-75.3590
G01 X66.1687 Y-75.3381
G01 X66.2149 Y-75.3215
G01 X66.2625 Y-75.3096
G01 X66.3110 Y-75.3024
G01 X66.3600 Y-75.3000
G01 X66.4090 Y-75.3024
G01 X66.4575 Y-75.3096
G01 X66.5051 Y-75.3215
G01 X66.5513 Y-75.3381
G01 X66.5957 Y-75.3590
G01 X66.6378 Y-75.3843
G01 X66.6772 Y-75.4135
G01 X66.7136 Y-75.4464
G01 X66.7465 Y-75.4828
G01 X66.7757 Y-75.5222
G01 X66.8010 Y-75.5643
G01 X66.8219 Y-75.6087
G01 X66.8385 Y-75.6549
G01 X66.8504 Y-75.7025
G01 X66.8576 Y-75.7510
G01 X66.8600 Y-75.8000
G00 X66.8600 Y-75.8000
G01 F70.00
G01 Z-0.4000
G01 F120.00
G01 X66.8576 Y-75.8490
G01 X66.8504 Y-75.8975
G01 X66.8385 Y-75.9451
G01 X66.8219 Y-75.9913
G01 X66.8010 Y-76.0357
G01 X66.7757 Y-76.0778
G01 X66.7465 Y-76.1172
G01 X66.7136 Y-76.1536
G01 X66.6772 Y-76.1865
G01 X66.6378 Y-76.2157
G01 X66.5957 Y-76.2410
G01 X66.5513 Y-76.2619
G01 X66.5051 Y-76.2785
G01 X66.4575 Y-76.2904
G01 X66.4090 Y-76.2976
G01 X66.3600 Y-76.3000
G01 X66.3110 Y-76.2976
G01 X66.2625 Y-76.2904
G01 X66.2149 Y-76.2785
G01 X66.1687 Y-76.2619
G01 X66.1243 Y-76.2410
G01 X66.0822 Y-76.2157
G01 X66.0428 Y-76.1865
G01 X66.0064 Y-76.1536
G01 X65.9735 Y-76.1172
G01 X65.9443 Y-76.0778
G01 X65.9190 Y-76.0357
G01 X65.8981 Y-75.9913
G01 X65.8815 Y-75.9451
G01 X65.8696 Y-75.8975
G01 X65.8624 Y-75.8490
G01 X65.8600 Y-75.8000
G01 X65.8624 Y-75.7510
G01 X65.8696 Y-75.7025
G01 X65.8815 Y-75.6549
G01 X65.8981 Y-75.6087
G01 X65.9190 Y-75.5643
G01 X65.9443 Y-75.5222
G01 X65.9735 Y-75.4828
G01 X66.0064 Y-75.4464
G01 X66.0428 Y-75.4135
G01 X66.0822 Y-75.3843
G01 X66.1243 Y-75.3590
G01 X66.1687 Y-75.3381
G01 X66.2149 Y-75.3215
G01 X66.2625 Y-75.3096
G01 X66.3110 Y-75.3024
G01 X66.3600 Y-75.3000
G01 X66.4090 Y-75.3024
G01 X66.4575 Y-75.3096
G01 X66.5051 Y-75.3215
G01 X66.5513 Y-75.3381
G01 X66.5957 Y-75.3590
G01 X66.6378 Y-75.3843
G01 X66.6772 Y-75.4135
G01 X66.7136 Y-75.4464
G01 X66.7465 Y-75.4828
G01 X66.7757 Y-75.5222
G01 X66.8010 Y-75.5643
G01 X66.8219 Y-75.6087
G01 X66.8385 Y-75.6549
G01 X66.8504 Y-75.7025
G01 X66.8576 Y-75.7510
G01 X66.8600 Y-75.8000
G00 X66.8600 Y-75.8000
G01 F70.00
G01 Z-0.5000
G01 F120.00
G01 X66.8576 Y-75.8490
G01 X66.8504 Y-75.8975
G01 X66.8385 Y-75.9451
G01 X66.8219 Y-75.9913
G01 X66.8010 Y-76.0357
G01 X66.7757 Y-76.0778
G01 X66.7465 Y-76.1172
G01 X66.7136 Y-76.1536
G01 X66.6772 Y-76.1865
G01 X66.6378 Y-76.2157
G01 X66.5957 Y-76.2410
G01 X66.5513 Y-76.2619
G01 X66.5051 Y-76.2785
G01 X66.4575 Y-76.2904
G01 X66.4090 Y-76.2976
G01 X66.3600 Y-76.3000
G01 X66.3110 Y-76.2976
G01 X66.2625 Y-76.2904
G01 X66.2149 Y-76.2785
G01 X66.1687 Y-76.2619
G01 X66.1243 Y-76.2410
G01 X66.0822 Y-76.2157
G01 X66.0428 Y-76.1865
G01 X66.0064 Y-76.1536
G01 X65.9735 Y-76.1172
G01 X65.9443 Y-76.0778
G01 X65.9190 Y-76.0357
G01 X65.8981 Y-75.9913
G01 X65.8815 Y-75.9451
G01 X65.8696 Y-75.8975
G01 X65.8624 Y-75.8490
G01 X65.8600 Y-75.8000
G01 X65.8624 Y-75.7510
G01 X65.8696 Y-75.7025
G01 X65.8815 Y-75.6549
G01 X65.8981 Y-75.6087
G01 X65.9190 Y-75.5643
G01 X65.9443 Y-75.5222
G01 X65.9735 Y-75.4828
G01 X66.0064 Y-75.4464
G01 X66.0428 Y-75.4135
G01 X66.0822 Y-75.3843
G01 X66.1243 Y-75.3590
G01 X66.1687 Y-75.3381
G01 X66.2149 Y-75.3215
G01 X66.2625 Y-75.3096
G01 X66.3110 Y-75.3024
G01 X66.3600 Y-75.3000
G01 X66.4090 Y-75.3024
G01 X66.4575 Y-75.3096
G01 X66.5051 Y-75.3215
G01 X66.5513 Y-75.3381
G01 X66.5957 Y-75.3590
G01 X66.6378 Y-75.3843
G01 X66.6772 Y-75.4135
G01 X66.7136 Y-75.4464
G01 X66.7465 Y-75.4828
G01 X66.7757 Y-75.5222
G01 X66.8010 Y-75.5643
G01 X66.8219 Y-75.6087
G01 X66.8385 Y-75.6549
G01 X66.8504 Y-75.7025
G01 X66.8576 Y-75.7510
G01 X66.8600 Y-75.8000
G00 X66.8600 Y-75.8000
G01 F70.00
G01 Z-0.6000
G01 F120.00
G01 X66.8576 Y-75.8490
G01 X66.8504 Y-75.8975
G01 X66.8385 Y-75.9451
G01 X66.8219 Y-75.9913
G01 X66.8010 Y-76.0357
G01 X66.7757 Y-76.0778
G01 X66.7465 Y-76.1172
G01 X66.7136 Y-76.1536
G01 X66.6772 Y-76.1865
G01 X66.6378 Y-76.2157
G01 X66.5957 Y-76.2410
G01 X66.5513 Y-76.2619
G01 X66.5051 Y-76.2785
G01 X66.4575 Y-76.2904
G01 X66.4090 Y-76.2976
G01 X66.3600 Y-76.3000
G01 X66.3110 Y-76.2976
G01 X66.2625 Y-76.2904
G01 X66.2149 Y-76.2785
G01 X66.1687 Y-76.2619
G01 X66.1243 Y-76.2410
G01 X66.0822 Y-76.2157
G01 X66.0428 Y-76.1865
G01 X66.0064 Y-76.1536
G01 X65.9735 Y-76.1172
G01 X65.9443 Y-76.0778
G01 X65.9190 Y-76.0357
G01 X65.8981 Y-75.9913
G01 X65.8815 Y-75.9451
G01 X65.8696 Y-75.8975
G01 X65.8624 Y-75.8490
G01 X65.8600 Y-75.8000
G01 X65.8624 Y-75.7510
G01 X65.8696 Y-75.7025
G01 X65.8815 Y-75.6549
G01 X65.8981 Y-75.6087
G01 X65.9190 Y-75.5643
G01 X65.9443 Y-75.5222
G01 X65.9735 Y-75.4828
G01 X66.0064 Y-75.4464
G01 X66.0428 Y-75.4135
G01 X66.0822 Y-75.3843
G01 X66.1243 Y-75.3590
G01 X66.1687 Y-75.3381
G01 X66.2149 Y-75.3215
G01 X66.2625 Y-75.3096
G01 X66.3110 Y-75.3024
G01 X66.3600 Y-75.3000
G01 X66.4090 Y-75.3024
G01 X66.4575 Y-75.3096
G01 X66.5051 Y-75.3215
G01 X66.5513 Y-75.3381
G01 X66.5957 Y-75.3590
G01 X66.6378 Y-75.3843
G01 X66.6772 Y-75.4135
G01 X66.7136 Y-75.4464
G01 X66.7465 Y-75.4828
G01 X66.7757 Y-75.5222
G01 X66.8010 Y-75.5643
G01 X66.8219 Y-75.6087
G01 X66.8385 Y-75.6549
G01 X66.8504 Y-75.7025
G01 X66.8576 Y-75.7510
G01 X66.8600 Y-75.8000
G00 X66.8600 Y-75.8000
G01 F70.00
G01 Z-0.7000
G01 F120.00
G01 X66.8576 Y-75.8490
G01 X66.8504 Y-75.8975
G01 X66.8385 Y-75.9451
G01 X66.8219 Y-75.9913
G01 X66.8010 Y-76.0357
G01 X66.7757 Y-76.0778
G01 X66.7465 Y-76.1172
G01 X66.7136 Y-76.1536
G01 X66.6772 Y-76.1865
G01 X66.6378 Y-76.2157
G01 X66.5957 Y-76.2410
G01 X66.5513 Y-76.2619
G01 X66.5051 Y-76.2785
G01 X66.4575 Y-76.2904
G01 X66.4090 Y-76.2976
G01 X66.3600 Y-76.3000
G01 X66.3110 Y-76.2976
G01 X66.2625 Y-76.2904
G01 X66.2149 Y-76.2785
G01 X66.1687 Y-76.2619
G01 X66.1243 Y-76.2410
G01 X66.0822 Y-76.2157
G01 X66.0428 Y-76.1865
G01 X66.0064 Y-76.1536
G01 X65.9735 Y-76.1172
G01 X65.9443 Y-76.0778
G01 X65.9190 Y-76.0357
G01 X65.8981 Y-75.9913
G01 X65.8815 Y-75.9451
G01 X65.8696 Y-75.8975
G01 X65.8624 Y-75.8490
G01 X65.8600 Y-75.8000
G01 X65.8624 Y-75.7510
G01 X65.8696 Y-75.7025
G01 X65.8815 Y-75.6549
G01 X65.8981 Y-75.6087
G01 X65.9190 Y-75.5643
G01 X65.9443 Y-75.5222
G01 X65.9735 Y-75.4828
G01 X66.0064 Y-75.4464
G01 X66.0428 Y-75.4135
G01 X66.0822 Y-75.3843
G01 X66.1243 Y-75.3590
G01 X66.1687 Y-75.3381
G01 X66.2149 Y-75.3215
G01 X66.2625 Y-75.3096
G01 X66.3110 Y-75.3024
G01 X66.3600 Y-75.3000
G01 X66.4090 Y-75.3024
G01 X66.4575 Y-75.3096
G01 X66.5051 Y-75.3215
G01 X66.5513 Y-75.3381
G01 X66.5957 Y-75.3590
G01 X66.6378 Y-75.3843
G01 X66.6772 Y-75.4135
G01 X66.7136 Y-75.4464
G01 X66.7465 Y-75.4828
G01 X66.7757 Y-75.5222
G01 X66.8010 Y-75.5643
G01 X66.8219 Y-75.6087
G01 X66.8385 Y-75.6549
G01 X66.8504 Y-75.7025
G01 X66.8576 Y-75.7510
G01 X66.8600 Y-75.8000
G00 X66.8600 Y-75.8000
G01 F70.00
G01 Z-0.8000
G01 F120.00
G01 X66.8576 Y-75.8490
G01 X66.8504 Y-75.8975
G01 X66.8385 Y-75.9451
G01 X66.8219 Y-75.9913
G01 X66.8010 Y-76.0357
G01 X66.7757 Y-76.0778
G01 X66.7465 Y-76.1172
G01 X66.7136 Y-76.1536
G01 X66.6772 Y-76.1865
G01 X66.6378 Y-76.2157
G01 X66.5957 Y-76.2410
G01 X66.5513 Y-76.2619
G01 X66.5051 Y-76.2785
G01 X66.4575 Y-76.2904
G01 X66.4090 Y-76.2976
G01 X66.3600 Y-76.3000
G01 X66.3110 Y-76.2976
G01 X66.2625 Y-76.2904
G01 X66.2149 Y-76.2785
G01 X66.1687 Y-76.2619
G01 X66.1243 Y-76.2410
G01 X66.0822 Y-76.2157
G01 X66.0428 Y-76.1865
G01 X66.0064 Y-76.1536
G01 X65.9735 Y-76.1172
G01 X65.9443 Y-76.0778
G01 X65.9190 Y-76.0357
G01 X65.8981 Y-75.9913
G01 X65.8815 Y-75.9451
G01 X65.8696 Y-75.8975
G01 X65.8624 Y-75.8490
G01 X65.8600 Y-75.8000
G01 X65.8624 Y-75.7510
G01 X65.8696 Y-75.7025
G01 X65.8815 Y-75.6549
G01 X65.8981 Y-75.6087
G01 X65.9190 Y-75.5643
G01 X65.9443 Y-75.5222
G01 X65.9735 Y-75.4828
G01 X66.0064 Y-75.4464
G01 X66.0428 Y-75.4135
G01 X66.0822 Y-75.3843
G01 X66.1243 Y-75.3590
G01 X66.1687 Y-75.3381
G01 X66.2149 Y-75.3215
G01 X66.2625 Y-75.3096
G01 X66.3110 Y-75.3024
G01 X66.3600 Y-75.3000
G01 X66.4090 Y-75.3024
G01 X66.4575 Y-75.3096
G01 X66.5051 Y-75.3215
G01 X66.5513 Y-75.3381
G01 X66.5957 Y-75.3590
G01 X66.6378 Y-75.3843
G01 X66.6772 Y-75.4135
G01 X66.7136 Y-75.4464
G01 X66.7465 Y-75.4828
G01 X66.7757 Y-75.5222
G01 X66.8010 Y-75.5643
G01 X66.8219 Y-75.6087
G01 X66.8385 Y-75.6549
G01 X66.8504 Y-75.7025
G01 X66.8576 Y-75.7510
G01 X66.8600 Y-75.8000
G00 X66.8600 Y-75.8000
G01 F70.00
G01 Z-0.9000
G01 F120.00
G01 X66.8576 Y-75.8490
G01 X66.8504 Y-75.8975
G01 X66.8385 Y-75.9451
G01 X66.8219 Y-75.9913
G01 X66.8010 Y-76.0357
G01 X66.7757 Y-76.0778
G01 X66.7465 Y-76.1172
G01 X66.7136 Y-76.1536
G01 X66.6772 Y-76.1865
G01 X66.6378 Y-76.2157
G01 X66.5957 Y-76.2410
G01 X66.5513 Y-76.2619
G01 X66.5051 Y-76.2785
G01 X66.4575 Y-76.2904
G01 X66.4090 Y-76.2976
G01 X66.3600 Y-76.3000
G01 X66.3110 Y-76.2976
G01 X66.2625 Y-76.2904
G01 X66.2149 Y-76.2785
G01 X66.1687 Y-76.2619
G01 X66.1243 Y-76.2410
G01 X66.0822 Y-76.2157
G01 X66.0428 Y-76.1865
G01 X66.0064 Y-76.1536
G01 X65.9735 Y-76.1172
G01 X65.9443 Y-76.0778
G01 X65.9190 Y-76.0357
G01 X65.8981 Y-75.9913
G01 X65.8815 Y-75.9451
G01 X65.8696 Y-75.8975
G01 X65.8624 Y-75.8490
G01 X65.8600 Y-75.8000
G01 X65.8624 Y-75.7510
G01 X65.8696 Y-75.7025
G01 X65.8815 Y-75.6549
G01 X65.8981 Y-75.6087
G01 X65.9190 Y-75.5643
G01 X65.9443 Y-75.5222
G01 X65.9735 Y-75.4828
G01 X66.0064 Y-75.4464
G01 X66.0428 Y-75.4135
G01 X66.0822 Y-75.3843
G01 X66.1243 Y-75.3590
G01 X66.1687 Y-75.3381
G01 X66.2149 Y-75.3215
G01 X66.2625 Y-75.3096
G01 X66.3110 Y-75.3024
G01 X66.3600 Y-75.3000
G01 X66.4090 Y-75.3024
G01 X66.4575 Y-75.3096
G01 X66.5051 Y-75.3215
G01 X66.5513 Y-75.3381
G01 X66.5957 Y-75.3590
G01 X66.6378 Y-75.3843
G01 X66.6772 Y-75.4135
G01 X66.7136 Y-75.4464
G01 X66.7465 Y-75.4828
G01 X66.7757 Y-75.5222
G01 X66.8010 Y-75.5643
G01 X66.8219 Y-75.6087
G01 X66.8385 Y-75.6549
G01 X66.8504 Y-75.7025
G01 X66.8576 Y-75.7510
G01 X66.8600 Y-75.8000
G00 X66.8600 Y-75.8000
G01 F70.00
G01 Z-1.0000
G01 F120.00
G01 X66.8576 Y-75.8490
G01 X66.8504 Y-75.8975
G01 X66.8385 Y-75.9451
G01 X66.8219 Y-75.9913
G01 X66.8010 Y-76.0357
G01 X66.7757 Y-76.0778
G01 X66.7465 Y-76.1172
G01 X66.7136 Y-76.1536
G01 X66.6772 Y-76.1865
G01 X66.6378 Y-76.2157
G01 X66.5957 Y-76.2410
G01 X66.5513 Y-76.2619
G01 X66.5051 Y-76.2785
G01 X66.4575 Y-76.2904
G01 X66.4090 Y-76.2976
G01 X66.3600 Y-76.3000
G01 X66.3110 Y-76.2976
G01 X66.2625 Y-76.2904
G01 X66.2149 Y-76.2785
G01 X66.1687 Y-76.2619
G01 X66.1243 Y-76.2410
G01 X66.0822 Y-76.2157
G01 X66.0428 Y-76.1865
G01 X66.0064 Y-76.1536
G01 X65.9735 Y-76.1172
G01 X65.9443 Y-76.0778
G01 X65.9190 Y-76.0357
G01 X65.8981 Y-75.9913
G01 X65.8815 Y-75.9451
G01 X65.8696 Y-75.8975
G01 X65.8624 Y-75.8490
G01 X65.8600 Y-75.8000
G01 X65.8624 Y-75.7510
G01 X65.8696 Y-75.7025
G01 X65.8815 Y-75.6549
G01 X65.8981 Y-75.6087
G01 X65.9190 Y-75.5643
G01 X65.9443 Y-75.5222
G01 X65.9735 Y-75.4828
G01 X66.0064 Y-75.4464
G01 X66.0428 Y-75.4135
G01 X66.0822 Y-75.3843
G01 X66.1243 Y-75.3590
G01 X66.1687 Y-75.3381
G01 X66.2149 Y-75.3215
G01 X66.2625 Y-75.3096
G01 X66.3110 Y-75.3024
G01 X66.3600 Y-75.3000
G01 X66.4090 Y-75.3024
G01 X66.4575 Y-75.3096
G01 X66.5051 Y-75.3215
G01 X66.5513 Y-75.3381
G01 X66.5957 Y-75.3590
G01 X66.6378 Y-75.3843
G01 X66.6772 Y-75.4135
G01 X66.7136 Y-75.4464
G01 X66.7465 Y-75.4828
G01 X66.7757 Y-75.5222
G01 X66.8010 Y-75.5643
G01 X66.8219 Y-75.6087
G01 X66.8385 Y-75.6549
G01 X66.8504 Y-75.7025
G01 X66.8576 Y-75.7510
G01 X66.8600 Y-75.8000
G00 X66.8600 Y-75.8000
G01 F70.00
G01 Z-1.1000
G01 F120.00
G01 X66.8576 Y-75.8490
G01 X66.8504 Y-75.8975
G01 X66.8385 Y-75.9451
G01 X66.8219 Y-75.9913
G01 X66.8010 Y-76.0357
G01 X66.7757 Y-76.0778
G01 X66.7465 Y-76.1172
G01 X66.7136 Y-76.1536
G01 X66.6772 Y-76.1865
G01 X66.6378 Y-76.2157
G01 X66.5957 Y-76.2410
G01 X66.5513 Y-76.2619
G01 X66.5051 Y-76.2785
G01 X66.4575 Y-76.2904
G01 X66.4090 Y-76.2976
G01 X66.3600 Y-76.3000
G01 X66.3110 Y-76.2976
G01 X66.2625 Y-76.2904
G01 X66.2149 Y-76.2785
G01 X66.1687 Y-76.2619
G01 X66.1243 Y-76.2410
G01 X66.0822 Y-76.2157
G01 X66.0428 Y-76.1865
G01 X66.0064 Y-76.1536
G01 X65.9735 Y-76.1172
G01 X65.9443 Y-76.0778
G01 X65.9190 Y-76.0357
G01 X65.8981 Y-75.9913
G01 X65.8815 Y-75.9451
G01 X65.8696 Y-75.8975
G01 X65.8624 Y-75.8490
G01 X65.8600 Y-75.8000
G01 X65.8624 Y-75.7510
G01 X65.8696 Y-75.7025
G01 X65.8815 Y-75.6549
G01 X65.8981 Y-75.6087
G01 X65.9190 Y-75.5643
G01 X65.9443 Y-75.5222
G01 X65.9735 Y-75.4828
G01 X66.0064 Y-75.4464
G01 X66.0428 Y-75.4135
G01 X66.0822 Y-75.3843
G01 X66.1243 Y-75.3590
G01 X66.1687 Y-75.3381
G01 X66.2149 Y-75.3215
G01 X66.2625 Y-75.3096
G01 X66.3110 Y-75.3024
G01 X66.3600 Y-75.3000
G01 X66.4090 Y-75.3024
G01 X66.4575 Y-75.3096
G01 X66.5051 Y-75.3215
G01 X66.5513 Y-75.3381
G01 X66.5957 Y-75.3590
G01 X66.6378 Y-75.3843
G01 X66.6772 Y-75.4135
G01 X66.7136 Y-75.4464
G01 X66.7465 Y-75.4828
G01 X66.7757 Y-75.5222
G01 X66.8010 Y-75.5643
G01 X66.8219 Y-75.6087
G01 X66.8385 Y-75.6549
G01 X66.8504 Y-75.7025
G01 X66.8576 Y-75.7510
G01 X66.8600 Y-75.8000
G00 X66.8600 Y-75.8000
G01 F70.00
G01 Z-1.2000
G01 F120.00
G01 X66.8576 Y-75.8490
G01 X66.8504 Y-75.8975
G01 X66.8385 Y-75.9451
G01 X66.8219 Y-75.9913
G01 X66.8010 Y-76.0357
G01 X66.7757 Y-76.0778
G01 X66.7465 Y-76.1172
G01 X66.7136 Y-76.1536
G01 X66.6772 Y-76.1865
G01 X66.6378 Y-76.2157
G01 X66.5957 Y-76.2410
G01 X66.5513 Y-76.2619
G01 X66.5051 Y-76.2785
G01 X66.4575 Y-76.2904
G01 X66.4090 Y-76.2976
G01 X66.3600 Y-76.3000
G01 X66.3110 Y-76.2976
G01 X66.2625 Y-76.2904
G01 X66.2149 Y-76.2785
G01 X66.1687 Y-76.2619
G01 X66.1243 Y-76.2410
G01 X66.0822 Y-76.2157
G01 X66.0428 Y-76.1865
G01 X66.0064 Y-76.1536
G01 X65.9735 Y-76.1172
G01 X65.9443 Y-76.0778
G01 X65.9190 Y-76.0357
G01 X65.8981 Y-75.9913
G01 X65.8815 Y-75.9451
G01 X65.8696 Y-75.8975
G01 X65.8624 Y-75.8490
G01 X65.8600 Y-75.8000
G01 X65.8624 Y-75.7510
G01 X65.8696 Y-75.7025
G01 X65.8815 Y-75.6549
G01 X65.8981 Y-75.6087
G01 X65.9190 Y-75.5643
G01 X65.9443 Y-75.5222
G01 X65.9735 Y-75.4828
G01 X66.0064 Y-75.4464
G01 X66.0428 Y-75.4135
G01 X66.0822 Y-75.3843
G01 X66.1243 Y-75.3590
G01 X66.1687 Y-75.3381
G01 X66.2149 Y-75.3215
G01 X66.2625 Y-75.3096
G01 X66.3110 Y-75.3024
G01 X66.3600 Y-75.3000
G01 X66.4090 Y-75.3024
G01 X66.4575 Y-75.3096
G01 X66.5051 Y-75.3215
G01 X66.5513 Y-75.3381
G01 X66.5957 Y-75.3590
G01 X66.6378 Y-75.3843
G01 X66.6772 Y-75.4135
G01 X66.7136 Y-75.4464
G01 X66.7465 Y-75.4828
G01 X66.7757 Y-75.5222
G01 X66.8010 Y-75.5643
G01 X66.8219 Y-75.6087
G01 X66.8385 Y-75.6549
G01 X66.8504 Y-75.7025
G01 X66.8576 Y-75.7510
G01 X66.8600 Y-75.8000
G00 X66.8600 Y-75.8000
G01 F70.00
G01 Z-1.3000
G01 F120.00
G01 X66.8576 Y-75.8490
G01 X66.8504 Y-75.8975
G01 X66.8385 Y-75.9451
G01 X66.8219 Y-75.9913
G01 X66.8010 Y-76.0357
G01 X66.7757 Y-76.0778
G01 X66.7465 Y-76.1172
G01 X66.7136 Y-76.1536
G01 X66.6772 Y-76.1865
G01 X66.6378 Y-76.2157
G01 X66.5957 Y-76.2410
G01 X66.5513 Y-76.2619
G01 X66.5051 Y-76.2785
G01 X66.4575 Y-76.2904
G01 X66.4090 Y-76.2976
G01 X66.3600 Y-76.3000
G01 X66.3110 Y-76.2976
G01 X66.2625 Y-76.2904
G01 X66.2149 Y-76.2785
G01 X66.1687 Y-76.2619
G01 X66.1243 Y-76.2410
G01 X66.0822 Y-76.2157
G01 X66.0428 Y-76.1865
G01 X66.0064 Y-76.1536
G01 X65.9735 Y-76.1172
G01 X65.9443 Y-76.0778
G01 X65.9190 Y-76.0357
G01 X65.8981 Y-75.9913
G01 X65.8815 Y-75.9451
G01 X65.8696 Y-75.8975
G01 X65.8624 Y-75.8490
G01 X65.8600 Y-75.8000
G01 X65.8624 Y-75.7510
G01 X65.8696 Y-75.7025
G01 X65.8815 Y-75.6549
G01 X65.8981 Y-75.6087
G01 X65.9190 Y-75.5643
G01 X65.9443 Y-75.5222
G01 X65.9735 Y-75.4828
G01 X66.0064 Y-75.4464
G01 X66.0428 Y-75.4135
G01 X66.0822 Y-75.3843
G01 X66.1243 Y-75.3590
G01 X66.1687 Y-75.3381
G01 X66.2149 Y-75.3215
G01 X66.2625 Y-75.3096
G01 X66.3110 Y-75.3024
G01 X66.3600 Y-75.3000
G01 X66.4090 Y-75.3024
G01 X66.4575 Y-75.3096
G01 X66.5051 Y-75.3215
G01 X66.5513 Y-75.3381
G01 X66.5957 Y-75.3590
G01 X66.6378 Y-75.3843
G01 X66.6772 Y-75.4135
G01 X66.7136 Y-75.4464
G01 X66.7465 Y-75.4828
G01 X66.7757 Y-75.5222
G01 X66.8010 Y-75.5643
G01 X66.8219 Y-75.6087
G01 X66.8385 Y-75.6549
G01 X66.8504 Y-75.7025
G01 X66.8576 Y-75.7510
G01 X66.8600 Y-75.8000
G00 X66.8600 Y-75.8000
G01 F70.00
G01 Z-1.4000
G01 F120.00
G01 X66.8576 Y-75.8490
G01 X66.8504 Y-75.8975
G01 X66.8385 Y-75.9451
G01 X66.8219 Y-75.9913
G01 X66.8010 Y-76.0357
G01 X66.7757 Y-76.0778
G01 X66.7465 Y-76.1172
G01 X66.7136 Y-76.1536
G01 X66.6772 Y-76.1865
G01 X66.6378 Y-76.2157
G01 X66.5957 Y-76.2410
G01 X66.5513 Y-76.2619
G01 X66.5051 Y-76.2785
G01 X66.4575 Y-76.2904
G01 X66.4090 Y-76.2976
G01 X66.3600 Y-76.3000
G01 X66.3110 Y-76.2976
G01 X66.2625 Y-76.2904
G01 X66.2149 Y-76.2785
G01 X66.1687 Y-76.2619
G01 X66.1243 Y-76.2410
G01 X66.0822 Y-76.2157
G01 X66.0428 Y-76.1865
G01 X66.0064 Y-76.1536
G01 X65.9735 Y-76.1172
G01 X65.9443 Y-76.0778
G01 X65.9190 Y-76.0357
G01 X65.8981 Y-75.9913
G01 X65.8815 Y-75.9451
G01 X65.8696 Y-75.8975
G01 X65.8624 Y-75.8490
G01 X65.8600 Y-75.8000
G01 X65.8624 Y-75.7510
G01 X65.8696 Y-75.7025
G01 X65.8815 Y-75.6549
G01 X65.8981 Y-75.6087
G01 X65.9190 Y-75.5643
G01 X65.9443 Y-75.5222
G01 X65.9735 Y-75.4828
G01 X66.0064 Y-75.4464
G01 X66.0428 Y-75.4135
G01 X66.0822 Y-75.3843
G01 X66.1243 Y-75.3590
G01 X66.1687 Y-75.3381
G01 X66.2149 Y-75.3215
G01 X66.2625 Y-75.3096
G01 X66.3110 Y-75.3024
G01 X66.3600 Y-75.3000
G01 X66.4090 Y-75.3024
G01 X66.4575 Y-75.3096
G01 X66.5051 Y-75.3215
G01 X66.5513 Y-75.3381
G01 X66.5957 Y-75.3590
G01 X66.6378 Y-75.3843
G01 X66.6772 Y-75.4135
G01 X66.7136 Y-75.4464
G01 X66.7465 Y-75.4828
G01 X66.7757 Y-75.5222
G01 X66.8010 Y-75.5643
G01 X66.8219 Y-75.6087
G01 X66.8385 Y-75.6549
G01 X66.8504 Y-75.7025
G01 X66.8576 Y-75.7510
G01 X66.8600 Y-75.8000
G00 X66.8600 Y-75.8000
G01 F70.00
G01 Z-1.5000
G01 F120.00
G01 X66.8576 Y-75.8490
G01 X66.8504 Y-75.8975
G01 X66.8385 Y-75.9451
G01 X66.8219 Y-75.9913
G01 X66.8010 Y-76.0357
G01 X66.7757 Y-76.0778
G01 X66.7465 Y-76.1172
G01 X66.7136 Y-76.1536
G01 X66.6772 Y-76.1865
G01 X66.6378 Y-76.2157
G01 X66.5957 Y-76.2410
G01 X66.5513 Y-76.2619
G01 X66.5051 Y-76.2785
G01 X66.4575 Y-76.2904
G01 X66.4090 Y-76.2976
G01 X66.3600 Y-76.3000
G01 X66.3110 Y-76.2976
G01 X66.2625 Y-76.2904
G01 X66.2149 Y-76.2785
G01 X66.1687 Y-76.2619
G01 X66.1243 Y-76.2410
G01 X66.0822 Y-76.2157
G01 X66.0428 Y-76.1865
G01 X66.0064 Y-76.1536
G01 X65.9735 Y-76.1172
G01 X65.9443 Y-76.0778
G01 X65.9190 Y-76.0357
G01 X65.8981 Y-75.9913
G01 X65.8815 Y-75.9451
G01 X65.8696 Y-75.8975
G01 X65.8624 Y-75.8490
G01 X65.8600 Y-75.8000
G01 X65.8624 Y-75.7510
G01 X65.8696 Y-75.7025
G01 X65.8815 Y-75.6549
G01 X65.8981 Y-75.6087
G01 X65.9190 Y-75.5643
G01 X65.9443 Y-75.5222
G01 X65.9735 Y-75.4828
G01 X66.0064 Y-75.4464
G01 X66.0428 Y-75.4135
G01 X66.0822 Y-75.3843
G01 X66.1243 Y-75.3590
G01 X66.1687 Y-75.3381
G01 X66.2149 Y-75.3215
G01 X66.2625 Y-75.3096
G01 X66.3110 Y-75.3024
G01 X66.3600 Y-75.3000
G01 X66.4090 Y-75.3024
G01 X66.4575 Y-75.3096
G01 X66.5051 Y-75.3215
G01 X66.5513 Y-75.3381
G01 X66.5957 Y-75.3590
G01 X66.6378 Y-75.3843
G01 X66.6772 Y-75.4135
G01 X66.7136 Y-75.4464
G01 X66.7465 Y-75.4828
G01 X66.7757 Y-75.5222
G01 X66.8010 Y-75.5643
G01 X66.8219 Y-75.6087
G01 X66.8385 Y-75.6549
G01 X66.8504 Y-75.7025
G01 X66.8576 Y-75.7510
G01 X66.8600 Y-75.8000
G00 X66.8600 Y-75.8000
G01 F70.00
G01 Z-1.6000
G01 F120.00
G01 X66.8576 Y-75.8490
G01 X66.8504 Y-75.8975
G01 X66.8385 Y-75.9451
G01 X66.8219 Y-75.9913
G01 X66.8010 Y-76.0357
G01 X66.7757 Y-76.0778
G01 X66.7465 Y-76.1172
G01 X66.7136 Y-76.1536
G01 X66.6772 Y-76.1865
G01 X66.6378 Y-76.2157
G01 X66.5957 Y-76.2410
G01 X66.5513 Y-76.2619
G01 X66.5051 Y-76.2785
G01 X66.4575 Y-76.2904
G01 X66.4090 Y-76.2976
G01 X66.3600 Y-76.3000
G01 X66.3110 Y-76.2976
G01 X66.2625 Y-76.2904
G01 X66.2149 Y-76.2785
G01 X66.1687 Y-76.2619
G01 X66.1243 Y-76.2410
G01 X66.0822 Y-76.2157
G01 X66.0428 Y-76.1865
G01 X66.0064 Y-76.1536
G01 X65.9735 Y-76.1172
G01 X65.9443 Y-76.0778
G01 X65.9190 Y-76.0357
G01 X65.8981 Y-75.9913
G01 X65.8815 Y-75.9451
G01 X65.8696 Y-75.8975
G01 X65.8624 Y-75.8490
G01 X65.8600 Y-75.8000
G01 X65.8624 Y-75.7510
G01 X65.8696 Y-75.7025
G01 X65.8815 Y-75.6549
G01 X65.8981 Y-75.6087
G01 X65.9190 Y-75.5643
G01 X65.9443 Y-75.5222
G01 X65.9735 Y-75.4828
G01 X66.0064 Y-75.4464
G01 X66.0428 Y-75.4135
G01 X66.0822 Y-75.3843
G01 X66.1243 Y-75.3590
G01 X66.1687 Y-75.3381
G01 X66.2149 Y-75.3215
G01 X66.2625 Y-75.3096
G01 X66.3110 Y-75.3024
G01 X66.3600 Y-75.3000
G01 X66.4090 Y-75.3024
G01 X66.4575 Y-75.3096
G01 X66.5051 Y-75.3215
G01 X66.5513 Y-75.3381
G01 X66.5957 Y-75.3590
G01 X66.6378 Y-75.3843
G01 X66.6772 Y-75.4135
G01 X66.7136 Y-75.4464
G01 X66.7465 Y-75.4828
G01 X66.7757 Y-75.5222
G01 X66.8010 Y-75.5643
G01 X66.8219 Y-75.6087
G01 X66.8385 Y-75.6549
G01 X66.8504 Y-75.7025
G01 X66.8576 Y-75.7510
G01 X66.8600 Y-75.8000
G00 X66.8600 Y-75.8000
G01 F70.00
G01 Z-1.7000
G01 F120.00
G01 X66.8576 Y-75.8490
G01 X66.8504 Y-75.8975
G01 X66.8385 Y-75.9451
G01 X66.8219 Y-75.9913
G01 X66.8010 Y-76.0357
G01 X66.7757 Y-76.0778
G01 X66.7465 Y-76.1172
G01 X66.7136 Y-76.1536
G01 X66.6772 Y-76.1865
G01 X66.6378 Y-76.2157
G01 X66.5957 Y-76.2410
G01 X66.5513 Y-76.2619
G01 X66.5051 Y-76.2785
G01 X66.4575 Y-76.2904
G01 X66.4090 Y-76.2976
G01 X66.3600 Y-76.3000
G01 X66.3110 Y-76.2976
G01 X66.2625 Y-76.2904
G01 X66.2149 Y-76.2785
G01 X66.1687 Y-76.2619
G01 X66.1243 Y-76.2410
G01 X66.0822 Y-76.2157
G01 X66.0428 Y-76.1865
G01 X66.0064 Y-76.1536
G01 X65.9735 Y-76.1172
G01 X65.9443 Y-76.0778
G01 X65.9190 Y-76.0357
G01 X65.8981 Y-75.9913
G01 X65.8815 Y-75.9451
G01 X65.8696 Y-75.8975
G01 X65.8624 Y-75.8490
G01 X65.8600 Y-75.8000
G01 X65.8624 Y-75.7510
G01 X65.8696 Y-75.7025
G01 X65.8815 Y-75.6549
G01 X65.8981 Y-75.6087
G01 X65.9190 Y-75.5643
G01 X65.9443 Y-75.5222
G01 X65.9735 Y-75.4828
G01 X66.0064 Y-75.4464
G01 X66.0428 Y-75.4135
G01 X66.0822 Y-75.3843
G01 X66.1243 Y-75.3590
G01 X66.1687 Y-75.3381
G01 X66.2149 Y-75.3215
G01 X66.2625 Y-75.3096
G01 X66.3110 Y-75.3024
G01 X66.3600 Y-75.3000
G01 X66.4090 Y-75.3024
G01 X66.4575 Y-75.3096
G01 X66.5051 Y-75.3215
G01 X66.5513 Y-75.3381
G01 X66.5957 Y-75.3590
G01 X66.6378 Y-75.3843
G01 X66.6772 Y-75.4135
G01 X66.7136 Y-75.4464
G01 X66.7465 Y-75.4828
G01 X66.7757 Y-75.5222
G01 X66.8010 Y-75.5643
G01 X66.8219 Y-75.6087
G01 X66.8385 Y-75.6549
G01 X66.8504 Y-75.7025
G01 X66.8576 Y-75.7510
G01 X66.8600 Y-75.8000
G00 Z2.0000
M05
G00 Z2.0000
G00 Z25.00

