(G-CODE GENERATED BY FLATCAM v8.993 - www.flatcam.org - Version Date: 2020/06/05)

(Name: Karat3_134K03_TX_Ф1_верх.gbr_iso_combined_cnc)
(Type: G-code from Geometry)
(Units: MM)

(Created on Wednesday, 23 December 2020 at 18:59)

(This preprocessor is the default preprocessor used by FlatCAM.)
(It is made to work with MACH3 compatible motion controllers.)

(TOOL DIAMETER: 0.14 mm)
(Feedrate_XY: 120.0 mm/min)
(Feedrate_Z: 70.0 mm/min)
(Feedrate rapids 1500.0 mm/min)

(Z_Cut: -0.06 mm)
(Z_Move: 2.0 mm)
(Z Start: None mm)
(Z End: 25.0 mm)
(Steps per circle: 128)
(Preprocessor Geometry: default)

(X range:   -0.3500 ...   74.8500  mm)
(Y range:  -80.9500 ...    0.3500  mm)

(Spindle Speed: 10000 RPM)
G21
G90
G94



G01 F120.00
G00 Z2.0000

M03 S10000
G00 X-0.0700 Y0.0000
G01 F70.00
G01 Z-0.0600
G01 F120.00
G01 X-0.0700 Y-35.2305
G01 X-0.0690 Y-35.2424
G01 X-0.0656 Y-35.2549
G01 X-0.0605 Y-35.2657
G01 X-0.0530 Y-35.2762
G01 X-0.0417 Y-35.2867
G01 X-0.0292 Y-35.2941
G01 X-0.0145 Y-35.2990
G01 X0.0000 Y-35.3005
G01 X22.2241 Y-35.3005
G01 X22.2514 Y-35.3024
G01 X22.2773 Y-35.3083
G01 X22.2939 Y-35.3142
G01 X22.3099 Y-35.3218
G01 X22.3323 Y-35.3359
G01 X22.3524 Y-35.3532
G01 X22.3642 Y-35.3663
G01 X22.3748 Y-35.3805
G01 X22.3878 Y-35.4036
G01 X22.3973 Y-35.4283
G01 X22.4016 Y-35.4455
G01 X22.4042 Y-35.4629
G01 X22.4051 Y-35.4815
G01 X22.4051 Y-52.7327
G01 X22.4059 Y-52.7429
G01 X22.4084 Y-52.7538
G01 X22.4126 Y-52.7641
G01 X22.4179 Y-52.7730
G01 X22.4250 Y-52.7816
G01 X22.4334 Y-52.7889
G01 X22.4429 Y-52.7948
G01 X22.4524 Y-52.7989
G01 X22.4640 Y-52.8018
G01 X22.4751 Y-52.8027
G01 X50.2435 Y-52.8027
G01 X50.2708 Y-52.8046
G01 X50.2967 Y-52.8105
G01 X50.3214 Y-52.8200
G01 X50.3445 Y-52.8330
G01 X50.3587 Y-52.8436
G01 X50.3778 Y-52.8618
G01 X50.3891 Y-52.8755
G01 X50.4032 Y-52.8979
G01 X50.4140 Y-52.9221
G01 X50.4191 Y-52.9390
G01 X50.4236 Y-52.9651
G01 X50.4245 Y-52.9837
G01 X50.4245 Y-80.6000
G01 X50.4253 Y-80.6103
G01 X50.4275 Y-80.6203
G01 X50.4312 Y-80.6299
G01 X50.4368 Y-80.6396
G01 X50.4421 Y-80.6464
G01 X50.4482 Y-80.6524
G01 X50.4549 Y-80.6577
G01 X50.4623 Y-80.6621
G01 X50.4701 Y-80.6656
G01 X50.4784 Y-80.6681
G01 X50.4945 Y-80.6700
G01 X69.3606 Y-80.6700
G01 X69.3725 Y-80.6690
G01 X69.3849 Y-80.6657
G01 X69.3957 Y-80.6606
G01 X69.4062 Y-80.6531
G01 X69.4145 Y-80.6446
G01 X69.4329 Y-80.6194
G01 X69.4485 Y-80.6020
G01 X74.4479 Y-75.5233
G01 X74.4652 Y-75.5073
G01 X74.4833 Y-75.4937
G01 X74.5026 Y-75.4819
G01 X74.5349 Y-75.4666
G01 X74.5428 Y-75.4613
G01 X74.5499 Y-75.4550
G01 X74.5581 Y-75.4450
G01 X74.5639 Y-75.4344
G01 X74.5679 Y-75.4230
G01 X74.5699 Y-75.4102
G01 X74.5700 Y-4.7787
G01 X74.5688 Y-4.7660
G01 X74.5656 Y-4.7544
G01 X74.5601 Y-4.7429
G01 X74.5531 Y-4.7332
G01 X74.5426 Y-4.7232
G01 X74.5302 Y-4.7156
G01 X74.5215 Y-4.7121
G01 X74.5025 Y-4.7071
G01 X74.4813 Y-4.6996
G01 X74.4710 Y-4.6952
G01 X74.4510 Y-4.6847
G01 X74.4415 Y-4.6788
G01 X74.4233 Y-4.6655
G01 X74.4059 Y-4.6500
G01 X69.8033 Y-0.1268
G01 X69.7935 Y-0.1166
G01 X69.7792 Y-0.0991
G01 X69.7666 Y-0.0804
G01 X69.7560 Y-0.0605
G01 X69.7473 Y-0.0396
G01 X69.7412 Y-0.0198
G01 X69.7332 Y0.0209
G01 X69.7293 Y0.0305
G01 X69.7242 Y0.0395
G01 X69.7135 Y0.0518
G01 X69.7009 Y0.0609
G01 X69.6867 Y0.0670
G01 X69.6707 Y0.0699
G01 X-0.0000 Y0.0700
G01 X-0.0137 Y0.0687
G01 X-0.0268 Y0.0647
G01 X-0.0389 Y0.0582
G01 X-0.0495 Y0.0495
G01 X-0.0582 Y0.0389
G01 X-0.0647 Y0.0268
G01 X-0.0687 Y0.0137
G01 X-0.0700 Y0.0000
G00 Z2.0000
G00 X-0.1400 Y0.0000
G01 F70.00
G01 Z-0.0600
G01 F120.00
G01 X-0.1400 Y-35.2305
G01 X-0.1395 Y-35.2425
G01 X-0.1376 Y-35.2561
G01 X-0.1349 Y-35.2678
G01 X-0.1312 Y-35.2793
G01 X-0.1266 Y-35.2903
G01 X-0.1210 Y-35.3010
G01 X-0.1145 Y-35.3111
G01 X-0.1060 Y-35.3219
G01 X-0.0953 Y-35.3330
G01 X-0.0848 Y-35.3419
G01 X-0.0720 Y-35.3506
G01 X-0.0583 Y-35.3578
G01 X-0.0455 Y-35.3629
G01 X-0.0307 Y-35.3671
G01 X-0.0154 Y-35.3696
G01 X0.0000 Y-35.3705
G01 X22.2233 Y-35.3705
G01 X22.2412 Y-35.3717
G01 X22.2570 Y-35.3753
G01 X22.2721 Y-35.3811
G01 X22.2816 Y-35.3862
G01 X22.2906 Y-35.3922
G01 X22.3028 Y-35.4028
G01 X22.3101 Y-35.4108
G01 X22.3194 Y-35.4240
G01 X22.3245 Y-35.4335
G01 X22.3286 Y-35.4435
G01 X22.3330 Y-35.4591
G01 X22.3346 Y-35.4698
G01 X22.3351 Y-35.4823
G01 X22.3351 Y-52.7344
G01 X22.3372 Y-52.7566
G01 X22.3422 Y-52.7766
G01 X22.3509 Y-52.7972
G01 X22.3617 Y-52.8147
G01 X22.3761 Y-52.8317
G01 X22.3917 Y-52.8451
G01 X22.4106 Y-52.8569
G01 X22.4296 Y-52.8651
G01 X22.4512 Y-52.8706
G01 X22.4631 Y-52.8722
G01 X22.4751 Y-52.8727
G01 X50.2427 Y-52.8727
G01 X50.2606 Y-52.8739
G01 X50.2764 Y-52.8775
G01 X50.2915 Y-52.8833
G01 X50.3056 Y-52.8913
G01 X50.3142 Y-52.8977
G01 X50.3260 Y-52.9089
G01 X50.3328 Y-52.9172
G01 X50.3415 Y-52.9309
G01 X50.3480 Y-52.9457
G01 X50.3512 Y-52.9561
G01 X50.3540 Y-52.9720
G01 X50.3545 Y-52.9845
G01 X50.3545 Y-80.6000
G01 X50.3563 Y-80.6222
G01 X50.3611 Y-80.6423
G01 X50.3687 Y-80.6614
G01 X50.3791 Y-80.6792
G01 X50.3885 Y-80.6914
G01 X50.4005 Y-80.7037
G01 X50.4139 Y-80.7145
G01 X50.4285 Y-80.7235
G01 X50.4441 Y-80.7306
G01 X50.4605 Y-80.7358
G01 X50.4774 Y-80.7389
G01 X50.4945 Y-80.7400
G01 X69.3606 Y-80.7400
G01 X69.3727 Y-80.7395
G01 X69.3846 Y-80.7379
G01 X69.3964 Y-80.7353
G01 X69.4095 Y-80.7312
G01 X69.4206 Y-80.7265
G01 X69.4313 Y-80.7208
G01 X69.4428 Y-80.7133
G01 X69.4523 Y-80.7058
G01 X69.4680 Y-80.6898
G01 X69.4881 Y-80.6625
G01 X69.4990 Y-80.6505
G01 X74.4972 Y-75.5730
G01 X74.5100 Y-75.5611
G01 X74.5226 Y-75.5516
G01 X74.5361 Y-75.5434
G01 X74.5607 Y-75.5321
G01 X74.5729 Y-75.5255
G01 X74.5870 Y-75.5156
G01 X74.5998 Y-75.5041
G01 X74.6079 Y-75.4951
G01 X74.6162 Y-75.4840
G01 X74.6225 Y-75.4737
G01 X74.6279 Y-75.4629
G01 X74.6323 Y-75.4517
G01 X74.6358 Y-75.4401
G01 X74.6385 Y-75.4266
G01 X74.6397 Y-75.4145
G01 X74.6400 Y-4.7787
G01 X74.6395 Y-4.7668
G01 X74.6380 Y-4.7549
G01 X74.6354 Y-4.7432
G01 X74.6313 Y-4.7301
G01 X74.6267 Y-4.7191
G01 X74.6211 Y-4.7085
G01 X74.6137 Y-4.6970
G01 X74.6063 Y-4.6876
G01 X74.5981 Y-4.6789
G01 X74.5892 Y-4.6708
G01 X74.5797 Y-4.6636
G01 X74.5695 Y-4.6572
G01 X74.5494 Y-4.6477
G01 X74.5149 Y-4.6375
G01 X74.4934 Y-4.6282
G01 X74.4735 Y-4.6158
G01 X74.4543 Y-4.5994
G01 X69.8511 Y-0.0756
G01 X69.8354 Y-0.0574
G01 X69.8267 Y-0.0443
G01 X69.8193 Y-0.0305
G01 X69.8108 Y-0.0085
G01 X69.8070 Y0.0068
G01 X69.8023 Y0.0336
G01 X69.7952 Y0.0548
G01 X69.7892 Y0.0672
G01 X69.7820 Y0.0789
G01 X69.7737 Y0.0899
G01 X69.7643 Y0.1000
G01 X69.7554 Y0.1081
G01 X69.7457 Y0.1153
G01 X69.7355 Y0.1217
G01 X69.7232 Y0.1279
G01 X69.7120 Y0.1323
G01 X69.7005 Y0.1358
G01 X69.6886 Y0.1382
G01 X69.6750 Y0.1397
G01 X-0.0000 Y0.1400
G01 X-0.0137 Y0.1393
G01 X-0.0273 Y0.1373
G01 X-0.0406 Y0.1340
G01 X-0.0536 Y0.1293
G01 X-0.0660 Y0.1235
G01 X-0.0778 Y0.1164
G01 X-0.0888 Y0.1082
G01 X-0.0990 Y0.0990
G01 X-0.1082 Y0.0888
G01 X-0.1164 Y0.0778
G01 X-0.1235 Y0.0660
G01 X-0.1293 Y0.0536
G01 X-0.1340 Y0.0406
G01 X-0.1373 Y0.0273
G01 X-0.1393 Y0.0137
G01 X-0.1400 Y0.0000
G00 Z2.0000
G00 X-0.2100 Y0.0000
G01 F70.00
G01 Z-0.0600
G01 F120.00
G01 X-0.2100 Y-35.2305
G01 X-0.2092 Y-35.2485
G01 X-0.2069 Y-35.2664
G01 X-0.2024 Y-35.2865
G01 X-0.1968 Y-35.3036
G01 X-0.1898 Y-35.3203
G01 X-0.1814 Y-35.3362
G01 X-0.1717 Y-35.3514
G01 X-0.1590 Y-35.3676
G01 X-0.1429 Y-35.3843
G01 X-0.1251 Y-35.3991
G01 X-0.1080 Y-35.4106
G01 X-0.0875 Y-35.4214
G01 X-0.0659 Y-35.4299
G01 X-0.0435 Y-35.4359
G01 X-0.0206 Y-35.4395
G01 X0.0000 Y-35.4405
G01 X22.2224 Y-35.4405
G01 X22.2309 Y-35.4410
G01 X22.2366 Y-35.4423
G01 X22.2421 Y-35.4444
G01 X22.2489 Y-35.4484
G01 X22.2560 Y-35.4552
G01 X22.2612 Y-35.4635
G01 X22.2643 Y-35.4728
G01 X22.2651 Y-35.4832
G01 X22.2651 Y-52.7353
G01 X22.2659 Y-52.7507
G01 X22.2682 Y-52.7686
G01 X22.2714 Y-52.7837
G01 X22.2757 Y-52.7985
G01 X22.2811 Y-52.8130
G01 X22.2887 Y-52.8294
G01 X22.2963 Y-52.8428
G01 X22.3049 Y-52.8557
G01 X22.3161 Y-52.8698
G01 X22.3266 Y-52.8812
G01 X22.3380 Y-52.8917
G01 X22.3500 Y-52.9013
G01 X22.3628 Y-52.9101
G01 X22.3784 Y-52.9191
G01 X22.3924 Y-52.9257
G01 X22.4068 Y-52.9313
G01 X22.4216 Y-52.9357
G01 X22.4392 Y-52.9396
G01 X22.4571 Y-52.9419
G01 X22.4751 Y-52.9427
G01 X50.2418 Y-52.9427
G01 X50.2541 Y-52.9439
G01 X50.2615 Y-52.9466
G01 X50.2667 Y-52.9495
G01 X50.2754 Y-52.9574
G01 X50.2806 Y-52.9657
G01 X50.2837 Y-52.9750
G01 X50.2845 Y-52.9854
G01 X50.2845 Y-80.6000
G01 X50.2851 Y-80.6154
G01 X50.2868 Y-80.6308
G01 X50.2896 Y-80.6460
G01 X50.2936 Y-80.6610
G01 X50.2986 Y-80.6756
G01 X50.3047 Y-80.6898
G01 X50.3118 Y-80.7035
G01 X50.3214 Y-80.7188
G01 X50.3372 Y-80.7391
G01 X50.3554 Y-80.7573
G01 X50.3757 Y-80.7732
G01 X50.3978 Y-80.7864
G01 X50.4189 Y-80.7959
G01 X50.4435 Y-80.8037
G01 X50.4688 Y-80.8084
G01 X50.4945 Y-80.8100
G01 X69.3606 Y-80.8100
G01 X69.3787 Y-80.8092
G01 X69.3992 Y-80.8064
G01 X69.4168 Y-80.8023
G01 X69.4340 Y-80.7968
G01 X69.4507 Y-80.7897
G01 X69.4689 Y-80.7799
G01 X69.4840 Y-80.7699
G01 X69.4981 Y-80.7587
G01 X69.5095 Y-80.7481
G01 X69.5200 Y-80.7367
G01 X69.5423 Y-80.7069
G01 X69.5495 Y-80.6990
G01 X74.5464 Y-75.6227
G01 X74.5548 Y-75.6149
G01 X74.5656 Y-75.6072
G01 X74.5980 Y-75.5916
G01 X74.6180 Y-75.5796
G01 X74.6345 Y-75.5672
G01 X74.6498 Y-75.5531
G01 X74.6619 Y-75.5397
G01 X74.6743 Y-75.5231
G01 X74.6837 Y-75.5076
G01 X74.6918 Y-75.4914
G01 X74.6985 Y-75.4745
G01 X74.7036 Y-75.4572
G01 X74.7073 Y-75.4394
G01 X74.7096 Y-75.4189
G01 X74.7100 Y-4.7787
G01 X74.7092 Y-4.7608
G01 X74.7065 Y-4.7404
G01 X74.7025 Y-4.7229
G01 X74.6969 Y-4.7059
G01 X74.6889 Y-4.6870
G01 X74.6804 Y-4.6712
G01 X74.6705 Y-4.6562
G01 X74.6594 Y-4.6420
G01 X74.6472 Y-4.6289
G01 X74.6338 Y-4.6169
G01 X74.6216 Y-4.6075
G01 X74.6065 Y-4.5978
G01 X74.5907 Y-4.5893
G01 X74.5766 Y-4.5832
G01 X74.5620 Y-4.5781
G01 X74.5381 Y-4.5714
G01 X74.5299 Y-4.5681
G01 X74.5147 Y-4.5592
G01 X74.5028 Y-4.5489
G01 X69.9010 Y-0.0265
G01 X69.8891 Y-0.0120
G01 X69.8808 Y0.0035
G01 X69.8766 Y0.0161
G01 X69.8719 Y0.0428
G01 X69.8675 Y0.0603
G01 X69.8616 Y0.0774
G01 X69.8542 Y0.0939
G01 X69.8454 Y0.1097
G01 X69.8353 Y0.1247
G01 X69.8240 Y0.1388
G01 X69.8133 Y0.1500
G01 X69.7999 Y0.1621
G01 X69.7854 Y0.1730
G01 X69.7678 Y0.1838
G01 X69.7517 Y0.1919
G01 X69.7348 Y0.1985
G01 X69.7150 Y0.2043
G01 X69.6972 Y0.2077
G01 X69.6793 Y0.2096
G01 X-0.0000 Y0.2100
G01 X-0.0206 Y0.2090
G01 X-0.0410 Y0.2060
G01 X-0.0610 Y0.2010
G01 X-0.0804 Y0.1940
G01 X-0.0990 Y0.1852
G01 X-0.1167 Y0.1746
G01 X-0.1332 Y0.1623
G01 X-0.1485 Y0.1485
G01 X-0.1623 Y0.1332
G01 X-0.1746 Y0.1167
G01 X-0.1852 Y0.0990
G01 X-0.1940 Y0.0804
G01 X-0.2010 Y0.0610
G01 X-0.2060 Y0.0410
G01 X-0.2090 Y0.0206
G01 X-0.2100 Y0.0000
G00 Z2.0000
G00 X-0.2800 Y0.0000
G01 F70.00
G01 Z-0.0600
G01 F120.00
G01 X-0.2800 Y-35.2305
G01 X-0.2790 Y-35.2545
G01 X-0.2759 Y-35.2783
G01 X-0.2699 Y-35.3052
G01 X-0.2625 Y-35.3280
G01 X-0.2516 Y-35.3533
G01 X-0.2402 Y-35.3744
G01 X-0.2269 Y-35.3945
G01 X-0.2120 Y-35.4134
G01 X-0.1906 Y-35.4356
G01 X-0.1668 Y-35.4554
G01 X-0.1439 Y-35.4706
G01 X-0.1166 Y-35.4850
G01 X-0.0878 Y-35.4963
G01 X-0.0613 Y-35.5037
G01 X-0.0309 Y-35.5088
G01 X0.0000 Y-35.5105
G01 X22.1951 Y-35.5105
G01 X22.1951 Y-52.7361
G01 X22.1962 Y-52.7567
G01 X22.1992 Y-52.7805
G01 X22.2035 Y-52.8007
G01 X22.2093 Y-52.8205
G01 X22.2178 Y-52.8430
G01 X22.2266 Y-52.8616
G01 X22.2367 Y-52.8796
G01 X22.2482 Y-52.8967
G01 X22.2631 Y-52.9156
G01 X22.2771 Y-52.9307
G01 X22.2922 Y-52.9447
G01 X22.3083 Y-52.9576
G01 X22.3253 Y-52.9692
G01 X22.3462 Y-52.9812
G01 X22.3648 Y-52.9900
G01 X22.3840 Y-52.9974
G01 X22.4071 Y-53.0043
G01 X22.4306 Y-53.0091
G01 X22.4545 Y-53.0119
G01 X22.4751 Y-53.0127
G01 X50.2145 Y-53.0127
G01 X50.2145 Y-80.6000
G01 X50.2153 Y-80.6206
G01 X50.2181 Y-80.6445
G01 X50.2221 Y-80.6647
G01 X50.2276 Y-80.6846
G01 X50.2345 Y-80.7040
G01 X50.2444 Y-80.7259
G01 X50.2544 Y-80.7439
G01 X50.2656 Y-80.7612
G01 X50.2848 Y-80.7855
G01 X50.2965 Y-80.7980
G01 X50.3090 Y-80.8098
G01 X50.3223 Y-80.8207
G01 X50.3361 Y-80.8309
G01 X50.3506 Y-80.8402
G01 X50.3656 Y-80.8485
G01 X50.3938 Y-80.8612
G01 X50.4100 Y-80.8669
G01 X50.4265 Y-80.8716
G01 X50.4433 Y-80.8753
G01 X50.4603 Y-80.8779
G01 X50.4774 Y-80.8795
G01 X50.4945 Y-80.8800
G01 X69.3606 Y-80.8800
G01 X69.3847 Y-80.8790
G01 X69.4120 Y-80.8752
G01 X69.4355 Y-80.8698
G01 X69.4585 Y-80.8623
G01 X69.4807 Y-80.8529
G01 X69.5020 Y-80.8417
G01 X69.5223 Y-80.8286
G01 X69.5440 Y-80.8116
G01 X69.5591 Y-80.7975
G01 X69.5709 Y-80.7849
G01 X69.5819 Y-80.7716
G01 X69.5958 Y-80.7521
G01 X69.6000 Y-80.7475
G01 X74.5957 Y-75.6724
G01 X74.6029 Y-75.6665
G01 X74.6307 Y-75.6535
G01 X74.6573 Y-75.6375
G01 X74.6794 Y-75.6209
G01 X74.6997 Y-75.6022
G01 X74.7158 Y-75.5843
G01 X74.7304 Y-75.5650
G01 X74.7433 Y-75.5445
G01 X74.7557 Y-75.5199
G01 X74.7646 Y-75.4974
G01 X74.7715 Y-75.4743
G01 X74.7764 Y-75.4506
G01 X74.7795 Y-75.4232
G01 X74.7800 Y-75.4059
G01 X74.7800 Y-4.7787
G01 X74.7790 Y-4.7548
G01 X74.7759 Y-4.7311
G01 X74.7708 Y-4.7077
G01 X74.7626 Y-4.6816
G01 X74.7533 Y-4.6595
G01 X74.7422 Y-4.6383
G01 X74.7293 Y-4.6181
G01 X74.7126 Y-4.5965
G01 X74.6962 Y-4.5790
G01 X74.6810 Y-4.5651
G01 X74.6649 Y-4.5524
G01 X74.6450 Y-4.5392
G01 X74.6301 Y-4.5308
G01 X74.6116 Y-4.5219
G01 X74.5892 Y-4.5133
G01 X74.5603 Y-4.5050
G01 X74.5560 Y-4.5026
G01 X74.5512 Y-4.4984
G01 X69.9509 Y0.0227
G01 X69.9473 Y0.0269
G01 X69.9448 Y0.0322
G01 X69.9398 Y0.0604
G01 X69.9325 Y0.0870
G01 X69.9254 Y0.1064
G01 X69.9168 Y0.1252
G01 X69.9051 Y0.1463
G01 X69.8916 Y0.1663
G01 X69.8788 Y0.1824
G01 X69.8623 Y0.2000
G01 X69.8444 Y0.2161
G01 X69.8251 Y0.2306
G01 X69.8017 Y0.2451
G01 X69.7801 Y0.2559
G01 X69.7544 Y0.2658
G01 X69.7312 Y0.2724
G01 X69.7075 Y0.2770
G01 X69.6836 Y0.2795
G01 X69.6664 Y0.2800
G01 X-0.0000 Y0.2800
G01 X-0.0274 Y0.2787
G01 X-0.0546 Y0.2746
G01 X-0.0813 Y0.2679
G01 X-0.1072 Y0.2587
G01 X-0.1320 Y0.2469
G01 X-0.1556 Y0.2328
G01 X-0.1776 Y0.2164
G01 X-0.1980 Y0.1980
G01 X-0.2164 Y0.1776
G01 X-0.2328 Y0.1556
G01 X-0.2469 Y0.1320
G01 X-0.2587 Y0.1072
G01 X-0.2679 Y0.0813
G01 X-0.2746 Y0.0546
G01 X-0.2787 Y0.0274
G01 X-0.2800 Y0.0000
G00 Z2.0000
G00 X-0.3500 Y0.0000
G01 F70.00
G01 Z-0.0600
G01 F120.00
G01 X-0.3500 Y-35.2305
G01 X-0.3487 Y-35.2605
G01 X-0.3448 Y-35.2903
G01 X-0.3384 Y-35.3197
G01 X-0.3281 Y-35.3524
G01 X-0.3164 Y-35.3801
G01 X-0.3024 Y-35.4067
G01 X-0.2837 Y-35.4355
G01 X-0.2650 Y-35.4591
G01 X-0.2535 Y-35.4718
G01 X-0.2382 Y-35.4869
G01 X-0.2253 Y-35.4983
G01 X-0.2085 Y-35.5116
G01 X-0.1799 Y-35.5307
G01 X-0.1612 Y-35.5411
G01 X-0.1458 Y-35.5487
G01 X-0.1260 Y-35.5570
G01 X-0.1098 Y-35.5628
G01 X-0.0767 Y-35.5720
G01 X-0.0556 Y-35.5760
G01 X-0.0386 Y-35.5783
G01 X-0.0215 Y-35.5798
G01 X0.0000 Y-35.5805
G01 X22.1251 Y-35.5805
G01 X22.1252 Y-52.7370
G01 X22.1264 Y-52.7627
G01 X22.1303 Y-52.7925
G01 X22.1356 Y-52.8177
G01 X22.1428 Y-52.8425
G01 X22.1534 Y-52.8706
G01 X22.1645 Y-52.8939
G01 X22.1772 Y-52.9163
G01 X22.1915 Y-52.9377
G01 X22.2073 Y-52.9580
G01 X22.2276 Y-52.9802
G01 X22.2465 Y-52.9977
G01 X22.2666 Y-53.0138
G01 X22.2879 Y-53.0284
G01 X22.3139 Y-53.0433
G01 X22.3372 Y-53.0544
G01 X22.3613 Y-53.0636
G01 X22.3901 Y-53.0722
G01 X22.4195 Y-53.0782
G01 X22.4494 Y-53.0817
G01 X22.4751 Y-53.0827
G01 X50.1445 Y-53.0827
G01 X50.1445 Y-80.6000
G01 X50.1455 Y-80.6257
G01 X50.1483 Y-80.6514
G01 X50.1530 Y-80.6767
G01 X50.1609 Y-80.7057
G01 X50.1695 Y-80.7300
G01 X50.1800 Y-80.7535
G01 X50.1943 Y-80.7799
G01 X50.2084 Y-80.8015
G01 X50.2213 Y-80.8187
G01 X50.2352 Y-80.8350
G01 X50.2501 Y-80.8505
G01 X50.2659 Y-80.8650
G01 X50.2826 Y-80.8785
G01 X50.2965 Y-80.8886
G01 X50.3146 Y-80.9002
G01 X50.3333 Y-80.9107
G01 X50.3527 Y-80.9200
G01 X50.3726 Y-80.9281
G01 X50.3929 Y-80.9349
G01 X50.4095 Y-80.9395
G01 X50.4305 Y-80.9441
G01 X50.4517 Y-80.9474
G01 X50.4731 Y-80.9493
G01 X50.4945 Y-80.9500
G01 X69.3606 Y-80.9500
G01 X69.3907 Y-80.9487
G01 X69.4249 Y-80.9440
G01 X69.4543 Y-80.9372
G01 X69.4829 Y-80.9279
G01 X69.5107 Y-80.9162
G01 X69.5374 Y-80.9021
G01 X69.5627 Y-80.8857
G01 X69.5898 Y-80.8645
G01 X69.6087 Y-80.8468
G01 X69.6234 Y-80.8311
G01 X69.6372 Y-80.8145
G01 X69.6508 Y-80.7956
G01 X74.6409 Y-75.7263
G01 X74.6709 Y-75.7113
G01 X74.7002 Y-75.6930
G01 X74.7275 Y-75.6719
G01 X74.7526 Y-75.6482
G01 X74.7725 Y-75.6255
G01 X74.7905 Y-75.6012
G01 X74.8062 Y-75.5754
G01 X74.8197 Y-75.5484
G01 X74.8308 Y-75.5203
G01 X74.8404 Y-75.4872
G01 X74.8462 Y-75.4575
G01 X74.8493 Y-75.4275
G01 X74.8500 Y-75.4059
G01 X74.8500 Y-4.7787
G01 X74.8487 Y-4.7488
G01 X74.8449 Y-4.7191
G01 X74.8374 Y-4.6858
G01 X74.8282 Y-4.6573
G01 X74.8167 Y-4.6297
G01 X74.8028 Y-4.6032
G01 X74.7842 Y-4.5744
G01 X74.7657 Y-4.5509
G01 X74.7483 Y-4.5321
G01 X74.7296 Y-4.5145
G01 X74.7096 Y-4.4984
G01 X74.6885 Y-4.4838
G01 X74.6664 Y-4.4708
G01 X74.6434 Y-4.4594
G01 X74.6196 Y-4.4498
G01 X74.5931 Y-4.4413
G01 X70.0108 Y0.0619
G01 X70.0051 Y0.0881
G01 X69.9977 Y0.1128
G01 X69.9884 Y0.1370
G01 X69.9755 Y0.1642
G01 X69.9625 Y0.1865
G01 X69.9454 Y0.2113
G01 X69.9262 Y0.2345
G01 X69.9082 Y0.2530
G01 X69.8821 Y0.2756
G01 X69.8576 Y0.2931
G01 X69.8317 Y0.3085
G01 X69.8046 Y0.3216
G01 X69.7764 Y0.3322
G01 X69.7474 Y0.3405
G01 X69.7178 Y0.3462
G01 X69.6879 Y0.3493
G01 X69.6664 Y0.3500
G01 X-0.0000 Y0.3500
G01 X-0.0343 Y0.3483
G01 X-0.0683 Y0.3433
G01 X-0.1016 Y0.3349
G01 X-0.1339 Y0.3234
G01 X-0.1650 Y0.3087
G01 X-0.1944 Y0.2910
G01 X-0.2220 Y0.2706
G01 X-0.2475 Y0.2475
G01 X-0.2706 Y0.2220
G01 X-0.2910 Y0.1944
G01 X-0.3087 Y0.1650
G01 X-0.3234 Y0.1339
G01 X-0.3349 Y0.1016
G01 X-0.3433 Y0.0683
G01 X-0.3483 Y0.0343
G01 X-0.3500 Y0.0000
G00 Z2.0000
G00 X2.0199 Y-2.0000
G01 F70.00
G01 Z-0.0600
G01 F120.00
G01 X2.0184 Y-1.9924
G01 X2.0141 Y-1.9859
G01 X2.0076 Y-1.9816
G01 X2.0000 Y-1.9801
G01 X1.9924 Y-1.9816
G01 X1.9859 Y-1.9859
G01 X1.9816 Y-1.9924
G01 X1.9801 Y-2.0000
G01 X1.9816 Y-2.0076
G01 X1.9859 Y-2.0141
G01 X1.9924 Y-2.0184
G01 X2.0000 Y-2.0199
G01 X2.0076 Y-2.0184
G01 X2.0141 Y-2.0141
G01 X2.0184 Y-2.0076
G01 X2.0199 Y-2.0000
G00 Z2.0000
G00 X2.0899 Y-2.0000
G01 F70.00
G01 Z-0.0600
G01 F120.00
G01 X2.0882 Y-1.9825
G01 X2.0831 Y-1.9656
G01 X2.0748 Y-1.9500
G01 X2.0636 Y-1.9364
G01 X2.0500 Y-1.9252
G01 X2.0344 Y-1.9169
G01 X2.0175 Y-1.9118
G01 X2.0000 Y-1.9101
G01 X1.9825 Y-1.9118
G01 X1.9656 Y-1.9169
G01 X1.9500 Y-1.9252
G01 X1.9364 Y-1.9364
G01 X1.9252 Y-1.9500
G01 X1.9169 Y-1.9656
G01 X1.9118 Y-1.9825
G01 X1.9101 Y-2.0000
G01 X1.9118 Y-2.0175
G01 X1.9169 Y-2.0344
G01 X1.9252 Y-2.0500
G01 X1.9364 Y-2.0636
G01 X1.9500 Y-2.0748
G01 X1.9656 Y-2.0831
G01 X1.9825 Y-2.0882
G01 X2.0000 Y-2.0899
G01 X2.0175 Y-2.0882
G01 X2.0344 Y-2.0831
G01 X2.0500 Y-2.0748
G01 X2.0636 Y-2.0636
G01 X2.0748 Y-2.0500
G01 X2.0831 Y-2.0344
G01 X2.0882 Y-2.0175
G01 X2.0899 Y-2.0000
G00 Z2.0000
G00 X2.1600 Y-2.0000
G01 F70.00
G01 Z-0.0600
G01 F120.00
G01 X2.1592 Y-1.9843
G01 X2.1569 Y-1.9688
G01 X2.1531 Y-1.9536
G01 X2.1478 Y-1.9388
G01 X2.1411 Y-1.9246
G01 X2.1330 Y-1.9111
G01 X2.1236 Y-1.8985
G01 X2.1131 Y-1.8869
G01 X2.1015 Y-1.8764
G01 X2.0889 Y-1.8670
G01 X2.0754 Y-1.8589
G01 X2.0612 Y-1.8522
G01 X2.0464 Y-1.8469
G01 X2.0312 Y-1.8431
G01 X2.0157 Y-1.8408
G01 X2.0000 Y-1.8400
G01 X1.9843 Y-1.8408
G01 X1.9688 Y-1.8431
G01 X1.9536 Y-1.8469
G01 X1.9388 Y-1.8522
G01 X1.9246 Y-1.8589
G01 X1.9111 Y-1.8670
G01 X1.8985 Y-1.8764
G01 X1.8869 Y-1.8869
G01 X1.8764 Y-1.8985
G01 X1.8670 Y-1.9111
G01 X1.8589 Y-1.9246
G01 X1.8522 Y-1.9388
G01 X1.8469 Y-1.9536
G01 X1.8431 Y-1.9688
G01 X1.8408 Y-1.9843
G01 X1.8400 Y-2.0000
G01 X1.8408 Y-2.0157
G01 X1.8431 Y-2.0312
G01 X1.8469 Y-2.0464
G01 X1.8522 Y-2.0612
G01 X1.8589 Y-2.0754
G01 X1.8670 Y-2.0889
G01 X1.8764 Y-2.1015
G01 X1.8869 Y-2.1131
G01 X1.8985 Y-2.1236
G01 X1.9111 Y-2.1330
G01 X1.9246 Y-2.1411
G01 X1.9388 Y-2.1478
G01 X1.9536 Y-2.1531
G01 X1.9688 Y-2.1569
G01 X1.9843 Y-2.1592
G01 X2.0000 Y-2.1600
G01 X2.0157 Y-2.1592
G01 X2.0312 Y-2.1569
G01 X2.0464 Y-2.1531
G01 X2.0612 Y-2.1478
G01 X2.0754 Y-2.1411
G01 X2.0889 Y-2.1330
G01 X2.1015 Y-2.1236
G01 X2.1131 Y-2.1131
G01 X2.1236 Y-2.1015
G01 X2.1330 Y-2.0889
G01 X2.1411 Y-2.0754
G01 X2.1478 Y-2.0612
G01 X2.1531 Y-2.0464
G01 X2.1569 Y-2.0312
G01 X2.1592 Y-2.0157
G01 X2.1600 Y-2.0000
G00 Z2.0000
G00 X2.2300 Y-2.0000
G01 F70.00
G01 Z-0.0600
G01 F120.00
G01 X2.2289 Y-1.9775
G01 X2.2256 Y-1.9551
G01 X2.2201 Y-1.9332
G01 X2.2125 Y-1.9120
G01 X2.2028 Y-1.8916
G01 X2.1912 Y-1.8722
G01 X2.1778 Y-1.8541
G01 X2.1626 Y-1.8374
G01 X2.1459 Y-1.8222
G01 X2.1278 Y-1.8088
G01 X2.1084 Y-1.7972
G01 X2.0880 Y-1.7875
G01 X2.0668 Y-1.7799
G01 X2.0449 Y-1.7744
G01 X2.0225 Y-1.7711
G01 X2.0000 Y-1.7700
G01 X1.9775 Y-1.7711
G01 X1.9551 Y-1.7744
G01 X1.9332 Y-1.7799
G01 X1.9120 Y-1.7875
G01 X1.8916 Y-1.7972
G01 X1.8722 Y-1.8088
G01 X1.8541 Y-1.8222
G01 X1.8374 Y-1.8374
G01 X1.8222 Y-1.8541
G01 X1.8088 Y-1.8722
G01 X1.7972 Y-1.8916
G01 X1.7875 Y-1.9120
G01 X1.7799 Y-1.9332
G01 X1.7744 Y-1.9551
G01 X1.7711 Y-1.9775
G01 X1.7700 Y-2.0000
G01 X1.7711 Y-2.0225
G01 X1.7744 Y-2.0449
G01 X1.7799 Y-2.0668
G01 X1.7875 Y-2.0880
G01 X1.7972 Y-2.1084
G01 X1.8088 Y-2.1278
G01 X1.8222 Y-2.1459
G01 X1.8374 Y-2.1626
G01 X1.8541 Y-2.1778
G01 X1.8722 Y-2.1912
G01 X1.8916 Y-2.2028
G01 X1.9120 Y-2.2125
G01 X1.9332 Y-2.2201
G01 X1.9551 Y-2.2256
G01 X1.9775 Y-2.2289
G01 X2.0000 Y-2.2300
G01 X2.0225 Y-2.2289
G01 X2.0449 Y-2.2256
G01 X2.0668 Y-2.2201
G01 X2.0880 Y-2.2125
G01 X2.1084 Y-2.2028
G01 X2.1278 Y-2.1912
G01 X2.1459 Y-2.1778
G01 X2.1626 Y-2.1626
G01 X2.1778 Y-2.1459
G01 X2.1912 Y-2.1278
G01 X2.2028 Y-2.1084
G01 X2.2125 Y-2.0880
G01 X2.2201 Y-2.0668
G01 X2.2256 Y-2.0449
G01 X2.2289 Y-2.0225
G01 X2.2300 Y-2.0000
G00 Z2.0000
G00 X3.4424 Y-5.4975
G01 F70.00
G01 Z-0.0600
G01 F120.00
G01 X3.4414 Y-5.4878
G01 X3.4386 Y-5.4784
G01 X3.4340 Y-5.4698
G01 X3.4278 Y-5.4622
G01 X3.4202 Y-5.4560
G01 X3.4116 Y-5.4514
G01 X3.4022 Y-5.4486
G01 X3.3925 Y-5.4476
G01 X3.3828 Y-5.4486
G01 X3.3734 Y-5.4514
G01 X3.3648 Y-5.4560
G01 X3.3572 Y-5.4622
G01 X3.3510 Y-5.4698
G01 X3.3464 Y-5.4784
G01 X3.3436 Y-5.4878
G01 X3.3426 Y-5.4975
G01 X3.3436 Y-5.5072
G01 X3.3464 Y-5.5166
G01 X3.3510 Y-5.5252
G01 X3.3572 Y-5.5328
G01 X3.3648 Y-5.5390
G01 X3.3734 Y-5.5436
G01 X3.3828 Y-5.5464
G01 X3.3925 Y-5.5474
G01 X3.4022 Y-5.5464
G01 X3.4116 Y-5.5436
G01 X3.4202 Y-5.5390
G01 X3.4278 Y-5.5328
G01 X3.4340 Y-5.5252
G01 X3.4386 Y-5.5166
G01 X3.4414 Y-5.5072
G01 X3.4424 Y-5.4975
G00 Z2.0000
G00 X3.5124 Y-5.4975
G01 F70.00
G01 Z-0.0600
G01 F120.00
G01 X3.5118 Y-5.4857
G01 X3.5101 Y-5.4741
G01 X3.5073 Y-5.4627
G01 X3.5033 Y-5.4516
G01 X3.4983 Y-5.4410
G01 X3.4922 Y-5.4309
G01 X3.4852 Y-5.4214
G01 X3.4773 Y-5.4127
G01 X3.4686 Y-5.4048
G01 X3.4591 Y-5.3978
G01 X3.4490 Y-5.3917
G01 X3.4384 Y-5.3867
G01 X3.4273 Y-5.3827
G01 X3.4159 Y-5.3799
G01 X3.4043 Y-5.3782
G01 X3.3925 Y-5.3776
G01 X3.3807 Y-5.3782
G01 X3.3691 Y-5.3799
G01 X3.3577 Y-5.3827
G01 X3.3466 Y-5.3867
G01 X3.3360 Y-5.3917
G01 X3.3259 Y-5.3978
G01 X3.3164 Y-5.4048
G01 X3.3077 Y-5.4127
G01 X3.2998 Y-5.4214
G01 X3.2928 Y-5.4309
G01 X3.2867 Y-5.4410
G01 X3.2817 Y-5.4516
G01 X3.2777 Y-5.4627
G01 X3.2749 Y-5.4741
G01 X3.2732 Y-5.4857
G01 X3.2726 Y-5.4975
G01 X3.2732 Y-5.5093
G01 X3.2749 Y-5.5209
G01 X3.2777 Y-5.5323
G01 X3.2817 Y-5.5434
G01 X3.2867 Y-5.5540
G01 X3.2928 Y-5.5641
G01 X3.2998 Y-5.5736
G01 X3.3077 Y-5.5823
G01 X3.3164 Y-5.5902
G01 X3.3259 Y-5.5972
G01 X3.3360 Y-5.6033
G01 X3.3466 Y-5.6083
G01 X3.3577 Y-5.6123
G01 X3.3691 Y-5.6151
G01 X3.3807 Y-5.6168
G01 X3.3925 Y-5.6174
G01 X3.4043 Y-5.6168
G01 X3.4159 Y-5.6151
G01 X3.4273 Y-5.6123
G01 X3.4384 Y-5.6083
G01 X3.4490 Y-5.6033
G01 X3.4591 Y-5.5972
G01 X3.4686 Y-5.5902
G01 X3.4773 Y-5.5823
G01 X3.4852 Y-5.5736
G01 X3.4922 Y-5.5641
G01 X3.4983 Y-5.5540
G01 X3.5033 Y-5.5434
G01 X3.5073 Y-5.5323
G01 X3.5101 Y-5.5209
G01 X3.5118 Y-5.5093
G01 X3.5124 Y-5.4975
G00 Z2.0000
G00 X3.5824 Y-5.4975
G01 F70.00
G01 Z-0.0600
G01 F120.00
G01 X3.5815 Y-5.4789
G01 X3.5788 Y-5.4604
G01 X3.5743 Y-5.4424
G01 X3.5680 Y-5.4248
G01 X3.5600 Y-5.4080
G01 X3.5504 Y-5.3920
G01 X3.5393 Y-5.3770
G01 X3.5268 Y-5.3632
G01 X3.5130 Y-5.3507
G01 X3.4980 Y-5.3396
G01 X3.4820 Y-5.3300
G01 X3.4652 Y-5.3220
G01 X3.4476 Y-5.3157
G01 X3.4296 Y-5.3112
G01 X3.4111 Y-5.3085
G01 X3.3925 Y-5.3076
G01 X3.3739 Y-5.3085
G01 X3.3554 Y-5.3112
G01 X3.3374 Y-5.3157
G01 X3.3198 Y-5.3220
G01 X3.3030 Y-5.3300
G01 X3.2870 Y-5.3396
G01 X3.2720 Y-5.3507
G01 X3.2582 Y-5.3632
G01 X3.2457 Y-5.3770
G01 X3.2346 Y-5.3920
G01 X3.2250 Y-5.4080
G01 X3.2170 Y-5.4248
G01 X3.2107 Y-5.4424
G01 X3.2062 Y-5.4604
G01 X3.2035 Y-5.4789
G01 X3.2026 Y-5.4975
G01 X3.2035 Y-5.5161
G01 X3.2062 Y-5.5346
G01 X3.2107 Y-5.5526
G01 X3.2170 Y-5.5702
G01 X3.2250 Y-5.5870
G01 X3.2346 Y-5.6030
G01 X3.2457 Y-5.6180
G01 X3.2582 Y-5.6318
G01 X3.2720 Y-5.6443
G01 X3.2870 Y-5.6554
G01 X3.3030 Y-5.6650
G01 X3.3198 Y-5.6730
G01 X3.3374 Y-5.6793
G01 X3.3554 Y-5.6838
G01 X3.3739 Y-5.6865
G01 X3.3925 Y-5.6874
G01 X3.4111 Y-5.6865
G01 X3.4296 Y-5.6838
G01 X3.4476 Y-5.6793
G01 X3.4652 Y-5.6730
G01 X3.4820 Y-5.6650
G01 X3.4980 Y-5.6554
G01 X3.5130 Y-5.6443
G01 X3.5268 Y-5.6318
G01 X3.5393 Y-5.6180
G01 X3.5504 Y-5.6030
G01 X3.5600 Y-5.5870
G01 X3.5680 Y-5.5702
G01 X3.5743 Y-5.5526
G01 X3.5788 Y-5.5346
G01 X3.5815 Y-5.5161
G01 X3.5824 Y-5.4975
G00 Z2.0000
G00 X3.6525 Y-5.4975
G01 F70.00
G01 Z-0.0600
G01 F120.00
G01 X3.6512 Y-5.4720
G01 X3.6475 Y-5.4468
G01 X3.6413 Y-5.4220
G01 X3.6327 Y-5.3980
G01 X3.6218 Y-5.3750
G01 X3.6086 Y-5.3531
G01 X3.5935 Y-5.3326
G01 X3.5763 Y-5.3137
G01 X3.5574 Y-5.2965
G01 X3.5369 Y-5.2814
G01 X3.5150 Y-5.2682
G01 X3.4920 Y-5.2573
G01 X3.4680 Y-5.2487
G01 X3.4432 Y-5.2425
G01 X3.4180 Y-5.2388
G01 X3.3925 Y-5.2375
G01 X3.3670 Y-5.2388
G01 X3.3418 Y-5.2425
G01 X3.3170 Y-5.2487
G01 X3.2930 Y-5.2573
G01 X3.2700 Y-5.2682
G01 X3.2481 Y-5.2814
G01 X3.2276 Y-5.2965
G01 X3.2087 Y-5.3137
G01 X3.1915 Y-5.3326
G01 X3.1764 Y-5.3531
G01 X3.1632 Y-5.3750
G01 X3.1523 Y-5.3980
G01 X3.1437 Y-5.4220
G01 X3.1375 Y-5.4468
G01 X3.1338 Y-5.4720
G01 X3.1325 Y-5.4975
G01 X3.1338 Y-5.5230
G01 X3.1375 Y-5.5482
G01 X3.1437 Y-5.5730
G01 X3.1523 Y-5.5970
G01 X3.1632 Y-5.6200
G01 X3.1764 Y-5.6419
G01 X3.1915 Y-5.6624
G01 X3.2087 Y-5.6813
G01 X3.2276 Y-5.6985
G01 X3.2481 Y-5.7136
G01 X3.2700 Y-5.7268
G01 X3.2930 Y-5.7377
G01 X3.3170 Y-5.7463
G01 X3.3418 Y-5.7525
G01 X3.3670 Y-5.7562
G01 X3.3925 Y-5.7575
G01 X3.4180 Y-5.7562
G01 X3.4432 Y-5.7525
G01 X3.4680 Y-5.7463
G01 X3.4920 Y-5.7377
G01 X3.5150 Y-5.7268
G01 X3.5369 Y-5.7136
G01 X3.5574 Y-5.6985
G01 X3.5763 Y-5.6813
G01 X3.5935 Y-5.6624
G01 X3.6086 Y-5.6419
G01 X3.6218 Y-5.6200
G01 X3.6327 Y-5.5970
G01 X3.6413 Y-5.5730
G01 X3.6475 Y-5.5482
G01 X3.6512 Y-5.5230
G01 X3.6525 Y-5.4975
G00 Z2.0000
G00 X3.7225 Y-5.4975
G01 F70.00
G01 Z-0.0600
G01 F120.00
G01 X3.7209 Y-5.4652
G01 X3.7161 Y-5.4331
G01 X3.7083 Y-5.4017
G01 X3.6974 Y-5.3712
G01 X3.6835 Y-5.3419
G01 X3.6669 Y-5.3142
G01 X3.6476 Y-5.2882
G01 X3.6258 Y-5.2642
G01 X3.6018 Y-5.2424
G01 X3.5758 Y-5.2231
G01 X3.5481 Y-5.2065
G01 X3.5188 Y-5.1926
G01 X3.4883 Y-5.1817
G01 X3.4569 Y-5.1739
G01 X3.4248 Y-5.1691
G01 X3.3925 Y-5.1675
G01 X3.3602 Y-5.1691
G01 X3.3281 Y-5.1739
G01 X3.2967 Y-5.1817
G01 X3.2662 Y-5.1926
G01 X3.2369 Y-5.2065
G01 X3.2092 Y-5.2231
G01 X3.1832 Y-5.2424
G01 X3.1592 Y-5.2642
G01 X3.1374 Y-5.2882
G01 X3.1181 Y-5.3142
G01 X3.1015 Y-5.3419
G01 X3.0876 Y-5.3712
G01 X3.0767 Y-5.4017
G01 X3.0689 Y-5.4331
G01 X3.0641 Y-5.4652
G01 X3.0625 Y-5.4975
G01 X3.0641 Y-5.5298
G01 X3.0689 Y-5.5619
G01 X3.0767 Y-5.5933
G01 X3.0876 Y-5.6238
G01 X3.1015 Y-5.6531
G01 X3.1181 Y-5.6808
G01 X3.1374 Y-5.7068
G01 X3.1592 Y-5.7308
G01 X3.1832 Y-5.7526
G01 X3.2092 Y-5.7719
G01 X3.2369 Y-5.7885
G01 X3.2662 Y-5.8024
G01 X3.2967 Y-5.8133
G01 X3.3281 Y-5.8211
G01 X3.3602 Y-5.8259
G01 X3.3925 Y-5.8275
G01 X3.4248 Y-5.8259
G01 X3.4569 Y-5.8211
G01 X3.4883 Y-5.8133
G01 X3.5188 Y-5.8024
G01 X3.5481 Y-5.7885
G01 X3.5758 Y-5.7719
G01 X3.6018 Y-5.7526
G01 X3.6258 Y-5.7308
G01 X3.6476 Y-5.7068
G01 X3.6669 Y-5.6808
G01 X3.6835 Y-5.6531
G01 X3.6974 Y-5.6238
G01 X3.7083 Y-5.5933
G01 X3.7161 Y-5.5619
G01 X3.7209 Y-5.5298
G01 X3.7225 Y-5.4975
G00 Z2.0000
G00 X4.7125 Y-5.4975
G01 F70.00
G01 Z-0.0600
G01 F120.00
G01 X4.7109 Y-5.4327
G01 X4.7061 Y-5.3681
G01 X4.6982 Y-5.3038
G01 X4.6871 Y-5.2400
G01 X4.6729 Y-5.1768
G01 X4.6557 Y-5.1143
G01 X4.6353 Y-5.0528
G01 X4.6120 Y-4.9924
G01 X4.5858 Y-4.9331
G01 X4.5566 Y-4.8753
G01 X4.5247 Y-4.8189
G01 X4.4900 Y-4.7641
G01 X4.4527 Y-4.7112
G01 X4.4129 Y-4.6601
G01 X4.3706 Y-4.6110
G01 X4.3259 Y-4.5641
G01 X4.2790 Y-4.5194
G01 X4.2299 Y-4.4771
G01 X4.1788 Y-4.4373
G01 X4.1259 Y-4.4000
G01 X4.0711 Y-4.3653
G01 X4.0147 Y-4.3334
G01 X3.9569 Y-4.3042
G01 X3.8976 Y-4.2780
G01 X3.8372 Y-4.2547
G01 X3.7757 Y-4.2343
G01 X3.7132 Y-4.2171
G01 X3.6500 Y-4.2029
G01 X3.5862 Y-4.1918
G01 X3.5219 Y-4.1839
G01 X3.4573 Y-4.1791
G01 X3.3925 Y-4.1775
G01 X3.3277 Y-4.1791
G01 X3.2631 Y-4.1839
G01 X3.1988 Y-4.1918
G01 X3.1350 Y-4.2029
G01 X3.0718 Y-4.2171
G01 X3.0093 Y-4.2343
G01 X2.9478 Y-4.2547
G01 X2.8874 Y-4.2780
G01 X2.8281 Y-4.3042
G01 X2.7703 Y-4.3334
G01 X2.7139 Y-4.3653
G01 X2.6591 Y-4.4000
G01 X2.6062 Y-4.4373
G01 X2.5551 Y-4.4771
G01 X2.5060 Y-4.5194
G01 X2.4591 Y-4.5641
G01 X2.4144 Y-4.6110
G01 X2.3721 Y-4.6601
G01 X2.3323 Y-4.7112
G01 X2.2950 Y-4.7641
G01 X2.2603 Y-4.8189
G01 X2.2284 Y-4.8753
G01 X2.1992 Y-4.9331
G01 X2.1730 Y-4.9924
G01 X2.1497 Y-5.0528
G01 X2.1293 Y-5.1143
G01 X2.1121 Y-5.1768
G01 X2.0979 Y-5.2400
G01 X2.0868 Y-5.3038
G01 X2.0789 Y-5.3681
G01 X2.0741 Y-5.4327
G01 X2.0725 Y-5.4975
G01 X2.0741 Y-5.5623
G01 X2.0789 Y-5.6269
G01 X2.0868 Y-5.6912
G01 X2.0979 Y-5.7550
G01 X2.1121 Y-5.8182
G01 X2.1293 Y-5.8807
G01 X2.1497 Y-5.9422
G01 X2.1730 Y-6.0026
G01 X2.1992 Y-6.0619
G01 X2.2284 Y-6.1197
G01 X2.2603 Y-6.1761
G01 X2.2950 Y-6.2309
G01 X2.3323 Y-6.2838
G01 X2.3721 Y-6.3349
G01 X2.4144 Y-6.3840
G01 X2.4591 Y-6.4309
G01 X2.5060 Y-6.4756
G01 X2.5551 Y-6.5179
G01 X2.6062 Y-6.5577
G01 X2.6591 Y-6.5950
G01 X2.7139 Y-6.6297
G01 X2.7703 Y-6.6616
G01 X2.8281 Y-6.6908
G01 X2.8874 Y-6.7170
G01 X2.9478 Y-6.7403
G01 X3.0093 Y-6.7607
G01 X3.0718 Y-6.7779
G01 X3.1350 Y-6.7921
G01 X3.1988 Y-6.8032
G01 X3.2631 Y-6.8111
G01 X3.3277 Y-6.8159
G01 X3.3925 Y-6.8175
G01 X3.4573 Y-6.8159
G01 X3.5219 Y-6.8111
G01 X3.5862 Y-6.8032
G01 X3.6500 Y-6.7921
G01 X3.7132 Y-6.7779
G01 X3.7757 Y-6.7607
G01 X3.8372 Y-6.7403
G01 X3.8976 Y-6.7170
G01 X3.9569 Y-6.6908
G01 X4.0147 Y-6.6616
G01 X4.0711 Y-6.6297
G01 X4.1259 Y-6.5950
G01 X4.1788 Y-6.5577
G01 X4.2299 Y-6.5179
G01 X4.2790 Y-6.4756
G01 X4.3259 Y-6.4309
G01 X4.3706 Y-6.3840
G01 X4.4129 Y-6.3349
G01 X4.4527 Y-6.2838
G01 X4.4900 Y-6.2309
G01 X4.5247 Y-6.1761
G01 X4.5566 Y-6.1197
G01 X4.5858 Y-6.0619
G01 X4.6120 Y-6.0026
G01 X4.6353 Y-5.9422
G01 X4.6557 Y-5.8807
G01 X4.6729 Y-5.8182
G01 X4.6871 Y-5.7550
G01 X4.6982 Y-5.6912
G01 X4.7061 Y-5.6269
G01 X4.7109 Y-5.5623
G01 X4.7125 Y-5.4975
G00 Z2.0000
G00 X4.7825 Y-5.4975
G01 F70.00
G01 Z-0.0600
G01 F120.00
G01 X4.7808 Y-5.4293
G01 X4.7758 Y-5.3613
G01 X4.7675 Y-5.2935
G01 X4.7558 Y-5.2263
G01 X4.7408 Y-5.1598
G01 X4.7226 Y-5.0940
G01 X4.7012 Y-5.0292
G01 X4.6767 Y-4.9656
G01 X4.6490 Y-4.9032
G01 X4.6184 Y-4.8423
G01 X4.5847 Y-4.7829
G01 X4.5482 Y-4.7253
G01 X4.5090 Y-4.6695
G01 X4.4670 Y-4.6157
G01 X4.4224 Y-4.5640
G01 X4.3754 Y-4.5146
G01 X4.3260 Y-4.4676
G01 X4.2743 Y-4.4230
G01 X4.2205 Y-4.3810
G01 X4.1647 Y-4.3418
G01 X4.1071 Y-4.3053
G01 X4.0477 Y-4.2716
G01 X3.9868 Y-4.2410
G01 X3.9244 Y-4.2133
G01 X3.8608 Y-4.1888
G01 X3.7960 Y-4.1674
G01 X3.7302 Y-4.1492
G01 X3.6637 Y-4.1342
G01 X3.5965 Y-4.1225
G01 X3.5287 Y-4.1142
G01 X3.4607 Y-4.1092
G01 X3.3925 Y-4.1075
G01 X3.3243 Y-4.1092
G01 X3.2563 Y-4.1142
G01 X3.1885 Y-4.1225
G01 X3.1213 Y-4.1342
G01 X3.0548 Y-4.1492
G01 X2.9890 Y-4.1674
G01 X2.9242 Y-4.1888
G01 X2.8606 Y-4.2133
G01 X2.7982 Y-4.2410
G01 X2.7373 Y-4.2716
G01 X2.6779 Y-4.3053
G01 X2.6203 Y-4.3418
G01 X2.5645 Y-4.3810
G01 X2.5107 Y-4.4230
G01 X2.4590 Y-4.4676
G01 X2.4096 Y-4.5146
G01 X2.3626 Y-4.5640
G01 X2.3180 Y-4.6157
G01 X2.2760 Y-4.6695
G01 X2.2368 Y-4.7253
G01 X2.2003 Y-4.7829
G01 X2.1666 Y-4.8423
G01 X2.1360 Y-4.9032
G01 X2.1083 Y-4.9656
G01 X2.0838 Y-5.0292
G01 X2.0624 Y-5.0940
G01 X2.0442 Y-5.1598
G01 X2.0292 Y-5.2263
G01 X2.0175 Y-5.2935
G01 X2.0092 Y-5.3613
G01 X2.0042 Y-5.4293
G01 X2.0025 Y-5.4975
G01 X2.0042 Y-5.5657
G01 X2.0092 Y-5.6337
G01 X2.0175 Y-5.7015
G01 X2.0292 Y-5.7687
G01 X2.0442 Y-5.8352
G01 X2.0624 Y-5.9010
G01 X2.0838 Y-5.9658
G01 X2.1083 Y-6.0294
G01 X2.1360 Y-6.0918
G01 X2.1666 Y-6.1527
G01 X2.2003 Y-6.2121
G01 X2.2368 Y-6.2697
G01 X2.2760 Y-6.3255
G01 X2.3180 Y-6.3793
G01 X2.3626 Y-6.4310
G01 X2.4096 Y-6.4804
G01 X2.4590 Y-6.5274
G01 X2.5107 Y-6.5720
G01 X2.5645 Y-6.6140
G01 X2.6203 Y-6.6532
G01 X2.6779 Y-6.6897
G01 X2.7373 Y-6.7234
G01 X2.7982 Y-6.7540
G01 X2.8606 Y-6.7817
G01 X2.9242 Y-6.8062
G01 X2.9890 Y-6.8276
G01 X3.0548 Y-6.8458
G01 X3.1213 Y-6.8608
G01 X3.1885 Y-6.8725
G01 X3.2563 Y-6.8808
G01 X3.3243 Y-6.8858
G01 X3.3925 Y-6.8875
G01 X3.4607 Y-6.8858
G01 X3.5287 Y-6.8808
G01 X3.5965 Y-6.8725
G01 X3.6637 Y-6.8608
G01 X3.7302 Y-6.8458
G01 X3.7960 Y-6.8276
G01 X3.8608 Y-6.8062
G01 X3.9244 Y-6.7817
G01 X3.9868 Y-6.7540
G01 X4.0477 Y-6.7234
G01 X4.1071 Y-6.6897
G01 X4.1647 Y-6.6532
G01 X4.2205 Y-6.6140
G01 X4.2743 Y-6.5720
G01 X4.3260 Y-6.5274
G01 X4.3754 Y-6.4804
G01 X4.4224 Y-6.4310
G01 X4.4670 Y-6.3793
G01 X4.5090 Y-6.3255
G01 X4.5482 Y-6.2697
G01 X4.5847 Y-6.2121
G01 X4.6184 Y-6.1527
G01 X4.6490 Y-6.0918
G01 X4.6767 Y-6.0294
G01 X4.7012 Y-5.9658
G01 X4.7226 Y-5.9010
G01 X4.7408 Y-5.8352
G01 X4.7558 Y-5.7687
G01 X4.7675 Y-5.7015
G01 X4.7758 Y-5.6337
G01 X4.7808 Y-5.5657
G01 X4.7825 Y-5.4975
G00 Z2.0000
G00 X4.9025 Y-5.4975
G01 F70.00
G01 Z-0.0600
G01 F120.00
G01 X4.9006 Y-5.4234
G01 X4.8952 Y-5.3495
G01 X4.8861 Y-5.2759
G01 X4.8734 Y-5.2029
G01 X4.8572 Y-5.1306
G01 X4.8374 Y-5.0592
G01 X4.8142 Y-4.9888
G01 X4.7875 Y-4.9197
G01 X4.7575 Y-4.8519
G01 X4.7242 Y-4.7857
G01 X4.6876 Y-4.7212
G01 X4.6480 Y-4.6586
G01 X4.6053 Y-4.5980
G01 X4.5597 Y-4.5396
G01 X4.5113 Y-4.4835
G01 X4.4602 Y-4.4298
G01 X4.4065 Y-4.3787
G01 X4.3504 Y-4.3303
G01 X4.2920 Y-4.2847
G01 X4.2314 Y-4.2420
G01 X4.1688 Y-4.2024
G01 X4.1043 Y-4.1658
G01 X4.0381 Y-4.1325
G01 X3.9703 Y-4.1025
G01 X3.9012 Y-4.0758
G01 X3.8308 Y-4.0526
G01 X3.7594 Y-4.0328
G01 X3.6871 Y-4.0166
G01 X3.6141 Y-4.0039
G01 X3.5405 Y-3.9948
G01 X3.4666 Y-3.9894
G01 X3.3925 Y-3.9875
G01 X3.3184 Y-3.9894
G01 X3.2445 Y-3.9948
G01 X3.1709 Y-4.0039
G01 X3.0979 Y-4.0166
G01 X3.0256 Y-4.0328
G01 X2.9542 Y-4.0526
G01 X2.8838 Y-4.0758
G01 X2.8147 Y-4.1025
G01 X2.7469 Y-4.1325
G01 X2.6807 Y-4.1658
G01 X2.6162 Y-4.2024
G01 X2.5536 Y-4.2420
G01 X2.4930 Y-4.2847
G01 X2.4346 Y-4.3303
G01 X2.3785 Y-4.3787
G01 X2.3248 Y-4.4298
G01 X2.2737 Y-4.4835
G01 X2.2253 Y-4.5396
G01 X2.1797 Y-4.5980
G01 X2.1370 Y-4.6586
G01 X2.0974 Y-4.7212
G01 X2.0608 Y-4.7857
G01 X2.0275 Y-4.8519
G01 X1.9975 Y-4.9197
G01 X1.9708 Y-4.9888
G01 X1.9476 Y-5.0592
G01 X1.9278 Y-5.1306
G01 X1.9116 Y-5.2029
G01 X1.8989 Y-5.2759
G01 X1.8898 Y-5.3495
G01 X1.8844 Y-5.4234
G01 X1.8825 Y-5.4975
G01 X1.8844 Y-5.5716
G01 X1.8898 Y-5.6455
G01 X1.8989 Y-5.7191
G01 X1.9116 Y-5.7921
G01 X1.9278 Y-5.8644
G01 X1.9476 Y-5.9358
G01 X1.9708 Y-6.0062
G01 X1.9975 Y-6.0753
G01 X2.0275 Y-6.1431
G01 X2.0608 Y-6.2093
G01 X2.0974 Y-6.2738
G01 X2.1370 Y-6.3364
G01 X2.1797 Y-6.3970
G01 X2.2253 Y-6.4554
G01 X2.2737 Y-6.5115
G01 X2.3248 Y-6.5652
G01 X2.3785 Y-6.6163
G01 X2.4346 Y-6.6647
G01 X2.4930 Y-6.7103
G01 X2.5536 Y-6.7530
G01 X2.6162 Y-6.7926
G01 X2.6807 Y-6.8292
G01 X2.7469 Y-6.8625
G01 X2.8147 Y-6.8925
G01 X2.8838 Y-6.9192
G01 X2.9542 Y-6.9424
G01 X3.0256 Y-6.9622
G01 X3.0979 Y-6.9784
G01 X3.1709 Y-6.9911
G01 X3.2445 Y-7.0002
G01 X3.3184 Y-7.0056
G01 X3.3925 Y-7.0075
G01 X3.4666 Y-7.0056
G01 X3.5405 Y-7.0002
G01 X3.6141 Y-6.9911
G01 X3.6871 Y-6.9784
G01 X3.7594 Y-6.9622
G01 X3.8308 Y-6.9424
G01 X3.9012 Y-6.9192
G01 X3.9703 Y-6.8925
G01 X4.0381 Y-6.8625
G01 X4.1043 Y-6.8292
G01 X4.1688 Y-6.7926
G01 X4.2314 Y-6.7530
G01 X4.2920 Y-6.7103
G01 X4.3504 Y-6.6647
G01 X4.4065 Y-6.6163
G01 X4.4602 Y-6.5652
G01 X4.5113 Y-6.5115
G01 X4.5597 Y-6.4554
G01 X4.6053 Y-6.3970
G01 X4.6480 Y-6.3364
G01 X4.6876 Y-6.2738
G01 X4.7242 Y-6.2093
G01 X4.7575 Y-6.1431
G01 X4.7875 Y-6.0753
G01 X4.8142 Y-6.0062
G01 X4.8374 Y-5.9358
G01 X4.8572 Y-5.8644
G01 X4.8734 Y-5.7921
G01 X4.8861 Y-5.7191
G01 X4.8952 Y-5.6455
G01 X4.9006 Y-5.5716
G01 X4.9025 Y-5.4975
G00 Z2.0000
G00 X4.9725 Y-5.4975
G01 F70.00
G01 Z-0.0600
G01 F120.00
G01 X4.9706 Y-5.4200
G01 X4.9649 Y-5.3426
G01 X4.9554 Y-5.2657
G01 X4.9421 Y-5.1893
G01 X4.9251 Y-5.1136
G01 X4.9044 Y-5.0389
G01 X4.8801 Y-4.9652
G01 X4.8522 Y-4.8929
G01 X4.8208 Y-4.8220
G01 X4.7859 Y-4.7527
G01 X4.7477 Y-4.6852
G01 X4.7062 Y-4.6197
G01 X4.6616 Y-4.5563
G01 X4.6138 Y-4.4952
G01 X4.5632 Y-4.4365
G01 X4.5097 Y-4.3803
G01 X4.4535 Y-4.3268
G01 X4.3948 Y-4.2762
G01 X4.3337 Y-4.2284
G01 X4.2703 Y-4.1838
G01 X4.2048 Y-4.1423
G01 X4.1373 Y-4.1041
G01 X4.0680 Y-4.0692
G01 X3.9971 Y-4.0378
G01 X3.9248 Y-4.0099
G01 X3.8511 Y-3.9856
G01 X3.7764 Y-3.9649
G01 X3.7007 Y-3.9479
G01 X3.6243 Y-3.9346
G01 X3.5474 Y-3.9251
G01 X3.4700 Y-3.9194
G01 X3.3925 Y-3.9175
G01 X3.3150 Y-3.9194
G01 X3.2376 Y-3.9251
G01 X3.1607 Y-3.9346
G01 X3.0843 Y-3.9479
G01 X3.0086 Y-3.9649
G01 X2.9339 Y-3.9856
G01 X2.8602 Y-4.0099
G01 X2.7879 Y-4.0378
G01 X2.7170 Y-4.0692
G01 X2.6477 Y-4.1041
G01 X2.5802 Y-4.1423
G01 X2.5147 Y-4.1838
G01 X2.4513 Y-4.2284
G01 X2.3902 Y-4.2762
G01 X2.3315 Y-4.3268
G01 X2.2753 Y-4.3803
G01 X2.2218 Y-4.4365
G01 X2.1712 Y-4.4952
G01 X2.1234 Y-4.5563
G01 X2.0788 Y-4.6197
G01 X2.0373 Y-4.6852
G01 X1.9991 Y-4.7527
G01 X1.9642 Y-4.8220
G01 X1.9328 Y-4.8929
G01 X1.9049 Y-4.9652
G01 X1.8806 Y-5.0389
G01 X1.8599 Y-5.1136
G01 X1.8429 Y-5.1893
G01 X1.8296 Y-5.2657
G01 X1.8201 Y-5.3426
G01 X1.8144 Y-5.4200
G01 X1.8125 Y-5.4975
G01 X1.8144 Y-5.5750
G01 X1.8201 Y-5.6524
G01 X1.8296 Y-5.7293
G01 X1.8429 Y-5.8057
G01 X1.8599 Y-5.8814
G01 X1.8806 Y-5.9561
G01 X1.9049 Y-6.0298
G01 X1.9328 Y-6.1021
G01 X1.9642 Y-6.1730
G01 X1.9991 Y-6.2423
G01 X2.0373 Y-6.3098
G01 X2.0788 Y-6.3753
G01 X2.1234 Y-6.4387
G01 X2.1712 Y-6.4998
G01 X2.2218 Y-6.5585
G01 X2.2753 Y-6.6147
G01 X2.3315 Y-6.6682
G01 X2.3902 Y-6.7188
G01 X2.4513 Y-6.7666
G01 X2.5147 Y-6.8112
G01 X2.5802 Y-6.8527
G01 X2.6477 Y-6.8909
G01 X2.7170 Y-6.9258
G01 X2.7879 Y-6.9572
G01 X2.8602 Y-6.9851
G01 X2.9339 Y-7.0094
G01 X3.0086 Y-7.0301
G01 X3.0843 Y-7.0471
G01 X3.1607 Y-7.0604
G01 X3.2376 Y-7.0699
G01 X3.3150 Y-7.0756
G01 X3.3925 Y-7.0775
G01 X3.4700 Y-7.0756
G01 X3.5474 Y-7.0699
G01 X3.6243 Y-7.0604
G01 X3.7007 Y-7.0471
G01 X3.7764 Y-7.0301
G01 X3.8511 Y-7.0094
G01 X3.9248 Y-6.9851
G01 X3.9971 Y-6.9572
G01 X4.0680 Y-6.9258
G01 X4.1373 Y-6.8909
G01 X4.2048 Y-6.8527
G01 X4.2703 Y-6.8112
G01 X4.3337 Y-6.7666
G01 X4.3948 Y-6.7188
G01 X4.4535 Y-6.6682
G01 X4.5097 Y-6.6147
G01 X4.5632 Y-6.5585
G01 X4.6138 Y-6.4998
G01 X4.6616 Y-6.4387
G01 X4.7062 Y-6.3753
G01 X4.7477 Y-6.3098
G01 X4.7859 Y-6.2423
G01 X4.8208 Y-6.1730
G01 X4.8522 Y-6.1021
G01 X4.8801 Y-6.0298
G01 X4.9044 Y-5.9561
G01 X4.9251 Y-5.8814
G01 X4.9421 Y-5.8057
G01 X4.9554 Y-5.7293
G01 X4.9649 Y-5.6524
G01 X4.9706 Y-5.5750
G01 X4.9725 Y-5.4975
G00 Z2.0000
G00 X5.2561 Y-7.6175
G01 F70.00
G01 Z-0.0600
G01 F120.00
G01 X5.2546 Y-7.6099
G01 X5.2503 Y-7.6034
G01 X5.2438 Y-7.5991
G01 X5.2362 Y-7.5976
G01 X5.2286 Y-7.5991
G01 X5.2221 Y-7.6034
G01 X5.2178 Y-7.6099
G01 X5.2163 Y-7.6175
G01 X5.2178 Y-7.6251
G01 X5.2221 Y-7.6316
G01 X5.2286 Y-7.6359
G01 X5.2362 Y-7.6374
G01 X5.2438 Y-7.6359
G01 X5.2503 Y-7.6316
G01 X5.2546 Y-7.6251
G01 X5.2561 Y-7.6175
G00 Z2.0000
G00 X5.3261 Y-7.6175
G01 F70.00
G01 Z-0.0600
G01 F120.00
G01 X5.3244 Y-7.6000
G01 X5.3193 Y-7.5831
G01 X5.3110 Y-7.5675
G01 X5.2998 Y-7.5539
G01 X5.2862 Y-7.5427
G01 X5.2706 Y-7.5344
G01 X5.2537 Y-7.5293
G01 X5.2362 Y-7.5276
G01 X5.2187 Y-7.5293
G01 X5.2018 Y-7.5344
G01 X5.1862 Y-7.5427
G01 X5.1726 Y-7.5539
G01 X5.1614 Y-7.5675
G01 X5.1531 Y-7.5831
G01 X5.1480 Y-7.6000
G01 X5.1463 Y-7.6175
G01 X5.1480 Y-7.6350
G01 X5.1531 Y-7.6519
G01 X5.1614 Y-7.6675
G01 X5.1726 Y-7.6811
G01 X5.1862 Y-7.6923
G01 X5.2018 Y-7.7006
G01 X5.2187 Y-7.7057
G01 X5.2362 Y-7.7074
G01 X5.2537 Y-7.7057
G01 X5.2706 Y-7.7006
G01 X5.2862 Y-7.6923
G01 X5.2998 Y-7.6811
G01 X5.3110 Y-7.6675
G01 X5.3193 Y-7.6519
G01 X5.3244 Y-7.6350
G01 X5.3261 Y-7.6175
G00 Z2.0000
G00 X5.3962 Y-7.6175
G01 F70.00
G01 Z-0.0600
G01 F120.00
G01 X5.3954 Y-7.6018
G01 X5.3931 Y-7.5863
G01 X5.3893 Y-7.5711
G01 X5.3840 Y-7.5563
G01 X5.3773 Y-7.5421
G01 X5.3692 Y-7.5286
G01 X5.3598 Y-7.5160
G01 X5.3493 Y-7.5044
G01 X5.3377 Y-7.4939
G01 X5.3251 Y-7.4845
G01 X5.3116 Y-7.4764
G01 X5.2974 Y-7.4697
G01 X5.2826 Y-7.4644
G01 X5.2674 Y-7.4606
G01 X5.2519 Y-7.4583
G01 X5.2362 Y-7.4575
G01 X5.2205 Y-7.4583
G01 X5.2050 Y-7.4606
G01 X5.1898 Y-7.4644
G01 X5.1750 Y-7.4697
G01 X5.1608 Y-7.4764
G01 X5.1473 Y-7.4845
G01 X5.1347 Y-7.4939
G01 X5.1231 Y-7.5044
G01 X5.1126 Y-7.5160
G01 X5.1032 Y-7.5286
G01 X5.0951 Y-7.5421
G01 X5.0884 Y-7.5563
G01 X5.0831 Y-7.5711
G01 X5.0793 Y-7.5863
G01 X5.0770 Y-7.6018
G01 X5.0762 Y-7.6175
G01 X5.0770 Y-7.6332
G01 X5.0793 Y-7.6487
G01 X5.0831 Y-7.6639
G01 X5.0884 Y-7.6787
G01 X5.0951 Y-7.6929
G01 X5.1032 Y-7.7064
G01 X5.1126 Y-7.7190
G01 X5.1231 Y-7.7306
G01 X5.1347 Y-7.7411
G01 X5.1473 Y-7.7505
G01 X5.1608 Y-7.7586
G01 X5.1750 Y-7.7653
G01 X5.1898 Y-7.7706
G01 X5.2050 Y-7.7744
G01 X5.2205 Y-7.7767
G01 X5.2362 Y-7.7775
G01 X5.2519 Y-7.7767
G01 X5.2674 Y-7.7744
G01 X5.2826 Y-7.7706
G01 X5.2974 Y-7.7653
G01 X5.3116 Y-7.7586
G01 X5.3251 Y-7.7505
G01 X5.3377 Y-7.7411
G01 X5.3493 Y-7.7306
G01 X5.3598 Y-7.7190
G01 X5.3692 Y-7.7064
G01 X5.3773 Y-7.6929
G01 X5.3840 Y-7.6787
G01 X5.3893 Y-7.6639
G01 X5.3931 Y-7.6487
G01 X5.3954 Y-7.6332
G01 X5.3962 Y-7.6175
G00 Z2.0000
G00 X5.4662 Y-7.6175
G01 F70.00
G01 Z-0.0600
G01 F120.00
G01 X5.4651 Y-7.5950
G01 X5.4618 Y-7.5726
G01 X5.4563 Y-7.5507
G01 X5.4487 Y-7.5295
G01 X5.4390 Y-7.5091
G01 X5.4274 Y-7.4897
G01 X5.4140 Y-7.4716
G01 X5.3988 Y-7.4549
G01 X5.3821 Y-7.4397
G01 X5.3640 Y-7.4263
G01 X5.3446 Y-7.4147
G01 X5.3242 Y-7.4050
G01 X5.3030 Y-7.3974
G01 X5.2811 Y-7.3919
G01 X5.2587 Y-7.3886
G01 X5.2362 Y-7.3875
G01 X5.2137 Y-7.3886
G01 X5.1913 Y-7.3919
G01 X5.1694 Y-7.3974
G01 X5.1482 Y-7.4050
G01 X5.1278 Y-7.4147
G01 X5.1084 Y-7.4263
G01 X5.0903 Y-7.4397
G01 X5.0736 Y-7.4549
G01 X5.0584 Y-7.4716
G01 X5.0450 Y-7.4897
G01 X5.0334 Y-7.5091
G01 X5.0237 Y-7.5295
G01 X5.0161 Y-7.5507
G01 X5.0106 Y-7.5726
G01 X5.0073 Y-7.5950
G01 X5.0062 Y-7.6175
G01 X5.0073 Y-7.6400
G01 X5.0106 Y-7.6624
G01 X5.0161 Y-7.6843
G01 X5.0237 Y-7.7055
G01 X5.0334 Y-7.7259
G01 X5.0450 Y-7.7453
G01 X5.0584 Y-7.7634
G01 X5.0736 Y-7.7801
G01 X5.0903 Y-7.7953
G01 X5.1084 Y-7.8087
G01 X5.1278 Y-7.8203
G01 X5.1482 Y-7.8300
G01 X5.1694 Y-7.8376
G01 X5.1913 Y-7.8431
G01 X5.2137 Y-7.8464
G01 X5.2362 Y-7.8475
G01 X5.2587 Y-7.8464
G01 X5.2811 Y-7.8431
G01 X5.3030 Y-7.8376
G01 X5.3242 Y-7.8300
G01 X5.3446 Y-7.8203
G01 X5.3640 Y-7.8087
G01 X5.3821 Y-7.7953
G01 X5.3988 Y-7.7801
G01 X5.4140 Y-7.7634
G01 X5.4274 Y-7.7453
G01 X5.4390 Y-7.7259
G01 X5.4487 Y-7.7055
G01 X5.4563 Y-7.6843
G01 X5.4618 Y-7.6624
G01 X5.4651 Y-7.6400
G01 X5.4662 Y-7.6175
G00 Z2.0000
G00 X7.5031 Y-7.2825
G01 F70.00
G01 Z-0.0600
G01 F120.00
G01 X7.5117 Y-7.2662
G01 X7.5214 Y-7.2510
G01 X7.5324 Y-7.2367
G01 X7.5446 Y-7.2234
G01 X7.5579 Y-7.2112
G01 X7.5722 Y-7.2002
G01 X7.5874 Y-7.1905
G01 X7.6037 Y-7.1819
G01 X7.5031 Y-7.1819
G01 X7.5031 Y-7.2825
G00 Z2.0000
G00 X8.1365 Y-7.1119
G01 F70.00
G01 Z-0.0600
G01 F120.00
G01 X7.4331 Y-7.1119
G01 X7.4331 Y-7.6652
G01 X7.5531 Y-7.6652
G01 X7.5531 Y-7.3719
G01 X7.5544 Y-7.3531
G01 X7.5565 Y-7.3412
G01 X7.5602 Y-7.3280
G01 X7.5651 Y-7.3152
G01 X7.5713 Y-7.3029
G01 X7.5786 Y-7.2913
G01 X7.5871 Y-7.2805
G01 X7.5966 Y-7.2705
G01 X7.6070 Y-7.2615
G01 X7.6256 Y-7.2493
G01 X7.6443 Y-7.2407
G01 X7.6641 Y-7.2349
G01 X7.6845 Y-7.2322
G01 X8.1365 Y-7.2319
G01 X8.1365 Y-7.1119
G00 Z2.0000
G00 X8.2065 Y-7.0419
G01 F70.00
G01 Z-0.0600
G01 F120.00
G01 X7.3631 Y-7.0419
G01 X7.3631 Y-7.7352
G01 X7.6231 Y-7.7352
G01 X7.6234 Y-7.3659
G01 X7.6246 Y-7.3574
G01 X7.6272 Y-7.3483
G01 X7.6306 Y-7.3404
G01 X7.6349 Y-7.3330
G01 X7.6407 Y-7.3255
G01 X7.6467 Y-7.3195
G01 X7.6535 Y-7.3142
G01 X7.6609 Y-7.3098
G01 X7.6761 Y-7.3040
G01 X7.6922 Y-7.3019
G01 X8.2065 Y-7.3019
G01 X8.2065 Y-7.0419
G00 Z2.0000
G00 X9.3825 Y-7.1819
G01 F70.00
G01 Z-0.0600
G01 F120.00
G01 X9.3988 Y-7.1905
G01 X9.4140 Y-7.2002
G01 X9.4283 Y-7.2112
G01 X9.4416 Y-7.2234
G01 X9.4538 Y-7.2367
G01 X9.4648 Y-7.2510
G01 X9.4745 Y-7.2662
G01 X9.4831 Y-7.2825
G01 X9.4831 Y-7.1819
G01 X9.3825 Y-7.1819
G00 Z2.0000
G00 X9.5531 Y-7.6652
G01 F70.00
G01 Z-0.0600
G01 F120.00
G01 X9.5531 Y-7.1119
G01 X8.8498 Y-7.1119
G01 X8.8498 Y-7.2319
G01 X9.3017 Y-7.2322
G01 X9.3221 Y-7.2349
G01 X9.3419 Y-7.2407
G01 X9.3606 Y-7.2493
G01 X9.3792 Y-7.2615
G01 X9.3896 Y-7.2705
G01 X9.3991 Y-7.2805
G01 X9.4076 Y-7.2913
G01 X9.4149 Y-7.3029
G01 X9.4211 Y-7.3152
G01 X9.4260 Y-7.3280
G01 X9.4293 Y-7.3396
G01 X9.4318 Y-7.3531
G01 X9.4331 Y-7.3719
G01 X9.4331 Y-7.6652
G01 X9.5531 Y-7.6652
G00 Z2.0000
G00 X9.6231 Y-7.7352
G01 F70.00
G01 Z-0.0600
G01 F120.00
G01 X9.6231 Y-7.0419
G01 X8.7798 Y-7.0419
G01 X8.7798 Y-7.3019
G01 X9.2940 Y-7.3019
G01 X9.3101 Y-7.3040
G01 X9.3253 Y-7.3098
G01 X9.3327 Y-7.3142
G01 X9.3395 Y-7.3195
G01 X9.3461 Y-7.3262
G01 X9.3513 Y-7.3330
G01 X9.3560 Y-7.3412
G01 X9.3593 Y-7.3491
G01 X9.3616 Y-7.3574
G01 X9.3628 Y-7.3659
G01 X9.3631 Y-7.7352
G01 X9.6231 Y-7.7352
G00 Z2.0000
G00 X10.4025 Y-7.5788
G01 F70.00
G01 Z-0.0600
G01 F120.00
G01 X10.3019 Y-7.5788
G01 X10.3019 Y-7.6794
G01 X10.3105 Y-7.6631
G01 X10.3202 Y-7.6479
G01 X10.3312 Y-7.6336
G01 X10.3434 Y-7.6203
G01 X10.3567 Y-7.6081
G01 X10.3710 Y-7.5971
G01 X10.3862 Y-7.5874
G01 X10.4025 Y-7.5788
G00 Z2.0000
G00 X10.7318 Y-7.4578
G01 F70.00
G01 Z-0.0600
G01 F120.00
G01 X10.7230 Y-7.4745
G01 X10.7133 Y-7.4897
G01 X10.7023 Y-7.5040
G01 X10.6901 Y-7.5173
G01 X10.6768 Y-7.5295
G01 X10.6625 Y-7.5405
G01 X10.6473 Y-7.5502
G01 X10.6310 Y-7.5588
G01 X10.7318 Y-7.5588
G01 X10.7318 Y-7.4578
G00 Z2.0000
G00 X11.7528 Y-7.5588
G01 F70.00
G01 Z-0.0600
G01 F120.00
G01 X11.7365 Y-7.5502
G01 X11.7213 Y-7.5405
G01 X11.7070 Y-7.5295
G01 X11.6937 Y-7.5173
G01 X11.6815 Y-7.5040
G01 X11.6705 Y-7.4897
G01 X11.6608 Y-7.4745
G01 X11.6520 Y-7.4578
G01 X11.6520 Y-7.5588
G01 X11.7528 Y-7.5588
G00 Z2.0000
G00 X12.0819 Y-7.6794
G01 F70.00
G01 Z-0.0600
G01 F120.00
G01 X12.0819 Y-7.5788
G01 X11.9813 Y-7.5788
G01 X11.9976 Y-7.5874
G01 X12.0128 Y-7.5971
G01 X12.0271 Y-7.6081
G01 X12.0404 Y-7.6203
G01 X12.0526 Y-7.6336
G01 X12.0636 Y-7.6479
G01 X12.0733 Y-7.6631
G01 X12.0819 Y-7.6794
G00 Z2.0000
G00 X12.8118 Y-8.0159
G01 F70.00
G01 Z-0.0600
G01 F120.00
G01 X12.8204 Y-7.9996
G01 X12.8301 Y-7.9844
G01 X12.8411 Y-7.9701
G01 X12.8533 Y-7.9568
G01 X12.8666 Y-7.9446
G01 X12.8809 Y-7.9336
G01 X12.8961 Y-7.9239
G01 X12.9124 Y-7.9153
G01 X12.8118 Y-7.9153
G01 X12.8118 Y-8.0159
G00 Z2.0000
G00 X13.3451 Y-7.8453
G01 F70.00
G01 Z-0.0600
G01 F120.00
G01 X12.7418 Y-7.8453
G01 X12.7418 Y-8.3987
G01 X12.8618 Y-8.3987
G01 X12.8618 Y-8.1053
G01 X12.8627 Y-8.0899
G01 X12.8648 Y-8.0763
G01 X12.8678 Y-8.0647
G01 X12.8718 Y-8.0533
G01 X12.8775 Y-8.0408
G01 X12.8835 Y-8.0304
G01 X12.8904 Y-8.0205
G01 X12.8992 Y-8.0100
G01 X12.9078 Y-8.0016
G01 X12.9255 Y-7.9879
G01 X12.9358 Y-7.9818
G01 X12.9466 Y-7.9766
G01 X12.9678 Y-7.9695
G01 X12.9898 Y-7.9658
G01 X13.3451 Y-7.9653
G01 X13.3451 Y-7.8453
G00 Z2.0000
G00 X13.4151 Y-7.7753
G01 F70.00
G01 Z-0.0600
G01 F120.00
G01 X12.6718 Y-7.7753
G01 X12.6718 Y-8.4687
G01 X12.9318 Y-8.4687
G01 X12.9321 Y-8.0993
G01 X12.9333 Y-8.0908
G01 X12.9356 Y-8.0825
G01 X12.9427 Y-8.0679
G01 X12.9477 Y-8.0609
G01 X12.9535 Y-8.0546
G01 X12.9666 Y-8.0448
G01 X12.9742 Y-8.0410
G01 X12.9823 Y-8.0381
G01 X12.9907 Y-8.0362
G01 X13.0001 Y-8.0353
G01 X13.4151 Y-8.0353
G01 X13.4151 Y-7.7753
G00 Z2.0000
G00 X14.4912 Y-7.9153
G01 F70.00
G01 Z-0.0600
G01 F120.00
G01 X14.5075 Y-7.9239
G01 X14.5227 Y-7.9336
G01 X14.5370 Y-7.9446
G01 X14.5503 Y-7.9568
G01 X14.5625 Y-7.9701
G01 X14.5735 Y-7.9844
G01 X14.5832 Y-7.9996
G01 X14.5918 Y-8.0159
G01 X14.5918 Y-7.9153
G01 X14.4912 Y-7.9153
G00 Z2.0000
G00 X14.6618 Y-8.3986
G01 F70.00
G01 Z-0.0600
G01 F120.00
G01 X14.6618 Y-7.8453
G01 X14.0584 Y-7.8453
G01 X14.0584 Y-7.9653
G01 X14.4138 Y-7.9658
G01 X14.4358 Y-7.9695
G01 X14.4570 Y-7.9766
G01 X14.4678 Y-7.9818
G01 X14.4781 Y-7.9879
G01 X14.4958 Y-8.0016
G01 X14.5055 Y-8.0113
G01 X14.5132 Y-8.0205
G01 X14.5201 Y-8.0304
G01 X14.5261 Y-8.0408
G01 X14.5318 Y-8.0533
G01 X14.5358 Y-8.0647
G01 X14.5388 Y-8.0763
G01 X14.5409 Y-8.0899
G01 X14.5418 Y-8.1053
G01 X14.5418 Y-8.3986
G01 X14.6618 Y-8.3986
G00 Z2.0000
G00 X14.7318 Y-8.4686
G01 F70.00
G01 Z-0.0600
G01 F120.00
G01 X14.7318 Y-7.7753
G01 X13.9884 Y-7.7753
G01 X13.9884 Y-8.0353
G01 X14.4035 Y-8.0353
G01 X14.4129 Y-8.0362
G01 X14.4213 Y-8.0381
G01 X14.4294 Y-8.0410
G01 X14.4370 Y-8.0448
G01 X14.4501 Y-8.0546
G01 X14.4559 Y-8.0609
G01 X14.4609 Y-8.0679
G01 X14.4680 Y-8.0825
G01 X14.4703 Y-8.0908
G01 X14.4715 Y-8.0993
G01 X14.4718 Y-8.4686
G01 X14.7318 Y-8.4686
G00 Z2.0000
G00 X14.5218 Y-9.7523
G01 F70.00
G01 Z-0.0600
G01 F120.00
G01 X14.5218 Y-9.6583
G01 X14.4961 Y-9.6689
G01 X14.4665 Y-9.6777
G01 X14.4361 Y-9.6832
G01 X14.4052 Y-9.6853
G01 X13.0018 Y-9.6853
G01 X12.9709 Y-9.6836
G01 X12.9405 Y-9.6785
G01 X12.9107 Y-9.6701
G01 X12.8818 Y-9.6583
G01 X12.8818 Y-9.7523
G01 X12.9107 Y-9.7405
G01 X12.9405 Y-9.7321
G01 X12.9709 Y-9.7270
G01 X13.0018 Y-9.7253
G01 X14.4052 Y-9.7253
G01 X14.4361 Y-9.7274
G01 X14.4665 Y-9.7329
G01 X14.4961 Y-9.7417
G01 X14.5218 Y-9.7523
G00 Z2.0000
G00 X14.5918 Y-9.9159
G01 F70.00
G01 Z-0.0600
G01 F120.00
G01 X14.5918 Y-9.4947
G01 X14.5792 Y-9.5176
G01 X14.5625 Y-9.5405
G01 X14.5428 Y-9.5609
G01 X14.5206 Y-9.5785
G01 X14.4962 Y-9.5929
G01 X14.4701 Y-9.6039
G01 X14.4428 Y-9.6113
G01 X14.4172 Y-9.6147
G01 X14.4018 Y-9.6153
G01 X13.0018 Y-9.6153
G01 X12.9735 Y-9.6134
G01 X12.9583 Y-9.6107
G01 X12.9433 Y-9.6070
G01 X12.9167 Y-9.5973
G01 X12.9028 Y-9.5905
G01 X12.8895 Y-9.5827
G01 X12.8666 Y-9.5660
G01 X12.8551 Y-9.5556
G01 X12.8445 Y-9.5444
G01 X12.8347 Y-9.5325
G01 X12.8258 Y-9.5198
G01 X12.8118 Y-9.4947
G01 X12.8118 Y-9.9159
G01 X12.8258 Y-9.8908
G01 X12.8347 Y-9.8781
G01 X12.8445 Y-9.8662
G01 X12.8551 Y-9.8550
G01 X12.8666 Y-9.8446
G01 X12.8895 Y-9.8279
G01 X12.9143 Y-9.8144
G01 X12.9286 Y-9.8085
G01 X12.9433 Y-9.8036
G01 X12.9583 Y-9.7999
G01 X12.9735 Y-9.7972
G01 X13.0018 Y-9.7953
G01 X14.4018 Y-9.7953
G01 X14.4172 Y-9.7959
G01 X14.4428 Y-9.7993
G01 X14.4701 Y-9.8067
G01 X14.4962 Y-9.8177
G01 X14.5206 Y-9.8321
G01 X14.5428 Y-9.8497
G01 X14.5625 Y-9.8701
G01 X14.5792 Y-9.8930
G01 X14.5918 Y-9.9159
G00 Z2.0000
G00 X14.6010 Y-11.6027
G01 F70.00
G01 Z-0.0600
G01 F120.00
G01 X14.5949 Y-11.5771
G01 X14.5921 Y-11.5515
G01 X14.5918 Y-11.3947
G01 X14.5832 Y-11.4110
G01 X14.5720 Y-11.4283
G01 X14.5608 Y-11.4425
G01 X14.5466 Y-11.4574
G01 X14.5310 Y-11.4709
G01 X14.5163 Y-11.4813
G01 X14.5008 Y-11.4905
G01 X14.4829 Y-11.4990
G01 X14.5154 Y-11.5245
G01 X14.5547 Y-11.5583
G01 X14.6010 Y-11.6027
G00 Z2.0000
G00 X15.0412 Y-12.3825
G01 F70.00
G01 Z-0.0600
G01 F120.00
G01 X15.0397 Y-12.3221
G01 X15.0353 Y-12.2619
G01 X15.0279 Y-12.2020
G01 X15.0175 Y-12.1425
G01 X15.0043 Y-12.0836
G01 X14.9882 Y-12.0255
G01 X14.9693 Y-11.9681
G01 X14.9476 Y-11.9118
G01 X14.9231 Y-11.8566
G01 X14.8959 Y-11.8027
G01 X14.8662 Y-11.7502
G01 X14.8339 Y-11.6992
G01 X14.7991 Y-11.6498
G01 X14.7620 Y-11.6022
G01 X14.7431 Y-11.5794
G01 X14.7389 Y-11.5719
G01 X14.7356 Y-11.5640
G01 X14.7321 Y-11.5481
G01 X14.7318 Y-9.0419
G01 X14.4718 Y-9.0419
G01 X14.4718 Y-9.4053
G01 X14.4709 Y-9.4164
G01 X14.4680 Y-9.4281
G01 X14.4627 Y-9.4398
G01 X14.4559 Y-9.4497
G01 X14.4475 Y-9.4583
G01 X14.4378 Y-9.4653
G01 X14.4262 Y-9.4709
G01 X14.4146 Y-9.4741
G01 X14.4018 Y-9.4753
G01 X13.0018 Y-9.4753
G01 X12.9932 Y-9.4748
G01 X12.9848 Y-9.4732
G01 X12.9750 Y-9.4700
G01 X12.9658 Y-9.4653
G01 X12.9574 Y-9.4594
G01 X12.9494 Y-9.4517
G01 X12.9427 Y-9.4427
G01 X12.9378 Y-9.4337
G01 X12.9343 Y-9.4240
G01 X12.9323 Y-9.4139
G01 X12.9318 Y-9.4053
G01 X12.9318 Y-9.0420
G01 X12.6718 Y-9.0420
G01 X12.6718 Y-9.9142
G01 X12.6699 Y-9.9294
G01 X12.6644 Y-9.9447
G01 X12.6591 Y-9.9535
G01 X12.6526 Y-9.9615
G01 X12.6450 Y-9.9684
G01 X12.6365 Y-9.9741
G01 X12.6272 Y-9.9785
G01 X12.6174 Y-9.9816
G01 X12.6072 Y-9.9831
G01 X12.5970 Y-9.9831
G01 X12.2794 Y-9.9570
G01 X12.2710 Y-9.9549
G01 X12.2630 Y-9.9518
G01 X12.2554 Y-9.9478
G01 X12.2483 Y-9.9429
G01 X12.2419 Y-9.9371
G01 X12.2363 Y-9.9306
G01 X12.2315 Y-9.9234
G01 X12.2276 Y-9.9158
G01 X12.2234 Y-9.9026
G01 X12.2219 Y-9.8881
G01 X12.2219 Y-7.4388
G01 X11.8362 Y-7.4385
G01 X11.8269 Y-7.4371
G01 X11.8178 Y-7.4344
G01 X11.8100 Y-7.4309
G01 X11.8019 Y-7.4260
G01 X11.7946 Y-7.4201
G01 X11.7881 Y-7.4132
G01 X11.7831 Y-7.4062
G01 X11.7786 Y-7.3980
G01 X11.7739 Y-7.3841
G01 X11.7722 Y-7.3697
G01 X11.7722 Y-6.4574
G01 X11.7739 Y-6.4438
G01 X11.7782 Y-6.4307
G01 X11.7845 Y-6.4195
G01 X11.7933 Y-6.4090
G01 X11.8026 Y-6.4014
G01 X11.8355 Y-6.3805
G01 X11.8849 Y-6.3457
G01 X11.9325 Y-6.3086
G01 X11.9782 Y-6.2692
G01 X12.0219 Y-6.2275
G01 X12.0636 Y-6.1838
G01 X12.1030 Y-6.1381
G01 X12.1401 Y-6.0905
G01 X12.1749 Y-6.0411
G01 X12.2072 Y-5.9901
G01 X12.2369 Y-5.9376
G01 X12.2641 Y-5.8837
G01 X12.2886 Y-5.8285
G01 X12.3103 Y-5.7722
G01 X12.3292 Y-5.7148
G01 X12.3453 Y-5.6567
G01 X12.3585 Y-5.5978
G01 X12.3689 Y-5.5383
G01 X12.3763 Y-5.4784
G01 X12.3807 Y-5.4182
G01 X12.3822 Y-5.3578
G01 X12.3807 Y-5.2974
G01 X12.3763 Y-5.2372
G01 X12.3689 Y-5.1773
G01 X12.3585 Y-5.1178
G01 X12.3453 Y-5.0589
G01 X12.3292 Y-5.0008
G01 X12.3103 Y-4.9434
G01 X12.2886 Y-4.8871
G01 X12.2641 Y-4.8319
G01 X12.2369 Y-4.7780
G01 X12.2072 Y-4.7255
G01 X12.1749 Y-4.6745
G01 X12.1401 Y-4.6251
G01 X12.1030 Y-4.5775
G01 X12.0636 Y-4.5318
G01 X12.0219 Y-4.4881
G01 X11.9782 Y-4.4464
G01 X11.9325 Y-4.4070
G01 X11.8849 Y-4.3699
G01 X11.8355 Y-4.3351
G01 X11.7845 Y-4.3028
G01 X11.7320 Y-4.2731
G01 X11.6781 Y-4.2459
G01 X11.6229 Y-4.2214
G01 X11.5666 Y-4.1997
G01 X11.5092 Y-4.1808
G01 X11.4511 Y-4.1647
G01 X11.3922 Y-4.1515
G01 X11.3327 Y-4.1411
G01 X11.2728 Y-4.1337
G01 X11.2126 Y-4.1293
G01 X11.1522 Y-4.1278
G01 X11.0918 Y-4.1293
G01 X11.0316 Y-4.1337
G01 X10.9717 Y-4.1411
G01 X10.9122 Y-4.1515
G01 X10.8533 Y-4.1647
G01 X10.7952 Y-4.1808
G01 X10.7378 Y-4.1997
G01 X10.6815 Y-4.2214
G01 X10.6263 Y-4.2459
G01 X10.5724 Y-4.2731
G01 X10.5199 Y-4.3028
G01 X10.4689 Y-4.3351
G01 X10.4195 Y-4.3699
G01 X10.3719 Y-4.4070
G01 X10.3262 Y-4.4464
G01 X10.2825 Y-4.4881
G01 X10.2408 Y-4.5318
G01 X10.2014 Y-4.5775
G01 X10.1643 Y-4.6251
G01 X10.1295 Y-4.6745
G01 X10.0972 Y-4.7255
G01 X10.0675 Y-4.7780
G01 X10.0403 Y-4.8319
G01 X10.0158 Y-4.8871
G01 X9.9941 Y-4.9434
G01 X9.9752 Y-5.0008
G01 X9.9591 Y-5.0589
G01 X9.9459 Y-5.1178
G01 X9.9355 Y-5.1773
G01 X9.9281 Y-5.2372
G01 X9.9237 Y-5.2974
G01 X9.9222 Y-5.3578
G01 X9.9237 Y-5.4182
G01 X9.9281 Y-5.4784
G01 X9.9355 Y-5.5383
G01 X9.9459 Y-5.5978
G01 X9.9591 Y-5.6567
G01 X9.9752 Y-5.7148
G01 X9.9941 Y-5.7722
G01 X10.0158 Y-5.8285
G01 X10.0403 Y-5.8837
G01 X10.0675 Y-5.9376
G01 X10.0972 Y-5.9901
G01 X10.1295 Y-6.0411
G01 X10.1643 Y-6.0905
G01 X10.2014 Y-6.1381
G01 X10.2408 Y-6.1838
G01 X10.2825 Y-6.2275
G01 X10.3262 Y-6.2692
G01 X10.3719 Y-6.3086
G01 X10.4195 Y-6.3457
G01 X10.4689 Y-6.3805
G01 X10.5199 Y-6.4128
G01 X10.5768 Y-6.4449
G01 X10.5873 Y-6.4524
G01 X10.5973 Y-6.4630
G01 X10.6049 Y-6.4755
G01 X10.6095 Y-6.4884
G01 X10.6115 Y-6.5028
G01 X10.6116 Y-7.3697
G01 X10.6097 Y-7.3850
G01 X10.6049 Y-7.3987
G01 X10.6007 Y-7.4062
G01 X10.5951 Y-7.4139
G01 X10.5892 Y-7.4201
G01 X10.5819 Y-7.4260
G01 X10.5738 Y-7.4309
G01 X10.5660 Y-7.4344
G01 X10.5569 Y-7.4371
G01 X10.5476 Y-7.4385
G01 X10.1619 Y-7.4388
G01 X10.1619 Y-9.7099
G01 X10.1602 Y-9.7244
G01 X10.1556 Y-9.7381
G01 X10.1477 Y-9.7514
G01 X10.1378 Y-9.7620
G01 X10.1266 Y-9.7699
G01 X10.1149 Y-9.7752
G01 X10.1025 Y-9.7783
G01 X10.0896 Y-9.7790
G01 X9.6849 Y-9.7461
G01 X9.6755 Y-9.7444
G01 X9.6666 Y-9.7414
G01 X9.6573 Y-9.7368
G01 X9.6495 Y-9.7314
G01 X9.6419 Y-9.7244
G01 X9.6359 Y-9.7170
G01 X9.6310 Y-9.7089
G01 X9.6272 Y-9.7003
G01 X9.6241 Y-9.6886
G01 X9.6231 Y-9.6766
G01 X9.6231 Y-8.3085
G01 X9.3631 Y-8.3085
G01 X9.3631 Y-8.6719
G01 X9.3622 Y-8.6830
G01 X9.3593 Y-8.6947
G01 X9.3540 Y-8.7064
G01 X9.3472 Y-8.7163
G01 X9.3388 Y-8.7249
G01 X9.3291 Y-8.7319
G01 X9.3175 Y-8.7375
G01 X9.3059 Y-8.7407
G01 X9.2931 Y-8.7419
G01 X7.6931 Y-8.7419
G01 X7.6778 Y-8.7402
G01 X7.6679 Y-8.7372
G01 X7.6579 Y-8.7324
G01 X7.6487 Y-8.7260
G01 X7.6412 Y-8.7189
G01 X7.6349 Y-8.7108
G01 X7.6295 Y-8.7011
G01 X7.6256 Y-8.6906
G01 X7.6236 Y-8.6805
G01 X7.6231 Y-8.6719
G01 X7.6231 Y-8.3085
G01 X7.3631 Y-8.3085
G01 X7.3631 Y-9.4229
G01 X7.3623 Y-9.4314
G01 X7.3606 Y-9.4398
G01 X7.3574 Y-9.4488
G01 X7.3536 Y-9.4564
G01 X7.3483 Y-9.4642
G01 X7.3426 Y-9.4707
G01 X7.3362 Y-9.4764
G01 X7.3291 Y-9.4812
G01 X7.3199 Y-9.4858
G01 X7.3093 Y-9.4893
G01 X7.2982 Y-9.4910
G01 X7.2871 Y-9.4909
G01 X7.2761 Y-9.4891
G01 X7.2655 Y-9.4855
G01 X7.2557 Y-9.4803
G01 X7.2467 Y-9.4736
G01 X7.2401 Y-9.4669
G01 X7.2344 Y-9.4593
G01 X7.2041 Y-9.4061
G01 X7.1718 Y-9.3551
G01 X7.1370 Y-9.3057
G01 X7.0999 Y-9.2581
G01 X7.0605 Y-9.2124
G01 X7.0188 Y-9.1687
G01 X6.9751 Y-9.1270
G01 X6.9294 Y-9.0876
G01 X6.8818 Y-9.0505
G01 X6.8324 Y-9.0157
G01 X6.7814 Y-8.9834
G01 X6.7289 Y-8.9537
G01 X6.6750 Y-8.9265
G01 X6.6198 Y-8.9020
G01 X6.5635 Y-8.8803
G01 X6.5061 Y-8.8614
G01 X6.4480 Y-8.8453
G01 X6.3891 Y-8.8321
G01 X6.3296 Y-8.8217
G01 X6.2697 Y-8.8143
G01 X6.2095 Y-8.8099
G01 X6.1491 Y-8.8084
G01 X6.0887 Y-8.8099
G01 X6.0285 Y-8.8143
G01 X5.9686 Y-8.8217
G01 X5.9091 Y-8.8321
G01 X5.8502 Y-8.8453
G01 X5.7921 Y-8.8614
G01 X5.7347 Y-8.8803
G01 X5.6784 Y-8.9020
G01 X5.6232 Y-8.9265
G01 X5.5693 Y-8.9537
G01 X5.5168 Y-8.9834
G01 X5.4658 Y-9.0157
G01 X5.4164 Y-9.0505
G01 X5.3688 Y-9.0876
G01 X5.3231 Y-9.1270
G01 X5.2794 Y-9.1687
G01 X5.2377 Y-9.2124
G01 X5.1983 Y-9.2581
G01 X5.1612 Y-9.3057
G01 X5.1264 Y-9.3551
G01 X5.0941 Y-9.4061
G01 X5.0644 Y-9.4586
G01 X5.0372 Y-9.5125
G01 X5.0127 Y-9.5677
G01 X4.9910 Y-9.6240
G01 X4.9721 Y-9.6814
G01 X4.9560 Y-9.7395
G01 X4.9428 Y-9.7984
G01 X4.9324 Y-9.8579
G01 X4.9250 Y-9.9178
G01 X4.9206 Y-9.9780
G01 X4.9191 Y-10.0384
G01 X4.9206 Y-10.0988
G01 X4.9250 Y-10.1590
G01 X4.9324 Y-10.2189
G01 X4.9428 Y-10.2784
G01 X4.9560 Y-10.3373
G01 X4.9721 Y-10.3954
G01 X4.9910 Y-10.4528
G01 X5.0127 Y-10.5091
G01 X5.0372 Y-10.5643
G01 X5.0644 Y-10.6182
G01 X5.0941 Y-10.6707
G01 X5.1264 Y-10.7217
G01 X5.1612 Y-10.7711
G01 X5.1983 Y-10.8187
G01 X5.2377 Y-10.8644
G01 X5.2794 Y-10.9081
G01 X5.3231 Y-10.9498
G01 X5.3688 Y-10.9892
G01 X5.4164 Y-11.0263
G01 X5.4658 Y-11.0611
G01 X5.5168 Y-11.0934
G01 X5.5693 Y-11.1231
G01 X5.6232 Y-11.1503
G01 X5.6784 Y-11.1748
G01 X5.7347 Y-11.1965
G01 X5.7921 Y-11.2154
G01 X5.8502 Y-11.2315
G01 X5.9091 Y-11.2447
G01 X5.9686 Y-11.2551
G01 X6.0285 Y-11.2625
G01 X6.0887 Y-11.2669
G01 X6.1491 Y-11.2684
G01 X6.2095 Y-11.2669
G01 X6.2697 Y-11.2625
G01 X6.3296 Y-11.2551
G01 X6.3891 Y-11.2447
G01 X6.4480 Y-11.2315
G01 X6.5061 Y-11.2154
G01 X6.5635 Y-11.1965
G01 X6.6198 Y-11.1748
G01 X6.6750 Y-11.1503
G01 X6.7289 Y-11.1231
G01 X6.7814 Y-11.0934
G01 X6.8324 Y-11.0611
G01 X6.8818 Y-11.0263
G01 X6.9294 Y-10.9892
G01 X6.9751 Y-10.9498
G01 X7.0188 Y-10.9081
G01 X7.0605 Y-10.8644
G01 X7.0999 Y-10.8187
G01 X7.1370 Y-10.7711
G01 X7.1606 Y-10.7376
G01 X7.1674 Y-10.7300
G01 X7.1781 Y-10.7214
G01 X7.1894 Y-10.7154
G01 X7.2025 Y-10.7114
G01 X7.2152 Y-10.7100
G01 X7.2996 Y-10.7166
G01 X7.3107 Y-10.7185
G01 X7.3212 Y-10.7222
G01 X7.3318 Y-10.7279
G01 X7.3412 Y-10.7354
G01 X7.3487 Y-10.7438
G01 X7.3539 Y-10.7517
G01 X7.3584 Y-10.7610
G01 X7.3612 Y-10.7700
G01 X7.3628 Y-10.7802
G01 X7.3631 Y-10.9019
G01 X9.5751 Y-10.9019
G01 X10.1053 Y-10.9453
G01 X10.1160 Y-10.9483
G01 X10.1254 Y-10.9526
G01 X10.1348 Y-10.9587
G01 X10.1425 Y-10.9656
G01 X10.1491 Y-10.9736
G01 X10.1544 Y-10.9825
G01 X10.1583 Y-10.9920
G01 X10.1610 Y-11.0029
G01 X10.1619 Y-11.0140
G01 X10.1619 Y-11.2988
G01 X12.2219 Y-11.2988
G01 X12.2219 Y-11.1913
G01 X12.2227 Y-11.1828
G01 X12.2244 Y-11.1744
G01 X12.2272 Y-11.1663
G01 X12.2309 Y-11.1586
G01 X12.2356 Y-11.1514
G01 X12.2411 Y-11.1449
G01 X12.2474 Y-11.1390
G01 X12.2543 Y-11.1340
G01 X12.2689 Y-11.1269
G01 X12.2830 Y-11.1236
G01 X12.2976 Y-11.1233
G01 X12.6083 Y-11.1486
G01 X12.6194 Y-11.1505
G01 X12.6307 Y-11.1545
G01 X12.6391 Y-11.1590
G01 X12.6467 Y-11.1646
G01 X12.6530 Y-11.1705
G01 X12.6590 Y-11.1778
G01 X12.6635 Y-11.1852
G01 X12.6674 Y-11.1938
G01 X12.6701 Y-11.2029
G01 X12.6715 Y-11.2122
G01 X12.6718 Y-11.6353
G01 X12.7035 Y-11.6353
G01 X12.7137 Y-11.6363
G01 X12.7278 Y-11.6403
G01 X12.7414 Y-11.6476
G01 X12.7536 Y-11.6583
G01 X12.7590 Y-11.6650
G01 X12.7635 Y-11.6723
G01 X12.7671 Y-11.6801
G01 X12.7697 Y-11.6883
G01 X12.7718 Y-11.7044
G01 X12.7702 Y-11.7198
G01 X12.7658 Y-11.7337
G01 X12.7265 Y-11.8027
G01 X12.6993 Y-11.8566
G01 X12.6748 Y-11.9118
G01 X12.6531 Y-11.9681
G01 X12.6342 Y-12.0255
G01 X12.6181 Y-12.0836
G01 X12.6049 Y-12.1425
G01 X12.5945 Y-12.2020
G01 X12.5871 Y-12.2619
G01 X12.5827 Y-12.3221
G01 X12.5812 Y-12.3825
G01 X12.5827 Y-12.4429
G01 X12.5871 Y-12.5031
G01 X12.5945 Y-12.5630
G01 X12.6049 Y-12.6225
G01 X12.6181 Y-12.6814
G01 X12.6342 Y-12.7395
G01 X12.6531 Y-12.7969
G01 X12.6748 Y-12.8532
G01 X12.6993 Y-12.9084
G01 X12.7265 Y-12.9623
G01 X12.7562 Y-13.0148
G01 X12.7885 Y-13.0658
G01 X12.8233 Y-13.1152
G01 X12.8604 Y-13.1628
G01 X12.8998 Y-13.2085
G01 X12.9415 Y-13.2522
G01 X12.9852 Y-13.2939
G01 X13.0309 Y-13.3333
G01 X13.0785 Y-13.3704
G01 X13.1279 Y-13.4052
G01 X13.1789 Y-13.4375
G01 X13.2314 Y-13.4672
G01 X13.2853 Y-13.4944
G01 X13.3405 Y-13.5189
G01 X13.3968 Y-13.5406
G01 X13.4542 Y-13.5595
G01 X13.5123 Y-13.5756
G01 X13.5712 Y-13.5888
G01 X13.6307 Y-13.5992
G01 X13.6906 Y-13.6066
G01 X13.7508 Y-13.6110
G01 X13.8112 Y-13.6125
G01 X13.8716 Y-13.6110
G01 X13.9318 Y-13.6066
G01 X13.9917 Y-13.5992
G01 X14.0512 Y-13.5888
G01 X14.1101 Y-13.5756
G01 X14.1682 Y-13.5595
G01 X14.2256 Y-13.5406
G01 X14.2819 Y-13.5189
G01 X14.3371 Y-13.4944
G01 X14.3910 Y-13.4672
G01 X14.4435 Y-13.4375
G01 X14.4945 Y-13.4052
G01 X14.5439 Y-13.3704
G01 X14.5915 Y-13.3333
G01 X14.6372 Y-13.2939
G01 X14.6809 Y-13.2522
G01 X14.7226 Y-13.2085
G01 X14.7620 Y-13.1628
G01 X14.7991 Y-13.1152
G01 X14.8339 Y-13.0658
G01 X14.8662 Y-13.0148
G01 X14.8959 Y-12.9623
G01 X14.9231 Y-12.9084
G01 X14.9476 Y-12.8532
G01 X14.9693 Y-12.7969
G01 X14.9882 Y-12.7395
G01 X15.0043 Y-12.6814
G01 X15.0175 Y-12.6225
G01 X15.0279 Y-12.5630
G01 X15.0353 Y-12.5031
G01 X15.0397 Y-12.4429
G01 X15.0412 Y-12.3825
G00 Z2.0000
G00 X14.0412 Y-12.3825
G01 F70.00
G01 Z-0.0600
G01 F120.00
G01 X14.0401 Y-12.3600
G01 X14.0368 Y-12.3376
G01 X14.0313 Y-12.3157
G01 X14.0237 Y-12.2945
G01 X14.0140 Y-12.2741
G01 X14.0024 Y-12.2547
G01 X13.9890 Y-12.2366
G01 X13.9738 Y-12.2199
G01 X13.9571 Y-12.2047
G01 X13.9390 Y-12.1913
G01 X13.9196 Y-12.1797
G01 X13.8992 Y-12.1700
G01 X13.8780 Y-12.1624
G01 X13.8561 Y-12.1569
G01 X13.8337 Y-12.1536
G01 X13.8112 Y-12.1525
G01 X13.7887 Y-12.1536
G01 X13.7663 Y-12.1569
G01 X13.7444 Y-12.1624
G01 X13.7232 Y-12.1700
G01 X13.7028 Y-12.1797
G01 X13.6834 Y-12.1913
G01 X13.6653 Y-12.2047
G01 X13.6486 Y-12.2199
G01 X13.6334 Y-12.2366
G01 X13.6200 Y-12.2547
G01 X13.6084 Y-12.2741
G01 X13.5987 Y-12.2945
G01 X13.5911 Y-12.3157
G01 X13.5856 Y-12.3376
G01 X13.5823 Y-12.3600
G01 X13.5812 Y-12.3825
G01 X13.5823 Y-12.4050
G01 X13.5856 Y-12.4274
G01 X13.5911 Y-12.4493
G01 X13.5987 Y-12.4705
G01 X13.6084 Y-12.4909
G01 X13.6200 Y-12.5103
G01 X13.6334 Y-12.5284
G01 X13.6486 Y-12.5451
G01 X13.6653 Y-12.5603
G01 X13.6834 Y-12.5737
G01 X13.7028 Y-12.5853
G01 X13.7232 Y-12.5950
G01 X13.7444 Y-12.6026
G01 X13.7663 Y-12.6081
G01 X13.7887 Y-12.6114
G01 X13.8112 Y-12.6125
G01 X13.8337 Y-12.6114
G01 X13.8561 Y-12.6081
G01 X13.8780 Y-12.6026
G01 X13.8992 Y-12.5950
G01 X13.9196 Y-12.5853
G01 X13.9390 Y-12.5737
G01 X13.9571 Y-12.5603
G01 X13.9738 Y-12.5451
G01 X13.9890 Y-12.5284
G01 X14.0024 Y-12.5103
G01 X14.0140 Y-12.4909
G01 X14.0237 Y-12.4705
G01 X14.0313 Y-12.4493
G01 X14.0368 Y-12.4274
G01 X14.0401 Y-12.4050
G01 X14.0412 Y-12.3825
G00 Z2.0000
G00 X13.9712 Y-12.3825
G01 F70.00
G01 Z-0.0600
G01 F120.00
G01 X13.9704 Y-12.3668
G01 X13.9681 Y-12.3513
G01 X13.9643 Y-12.3361
G01 X13.9590 Y-12.3213
G01 X13.9523 Y-12.3071
G01 X13.9442 Y-12.2936
G01 X13.9348 Y-12.2810
G01 X13.9243 Y-12.2694
G01 X13.9127 Y-12.2589
G01 X13.9001 Y-12.2495
G01 X13.8866 Y-12.2414
G01 X13.8724 Y-12.2347
G01 X13.8576 Y-12.2294
G01 X13.8424 Y-12.2256
G01 X13.8269 Y-12.2233
G01 X13.8112 Y-12.2225
G01 X13.7955 Y-12.2233
G01 X13.7800 Y-12.2256
G01 X13.7648 Y-12.2294
G01 X13.7500 Y-12.2347
G01 X13.7358 Y-12.2414
G01 X13.7223 Y-12.2495
G01 X13.7097 Y-12.2589
G01 X13.6981 Y-12.2694
G01 X13.6876 Y-12.2810
G01 X13.6782 Y-12.2936
G01 X13.6701 Y-12.3071
G01 X13.6634 Y-12.3213
G01 X13.6581 Y-12.3361
G01 X13.6543 Y-12.3513
G01 X13.6520 Y-12.3668
G01 X13.6512 Y-12.3825
G01 X13.6520 Y-12.3982
G01 X13.6543 Y-12.4137
G01 X13.6581 Y-12.4289
G01 X13.6634 Y-12.4437
G01 X13.6701 Y-12.4579
G01 X13.6782 Y-12.4714
G01 X13.6876 Y-12.4840
G01 X13.6981 Y-12.4956
G01 X13.7097 Y-12.5061
G01 X13.7223 Y-12.5155
G01 X13.7358 Y-12.5236
G01 X13.7500 Y-12.5303
G01 X13.7648 Y-12.5356
G01 X13.7800 Y-12.5394
G01 X13.7955 Y-12.5417
G01 X13.8112 Y-12.5425
G01 X13.8269 Y-12.5417
G01 X13.8424 Y-12.5394
G01 X13.8576 Y-12.5356
G01 X13.8724 Y-12.5303
G01 X13.8866 Y-12.5236
G01 X13.9001 Y-12.5155
G01 X13.9127 Y-12.5061
G01 X13.9243 Y-12.4956
G01 X13.9348 Y-12.4840
G01 X13.9442 Y-12.4714
G01 X13.9523 Y-12.4579
G01 X13.9590 Y-12.4437
G01 X13.9643 Y-12.4289
G01 X13.9681 Y-12.4137
G01 X13.9704 Y-12.3982
G01 X13.9712 Y-12.3825
G00 Z2.0000
G00 X13.9011 Y-12.3825
G01 F70.00
G01 Z-0.0600
G01 F120.00
G01 X13.8994 Y-12.3650
G01 X13.8943 Y-12.3481
G01 X13.8860 Y-12.3325
G01 X13.8748 Y-12.3189
G01 X13.8612 Y-12.3077
G01 X13.8456 Y-12.2994
G01 X13.8287 Y-12.2943
G01 X13.8112 Y-12.2926
G01 X13.7937 Y-12.2943
G01 X13.7768 Y-12.2994
G01 X13.7612 Y-12.3077
G01 X13.7476 Y-12.3189
G01 X13.7364 Y-12.3325
G01 X13.7281 Y-12.3481
G01 X13.7230 Y-12.3650
G01 X13.7213 Y-12.3825
G01 X13.7230 Y-12.4000
G01 X13.7281 Y-12.4169
G01 X13.7364 Y-12.4325
G01 X13.7476 Y-12.4461
G01 X13.7612 Y-12.4573
G01 X13.7768 Y-12.4656
G01 X13.7937 Y-12.4707
G01 X13.8112 Y-12.4724
G01 X13.8287 Y-12.4707
G01 X13.8456 Y-12.4656
G01 X13.8612 Y-12.4573
G01 X13.8748 Y-12.4461
G01 X13.8860 Y-12.4325
G01 X13.8943 Y-12.4169
G01 X13.8994 Y-12.4000
G01 X13.9011 Y-12.3825
G00 Z2.0000
G00 X13.8311 Y-12.3825
G01 F70.00
G01 Z-0.0600
G01 F120.00
G01 X13.8296 Y-12.3749
G01 X13.8253 Y-12.3684
G01 X13.8188 Y-12.3641
G01 X13.8112 Y-12.3626
G01 X13.8036 Y-12.3641
G01 X13.7971 Y-12.3684
G01 X13.7928 Y-12.3749
G01 X13.7913 Y-12.3825
G01 X13.7928 Y-12.3901
G01 X13.7971 Y-12.3966
G01 X13.8036 Y-12.4009
G01 X13.8112 Y-12.4024
G01 X13.8188 Y-12.4009
G01 X13.8253 Y-12.3966
G01 X13.8296 Y-12.3901
G01 X13.8311 Y-12.3825
G00 Z2.0000
G00 X12.8118 Y-11.3947
G01 F70.00
G01 Z-0.0600
G01 F120.00
G01 X12.8118 Y-11.5264
G01 X12.8350 Y-11.5430
G01 X12.8466 Y-11.5532
G01 X12.8574 Y-11.5643
G01 X12.8673 Y-11.5761
G01 X12.8764 Y-11.5886
G01 X12.8845 Y-11.6018
G01 X12.8916 Y-11.6155
G01 X12.8977 Y-11.6297
G01 X12.9027 Y-11.6443
G01 X12.9067 Y-11.6593
G01 X12.9095 Y-11.6745
G01 X12.9112 Y-11.6899
G01 X12.9118 Y-11.7053
G01 X12.9112 Y-11.7207
G01 X12.9096 Y-11.7354
G01 X12.9212 Y-11.7192
G01 X12.9515 Y-11.6803
G01 X12.9923 Y-11.6333
G01 X13.0263 Y-11.5976
G01 X13.0639 Y-11.5618
G01 X13.1050 Y-11.5261
G01 X13.1187 Y-11.5153
G01 X13.0018 Y-11.5153
G01 X12.9864 Y-11.5147
G01 X12.9684 Y-11.5126
G01 X12.9533 Y-11.5096
G01 X12.9384 Y-11.5055
G01 X12.9238 Y-11.5003
G01 X12.9051 Y-11.4917
G01 X12.8895 Y-11.4827
G01 X12.8726 Y-11.4709
G01 X12.8570 Y-11.4574
G01 X12.8445 Y-11.4444
G01 X12.8316 Y-11.4283
G01 X12.8204 Y-11.4110
G01 X12.8118 Y-11.3947
G00 Z2.0000
G00 X12.7059 Y-11.0359
G01 F70.00
G01 Z-0.0600
G01 F120.00
G01 X12.7201 Y-11.0447
G01 X12.7326 Y-11.0539
G01 X12.7443 Y-11.0640
G01 X12.7553 Y-11.0750
G01 X12.7671 Y-11.0887
G01 X12.7762 Y-11.1013
G01 X12.7843 Y-11.1145
G01 X12.7918 Y-11.1288
G01 X12.7918 Y-11.0429
G01 X12.7059 Y-11.0359
G00 Z2.0000
G00 X11.9813 Y-11.1588
G01 F70.00
G01 Z-0.0600
G01 F120.00
G01 X12.0847 Y-11.1588
G01 X12.0909 Y-11.1323
G01 X12.1009 Y-11.1058
G01 X12.1129 Y-11.0832
G01 X12.1293 Y-11.0601
G01 X12.1486 Y-11.0395
G01 X12.1705 Y-11.0217
G01 X12.1946 Y-11.0069
G01 X12.2186 Y-10.9963
G01 X12.1011 Y-10.9867
G01 X12.0973 Y-11.0123
G01 X12.0896 Y-11.0395
G01 X12.0783 Y-11.0655
G01 X12.0636 Y-11.0897
G01 X12.0475 Y-11.1098
G01 X12.0271 Y-11.1295
G01 X12.0042 Y-11.1462
G01 X11.9813 Y-11.1588
G00 Z2.0000
G00 X12.1878 Y-10.0704
G01 F70.00
G01 Z-0.0600
G01 F120.00
G01 X12.1736 Y-10.0616
G01 X12.1611 Y-10.0524
G01 X12.1494 Y-10.0423
G01 X12.1384 Y-10.0314
G01 X12.1266 Y-10.0176
G01 X12.1175 Y-10.0051
G01 X12.1094 Y-9.9919
G01 X12.1019 Y-9.9775
G01 X12.1019 Y-10.0635
G01 X12.1878 Y-10.0704
G00 Z2.0000
G00 X12.0819 Y-9.5794
G01 F70.00
G01 Z-0.0600
G01 F120.00
G01 X12.0819 Y-9.1582
G01 X12.0693 Y-9.1811
G01 X12.0526 Y-9.2040
G01 X12.0329 Y-9.2244
G01 X12.0107 Y-9.2420
G01 X11.9863 Y-9.2564
G01 X11.9602 Y-9.2674
G01 X11.9329 Y-9.2748
G01 X11.9073 Y-9.2782
G01 X11.8919 Y-9.2788
G01 X10.4919 Y-9.2788
G01 X10.4636 Y-9.2769
G01 X10.4484 Y-9.2742
G01 X10.4334 Y-9.2705
G01 X10.4068 Y-9.2608
G01 X10.3929 Y-9.2540
G01 X10.3796 Y-9.2462
G01 X10.3567 Y-9.2295
G01 X10.3452 Y-9.2191
G01 X10.3346 Y-9.2079
G01 X10.3248 Y-9.1960
G01 X10.3159 Y-9.1833
G01 X10.3019 Y-9.1582
G01 X10.3019 Y-9.5794
G01 X10.3159 Y-9.5543
G01 X10.3248 Y-9.5416
G01 X10.3346 Y-9.5297
G01 X10.3452 Y-9.5185
G01 X10.3567 Y-9.5081
G01 X10.3796 Y-9.4914
G01 X10.4044 Y-9.4779
G01 X10.4187 Y-9.4720
G01 X10.4334 Y-9.4671
G01 X10.4484 Y-9.4634
G01 X10.4636 Y-9.4607
G01 X10.4919 Y-9.4588
G01 X11.8919 Y-9.4588
G01 X11.9073 Y-9.4594
G01 X11.9329 Y-9.4628
G01 X11.9602 Y-9.4702
G01 X11.9863 Y-9.4812
G01 X12.0107 Y-9.4956
G01 X12.0329 Y-9.5132
G01 X12.0526 Y-9.5336
G01 X12.0693 Y-9.5565
G01 X12.0819 Y-9.5794
G00 Z2.0000
G00 X12.0119 Y-9.4158
G01 F70.00
G01 Z-0.0600
G01 F120.00
G01 X12.0119 Y-9.3218
G01 X11.9862 Y-9.3324
G01 X11.9566 Y-9.3412
G01 X11.9262 Y-9.3467
G01 X11.8953 Y-9.3488
G01 X10.4919 Y-9.3488
G01 X10.4610 Y-9.3471
G01 X10.4306 Y-9.3420
G01 X10.4008 Y-9.3336
G01 X10.3719 Y-9.3218
G01 X10.3719 Y-9.4158
G01 X10.4008 Y-9.4040
G01 X10.4306 Y-9.3956
G01 X10.4610 Y-9.3905
G01 X10.4919 Y-9.3888
G01 X11.8953 Y-9.3888
G01 X11.9262 Y-9.3909
G01 X11.9566 Y-9.3964
G01 X11.9862 Y-9.4052
G01 X12.0119 Y-9.4158
G00 Z2.0000
G00 X12.7918 Y-10.0027
G01 F70.00
G01 Z-0.0600
G01 F120.00
G01 X12.7821 Y-10.0210
G01 X12.7707 Y-10.0381
G01 X12.7577 Y-10.0540
G01 X12.7432 Y-10.0686
G01 X12.7273 Y-10.0817
G01 X12.7103 Y-10.0931
G01 X12.6922 Y-10.1029
G01 X12.6751 Y-10.1101
G01 X12.7918 Y-10.1196
G01 X12.7918 Y-10.0027
G00 Z2.0000
G00 X10.2819 Y-9.7985
G01 F70.00
G01 Z-0.0600
G01 F120.00
G01 X10.2722 Y-9.8168
G01 X10.2608 Y-9.8339
G01 X10.2478 Y-9.8498
G01 X10.2333 Y-9.8643
G01 X10.2174 Y-9.8774
G01 X10.2004 Y-9.8889
G01 X10.1823 Y-9.8986
G01 X10.1652 Y-9.9059
G01 X10.2819 Y-9.9154
G01 X10.2819 Y-9.7985
G00 Z2.0000
G00 X9.5890 Y-9.8590
G01 F70.00
G01 Z-0.0600
G01 F120.00
G01 X9.5748 Y-9.8501
G01 X9.5623 Y-9.8409
G01 X9.5506 Y-9.8308
G01 X9.5396 Y-9.8199
G01 X9.5278 Y-9.8062
G01 X9.5187 Y-9.7936
G01 X9.5106 Y-9.7804
G01 X9.5031 Y-9.7661
G01 X9.5031 Y-9.8520
G01 X9.5890 Y-9.8590
G00 Z2.0000
G00 X9.4831 Y-9.1825
G01 F70.00
G01 Z-0.0600
G01 F120.00
G01 X9.4831 Y-8.7613
G01 X9.4705 Y-8.7842
G01 X9.4538 Y-8.8071
G01 X9.4341 Y-8.8275
G01 X9.4119 Y-8.8451
G01 X9.3875 Y-8.8595
G01 X9.3614 Y-8.8705
G01 X9.3341 Y-8.8779
G01 X9.3060 Y-8.8815
G01 X7.6931 Y-8.8819
G01 X7.6648 Y-8.8800
G01 X7.6496 Y-8.8773
G01 X7.6346 Y-8.8736
G01 X7.6080 Y-8.8639
G01 X7.5941 Y-8.8571
G01 X7.5808 Y-8.8493
G01 X7.5579 Y-8.8326
G01 X7.5464 Y-8.8222
G01 X7.5358 Y-8.8110
G01 X7.5260 Y-8.7991
G01 X7.5171 Y-8.7864
G01 X7.5031 Y-8.7613
G01 X7.5031 Y-9.1825
G01 X7.5171 Y-9.1574
G01 X7.5260 Y-9.1447
G01 X7.5358 Y-9.1328
G01 X7.5559 Y-9.1129
G01 X7.5680 Y-9.1032
G01 X7.5808 Y-9.0945
G01 X7.5941 Y-9.0867
G01 X7.6080 Y-9.0799
G01 X7.6346 Y-9.0702
G01 X7.6496 Y-9.0665
G01 X7.6648 Y-9.0638
G01 X7.6931 Y-9.0619
G01 X9.3060 Y-9.0623
G01 X9.3341 Y-9.0659
G01 X9.3614 Y-9.0733
G01 X9.3875 Y-9.0843
G01 X9.4119 Y-9.0987
G01 X9.4341 Y-9.1163
G01 X9.4538 Y-9.1367
G01 X9.4705 Y-9.1596
G01 X9.4831 Y-9.1825
G00 Z2.0000
G00 X9.4131 Y-9.0189
G01 F70.00
G01 Z-0.0600
G01 F120.00
G01 X9.4131 Y-8.9249
G01 X9.3874 Y-8.9355
G01 X9.3578 Y-8.9443
G01 X9.3274 Y-8.9498
G01 X9.2965 Y-8.9519
G01 X7.6931 Y-8.9519
G01 X7.6622 Y-8.9502
G01 X7.6318 Y-8.9451
G01 X7.6020 Y-8.9367
G01 X7.5731 Y-8.9249
G01 X7.5731 Y-9.0189
G01 X7.6020 Y-9.0071
G01 X7.6318 Y-8.9987
G01 X7.6622 Y-8.9936
G01 X7.6931 Y-8.9919
G01 X9.2965 Y-8.9919
G01 X9.3274 Y-8.9940
G01 X9.3578 Y-8.9995
G01 X9.3874 Y-9.0083
G01 X9.4131 Y-9.0189
G00 Z2.0000
G00 X10.1960 Y-10.8317
G01 F70.00
G01 Z-0.0600
G01 F120.00
G01 X10.2102 Y-10.8405
G01 X10.2227 Y-10.8497
G01 X10.2344 Y-10.8598
G01 X10.2454 Y-10.8707
G01 X10.2572 Y-10.8845
G01 X10.2663 Y-10.8970
G01 X10.2744 Y-10.9102
G01 X10.2819 Y-10.9246
G01 X10.2819 Y-10.8387
G01 X10.1960 Y-10.8317
G00 Z2.0000
G00 X10.3019 Y-11.0582
G01 F70.00
G01 Z-0.0600
G01 F120.00
G01 X10.3019 Y-11.1588
G01 X10.4025 Y-11.1588
G01 X10.3862 Y-11.1502
G01 X10.3710 Y-11.1405
G01 X10.3567 Y-11.1295
G01 X10.3434 Y-11.1173
G01 X10.3312 Y-11.1040
G01 X10.3202 Y-11.0897
G01 X10.3105 Y-11.0745
G01 X10.3019 Y-11.0582
G00 Z2.0000
G00 X8.4031 Y-11.7450
G01 F70.00
G01 Z-0.0600
G01 F120.00
G01 X8.4020 Y-11.7225
G01 X8.3987 Y-11.7001
G01 X8.3932 Y-11.6782
G01 X8.3856 Y-11.6570
G01 X8.3759 Y-11.6366
G01 X8.3643 Y-11.6172
G01 X8.3509 Y-11.5991
G01 X8.3357 Y-11.5824
G01 X8.3190 Y-11.5672
G01 X8.3009 Y-11.5538
G01 X8.2815 Y-11.5422
G01 X8.2611 Y-11.5325
G01 X8.2399 Y-11.5249
G01 X8.2180 Y-11.5194
G01 X8.1956 Y-11.5161
G01 X8.1731 Y-11.5150
G01 X8.1506 Y-11.5161
G01 X8.1282 Y-11.5194
G01 X8.1063 Y-11.5249
G01 X8.0851 Y-11.5325
G01 X8.0647 Y-11.5422
G01 X8.0453 Y-11.5538
G01 X8.0272 Y-11.5672
G01 X8.0105 Y-11.5824
G01 X7.9953 Y-11.5991
G01 X7.9819 Y-11.6172
G01 X7.9703 Y-11.6366
G01 X7.9606 Y-11.6570
G01 X7.9530 Y-11.6782
G01 X7.9475 Y-11.7001
G01 X7.9442 Y-11.7225
G01 X7.9431 Y-11.7450
G01 X7.9442 Y-11.7675
G01 X7.9475 Y-11.7899
G01 X7.9530 Y-11.8118
G01 X7.9606 Y-11.8330
G01 X7.9703 Y-11.8534
G01 X7.9819 Y-11.8728
G01 X7.9953 Y-11.8909
G01 X8.0105 Y-11.9076
G01 X8.0272 Y-11.9228
G01 X8.0453 Y-11.9362
G01 X8.0647 Y-11.9478
G01 X8.0851 Y-11.9575
G01 X8.1063 Y-11.9651
G01 X8.1282 Y-11.9706
G01 X8.1506 Y-11.9739
G01 X8.1731 Y-11.9750
G01 X8.1956 Y-11.9739
G01 X8.2180 Y-11.9706
G01 X8.2399 Y-11.9651
G01 X8.2611 Y-11.9575
G01 X8.2815 Y-11.9478
G01 X8.3009 Y-11.9362
G01 X8.3190 Y-11.9228
G01 X8.3357 Y-11.9076
G01 X8.3509 Y-11.8909
G01 X8.3643 Y-11.8728
G01 X8.3759 Y-11.8534
G01 X8.3856 Y-11.8330
G01 X8.3932 Y-11.8118
G01 X8.3987 Y-11.7899
G01 X8.4020 Y-11.7675
G01 X8.4031 Y-11.7450
G00 Z2.0000
G00 X8.3331 Y-11.7450
G01 F70.00
G01 Z-0.0600
G01 F120.00
G01 X8.3323 Y-11.7293
G01 X8.3300 Y-11.7138
G01 X8.3262 Y-11.6986
G01 X8.3209 Y-11.6838
G01 X8.3142 Y-11.6696
G01 X8.3061 Y-11.6561
G01 X8.2967 Y-11.6435
G01 X8.2862 Y-11.6319
G01 X8.2746 Y-11.6214
G01 X8.2620 Y-11.6120
G01 X8.2485 Y-11.6039
G01 X8.2343 Y-11.5972
G01 X8.2195 Y-11.5919
G01 X8.2043 Y-11.5881
G01 X8.1888 Y-11.5858
G01 X8.1731 Y-11.5850
G01 X8.1574 Y-11.5858
G01 X8.1419 Y-11.5881
G01 X8.1267 Y-11.5919
G01 X8.1119 Y-11.5972
G01 X8.0977 Y-11.6039
G01 X8.0842 Y-11.6120
G01 X8.0716 Y-11.6214
G01 X8.0600 Y-11.6319
G01 X8.0495 Y-11.6435
G01 X8.0401 Y-11.6561
G01 X8.0320 Y-11.6696
G01 X8.0253 Y-11.6838
G01 X8.0200 Y-11.6986
G01 X8.0162 Y-11.7138
G01 X8.0139 Y-11.7293
G01 X8.0131 Y-11.7450
G01 X8.0139 Y-11.7607
G01 X8.0162 Y-11.7762
G01 X8.0200 Y-11.7914
G01 X8.0253 Y-11.8062
G01 X8.0320 Y-11.8204
G01 X8.0401 Y-11.8339
G01 X8.0495 Y-11.8465
G01 X8.0600 Y-11.8581
G01 X8.0716 Y-11.8686
G01 X8.0842 Y-11.8780
G01 X8.0977 Y-11.8861
G01 X8.1119 Y-11.8928
G01 X8.1267 Y-11.8981
G01 X8.1419 Y-11.9019
G01 X8.1574 Y-11.9042
G01 X8.1731 Y-11.9050
G01 X8.1888 Y-11.9042
G01 X8.2043 Y-11.9019
G01 X8.2195 Y-11.8981
G01 X8.2343 Y-11.8928
G01 X8.2485 Y-11.8861
G01 X8.2620 Y-11.8780
G01 X8.2746 Y-11.8686
G01 X8.2862 Y-11.8581
G01 X8.2967 Y-11.8465
G01 X8.3061 Y-11.8339
G01 X8.3142 Y-11.8204
G01 X8.3209 Y-11.8062
G01 X8.3262 Y-11.7914
G01 X8.3300 Y-11.7762
G01 X8.3323 Y-11.7607
G01 X8.3331 Y-11.7450
G00 Z2.0000
G00 X8.2630 Y-11.7450
G01 F70.00
G01 Z-0.0600
G01 F120.00
G01 X8.2613 Y-11.7275
G01 X8.2562 Y-11.7106
G01 X8.2479 Y-11.6950
G01 X8.2367 Y-11.6814
G01 X8.2231 Y-11.6702
G01 X8.2075 Y-11.6619
G01 X8.1906 Y-11.6568
G01 X8.1731 Y-11.6551
G01 X8.1556 Y-11.6568
G01 X8.1387 Y-11.6619
G01 X8.1231 Y-11.6702
G01 X8.1095 Y-11.6814
G01 X8.0983 Y-11.6950
G01 X8.0900 Y-11.7106
G01 X8.0849 Y-11.7275
G01 X8.0832 Y-11.7450
G01 X8.0849 Y-11.7625
G01 X8.0900 Y-11.7794
G01 X8.0983 Y-11.7950
G01 X8.1095 Y-11.8086
G01 X8.1231 Y-11.8198
G01 X8.1387 Y-11.8281
G01 X8.1556 Y-11.8332
G01 X8.1731 Y-11.8349
G01 X8.1906 Y-11.8332
G01 X8.2075 Y-11.8281
G01 X8.2231 Y-11.8198
G01 X8.2367 Y-11.8086
G01 X8.2479 Y-11.7950
G01 X8.2562 Y-11.7794
G01 X8.2613 Y-11.7625
G01 X8.2630 Y-11.7450
G00 Z2.0000
G00 X8.1930 Y-11.7450
G01 F70.00
G01 Z-0.0600
G01 F120.00
G01 X8.1915 Y-11.7374
G01 X8.1872 Y-11.7309
G01 X8.1807 Y-11.7266
G01 X8.1731 Y-11.7251
G01 X8.1655 Y-11.7266
G01 X8.1590 Y-11.7309
G01 X8.1547 Y-11.7374
G01 X8.1532 Y-11.7450
G01 X8.1547 Y-11.7526
G01 X8.1590 Y-11.7591
G01 X8.1655 Y-11.7634
G01 X8.1731 Y-11.7649
G01 X8.1807 Y-11.7634
G01 X8.1872 Y-11.7591
G01 X8.1915 Y-11.7526
G01 X8.1930 Y-11.7450
G00 Z2.0000
G00 X7.5017 Y-10.7619
G01 F70.00
G01 Z-0.0600
G01 F120.00
G01 X7.6037 Y-10.7619
G01 X7.5829 Y-10.7507
G01 X7.5619 Y-10.7359
G01 X7.5446 Y-10.7204
G01 X7.5275 Y-10.7011
G01 X7.5143 Y-10.6821
G01 X7.5022 Y-10.6594
G01 X7.4929 Y-10.6353
G01 X7.4868 Y-10.6112
G01 X7.3972 Y-10.6039
G01 X7.4177 Y-10.6172
G01 X7.4375 Y-10.6338
G01 X7.4535 Y-10.6507
G01 X7.4689 Y-10.6714
G01 X7.4805 Y-10.6916
G01 X7.4907 Y-10.7153
G01 X7.4974 Y-10.7376
G01 X7.5017 Y-10.7619
G00 Z2.0000
G00 X7.1054 Y-10.6017
G01 F70.00
G01 Z-0.0600
G01 F120.00
G01 X7.1238 Y-10.5915
G01 X7.1431 Y-10.5832
G01 X7.1171 Y-10.5811
G01 X7.1054 Y-10.6017
G00 Z2.0000
G00 X7.0769 Y-10.5076
G01 F70.00
G01 Z-0.0600
G01 F120.00
G01 X7.5531 Y-10.5464
G01 X7.5535 Y-10.5822
G01 X7.5552 Y-10.5958
G01 X7.5577 Y-10.6076
G01 X7.5619 Y-10.6207
G01 X7.5680 Y-10.6348
G01 X7.5748 Y-10.6468
G01 X7.5827 Y-10.6580
G01 X7.5917 Y-10.6684
G01 X7.6030 Y-10.6790
G01 X7.6139 Y-10.6873
G01 X7.6271 Y-10.6954
G01 X7.6411 Y-10.7019
G01 X7.6541 Y-10.7064
G01 X7.6675 Y-10.7095
G01 X7.6811 Y-10.7114
G01 X7.6931 Y-10.7119
G01 X9.2948 Y-10.7119
G01 X9.3136 Y-10.7104
G01 X9.3304 Y-10.7068
G01 X9.3467 Y-10.7012
G01 X9.3623 Y-10.6936
G01 X10.3519 Y-10.7741
G01 X10.3520 Y-10.9740
G01 X10.3530 Y-10.9859
G01 X10.3549 Y-10.9978
G01 X10.3613 Y-11.0192
G01 X10.3693 Y-11.0363
G01 X10.3795 Y-11.0522
G01 X10.3929 Y-11.0678
G01 X10.4071 Y-11.0802
G01 X10.4229 Y-11.0906
G01 X10.4415 Y-11.0994
G01 X10.4612 Y-11.1054
G01 X10.4799 Y-11.1083
G01 X10.4919 Y-11.1088
G01 X11.8919 Y-11.1088
G01 X11.9090 Y-11.1077
G01 X11.9242 Y-11.1050
G01 X11.9391 Y-11.1006
G01 X11.9533 Y-11.0946
G01 X11.9668 Y-11.0871
G01 X11.9794 Y-11.0781
G01 X11.9909 Y-11.0678
G01 X12.0012 Y-11.0563
G01 X12.0111 Y-11.0422
G01 X12.0177 Y-11.0302
G01 X12.0231 Y-11.0176
G01 X12.0273 Y-11.0045
G01 X12.0301 Y-10.9910
G01 X12.0319 Y-10.9722
G01 X12.0319 Y-10.9108
G01 X12.8618 Y-10.9784
G01 X12.8618 Y-11.3053
G01 X12.8625 Y-11.3190
G01 X12.8645 Y-11.3326
G01 X12.8673 Y-11.3443
G01 X12.8712 Y-11.3557
G01 X12.8767 Y-11.3682
G01 X12.8826 Y-11.3787
G01 X12.8894 Y-11.3887
G01 X12.8969 Y-11.3980
G01 X12.9065 Y-11.4079
G01 X12.9157 Y-11.4157
G01 X12.9255 Y-11.4227
G01 X12.9451 Y-11.4333
G01 X12.9563 Y-11.4377
G01 X12.9678 Y-11.4411
G01 X12.9898 Y-11.4448
G01 X13.3606 Y-11.4453
G01 X13.3209 Y-11.4653
G01 X13.2795 Y-11.4887
G01 X13.2363 Y-11.5159
G01 X13.1917 Y-11.5472
G01 X13.1514 Y-11.5786
G01 X13.1103 Y-11.6142
G01 X13.0758 Y-11.6471
G01 X13.0429 Y-11.6816
G01 X13.0073 Y-11.7227
G01 X12.9759 Y-11.7630
G01 X12.9465 Y-11.8047
G01 X12.9174 Y-11.8508
G01 X12.8940 Y-11.8922
G01 X12.8726 Y-11.9348
G01 X12.8504 Y-11.9845
G01 X12.8320 Y-12.0321
G01 X12.8150 Y-12.0839
G01 X12.8024 Y-12.1298
G01 X12.7919 Y-12.1762
G01 X12.7825 Y-12.2299
G01 X12.7759 Y-12.2840
G01 X12.7725 Y-12.3315
G01 X12.7712 Y-12.3791
G01 X12.7725 Y-12.4335
G01 X12.7762 Y-12.4844
G01 X12.7830 Y-12.5385
G01 X12.7912 Y-12.5854
G01 X12.8016 Y-12.6319
G01 X12.8160 Y-12.6844
G01 X12.8320 Y-12.7329
G01 X12.8517 Y-12.7836
G01 X12.8711 Y-12.8272
G01 X12.8924 Y-12.8697
G01 X12.9192 Y-12.9172
G01 X12.9465 Y-12.9603
G01 X12.9779 Y-13.0048
G01 X13.0073 Y-13.0423
G01 X13.0383 Y-13.0783
G01 X13.0758 Y-13.1179
G01 X13.1141 Y-13.1542
G01 X13.1541 Y-13.1886
G01 X13.1917 Y-13.2178
G01 X13.2306 Y-13.2453
G01 X13.2765 Y-13.2745
G01 X13.3209 Y-13.2997
G01 X13.3697 Y-13.3241
G01 X13.4132 Y-13.3433
G01 X13.4576 Y-13.3605
G01 X13.5093 Y-13.3777
G01 X13.5618 Y-13.3921
G01 X13.6117 Y-13.4031
G01 X13.6586 Y-13.4112
G01 X13.7058 Y-13.4171
G01 X13.7602 Y-13.4212
G01 X13.8146 Y-13.4225
G01 X13.8622 Y-13.4212
G01 X13.9097 Y-13.4178
G01 X13.9638 Y-13.4112
G01 X14.0175 Y-13.4018
G01 X14.0639 Y-13.3913
G01 X14.1098 Y-13.3787
G01 X14.1616 Y-13.3617
G01 X14.2123 Y-13.3420
G01 X14.2559 Y-13.3226
G01 X14.2984 Y-13.3013
G01 X14.3459 Y-13.2745
G01 X14.3918 Y-13.2453
G01 X14.4307 Y-13.2178
G01 X14.4683 Y-13.1886
G01 X14.5096 Y-13.1531
G01 X14.5466 Y-13.1179
G01 X14.5841 Y-13.0783
G01 X14.6151 Y-13.0423
G01 X14.6445 Y-13.0048
G01 X14.6759 Y-12.9603
G01 X14.7032 Y-12.9172
G01 X14.7300 Y-12.8697
G01 X14.7513 Y-12.8272
G01 X14.7707 Y-12.7836
G01 X14.7904 Y-12.7329
G01 X14.8074 Y-12.6811
G01 X14.8200 Y-12.6352
G01 X14.8312 Y-12.5854
G01 X14.8399 Y-12.5351
G01 X14.8458 Y-12.4879
G01 X14.8501 Y-12.4301
G01 X14.8512 Y-12.3825
G01 X14.8499 Y-12.3315
G01 X14.8462 Y-12.2806
G01 X14.8399 Y-12.2299
G01 X14.8312 Y-12.1796
G01 X14.8208 Y-12.1331
G01 X14.8064 Y-12.0806
G01 X14.7915 Y-12.0354
G01 X14.7707 Y-11.9814
G01 X14.7513 Y-11.9378
G01 X14.7284 Y-11.8922
G01 X14.7032 Y-11.8478
G01 X14.6778 Y-11.8076
G01 X14.6445 Y-11.7602
G01 X14.6151 Y-11.7227
G01 X14.5795 Y-11.6816
G01 X14.5466 Y-11.6471
G01 X14.5096 Y-11.6119
G01 X14.4710 Y-11.5786
G01 X14.4307 Y-11.5472
G01 X14.3890 Y-11.5178
G01 X14.3459 Y-11.4905
G01 X14.3015 Y-11.4653
G01 X14.2618 Y-11.4453
G01 X14.4104 Y-11.4450
G01 X14.4223 Y-11.4438
G01 X14.4341 Y-11.4415
G01 X14.4457 Y-11.4382
G01 X14.4585 Y-11.4333
G01 X14.4752 Y-11.4245
G01 X14.4893 Y-11.4146
G01 X14.5032 Y-11.4018
G01 X14.5153 Y-11.3873
G01 X14.5253 Y-11.3713
G01 X14.5324 Y-11.3557
G01 X14.5380 Y-11.3376
G01 X14.5409 Y-11.3207
G01 X14.5418 Y-11.3053
G01 X14.5414 Y-9.9950
G01 X14.5380 Y-9.9730
G01 X14.5318 Y-9.9533
G01 X14.5228 Y-9.9348
G01 X14.5100 Y-9.9165
G01 X14.4945 Y-9.9004
G01 X14.4781 Y-9.8879
G01 X14.4601 Y-9.8780
G01 X14.4391 Y-9.8704
G01 X14.4206 Y-9.8666
G01 X14.4018 Y-9.8653
G01 X13.0018 Y-9.8653
G01 X12.9864 Y-9.8662
G01 X12.9678 Y-9.8695
G01 X12.9498 Y-9.8753
G01 X12.9328 Y-9.8835
G01 X12.9157 Y-9.8949
G01 X12.9004 Y-9.9088
G01 X12.8883 Y-9.9233
G01 X12.8783 Y-9.9393
G01 X12.8706 Y-9.9565
G01 X12.8645 Y-9.9780
G01 X12.8619 Y-10.0001
G01 X12.8618 Y-10.1955
G01 X12.0319 Y-10.1280
G01 X12.0319 Y-9.6688
G01 X12.0304 Y-9.6483
G01 X12.0264 Y-9.6298
G01 X12.0206 Y-9.6136
G01 X12.0120 Y-9.5968
G01 X12.0012 Y-9.5813
G01 X11.9884 Y-9.5674
G01 X11.9739 Y-9.5553
G01 X11.9579 Y-9.5453
G01 X11.9423 Y-9.5382
G01 X11.9309 Y-9.5343
G01 X11.9175 Y-9.5312
G01 X11.9056 Y-9.5295
G01 X11.8936 Y-9.5288
G01 X10.4902 Y-9.5288
G01 X10.4680 Y-9.5309
G01 X10.4480 Y-9.5359
G01 X10.4274 Y-9.5445
G01 X10.4085 Y-9.5564
G01 X10.3917 Y-9.5710
G01 X10.3774 Y-9.5882
G01 X10.3661 Y-9.6074
G01 X10.3579 Y-9.6282
G01 X10.3534 Y-9.6483
G01 X10.3519 Y-9.6671
G01 X10.3519 Y-9.9913
G01 X9.4331 Y-9.9165
G01 X9.4331 Y-9.2719
G01 X9.4326 Y-9.2599
G01 X9.4310 Y-9.2480
G01 X9.4285 Y-9.2362
G01 X9.4249 Y-9.2247
G01 X9.4204 Y-9.2136
G01 X9.4149 Y-9.2029
G01 X9.4085 Y-9.1927
G01 X9.4013 Y-9.1831
G01 X9.3933 Y-9.1741
G01 X9.3845 Y-9.1659
G01 X9.3751 Y-9.1584
G01 X9.3651 Y-9.1518
G01 X9.3545 Y-9.1461
G01 X9.3435 Y-9.1413
G01 X9.3321 Y-9.1374
G01 X9.3204 Y-9.1346
G01 X9.3085 Y-9.1328
G01 X9.2965 Y-9.1319
G01 X7.6931 Y-9.1319
G01 X7.6743 Y-9.1332
G01 X7.6558 Y-9.1370
G01 X7.6379 Y-9.1432
G01 X7.6197 Y-9.1527
G01 X7.6030 Y-9.1648
G01 X7.5882 Y-9.1792
G01 X7.5757 Y-9.1956
G01 X7.5665 Y-9.2120
G01 X7.5591 Y-9.2313
G01 X7.5549 Y-9.2497
G01 X7.5531 Y-9.2719
G01 X7.5531 Y-9.7635
G01 X7.1422 Y-9.7301
G01 X7.1283 Y-9.6880
G01 X7.1099 Y-9.6404
G01 X7.0892 Y-9.5937
G01 X7.0679 Y-9.5512
G01 X7.0393 Y-9.5008
G01 X7.0138 Y-9.4606
G01 X6.9864 Y-9.4217
G01 X6.9508 Y-9.3760
G01 X6.9197 Y-9.3400
G01 X6.8845 Y-9.3030
G01 X6.8449 Y-9.2655
G01 X6.8089 Y-9.2345
G01 X6.7714 Y-9.2051
G01 X6.7240 Y-9.1718
G01 X6.6838 Y-9.1464
G01 X6.6394 Y-9.1212
G01 X6.5906 Y-9.0968
G01 X6.5471 Y-9.0776
G01 X6.4995 Y-9.0592
G01 X6.4477 Y-9.0422
G01 X6.4018 Y-9.0296
G01 X6.3520 Y-9.0184
G01 X6.3017 Y-9.0097
G01 X6.2545 Y-9.0038
G01 X6.1984 Y-8.9996
G01 X6.1491 Y-8.9984
G01 X6.1015 Y-8.9995
G01 X6.0472 Y-9.0034
G01 X5.9931 Y-9.0102
G01 X5.9462 Y-9.0184
G01 X5.8964 Y-9.0296
G01 X5.8472 Y-9.0432
G01 X5.8020 Y-9.0581
G01 X5.7511 Y-9.0776
G01 X5.7014 Y-9.0998
G01 X5.6588 Y-9.1212
G01 X5.6174 Y-9.1446
G01 X5.5685 Y-9.1756
G01 X5.5296 Y-9.2031
G01 X5.4920 Y-9.2323
G01 X5.4507 Y-9.2678
G01 X5.4113 Y-9.3055
G01 X5.3785 Y-9.3400
G01 X5.3474 Y-9.3760
G01 X5.3138 Y-9.4189
G01 X5.2844 Y-9.4606
G01 X5.2589 Y-9.5008
G01 X5.2311 Y-9.5497
G01 X5.2090 Y-9.5937
G01 X5.1883 Y-9.6404
G01 X5.1699 Y-9.6880
G01 X5.1539 Y-9.7365
G01 X5.1403 Y-9.7857
G01 X5.1291 Y-9.8355
G01 X5.1204 Y-9.8858
G01 X5.1141 Y-9.9365
G01 X5.1104 Y-9.9874
G01 X5.1091 Y-10.0384
G01 X5.1104 Y-10.0894
G01 X5.1141 Y-10.1403
G01 X5.1204 Y-10.1910
G01 X5.1291 Y-10.2413
G01 X5.1403 Y-10.2911
G01 X5.1539 Y-10.3403
G01 X5.1699 Y-10.3888
G01 X5.1883 Y-10.4364
G01 X5.2090 Y-10.4831
G01 X5.2319 Y-10.5287
G01 X5.2571 Y-10.5731
G01 X5.2844 Y-10.6162
G01 X5.3138 Y-10.6579
G01 X5.3452 Y-10.6982
G01 X5.3785 Y-10.7368
G01 X5.4137 Y-10.7738
G01 X5.4507 Y-10.8090
G01 X5.4893 Y-10.8423
G01 X5.5296 Y-10.8737
G01 X5.5713 Y-10.9031
G01 X5.6144 Y-10.9304
G01 X5.6604 Y-10.9564
G01 X5.7044 Y-10.9785
G01 X5.7511 Y-10.9992
G01 X5.7987 Y-11.0176
G01 X5.8472 Y-11.0336
G01 X5.8964 Y-11.0472
G01 X5.9462 Y-11.0584
G01 X5.9965 Y-11.0671
G01 X6.0472 Y-11.0734
G01 X6.0981 Y-11.0771
G01 X6.1491 Y-11.0784
G01 X6.2001 Y-11.0771
G01 X6.2510 Y-11.0734
G01 X6.3017 Y-11.0671
G01 X6.3520 Y-11.0584
G01 X6.4018 Y-11.0472
G01 X6.4526 Y-11.0331
G01 X6.4995 Y-11.0176
G01 X6.5471 Y-10.9992
G01 X6.5938 Y-10.9785
G01 X6.6394 Y-10.9556
G01 X6.6838 Y-10.9304
G01 X6.7269 Y-10.9031
G01 X6.7686 Y-10.8737
G01 X6.8102 Y-10.8412
G01 X6.8475 Y-10.8090
G01 X6.8845 Y-10.7738
G01 X6.9197 Y-10.7368
G01 X6.9541 Y-10.6968
G01 X6.9844 Y-10.6579
G01 X7.0148 Y-10.6148
G01 X7.0420 Y-10.5716
G01 X7.0655 Y-10.5302
G01 X7.0769 Y-10.5076
G00 Z2.0000
G00 X7.0345 Y-10.4339
G01 F70.00
G01 Z-0.0600
G01 F120.00
G01 X7.6231 Y-10.4818
G01 X7.6232 Y-10.5753
G01 X7.6246 Y-10.5864
G01 X7.6281 Y-10.5979
G01 X7.6322 Y-10.6064
G01 X7.6379 Y-10.6150
G01 X7.6442 Y-10.6220
G01 X7.6514 Y-10.6281
G01 X7.6593 Y-10.6332
G01 X7.6679 Y-10.6372
G01 X7.6769 Y-10.6400
G01 X7.6871 Y-10.6416
G01 X9.2940 Y-10.6419
G01 X9.3068 Y-10.6406
G01 X9.3199 Y-10.6366
G01 X9.3320 Y-10.6301
G01 X9.3423 Y-10.6217
G01 X10.4219 Y-10.7096
G01 X10.4219 Y-10.9688
G01 X10.4232 Y-10.9825
G01 X10.4263 Y-10.9932
G01 X10.4310 Y-11.0033
G01 X10.4372 Y-11.0125
G01 X10.4449 Y-11.0207
G01 X10.4537 Y-11.0275
G01 X10.4635 Y-11.0328
G01 X10.4741 Y-11.0365
G01 X10.4859 Y-11.0385
G01 X11.8919 Y-11.0388
G01 X11.9013 Y-11.0382
G01 X11.9114 Y-11.0360
G01 X11.9203 Y-11.0328
G01 X11.9293 Y-11.0279
G01 X11.9376 Y-11.0218
G01 X11.9449 Y-11.0145
G01 X11.9506 Y-11.0070
G01 X11.9555 Y-10.9980
G01 X11.9589 Y-10.9891
G01 X11.9610 Y-10.9799
G01 X11.9619 Y-10.9705
G01 X11.9619 Y-10.8349
G01 X12.9318 Y-10.9138
G01 X12.9319 Y-11.3087
G01 X12.9337 Y-11.3215
G01 X12.9382 Y-11.3345
G01 X12.9451 Y-11.3463
G01 X12.9542 Y-11.3566
G01 X12.9644 Y-11.3644
G01 X12.9750 Y-11.3700
G01 X12.9873 Y-11.3738
G01 X12.9992 Y-11.3753
G01 X13.4266 Y-11.3753
G01 X13.4338 Y-11.4890
G01 X13.3965 Y-11.5056
G01 X13.3555 Y-11.5262
G01 X13.3125 Y-11.5505
G01 X13.2709 Y-11.5769
G01 X13.2334 Y-11.6034
G01 X13.1958 Y-11.6327
G01 X13.1598 Y-11.6638
G01 X13.1265 Y-11.6954
G01 X13.0925 Y-11.7311
G01 X13.0603 Y-11.7685
G01 X13.0321 Y-11.8047
G01 X13.0052 Y-11.8429
G01 X12.9792 Y-11.8838
G01 X12.9557 Y-11.9252
G01 X12.9343 Y-11.9678
G01 X12.9150 Y-12.0113
G01 X12.8979 Y-12.0557
G01 X12.8830 Y-12.1009
G01 X12.8703 Y-12.1468
G01 X12.8595 Y-12.1950
G01 X12.8515 Y-12.2419
G01 X12.8459 Y-12.2874
G01 X12.8425 Y-12.3332
G01 X12.8412 Y-12.3825
G01 X12.8424 Y-12.4301
G01 X12.8461 Y-12.4793
G01 X12.8517 Y-12.5248
G01 X12.8595 Y-12.5700
G01 X12.8703 Y-12.6182
G01 X12.8830 Y-12.6641
G01 X12.8979 Y-12.7093
G01 X12.9157 Y-12.7553
G01 X12.9343 Y-12.7972
G01 X12.9549 Y-12.8382
G01 X12.9792 Y-12.8812
G01 X13.0056 Y-12.9228
G01 X13.0321 Y-12.9603
G01 X13.0603 Y-12.9965
G01 X13.0925 Y-13.0339
G01 X13.1259 Y-13.0690
G01 X13.1611 Y-13.1024
G01 X13.1958 Y-13.1323
G01 X13.2320 Y-13.1606
G01 X13.2723 Y-13.1890
G01 X13.3140 Y-13.2154
G01 X13.3539 Y-13.2380
G01 X13.3949 Y-13.2586
G01 X13.4400 Y-13.2787
G01 X13.4860 Y-13.2964
G01 X13.5296 Y-13.3107
G01 X13.5738 Y-13.3230
G01 X13.6220 Y-13.3339
G01 X13.6706 Y-13.3422
G01 X13.7161 Y-13.3478
G01 X13.7619 Y-13.3512
G01 X13.8112 Y-13.3525
G01 X13.8588 Y-13.3513
G01 X13.9080 Y-13.3476
G01 X13.9535 Y-13.3420
G01 X13.9987 Y-13.3342
G01 X14.0469 Y-13.3234
G01 X14.0944 Y-13.3102
G01 X14.1380 Y-13.2958
G01 X14.1808 Y-13.2793
G01 X14.2259 Y-13.2594
G01 X14.2700 Y-13.2371
G01 X14.3099 Y-13.2145
G01 X14.3487 Y-13.1900
G01 X14.3890 Y-13.1616
G01 X14.4279 Y-13.1312
G01 X14.4626 Y-13.1012
G01 X14.4959 Y-13.0696
G01 X14.5299 Y-13.0339
G01 X14.5621 Y-12.9965
G01 X14.5903 Y-12.9603
G01 X14.6168 Y-12.9228
G01 X14.6432 Y-12.8812
G01 X14.6675 Y-12.8382
G01 X14.6881 Y-12.7972
G01 X14.7067 Y-12.7553
G01 X14.7245 Y-12.7093
G01 X14.7397 Y-12.6633
G01 X14.7521 Y-12.6182
G01 X14.7626 Y-12.5717
G01 X14.7707 Y-12.5248
G01 X14.7765 Y-12.4776
G01 X14.7800 Y-12.4301
G01 X14.7812 Y-12.3825
G01 X14.7800 Y-12.3349
G01 X14.7765 Y-12.2874
G01 X14.7707 Y-12.2402
G01 X14.7626 Y-12.1933
G01 X14.7521 Y-12.1468
G01 X14.7394 Y-12.1009
G01 X14.7245 Y-12.0557
G01 X14.7074 Y-12.0113
G01 X14.6881 Y-11.9678
G01 X14.6663 Y-11.9245
G01 X14.6432 Y-11.8838
G01 X14.6177 Y-11.8436
G01 X14.5903 Y-11.8047
G01 X14.5610 Y-11.7671
G01 X14.5299 Y-11.7311
G01 X14.4971 Y-11.6966
G01 X14.4626 Y-11.6638
G01 X14.4259 Y-11.6321
G01 X14.3890 Y-11.6034
G01 X14.3501 Y-11.5760
G01 X14.3099 Y-11.5505
G01 X14.2677 Y-11.5266
G01 X14.2259 Y-11.5056
G01 X14.1816 Y-11.4860
G01 X14.1372 Y-11.4689
G01 X14.0936 Y-11.4545
G01 X14.0728 Y-11.4487
G01 X14.0682 Y-11.3753
G01 X14.4018 Y-11.3753
G01 X14.4112 Y-11.3747
G01 X14.4213 Y-11.3725
G01 X14.4310 Y-11.3689
G01 X14.4407 Y-11.3635
G01 X14.4488 Y-11.3572
G01 X14.4559 Y-11.3497
G01 X14.4623 Y-11.3405
G01 X14.4668 Y-11.3313
G01 X14.4701 Y-11.3206
G01 X14.4718 Y-11.3053
G01 X14.4718 Y-10.0027
G01 X14.4705 Y-9.9916
G01 X14.4674 Y-9.9809
G01 X14.4627 Y-9.9708
G01 X14.4570 Y-9.9622
G01 X14.4494 Y-9.9540
G01 X14.4407 Y-9.9471
G01 X14.4310 Y-9.9417
G01 X14.4213 Y-9.9381
G01 X14.4112 Y-9.9359
G01 X14.4018 Y-9.9353
G01 X13.0018 Y-9.9353
G01 X12.9865 Y-9.9370
G01 X12.9766 Y-9.9400
G01 X12.9673 Y-9.9444
G01 X12.9587 Y-9.9501
G01 X12.9511 Y-9.9570
G01 X12.9446 Y-9.9650
G01 X12.9393 Y-9.9738
G01 X12.9351 Y-9.9842
G01 X12.9327 Y-9.9942
G01 X12.9318 Y-10.0053
G01 X12.9318 Y-10.2715
G01 X11.9619 Y-10.1925
G01 X11.9617 Y-9.6637
G01 X11.9604 Y-9.6543
G01 X11.9575 Y-9.6444
G01 X11.9536 Y-9.6358
G01 X11.9481 Y-9.6271
G01 X11.9420 Y-9.6199
G01 X11.9350 Y-9.6136
G01 X11.9264 Y-9.6079
G01 X11.9179 Y-9.6038
G01 X11.9047 Y-9.6000
G01 X11.8919 Y-9.5988
G01 X10.4910 Y-9.5988
G01 X10.4791 Y-9.6000
G01 X10.4667 Y-9.6035
G01 X10.4559 Y-9.6088
G01 X10.4462 Y-9.6158
G01 X10.4378 Y-9.6244
G01 X10.4306 Y-9.6350
G01 X10.4257 Y-9.6460
G01 X10.4227 Y-9.6585
G01 X10.4219 Y-9.6688
G01 X10.4219 Y-10.0672
G01 X9.3631 Y-9.9811
G01 X9.3628 Y-9.2659
G01 X9.3606 Y-9.2532
G01 X9.3560 Y-9.2412
G01 X9.3493 Y-9.2302
G01 X9.3414 Y-9.2212
G01 X9.3313 Y-9.2132
G01 X9.3199 Y-9.2072
G01 X9.3076 Y-9.2034
G01 X9.2948 Y-9.2019
G01 X7.6931 Y-9.2019
G01 X7.6837 Y-9.2025
G01 X7.6753 Y-9.2042
G01 X7.6647 Y-9.2079
G01 X7.6557 Y-9.2128
G01 X7.6474 Y-9.2189
G01 X7.6395 Y-9.2268
G01 X7.6335 Y-9.2352
G01 X7.6284 Y-9.2451
G01 X7.6252 Y-9.2549
G01 X7.6234 Y-9.2659
G01 X7.6231 Y-9.8395
G01 X7.0882 Y-9.7959
G01 X7.0773 Y-9.7568
G01 X7.0624 Y-9.7116
G01 X7.0453 Y-9.6672
G01 X7.0267 Y-9.6252
G01 X7.0037 Y-9.5796
G01 X6.9811 Y-9.5397
G01 X6.9566 Y-9.5009
G01 X6.9272 Y-9.4592
G01 X6.8989 Y-9.4230
G01 X6.8678 Y-9.3870
G01 X6.8338 Y-9.3513
G01 X6.8005 Y-9.3197
G01 X6.7645 Y-9.2886
G01 X6.7269 Y-9.2593
G01 X6.6894 Y-9.2328
G01 X6.6463 Y-9.2055
G01 X6.6064 Y-9.1829
G01 X6.5638 Y-9.1615
G01 X6.5203 Y-9.1422
G01 X6.4775 Y-9.1257
G01 X6.4290 Y-9.1097
G01 X6.3848 Y-9.0975
G01 X6.3383 Y-9.0870
G01 X6.2914 Y-9.0789
G01 X6.2459 Y-9.0733
G01 X6.1958 Y-9.0695
G01 X6.1491 Y-9.0684
G01 X6.1032 Y-9.0695
G01 X6.0540 Y-9.0731
G01 X6.0051 Y-9.0792
G01 X5.9599 Y-9.0870
G01 X5.9134 Y-9.0975
G01 X5.8675 Y-9.1102
G01 X5.8239 Y-9.1245
G01 X5.7779 Y-9.1422
G01 X5.7328 Y-9.1623
G01 X5.6918 Y-9.1829
G01 X5.6504 Y-9.2064
G01 X5.6088 Y-9.2328
G01 X5.5713 Y-9.2593
G01 X5.5337 Y-9.2886
G01 X5.4977 Y-9.3197
G01 X5.4644 Y-9.3513
G01 X5.4304 Y-9.3870
G01 X5.3982 Y-9.4244
G01 X5.3700 Y-9.4606
G01 X5.3426 Y-9.4995
G01 X5.3171 Y-9.5397
G01 X5.2945 Y-9.5796
G01 X5.2719 Y-9.6245
G01 X5.2529 Y-9.6672
G01 X5.2358 Y-9.7116
G01 X5.2209 Y-9.7568
G01 X5.2082 Y-9.8027
G01 X5.1977 Y-9.8492
G01 X5.1896 Y-9.8961
G01 X5.1838 Y-9.9433
G01 X5.1803 Y-9.9908
G01 X5.1791 Y-10.0384
G01 X5.1803 Y-10.0860
G01 X5.1838 Y-10.1335
G01 X5.1896 Y-10.1807
G01 X5.1977 Y-10.2276
G01 X5.2082 Y-10.2741
G01 X5.2209 Y-10.3200
G01 X5.2358 Y-10.3652
G01 X5.2529 Y-10.4096
G01 X5.2722 Y-10.4531
G01 X5.2936 Y-10.4957
G01 X5.3171 Y-10.5371
G01 X5.3426 Y-10.5773
G01 X5.3700 Y-10.6162
G01 X5.3993 Y-10.6538
G01 X5.4304 Y-10.6898
G01 X5.4632 Y-10.7243
G01 X5.4977 Y-10.7571
G01 X5.5337 Y-10.7882
G01 X5.5713 Y-10.8175
G01 X5.6102 Y-10.8449
G01 X5.6504 Y-10.8704
G01 X5.6918 Y-10.8939
G01 X5.7352 Y-10.9156
G01 X5.7779 Y-10.9346
G01 X5.8223 Y-10.9517
G01 X5.8675 Y-10.9666
G01 X5.9134 Y-10.9793
G01 X5.9599 Y-10.9898
G01 X6.0068 Y-10.9979
G01 X6.0540 Y-11.0037
G01 X6.1015 Y-11.0072
G01 X6.1491 Y-11.0084
G01 X6.1967 Y-11.0072
G01 X6.2442 Y-11.0037
G01 X6.2914 Y-10.9979
G01 X6.3383 Y-10.9898
G01 X6.3848 Y-10.9793
G01 X6.4307 Y-10.9666
G01 X6.4767 Y-10.9514
G01 X6.5203 Y-10.9346
G01 X6.5638 Y-10.9153
G01 X6.6064 Y-10.8939
G01 X6.6478 Y-10.8704
G01 X6.6880 Y-10.8449
G01 X6.7269 Y-10.8175
G01 X6.7645 Y-10.7882
G01 X6.8011 Y-10.7565
G01 X6.8350 Y-10.7243
G01 X6.8678 Y-10.6898
G01 X6.8989 Y-10.6538
G01 X6.9287 Y-10.6155
G01 X6.9556 Y-10.5773
G01 X6.9815 Y-10.5363
G01 X7.0050 Y-10.4949
G01 X7.0256 Y-10.4539
G01 X7.0345 Y-10.4339
G00 Z2.0000
G00 X6.3791 Y-10.0384
G01 F70.00
G01 Z-0.0600
G01 F120.00
G01 X6.3780 Y-10.0159
G01 X6.3747 Y-9.9935
G01 X6.3692 Y-9.9716
G01 X6.3616 Y-9.9504
G01 X6.3519 Y-9.9300
G01 X6.3403 Y-9.9106
G01 X6.3269 Y-9.8925
G01 X6.3117 Y-9.8758
G01 X6.2950 Y-9.8606
G01 X6.2769 Y-9.8472
G01 X6.2575 Y-9.8356
G01 X6.2371 Y-9.8259
G01 X6.2159 Y-9.8183
G01 X6.1940 Y-9.8128
G01 X6.1716 Y-9.8095
G01 X6.1491 Y-9.8084
G01 X6.1266 Y-9.8095
G01 X6.1042 Y-9.8128
G01 X6.0823 Y-9.8183
G01 X6.0611 Y-9.8259
G01 X6.0407 Y-9.8356
G01 X6.0213 Y-9.8472
G01 X6.0032 Y-9.8606
G01 X5.9865 Y-9.8758
G01 X5.9713 Y-9.8925
G01 X5.9579 Y-9.9106
G01 X5.9463 Y-9.9300
G01 X5.9366 Y-9.9504
G01 X5.9290 Y-9.9716
G01 X5.9235 Y-9.9935
G01 X5.9202 Y-10.0159
G01 X5.9191 Y-10.0384
G01 X5.9202 Y-10.0609
G01 X5.9235 Y-10.0833
G01 X5.9290 Y-10.1052
G01 X5.9366 Y-10.1264
G01 X5.9463 Y-10.1468
G01 X5.9579 Y-10.1662
G01 X5.9713 Y-10.1843
G01 X5.9865 Y-10.2010
G01 X6.0032 Y-10.2162
G01 X6.0213 Y-10.2296
G01 X6.0407 Y-10.2412
G01 X6.0611 Y-10.2509
G01 X6.0823 Y-10.2585
G01 X6.1042 Y-10.2640
G01 X6.1266 Y-10.2673
G01 X6.1491 Y-10.2684
G01 X6.1716 Y-10.2673
G01 X6.1940 Y-10.2640
G01 X6.2159 Y-10.2585
G01 X6.2371 Y-10.2509
G01 X6.2575 Y-10.2412
G01 X6.2769 Y-10.2296
G01 X6.2950 Y-10.2162
G01 X6.3117 Y-10.2010
G01 X6.3269 Y-10.1843
G01 X6.3403 Y-10.1662
G01 X6.3519 Y-10.1468
G01 X6.3616 Y-10.1264
G01 X6.3692 Y-10.1052
G01 X6.3747 Y-10.0833
G01 X6.3780 Y-10.0609
G01 X6.3791 Y-10.0384
G00 Z2.0000
G00 X6.3091 Y-10.0384
G01 F70.00
G01 Z-0.0600
G01 F120.00
G01 X6.3083 Y-10.0227
G01 X6.3060 Y-10.0072
G01 X6.3022 Y-9.9920
G01 X6.2969 Y-9.9772
G01 X6.2902 Y-9.9630
G01 X6.2821 Y-9.9495
G01 X6.2727 Y-9.9369
G01 X6.2622 Y-9.9253
G01 X6.2506 Y-9.9148
G01 X6.2380 Y-9.9054
G01 X6.2245 Y-9.8973
G01 X6.2103 Y-9.8906
G01 X6.1955 Y-9.8853
G01 X6.1803 Y-9.8815
G01 X6.1648 Y-9.8792
G01 X6.1491 Y-9.8784
G01 X6.1334 Y-9.8792
G01 X6.1179 Y-9.8815
G01 X6.1027 Y-9.8853
G01 X6.0879 Y-9.8906
G01 X6.0737 Y-9.8973
G01 X6.0602 Y-9.9054
G01 X6.0476 Y-9.9148
G01 X6.0360 Y-9.9253
G01 X6.0255 Y-9.9369
G01 X6.0161 Y-9.9495
G01 X6.0080 Y-9.9630
G01 X6.0013 Y-9.9772
G01 X5.9960 Y-9.9920
G01 X5.9922 Y-10.0072
G01 X5.9899 Y-10.0227
G01 X5.9891 Y-10.0384
G01 X5.9899 Y-10.0541
G01 X5.9922 Y-10.0696
G01 X5.9960 Y-10.0848
G01 X6.0013 Y-10.0996
G01 X6.0080 Y-10.1138
G01 X6.0161 Y-10.1273
G01 X6.0255 Y-10.1399
G01 X6.0360 Y-10.1515
G01 X6.0476 Y-10.1620
G01 X6.0602 Y-10.1714
G01 X6.0737 Y-10.1795
G01 X6.0879 Y-10.1862
G01 X6.1027 Y-10.1915
G01 X6.1179 Y-10.1953
G01 X6.1334 Y-10.1976
G01 X6.1491 Y-10.1984
G01 X6.1648 Y-10.1976
G01 X6.1803 Y-10.1953
G01 X6.1955 Y-10.1915
G01 X6.2103 Y-10.1862
G01 X6.2245 Y-10.1795
G01 X6.2380 Y-10.1714
G01 X6.2506 Y-10.1620
G01 X6.2622 Y-10.1515
G01 X6.2727 Y-10.1399
G01 X6.2821 Y-10.1273
G01 X6.2902 Y-10.1138
G01 X6.2969 Y-10.0996
G01 X6.3022 Y-10.0848
G01 X6.3060 Y-10.0696
G01 X6.3083 Y-10.0541
G01 X6.3091 Y-10.0384
G00 Z2.0000
G00 X6.2390 Y-10.0384
G01 F70.00
G01 Z-0.0600
G01 F120.00
G01 X6.2373 Y-10.0209
G01 X6.2322 Y-10.0040
G01 X6.2239 Y-9.9884
G01 X6.2127 Y-9.9748
G01 X6.1991 Y-9.9636
G01 X6.1835 Y-9.9553
G01 X6.1666 Y-9.9502
G01 X6.1491 Y-9.9485
G01 X6.1316 Y-9.9502
G01 X6.1147 Y-9.9553
G01 X6.0991 Y-9.9636
G01 X6.0855 Y-9.9748
G01 X6.0743 Y-9.9884
G01 X6.0660 Y-10.0040
G01 X6.0609 Y-10.0209
G01 X6.0592 Y-10.0384
G01 X6.0609 Y-10.0559
G01 X6.0660 Y-10.0728
G01 X6.0743 Y-10.0884
G01 X6.0855 Y-10.1020
G01 X6.0991 Y-10.1132
G01 X6.1147 Y-10.1215
G01 X6.1316 Y-10.1266
G01 X6.1491 Y-10.1283
G01 X6.1666 Y-10.1266
G01 X6.1835 Y-10.1215
G01 X6.1991 Y-10.1132
G01 X6.2127 Y-10.1020
G01 X6.2239 Y-10.0884
G01 X6.2322 Y-10.0728
G01 X6.2373 Y-10.0559
G01 X6.2390 Y-10.0384
G00 Z2.0000
G00 X6.1690 Y-10.0384
G01 F70.00
G01 Z-0.0600
G01 F120.00
G01 X6.1675 Y-10.0308
G01 X6.1632 Y-10.0243
G01 X6.1567 Y-10.0200
G01 X6.1491 Y-10.0185
G01 X6.1415 Y-10.0200
G01 X6.1350 Y-10.0243
G01 X6.1307 Y-10.0308
G01 X6.1292 Y-10.0384
G01 X6.1307 Y-10.0460
G01 X6.1350 Y-10.0525
G01 X6.1415 Y-10.0568
G01 X6.1491 Y-10.0583
G01 X6.1567 Y-10.0568
G01 X6.1632 Y-10.0525
G01 X6.1675 Y-10.0460
G01 X6.1690 Y-10.0384
G00 Z2.0000
G00 X7.4831 Y-9.5106
G01 F70.00
G01 Z-0.0600
G01 F120.00
G01 X7.4719 Y-9.5313
G01 X7.4587 Y-9.5504
G01 X7.4434 Y-9.5678
G01 X7.4263 Y-9.5835
G01 X7.4076 Y-9.5972
G01 X7.3875 Y-9.6088
G01 X7.3663 Y-9.6180
G01 X7.3416 Y-9.6255
G01 X7.3162 Y-9.6299
G01 X7.2931 Y-9.6312
G01 X7.2700 Y-9.6299
G01 X7.2471 Y-9.6261
G01 X7.2248 Y-9.6198
G01 X7.2033 Y-9.6110
G01 X7.1829 Y-9.6000
G01 X7.1621 Y-9.5853
G01 X7.1756 Y-9.6160
G01 X7.1941 Y-9.6641
G01 X7.4831 Y-9.6876
G01 X7.4831 Y-9.5106
G00 Z2.0000
G00 X8.7486 Y-5.7125
G01 F70.00
G01 Z-0.0600
G01 F120.00
G01 X8.7471 Y-5.7049
G01 X8.7428 Y-5.6984
G01 X8.7363 Y-5.6941
G01 X8.7287 Y-5.6926
G01 X8.7211 Y-5.6941
G01 X8.7146 Y-5.6984
G01 X8.7103 Y-5.7049
G01 X8.7088 Y-5.7125
G01 X8.7103 Y-5.7201
G01 X8.7146 Y-5.7266
G01 X8.7211 Y-5.7309
G01 X8.7287 Y-5.7324
G01 X8.7363 Y-5.7309
G01 X8.7428 Y-5.7266
G01 X8.7471 Y-5.7201
G01 X8.7486 Y-5.7125
G00 Z2.0000
G00 X8.8186 Y-5.7125
G01 F70.00
G01 Z-0.0600
G01 F120.00
G01 X8.8169 Y-5.6950
G01 X8.8118 Y-5.6781
G01 X8.8035 Y-5.6625
G01 X8.7923 Y-5.6489
G01 X8.7787 Y-5.6377
G01 X8.7631 Y-5.6294
G01 X8.7462 Y-5.6243
G01 X8.7287 Y-5.6226
G01 X8.7112 Y-5.6243
G01 X8.6943 Y-5.6294
G01 X8.6787 Y-5.6377
G01 X8.6651 Y-5.6489
G01 X8.6539 Y-5.6625
G01 X8.6456 Y-5.6781
