(G-CODE GENERATED BY FLATCAM v8.993 - www.flatcam.org - Version Date: 2020/06/05)

(Name: Karat3_134K03_TX_Ф1_верх.gbr_iso_combined_cnc_cutoff)
(Type: G-code from Geometry)
(Units: MM)

(Created on Wednesday, 23 December 2020 at 23:10)

(This preprocessor is the default preprocessor used by FlatCAM.)
(It is made to work with MACH3 compatible motion controllers.)

(TOOL DIAMETER: 2.0 mm)
(Feedrate_XY: 120.0 mm/min)
(Feedrate_Z: 70.0 mm/min)
(Feedrate rapids 1500.0 mm/min)

(Z_Cut: -1.7 mm)
(DepthPerCut: 0.10000000000000014 mm <=>17 passes)
(Z_Move: 2.0 mm)
(Z Start: None mm)
(Z End: 25.0 mm)
(Steps per circle: 128)
(Preprocessor Geometry: default)

(X range:   -1.0000 ...   75.5000  mm)
(Y range:  -81.6000 ...    1.0000  mm)

(Spindle Speed: 10000 RPM)
G21
G90
G94



G01 F120.00
G00 Z2.0000

M03 S10000
G00 X-1.0000 Y0.0000
G01 F70.00
G01 Z-0.1000
G01 F120.00
G01 X-0.9999 Y-35.2427
G01 X-0.9981 Y-35.2918
G01 X-0.9952 Y-35.3285
G01 X-0.9892 Y-35.3772
G01 X-0.9808 Y-35.4256
G01 X-0.9700 Y-35.4735
G01 X-0.9604 Y-35.5090
G01 X-0.9495 Y-35.5442
G01 X-0.9330 Y-35.5904
G01 X-0.9142 Y-35.6357
G01 X-0.8987 Y-35.6691
G01 X-0.8819 Y-35.7019
G01 X-0.8577 Y-35.7446
G01 X-0.8382 Y-35.7758
G01 X-0.8105 Y-35.8163
G01 X-0.7883 Y-35.8457
G01 X-0.7572 Y-35.8836
G01 X-0.7157 Y-35.9289
G01 X-0.6806 Y-35.9631
G01 X-0.6438 Y-35.9956
G01 X-0.6055 Y-36.0263
G01 X-0.5657 Y-36.0551
G01 X-0.5141 Y-36.0882
G01 X-0.4714 Y-36.1124
G01 X-0.4164 Y-36.1396
G01 X-0.3713 Y-36.1590
G01 X-0.3137 Y-36.1800
G01 X-0.2667 Y-36.1943
G01 X-0.2191 Y-36.2062
G01 X-0.1589 Y-36.2178
G01 X-0.1102 Y-36.2244
G01 X-0.0613 Y-36.2286
G01 X-0.0123 Y-36.2304
G01 X21.4751 Y-36.2305
G01 X21.4751 Y-52.7327
G01 X21.4758 Y-52.7695
G01 X21.4778 Y-52.8062
G01 X21.4812 Y-52.8429
G01 X21.4859 Y-52.8794
G01 X21.4920 Y-52.9157
G01 X21.4994 Y-52.9518
G01 X21.5081 Y-52.9875
G01 X21.5182 Y-53.0230
G01 X21.5295 Y-53.0580
G01 X21.5421 Y-53.0926
G01 X21.5560 Y-53.1267
G01 X21.5711 Y-53.1602
G01 X21.5875 Y-53.1932
G01 X21.6050 Y-53.2256
G01 X21.6238 Y-53.2573
G01 X21.6437 Y-53.2882
G01 X21.6647 Y-53.3185
G01 X21.6868 Y-53.3479
G01 X21.7100 Y-53.3765
G01 X21.7342 Y-53.4042
G01 X21.7594 Y-53.4311
G01 X21.7856 Y-53.4569
G01 X21.8127 Y-53.4818
G01 X21.8407 Y-53.5057
G01 X21.8696 Y-53.5285
G01 X21.9094 Y-53.5573
G01 X21.9401 Y-53.5775
G01 X21.9716 Y-53.5966
G01 X22.0037 Y-53.6146
G01 X22.0365 Y-53.6313
G01 X22.0699 Y-53.6469
G01 X22.1038 Y-53.6612
G01 X22.1382 Y-53.6742
G01 X22.1848 Y-53.6896
G01 X22.2203 Y-53.6997
G01 X22.2560 Y-53.7084
G01 X22.3042 Y-53.7180
G01 X22.3527 Y-53.7252
G01 X22.3893 Y-53.7290
G01 X22.4383 Y-53.7320
G01 X22.4751 Y-53.7327
G01 X49.4945 Y-53.7327
G01 X49.4946 Y-80.6123
G01 X49.4957 Y-80.6491
G01 X49.4982 Y-80.6858
G01 X49.5036 Y-80.7346
G01 X49.5092 Y-80.7710
G01 X49.5162 Y-80.8071
G01 X49.5245 Y-80.8430
G01 X49.5376 Y-80.8903
G01 X49.5489 Y-80.9253
G01 X49.5615 Y-80.9599
G01 X49.5754 Y-80.9940
G01 X49.5905 Y-81.0276
G01 X49.6069 Y-81.0605
G01 X49.6306 Y-81.1035
G01 X49.6497 Y-81.1350
G01 X49.6699 Y-81.1657
G01 X49.6913 Y-81.1957
G01 X49.7294 Y-81.2438
G01 X49.7619 Y-81.2806
G01 X49.7961 Y-81.3157
G01 X49.8414 Y-81.3572
G01 X49.8890 Y-81.3958
G01 X49.9390 Y-81.4315
G01 X49.9804 Y-81.4577
G01 X50.0340 Y-81.4876
G01 X50.0893 Y-81.5142
G01 X50.1461 Y-81.5373
G01 X50.1925 Y-81.5533
G01 X50.2515 Y-81.5700
G01 X50.3115 Y-81.5831
G01 X50.3721 Y-81.5925
G01 X50.4332 Y-81.5981
G01 X50.4823 Y-81.5999
G01 X69.3729 Y-81.5999
G01 X69.4221 Y-81.5981
G01 X69.4589 Y-81.5952
G01 X69.5078 Y-81.5891
G01 X69.5563 Y-81.5807
G01 X69.6044 Y-81.5698
G01 X69.6400 Y-81.5602
G01 X69.6753 Y-81.5492
G01 X69.7216 Y-81.5326
G01 X69.7558 Y-81.5186
G01 X69.8006 Y-81.4980
G01 X69.8442 Y-81.4753
G01 X69.8762 Y-81.4568
G01 X69.9178 Y-81.4304
G01 X69.9481 Y-81.4093
G01 X69.9775 Y-81.3870
G01 X70.0155 Y-81.3557
G01 X70.0430 Y-81.3310
G01 X70.0695 Y-81.3053
G01 X70.1116 Y-81.2603
G01 X70.1453 Y-81.2199
G01 X75.0397 Y-76.2478
G01 X75.0624 Y-76.2328
G01 X75.0926 Y-76.2114
G01 X75.1410 Y-76.1734
G01 X75.1871 Y-76.1325
G01 X75.2305 Y-76.0888
G01 X75.2553 Y-76.0613
G01 X75.2866 Y-76.0233
G01 X75.3161 Y-75.9838
G01 X75.3369 Y-75.9533
G01 X75.3566 Y-75.9220
G01 X75.3810 Y-75.8791
G01 X75.4032 Y-75.8351
G01 X75.4184 Y-75.8015
G01 X75.4324 Y-75.7672
G01 X75.4491 Y-75.7209
G01 X75.4635 Y-75.6737
G01 X75.4727 Y-75.6379
G01 X75.4806 Y-75.6018
G01 X75.4891 Y-75.5533
G01 X75.4939 Y-75.5166
G01 X75.4981 Y-75.4675
G01 X75.5000 Y-75.4059
G01 X75.5000 Y-4.7787
G01 X75.4993 Y-4.7421
G01 X75.4963 Y-4.6933
G01 X75.4910 Y-4.6447
G01 X75.4832 Y-4.5964
G01 X75.4732 Y-4.5486
G01 X75.4641 Y-4.5131
G01 X75.4499 Y-4.4663
G01 X75.4335 Y-4.4203
G01 X75.4198 Y-4.3863
G01 X75.3995 Y-4.3418
G01 X75.3771 Y-4.2984
G01 X75.3526 Y-4.2561
G01 X75.3260 Y-4.2151
G01 X75.3048 Y-4.1852
G01 X75.2748 Y-4.1465
G01 X75.2511 Y-4.1186
G01 X75.2180 Y-4.0827
G01 X75.1831 Y-4.0484
G01 X75.1466 Y-4.0159
G01 X75.1182 Y-3.9927
G01 X75.0791 Y-3.9634
G01 X75.0385 Y-3.9361
G01 X74.9967 Y-3.9108
G01 X74.9605 Y-3.8911
G01 X70.5737 Y0.4203
G01 X70.5525 Y0.4635
G01 X70.5287 Y0.5063
G01 X70.5029 Y0.5478
G01 X70.4751 Y0.5881
G01 X70.4454 Y0.6270
G01 X70.4138 Y0.6643
G01 X70.3804 Y0.7001
G01 X70.3453 Y0.7342
G01 X70.3179 Y0.7586
G01 X70.2800 Y0.7896
G01 X70.2406 Y0.8187
G01 X70.1999 Y0.8458
G01 X70.1685 Y0.8648
G01 X70.1256 Y0.8883
G01 X70.0927 Y0.9046
G01 X70.0479 Y0.9243
G01 X70.0023 Y0.9419
G01 X69.9675 Y0.9536
G01 X69.9323 Y0.9640
G01 X69.8848 Y0.9758
G01 X69.8368 Y0.9854
G01 X69.8005 Y0.9910
G01 X69.7641 Y0.9952
G01 X69.7153 Y0.9988
G01 X69.6664 Y1.0000
G01 X-0.0123 Y0.9999
G01 X-0.0613 Y0.9981
G01 X-0.1102 Y0.9939
G01 X-0.1589 Y0.9873
G01 X-0.2071 Y0.9783
G01 X-0.2549 Y0.9670
G01 X-0.3020 Y0.9533
G01 X-0.3484 Y0.9373
G01 X-0.3940 Y0.9191
G01 X-0.4276 Y0.9040
G01 X-0.4714 Y0.8819
G01 X-0.5141 Y0.8577
G01 X-0.5556 Y0.8315
G01 X-0.5957 Y0.8032
G01 X-0.6344 Y0.7730
G01 X-0.6716 Y0.7410
G01 X-0.7071 Y0.7071
G01 X-0.7410 Y0.6716
G01 X-0.7730 Y0.6344
G01 X-0.8032 Y0.5957
G01 X-0.8315 Y0.5556
G01 X-0.8577 Y0.5141
G01 X-0.8819 Y0.4714
G01 X-0.9040 Y0.4276
G01 X-0.9239 Y0.3827
G01 X-0.9415 Y0.3369
G01 X-0.9569 Y0.2903
G01 X-0.9700 Y0.2430
G01 X-0.9808 Y0.1951
G01 X-0.9892 Y0.1467
G01 X-0.9952 Y0.0980
G01 X-0.9988 Y0.0491
G01 X-1.0000 Y0.0000
G00 X-1.0000 Y0.0000
G01 F70.00
G01 Z-0.2000
G01 F120.00
G01 X-0.9999 Y-35.2427
G01 X-0.9981 Y-35.2918
G01 X-0.9952 Y-35.3285
G01 X-0.9892 Y-35.3772
G01 X-0.9808 Y-35.4256
G01 X-0.9700 Y-35.4735
G01 X-0.9604 Y-35.5090
G01 X-0.9495 Y-35.5442
G01 X-0.9330 Y-35.5904
G01 X-0.9142 Y-35.6357
G01 X-0.8987 Y-35.6691
G01 X-0.8819 Y-35.7019
G01 X-0.8577 Y-35.7446
G01 X-0.8382 Y-35.7758
G01 X-0.8105 Y-35.8163
G01 X-0.7883 Y-35.8457
G01 X-0.7572 Y-35.8836
G01 X-0.7157 Y-35.9289
G01 X-0.6806 Y-35.9631
G01 X-0.6438 Y-35.9956
G01 X-0.6055 Y-36.0263
G01 X-0.5657 Y-36.0551
G01 X-0.5141 Y-36.0882
G01 X-0.4714 Y-36.1124
G01 X-0.4164 Y-36.1396
G01 X-0.3713 Y-36.1590
G01 X-0.3137 Y-36.1800
G01 X-0.2667 Y-36.1943
G01 X-0.2191 Y-36.2062
G01 X-0.1589 Y-36.2178
G01 X-0.1102 Y-36.2244
G01 X-0.0613 Y-36.2286
G01 X-0.0123 Y-36.2304
G01 X21.4751 Y-36.2305
G01 X21.4751 Y-52.7327
G01 X21.4758 Y-52.7695
G01 X21.4778 Y-52.8062
G01 X21.4812 Y-52.8429
G01 X21.4859 Y-52.8794
G01 X21.4920 Y-52.9157
G01 X21.4994 Y-52.9518
G01 X21.5081 Y-52.9875
G01 X21.5182 Y-53.0230
G01 X21.5295 Y-53.0580
G01 X21.5421 Y-53.0926
G01 X21.5560 Y-53.1267
G01 X21.5711 Y-53.1602
G01 X21.5875 Y-53.1932
G01 X21.6050 Y-53.2256
G01 X21.6238 Y-53.2573
G01 X21.6437 Y-53.2882
G01 X21.6647 Y-53.3185
G01 X21.6868 Y-53.3479
G01 X21.7100 Y-53.3765
G01 X21.7342 Y-53.4042
G01 X21.7594 Y-53.4311
G01 X21.7856 Y-53.4569
G01 X21.8127 Y-53.4818
G01 X21.8407 Y-53.5057
G01 X21.8696 Y-53.5285
G01 X21.9094 Y-53.5573
G01 X21.9401 Y-53.5775
G01 X21.9716 Y-53.5966
G01 X22.0037 Y-53.6146
G01 X22.0365 Y-53.6313
G01 X22.0699 Y-53.6469
G01 X22.1038 Y-53.6612
G01 X22.1382 Y-53.6742
G01 X22.1848 Y-53.6896
G01 X22.2203 Y-53.6997
G01 X22.2560 Y-53.7084
G01 X22.3042 Y-53.7180
G01 X22.3527 Y-53.7252
G01 X22.3893 Y-53.7290
G01 X22.4383 Y-53.7320
G01 X22.4751 Y-53.7327
G01 X49.4945 Y-53.7327
G01 X49.4946 Y-80.6123
G01 X49.4957 Y-80.6491
G01 X49.4982 Y-80.6858
G01 X49.5036 Y-80.7346
G01 X49.5092 Y-80.7710
G01 X49.5162 Y-80.8071
G01 X49.5245 Y-80.8430
G01 X49.5376 Y-80.8903
G01 X49.5489 Y-80.9253
G01 X49.5615 Y-80.9599
G01 X49.5754 Y-80.9940
G01 X49.5905 Y-81.0276
G01 X49.6069 Y-81.0605
G01 X49.6306 Y-81.1035
G01 X49.6497 Y-81.1350
G01 X49.6699 Y-81.1657
G01 X49.6913 Y-81.1957
G01 X49.7294 Y-81.2438
G01 X49.7619 Y-81.2806
G01 X49.7961 Y-81.3157
G01 X49.8414 Y-81.3572
G01 X49.8890 Y-81.3958
G01 X49.9390 Y-81.4315
G01 X49.9804 Y-81.4577
G01 X50.0340 Y-81.4876
G01 X50.0893 Y-81.5142
G01 X50.1461 Y-81.5373
G01 X50.1925 Y-81.5533
G01 X50.2515 Y-81.5700
G01 X50.3115 Y-81.5831
G01 X50.3721 Y-81.5925
G01 X50.4332 Y-81.5981
G01 X50.4823 Y-81.5999
G01 X69.3729 Y-81.5999
G01 X69.4221 Y-81.5981
G01 X69.4589 Y-81.5952
G01 X69.5078 Y-81.5891
G01 X69.5563 Y-81.5807
G01 X69.6044 Y-81.5698
G01 X69.6400 Y-81.5602
G01 X69.6753 Y-81.5492
G01 X69.7216 Y-81.5326
G01 X69.7558 Y-81.5186
G01 X69.8006 Y-81.4980
G01 X69.8442 Y-81.4753
G01 X69.8762 Y-81.4568
G01 X69.9178 Y-81.4304
G01 X69.9481 Y-81.4093
G01 X69.9775 Y-81.3870
G01 X70.0155 Y-81.3557
G01 X70.0430 Y-81.3310
G01 X70.0695 Y-81.3053
G01 X70.1116 Y-81.2603
G01 X70.1453 Y-81.2199
G01 X75.0397 Y-76.2478
G01 X75.0624 Y-76.2328
G01 X75.0926 Y-76.2114
G01 X75.1410 Y-76.1734
G01 X75.1871 Y-76.1325
G01 X75.2305 Y-76.0888
G01 X75.2553 Y-76.0613
G01 X75.2866 Y-76.0233
G01 X75.3161 Y-75.9838
G01 X75.3369 Y-75.9533
G01 X75.3566 Y-75.9220
G01 X75.3810 Y-75.8791
G01 X75.4032 Y-75.8351
G01 X75.4184 Y-75.8015
G01 X75.4324 Y-75.7672
G01 X75.4491 Y-75.7209
G01 X75.4635 Y-75.6737
G01 X75.4727 Y-75.6379
G01 X75.4806 Y-75.6018
G01 X75.4891 Y-75.5533
G01 X75.4939 Y-75.5166
G01 X75.4981 Y-75.4675
G01 X75.5000 Y-75.4059
G01 X75.5000 Y-4.7787
G01 X75.4993 Y-4.7421
G01 X75.4963 Y-4.6933
G01 X75.4910 Y-4.6447
G01 X75.4832 Y-4.5964
G01 X75.4732 Y-4.5486
G01 X75.4641 Y-4.5131
G01 X75.4499 Y-4.4663
G01 X75.4335 Y-4.4203
G01 X75.4198 Y-4.3863
G01 X75.3995 Y-4.3418
G01 X75.3771 Y-4.2984
G01 X75.3526 Y-4.2561
G01 X75.3260 Y-4.2151
G01 X75.3048 Y-4.1852
G01 X75.2748 Y-4.1465
G01 X75.2511 Y-4.1186
G01 X75.2180 Y-4.0827
G01 X75.1831 Y-4.0484
G01 X75.1466 Y-4.0159
G01 X75.1182 Y-3.9927
G01 X75.0791 Y-3.9634
G01 X75.0385 Y-3.9361
G01 X74.9967 Y-3.9108
G01 X74.9605 Y-3.8911
G01 X70.5737 Y0.4203
G01 X70.5525 Y0.4635
G01 X70.5287 Y0.5063
G01 X70.5029 Y0.5478
G01 X70.4751 Y0.5881
G01 X70.4454 Y0.6270
G01 X70.4138 Y0.6643
G01 X70.3804 Y0.7001
G01 X70.3453 Y0.7342
G01 X70.3179 Y0.7586
G01 X70.2800 Y0.7896
G01 X70.2406 Y0.8187
G01 X70.1999 Y0.8458
G01 X70.1685 Y0.8648
G01 X70.1256 Y0.8883
G01 X70.0927 Y0.9046
G01 X70.0479 Y0.9243
G01 X70.0023 Y0.9419
G01 X69.9675 Y0.9536
G01 X69.9323 Y0.9640
G01 X69.8848 Y0.9758
G01 X69.8368 Y0.9854
G01 X69.8005 Y0.9910
G01 X69.7641 Y0.9952
G01 X69.7153 Y0.9988
G01 X69.6664 Y1.0000
G01 X-0.0123 Y0.9999
G01 X-0.0613 Y0.9981
G01 X-0.1102 Y0.9939
G01 X-0.1589 Y0.9873
G01 X-0.2071 Y0.9783
G01 X-0.2549 Y0.9670
G01 X-0.3020 Y0.9533
G01 X-0.3484 Y0.9373
G01 X-0.3940 Y0.9191
G01 X-0.4276 Y0.9040
G01 X-0.4714 Y0.8819
G01 X-0.5141 Y0.8577
G01 X-0.5556 Y0.8315
G01 X-0.5957 Y0.8032
G01 X-0.6344 Y0.7730
G01 X-0.6716 Y0.7410
G01 X-0.7071 Y0.7071
G01 X-0.7410 Y0.6716
G01 X-0.7730 Y0.6344
G01 X-0.8032 Y0.5957
G01 X-0.8315 Y0.5556
G01 X-0.8577 Y0.5141
G01 X-0.8819 Y0.4714
G01 X-0.9040 Y0.4276
G01 X-0.9239 Y0.3827
G01 X-0.9415 Y0.3369
G01 X-0.9569 Y0.2903
G01 X-0.9700 Y0.2430
G01 X-0.9808 Y0.1951
G01 X-0.9892 Y0.1467
G01 X-0.9952 Y0.0980
G01 X-0.9988 Y0.0491
G01 X-1.0000 Y0.0000
G00 X-1.0000 Y0.0000
G01 F70.00
G01 Z-0.3000
G01 F120.00
G01 X-0.9999 Y-35.2427
G01 X-0.9981 Y-35.2918
G01 X-0.9952 Y-35.3285
G01 X-0.9892 Y-35.3772
G01 X-0.9808 Y-35.4256
G01 X-0.9700 Y-35.4735
G01 X-0.9604 Y-35.5090
G01 X-0.9495 Y-35.5442
G01 X-0.9330 Y-35.5904
G01 X-0.9142 Y-35.6357
G01 X-0.8987 Y-35.6691
G01 X-0.8819 Y-35.7019
G01 X-0.8577 Y-35.7446
G01 X-0.8382 Y-35.7758
G01 X-0.8105 Y-35.8163
G01 X-0.7883 Y-35.8457
G01 X-0.7572 Y-35.8836
G01 X-0.7157 Y-35.9289
G01 X-0.6806 Y-35.9631
G01 X-0.6438 Y-35.9956
G01 X-0.6055 Y-36.0263
G01 X-0.5657 Y-36.0551
G01 X-0.5141 Y-36.0882
G01 X-0.4714 Y-36.1124
G01 X-0.4164 Y-36.1396
G01 X-0.3713 Y-36.1590
G01 X-0.3137 Y-36.1800
G01 X-0.2667 Y-36.1943
G01 X-0.2191 Y-36.2062
G01 X-0.1589 Y-36.2178
G01 X-0.1102 Y-36.2244
G01 X-0.0613 Y-36.2286
G01 X-0.0123 Y-36.2304
G01 X21.4751 Y-36.2305
G01 X21.4751 Y-52.7327
G01 X21.4758 Y-52.7695
G01 X21.4778 Y-52.8062
G01 X21.4812 Y-52.8429
G01 X21.4859 Y-52.8794
G01 X21.4920 Y-52.9157
G01 X21.4994 Y-52.9518
G01 X21.5081 Y-52.9875
G01 X21.5182 Y-53.0230
G01 X21.5295 Y-53.0580
G01 X21.5421 Y-53.0926
G01 X21.5560 Y-53.1267
G01 X21.5711 Y-53.1602
G01 X21.5875 Y-53.1932
G01 X21.6050 Y-53.2256
G01 X21.6238 Y-53.2573
G01 X21.6437 Y-53.2882
G01 X21.6647 Y-53.3185
G01 X21.6868 Y-53.3479
G01 X21.7100 Y-53.3765
G01 X21.7342 Y-53.4042
G01 X21.7594 Y-53.4311
G01 X21.7856 Y-53.4569
G01 X21.8127 Y-53.4818
G01 X21.8407 Y-53.5057
G01 X21.8696 Y-53.5285
G01 X21.9094 Y-53.5573
G01 X21.9401 Y-53.5775
G01 X21.9716 Y-53.5966
G01 X22.0037 Y-53.6146
G01 X22.0365 Y-53.6313
G01 X22.0699 Y-53.6469
G01 X22.1038 Y-53.6612
G01 X22.1382 Y-53.6742
G01 X22.1848 Y-53.6896
G01 X22.2203 Y-53.6997
G01 X22.2560 Y-53.7084
G01 X22.3042 Y-53.7180
G01 X22.3527 Y-53.7252
G01 X22.3893 Y-53.7290
G01 X22.4383 Y-53.7320
G01 X22.4751 Y-53.7327
G01 X49.4945 Y-53.7327
G01 X49.4946 Y-80.6123
G01 X49.4957 Y-80.6491
G01 X49.4982 Y-80.6858
G01 X49.5036 Y-80.7346
G01 X49.5092 Y-80.7710
G01 X49.5162 Y-80.8071
G01 X49.5245 Y-80.8430
G01 X49.5376 Y-80.8903
G01 X49.5489 Y-80.9253
G01 X49.5615 Y-80.9599
G01 X49.5754 Y-80.9940
G01 X49.5905 Y-81.0276
G01 X49.6069 Y-81.0605
G01 X49.6306 Y-81.1035
G01 X49.6497 Y-81.1350
G01 X49.6699 Y-81.1657
G01 X49.6913 Y-81.1957
G01 X49.7294 Y-81.2438
G01 X49.7619 Y-81.2806
G01 X49.7961 Y-81.3157
G01 X49.8414 Y-81.3572
G01 X49.8890 Y-81.3958
G01 X49.9390 Y-81.4315
G01 X49.9804 Y-81.4577
G01 X50.0340 Y-81.4876
G01 X50.0893 Y-81.5142
G01 X50.1461 Y-81.5373
G01 X50.1925 Y-81.5533
G01 X50.2515 Y-81.5700
G01 X50.3115 Y-81.5831
G01 X50.3721 Y-81.5925
G01 X50.4332 Y-81.5981
G01 X50.4823 Y-81.5999
G01 X69.3729 Y-81.5999
G01 X69.4221 Y-81.5981
G01 X69.4589 Y-81.5952
G01 X69.5078 Y-81.5891
G01 X69.5563 Y-81.5807
G01 X69.6044 Y-81.5698
G01 X69.6400 Y-81.5602
G01 X69.6753 Y-81.5492
G01 X69.7216 Y-81.5326
G01 X69.7558 Y-81.5186
G01 X69.8006 Y-81.4980
G01 X69.8442 Y-81.4753
G01 X69.8762 Y-81.4568
G01 X69.9178 Y-81.4304
G01 X69.9481 Y-81.4093
G01 X69.9775 Y-81.3870
G01 X70.0155 Y-81.3557
G01 X70.0430 Y-81.3310
G01 X70.0695 Y-81.3053
G01 X70.1116 Y-81.2603
G01 X70.1453 Y-81.2199
G01 X75.0397 Y-76.2478
G01 X75.0624 Y-76.2328
G01 X75.0926 Y-76.2114
G01 X75.1410 Y-76.1734
G01 X75.1871 Y-76.1325
G01 X75.2305 Y-76.0888
G01 X75.2553 Y-76.0613
G01 X75.2866 Y-76.0233
G01 X75.3161 Y-75.9838
G01 X75.3369 Y-75.9533
G01 X75.3566 Y-75.9220
G01 X75.3810 Y-75.8791
G01 X75.4032 Y-75.8351
G01 X75.4184 Y-75.8015
G01 X75.4324 Y-75.7672
G01 X75.4491 Y-75.7209
G01 X75.4635 Y-75.6737
G01 X75.4727 Y-75.6379
G01 X75.4806 Y-75.6018
G01 X75.4891 Y-75.5533
G01 X75.4939 Y-75.5166
G01 X75.4981 Y-75.4675
G01 X75.5000 Y-75.4059
G01 X75.5000 Y-4.7787
G01 X75.4993 Y-4.7421
G01 X75.4963 Y-4.6933
G01 X75.4910 Y-4.6447
G01 X75.4832 Y-4.5964
G01 X75.4732 Y-4.5486
G01 X75.4641 Y-4.5131
G01 X75.4499 Y-4.4663
G01 X75.4335 Y-4.4203
G01 X75.4198 Y-4.3863
G01 X75.3995 Y-4.3418
G01 X75.3771 Y-4.2984
G01 X75.3526 Y-4.2561
G01 X75.3260 Y-4.2151
G01 X75.3048 Y-4.1852
G01 X75.2748 Y-4.1465
G01 X75.2511 Y-4.1186
G01 X75.2180 Y-4.0827
G01 X75.1831 Y-4.0484
G01 X75.1466 Y-4.0159
G01 X75.1182 Y-3.9927
G01 X75.0791 Y-3.9634
G01 X75.0385 Y-3.9361
G01 X74.9967 Y-3.9108
G01 X74.9605 Y-3.8911
G01 X70.5737 Y0.4203
G01 X70.5525 Y0.4635
G01 X70.5287 Y0.5063
G01 X70.5029 Y0.5478
G01 X70.4751 Y0.5881
G01 X70.4454 Y0.6270
G01 X70.4138 Y0.6643
G01 X70.3804 Y0.7001
G01 X70.3453 Y0.7342
G01 X70.3179 Y0.7586
G01 X70.2800 Y0.7896
G01 X70.2406 Y0.8187
G01 X70.1999 Y0.8458
G01 X70.1685 Y0.8648
G01 X70.1256 Y0.8883
G01 X70.0927 Y0.9046
G01 X70.0479 Y0.9243
G01 X70.0023 Y0.9419
G01 X69.9675 Y0.9536
G01 X69.9323 Y0.9640
G01 X69.8848 Y0.9758
G01 X69.8368 Y0.9854
G01 X69.8005 Y0.9910
G01 X69.7641 Y0.9952
G01 X69.7153 Y0.9988
G01 X69.6664 Y1.0000
G01 X-0.0123 Y0.9999
G01 X-0.0613 Y0.9981
G01 X-0.1102 Y0.9939
G01 X-0.1589 Y0.9873
G01 X-0.2071 Y0.9783
G01 X-0.2549 Y0.9670
G01 X-0.3020 Y0.9533
G01 X-0.3484 Y0.9373
G01 X-0.3940 Y0.9191
G01 X-0.4276 Y0.9040
G01 X-0.4714 Y0.8819
G01 X-0.5141 Y0.8577
G01 X-0.5556 Y0.8315
G01 X-0.5957 Y0.8032
G01 X-0.6344 Y0.7730
G01 X-0.6716 Y0.7410
G01 X-0.7071 Y0.7071
G01 X-0.7410 Y0.6716
G01 X-0.7730 Y0.6344
G01 X-0.8032 Y0.5957
G01 X-0.8315 Y0.5556
G01 X-0.8577 Y0.5141
G01 X-0.8819 Y0.4714
G01 X-0.9040 Y0.4276
G01 X-0.9239 Y0.3827
G01 X-0.9415 Y0.3369
G01 X-0.9569 Y0.2903
G01 X-0.9700 Y0.2430
G01 X-0.9808 Y0.1951
G01 X-0.9892 Y0.1467
G01 X-0.9952 Y0.0980
G01 X-0.9988 Y0.0491
G01 X-1.0000 Y0.0000
G00 X-1.0000 Y0.0000
G01 F70.00
G01 Z-0.4000
G01 F120.00
G01 X-0.9999 Y-35.2427
G01 X-0.9981 Y-35.2918
G01 X-0.9952 Y-35.3285
G01 X-0.9892 Y-35.3772
G01 X-0.9808 Y-35.4256
G01 X-0.9700 Y-35.4735
G01 X-0.9604 Y-35.5090
G01 X-0.9495 Y-35.5442
G01 X-0.9330 Y-35.5904
G01 X-0.9142 Y-35.6357
G01 X-0.8987 Y-35.6691
G01 X-0.8819 Y-35.7019
G01 X-0.8577 Y-35.7446
G01 X-0.8382 Y-35.7758
G01 X-0.8105 Y-35.8163
G01 X-0.7883 Y-35.8457
G01 X-0.7572 Y-35.8836
G01 X-0.7157 Y-35.9289
G01 X-0.6806 Y-35.9631
G01 X-0.6438 Y-35.9956
G01 X-0.6055 Y-36.0263
G01 X-0.5657 Y-36.0551
G01 X-0.5141 Y-36.0882
G01 X-0.4714 Y-36.1124
G01 X-0.4164 Y-36.1396
G01 X-0.3713 Y-36.1590
G01 X-0.3137 Y-36.1800
G01 X-0.2667 Y-36.1943
G01 X-0.2191 Y-36.2062
G01 X-0.1589 Y-36.2178
G01 X-0.1102 Y-36.2244
G01 X-0.0613 Y-36.2286
G01 X-0.0123 Y-36.2304
G01 X21.4751 Y-36.2305
G01 X21.4751 Y-52.7327
G01 X21.4758 Y-52.7695
G01 X21.4778 Y-52.8062
G01 X21.4812 Y-52.8429
G01 X21.4859 Y-52.8794
G01 X21.4920 Y-52.9157
G01 X21.4994 Y-52.9518
G01 X21.5081 Y-52.9875
G01 X21.5182 Y-53.0230
G01 X21.5295 Y-53.0580
G01 X21.5421 Y-53.0926
G01 X21.5560 Y-53.1267
G01 X21.5711 Y-53.1602
G01 X21.5875 Y-53.1932
G01 X21.6050 Y-53.2256
G01 X21.6238 Y-53.2573
G01 X21.6437 Y-53.2882
G01 X21.6647 Y-53.3185
G01 X21.6868 Y-53.3479
G01 X21.7100 Y-53.3765
G01 X21.7342 Y-53.4042
G01 X21.7594 Y-53.4311
G01 X21.7856 Y-53.4569
G01 X21.8127 Y-53.4818
G01 X21.8407 Y-53.5057
G01 X21.8696 Y-53.5285
G01 X21.9094 Y-53.5573
G01 X21.9401 Y-53.5775
G01 X21.9716 Y-53.5966
G01 X22.0037 Y-53.6146
G01 X22.0365 Y-53.6313
G01 X22.0699 Y-53.6469
G01 X22.1038 Y-53.6612
G01 X22.1382 Y-53.6742
G01 X22.1848 Y-53.6896
G01 X22.2203 Y-53.6997
G01 X22.2560 Y-53.7084
G01 X22.3042 Y-53.7180
G01 X22.3527 Y-53.7252
G01 X22.3893 Y-53.7290
G01 X22.4383 Y-53.7320
G01 X22.4751 Y-53.7327
G01 X49.4945 Y-53.7327
G01 X49.4946 Y-80.6123
G01 X49.4957 Y-80.6491
G01 X49.4982 Y-80.6858
G01 X49.5036 Y-80.7346
G01 X49.5092 Y-80.7710
G01 X49.5162 Y-80.8071
G01 X49.5245 Y-80.8430
G01 X49.5376 Y-80.8903
G01 X49.5489 Y-80.9253
G01 X49.5615 Y-80.9599
G01 X49.5754 Y-80.9940
G01 X49.5905 Y-81.0276
G01 X49.6069 Y-81.0605
G01 X49.6306 Y-81.1035
G01 X49.6497 Y-81.1350
G01 X49.6699 Y-81.1657
G01 X49.6913 Y-81.1957
G01 X49.7294 Y-81.2438
G01 X49.7619 Y-81.2806
G01 X49.7961 Y-81.3157
G01 X49.8414 Y-81.3572
G01 X49.8890 Y-81.3958
G01 X49.9390 Y-81.4315
G01 X49.9804 Y-81.4577
G01 X50.0340 Y-81.4876
G01 X50.0893 Y-81.5142
G01 X50.1461 Y-81.5373
G01 X50.1925 Y-81.5533
G01 X50.2515 Y-81.5700
G01 X50.3115 Y-81.5831
G01 X50.3721 Y-81.5925
G01 X50.4332 Y-81.5981
G01 X50.4823 Y-81.5999
G01 X69.3729 Y-81.5999
G01 X69.4221 Y-81.5981
G01 X69.4589 Y-81.5952
G01 X69.5078 Y-81.5891
G01 X69.5563 Y-81.5807
G01 X69.6044 Y-81.5698
G01 X69.6400 Y-81.5602
G01 X69.6753 Y-81.5492
G01 X69.7216 Y-81.5326
G01 X69.7558 Y-81.5186
G01 X69.8006 Y-81.4980
G01 X69.8442 Y-81.4753
G01 X69.8762 Y-81.4568
G01 X69.9178 Y-81.4304
G01 X69.9481 Y-81.4093
G01 X69.9775 Y-81.3870
G01 X70.0155 Y-81.3557
G01 X70.0430 Y-81.3310
G01 X70.0695 Y-81.3053
G01 X70.1116 Y-81.2603
G01 X70.1453 Y-81.2199
G01 X75.0397 Y-76.2478
G01 X75.0624 Y-76.2328
G01 X75.0926 Y-76.2114
G01 X75.1410 Y-76.1734
G01 X75.1871 Y-76.1325
G01 X75.2305 Y-76.0888
G01 X75.2553 Y-76.0613
G01 X75.2866 Y-76.0233
G01 X75.3161 Y-75.9838
G01 X75.3369 Y-75.9533
G01 X75.3566 Y-75.9220
G01 X75.3810 Y-75.8791
G01 X75.4032 Y-75.8351
G01 X75.4184 Y-75.8015
G01 X75.4324 Y-75.7672
G01 X75.4491 Y-75.7209
G01 X75.4635 Y-75.6737
G01 X75.4727 Y-75.6379
G01 X75.4806 Y-75.6018
G01 X75.4891 Y-75.5533
G01 X75.4939 Y-75.5166
G01 X75.4981 Y-75.4675
G01 X75.5000 Y-75.4059
G01 X75.5000 Y-4.7787
G01 X75.4993 Y-4.7421
G01 X75.4963 Y-4.6933
G01 X75.4910 Y-4.6447
G01 X75.4832 Y-4.5964
G01 X75.4732 Y-4.5486
G01 X75.4641 Y-4.5131
G01 X75.4499 Y-4.4663
G01 X75.4335 Y-4.4203
G01 X75.4198 Y-4.3863
G01 X75.3995 Y-4.3418
G01 X75.3771 Y-4.2984
G01 X75.3526 Y-4.2561
G01 X75.3260 Y-4.2151
G01 X75.3048 Y-4.1852
G01 X75.2748 Y-4.1465
G01 X75.2511 Y-4.1186
G01 X75.2180 Y-4.0827
G01 X75.1831 Y-4.0484
G01 X75.1466 Y-4.0159
G01 X75.1182 Y-3.9927
G01 X75.0791 Y-3.9634
G01 X75.0385 Y-3.9361
G01 X74.9967 Y-3.9108
G01 X74.9605 Y-3.8911
G01 X70.5737 Y0.4203
G01 X70.5525 Y0.4635
G01 X70.5287 Y0.5063
G01 X70.5029 Y0.5478
G01 X70.4751 Y0.5881
G01 X70.4454 Y0.6270
G01 X70.4138 Y0.6643
G01 X70.3804 Y0.7001
G01 X70.3453 Y0.7342
G01 X70.3179 Y0.7586
G01 X70.2800 Y0.7896
G01 X70.2406 Y0.8187
G01 X70.1999 Y0.8458
G01 X70.1685 Y0.8648
G01 X70.1256 Y0.8883
G01 X70.0927 Y0.9046
G01 X70.0479 Y0.9243
G01 X70.0023 Y0.9419
G01 X69.9675 Y0.9536
G01 X69.9323 Y0.9640
G01 X69.8848 Y0.9758
G01 X69.8368 Y0.9854
G01 X69.8005 Y0.9910
G01 X69.7641 Y0.9952
G01 X69.7153 Y0.9988
G01 X69.6664 Y1.0000
G01 X-0.0123 Y0.9999
G01 X-0.0613 Y0.9981
G01 X-0.1102 Y0.9939
G01 X-0.1589 Y0.9873
G01 X-0.2071 Y0.9783
G01 X-0.2549 Y0.9670
G01 X-0.3020 Y0.9533
G01 X-0.3484 Y0.9373
G01 X-0.3940 Y0.9191
G01 X-0.4276 Y0.9040
G01 X-0.4714 Y0.8819
G01 X-0.5141 Y0.8577
G01 X-0.5556 Y0.8315
G01 X-0.5957 Y0.8032
G01 X-0.6344 Y0.7730
G01 X-0.6716 Y0.7410
G01 X-0.7071 Y0.7071
G01 X-0.7410 Y0.6716
G01 X-0.7730 Y0.6344
G01 X-0.8032 Y0.5957
G01 X-0.8315 Y0.5556
G01 X-0.8577 Y0.5141
G01 X-0.8819 Y0.4714
G01 X-0.9040 Y0.4276
G01 X-0.9239 Y0.3827
G01 X-0.9415 Y0.3369
G01 X-0.9569 Y0.2903
G01 X-0.9700 Y0.2430
G01 X-0.9808 Y0.1951
G01 X-0.9892 Y0.1467
G01 X-0.9952 Y0.0980
G01 X-0.9988 Y0.0491
G01 X-1.0000 Y0.0000
G00 X-1.0000 Y0.0000
G01 F70.00
G01 Z-0.5000
G01 F120.00
G01 X-0.9999 Y-35.2427
G01 X-0.9981 Y-35.2918
G01 X-0.9952 Y-35.3285
G01 X-0.9892 Y-35.3772
G01 X-0.9808 Y-35.4256
G01 X-0.9700 Y-35.4735
G01 X-0.9604 Y-35.5090
G01 X-0.9495 Y-35.5442
G01 X-0.9330 Y-35.5904
G01 X-0.9142 Y-35.6357
G01 X-0.8987 Y-35.6691
G01 X-0.8819 Y-35.7019
G01 X-0.8577 Y-35.7446
G01 X-0.8382 Y-35.7758
G01 X-0.8105 Y-35.8163
G01 X-0.7883 Y-35.8457
G01 X-0.7572 Y-35.8836
G01 X-0.7157 Y-35.9289
G01 X-0.6806 Y-35.9631
G01 X-0.6438 Y-35.9956
G01 X-0.6055 Y-36.0263
G01 X-0.5657 Y-36.0551
G01 X-0.5141 Y-36.0882
G01 X-0.4714 Y-36.1124
G01 X-0.4164 Y-36.1396
G01 X-0.3713 Y-36.1590
G01 X-0.3137 Y-36.1800
G01 X-0.2667 Y-36.1943
G01 X-0.2191 Y-36.2062
G01 X-0.1589 Y-36.2178
G01 X-0.1102 Y-36.2244
G01 X-0.0613 Y-36.2286
G01 X-0.0123 Y-36.2304
G01 X21.4751 Y-36.2305
G01 X21.4751 Y-52.7327
G01 X21.4758 Y-52.7695
G01 X21.4778 Y-52.8062
G01 X21.4812 Y-52.8429
G01 X21.4859 Y-52.8794
G01 X21.4920 Y-52.9157
G01 X21.4994 Y-52.9518
G01 X21.5081 Y-52.9875
G01 X21.5182 Y-53.0230
G01 X21.5295 Y-53.0580
G01 X21.5421 Y-53.0926
G01 X21.5560 Y-53.1267
G01 X21.5711 Y-53.1602
G01 X21.5875 Y-53.1932
G01 X21.6050 Y-53.2256
G01 X21.6238 Y-53.2573
G01 X21.6437 Y-53.2882
G01 X21.6647 Y-53.3185
G01 X21.6868 Y-53.3479
G01 X21.7100 Y-53.3765
G01 X21.7342 Y-53.4042
G01 X21.7594 Y-53.4311
G01 X21.7856 Y-53.4569
G01 X21.8127 Y-53.4818
G01 X21.8407 Y-53.5057
G01 X21.8696 Y-53.5285
G01 X21.9094 Y-53.5573
G01 X21.9401 Y-53.5775
G01 X21.9716 Y-53.5966
G01 X22.0037 Y-53.6146
G01 X22.0365 Y-53.6313
G01 X22.0699 Y-53.6469
G01 X22.1038 Y-53.6612
G01 X22.1382 Y-53.6742
G01 X22.1848 Y-53.6896
G01 X22.2203 Y-53.6997
G01 X22.2560 Y-53.7084
G01 X22.3042 Y-53.7180
G01 X22.3527 Y-53.7252
G01 X22.3893 Y-53.7290
G01 X22.4383 Y-53.7320
G01 X22.4751 Y-53.7327
G01 X49.4945 Y-53.7327
G01 X49.4946 Y-80.6123
G01 X49.4957 Y-80.6491
G01 X49.4982 Y-80.6858
G01 X49.5036 Y-80.7346
G01 X49.5092 Y-80.7710
G01 X49.5162 Y-80.8071
G01 X49.5245 Y-80.8430
G01 X49.5376 Y-80.8903
G01 X49.5489 Y-80.9253
G01 X49.5615 Y-80.9599
G01 X49.5754 Y-80.9940
G01 X49.5905 Y-81.0276
G01 X49.6069 Y-81.0605
G01 X49.6306 Y-81.1035
G01 X49.6497 Y-81.1350
G01 X49.6699 Y-81.1657
G01 X49.6913 Y-81.1957
G01 X49.7294 Y-81.2438
G01 X49.7619 Y-81.2806
G01 X49.7961 Y-81.3157
G01 X49.8414 Y-81.3572
G01 X49.8890 Y-81.3958
G01 X49.9390 Y-81.4315
G01 X49.9804 Y-81.4577
G01 X50.0340 Y-81.4876
G01 X50.0893 Y-81.5142
G01 X50.1461 Y-81.5373
G01 X50.1925 Y-81.5533
G01 X50.2515 Y-81.5700
G01 X50.3115 Y-81.5831
G01 X50.3721 Y-81.5925
G01 X50.4332 Y-81.5981
G01 X50.4823 Y-81.5999
G01 X69.3729 Y-81.5999
G01 X69.4221 Y-81.5981
G01 X69.4589 Y-81.5952
G01 X69.5078 Y-81.5891
G01 X69.5563 Y-81.5807
G01 X69.6044 Y-81.5698
G01 X69.6400 Y-81.5602
G01 X69.6753 Y-81.5492
G01 X69.7216 Y-81.5326
G01 X69.7558 Y-81.5186
G01 X69.8006 Y-81.4980
G01 X69.8442 Y-81.4753
G01 X69.8762 Y-81.4568
G01 X69.9178 Y-81.4304
G01 X69.9481 Y-81.4093
G01 X69.9775 Y-81.3870
G01 X70.0155 Y-81.3557
G01 X70.0430 Y-81.3310
G01 X70.0695 Y-81.3053
G01 X70.1116 Y-81.2603
G01 X70.1453 Y-81.2199
G01 X75.0397 Y-76.2478
G01 X75.0624 Y-76.2328
G01 X75.0926 Y-76.2114
G01 X75.1410 Y-76.1734
G01 X75.1871 Y-76.1325
G01 X75.2305 Y-76.0888
G01 X75.2553 Y-76.0613
G01 X75.2866 Y-76.0233
G01 X75.3161 Y-75.9838
G01 X75.3369 Y-75.9533
G01 X75.3566 Y-75.9220
G01 X75.3810 Y-75.8791
G01 X75.4032 Y-75.8351
G01 X75.4184 Y-75.8015
G01 X75.4324 Y-75.7672
G01 X75.4491 Y-75.7209
G01 X75.4635 Y-75.6737
G01 X75.4727 Y-75.6379
G01 X75.4806 Y-75.6018
G01 X75.4891 Y-75.5533
G01 X75.4939 Y-75.5166
G01 X75.4981 Y-75.4675
G01 X75.5000 Y-75.4059
G01 X75.5000 Y-4.7787
G01 X75.4993 Y-4.7421
G01 X75.4963 Y-4.6933
G01 X75.4910 Y-4.6447
G01 X75.4832 Y-4.5964
G01 X75.4732 Y-4.5486
G01 X75.4641 Y-4.5131
G01 X75.4499 Y-4.4663
G01 X75.4335 Y-4.4203
G01 X75.4198 Y-4.3863
G01 X75.3995 Y-4.3418
G01 X75.3771 Y-4.2984
G01 X75.3526 Y-4.2561
G01 X75.3260 Y-4.2151
G01 X75.3048 Y-4.1852
G01 X75.2748 Y-4.1465
G01 X75.2511 Y-4.1186
G01 X75.2180 Y-4.0827
G01 X75.1831 Y-4.0484
G01 X75.1466 Y-4.0159
G01 X75.1182 Y-3.9927
G01 X75.0791 Y-3.9634
G01 X75.0385 Y-3.9361
G01 X74.9967 Y-3.9108
G01 X74.9605 Y-3.8911
G01 X70.5737 Y0.4203
G01 X70.5525 Y0.4635
G01 X70.5287 Y0.5063
G01 X70.5029 Y0.5478
G01 X70.4751 Y0.5881
G01 X70.4454 Y0.6270
G01 X70.4138 Y0.6643
G01 X70.3804 Y0.7001
G01 X70.3453 Y0.7342
G01 X70.3179 Y0.7586
G01 X70.2800 Y0.7896
G01 X70.2406 Y0.8187
G01 X70.1999 Y0.8458
G01 X70.1685 Y0.8648
G01 X70.1256 Y0.8883
G01 X70.0927 Y0.9046
G01 X70.0479 Y0.9243
G01 X70.0023 Y0.9419
G01 X69.9675 Y0.9536
G01 X69.9323 Y0.9640
G01 X69.8848 Y0.9758
G01 X69.8368 Y0.9854
G01 X69.8005 Y0.9910
G01 X69.7641 Y0.9952
G01 X69.7153 Y0.9988
G01 X69.6664 Y1.0000
G01 X-0.0123 Y0.9999
G01 X-0.0613 Y0.9981
G01 X-0.1102 Y0.9939
G01 X-0.1589 Y0.9873
G01 X-0.2071 Y0.9783
G01 X-0.2549 Y0.9670
G01 X-0.3020 Y0.9533
G01 X-0.3484 Y0.9373
G01 X-0.3940 Y0.9191
G01 X-0.4276 Y0.9040
G01 X-0.4714 Y0.8819
G01 X-0.5141 Y0.8577
G01 X-0.5556 Y0.8315
G01 X-0.5957 Y0.8032
G01 X-0.6344 Y0.7730
G01 X-0.6716 Y0.7410
G01 X-0.7071 Y0.7071
G01 X-0.7410 Y0.6716
G01 X-0.7730 Y0.6344
G01 X-0.8032 Y0.5957
G01 X-0.8315 Y0.5556
G01 X-0.8577 Y0.5141
G01 X-0.8819 Y0.4714
G01 X-0.9040 Y0.4276
G01 X-0.9239 Y0.3827
G01 X-0.9415 Y0.3369
G01 X-0.9569 Y0.2903
G01 X-0.9700 Y0.2430
G01 X-0.9808 Y0.1951
G01 X-0.9892 Y0.1467
G01 X-0.9952 Y0.0980
G01 X-0.9988 Y0.0491
G01 X-1.0000 Y0.0000
G00 X-1.0000 Y0.0000
G01 F70.00
G01 Z-0.6000
G01 F120.00
G01 X-0.9999 Y-35.2427
G01 X-0.9981 Y-35.2918
G01 X-0.9952 Y-35.3285
G01 X-0.9892 Y-35.3772
G01 X-0.9808 Y-35.4256
G01 X-0.9700 Y-35.4735
G01 X-0.9604 Y-35.5090
G01 X-0.9495 Y-35.5442
G01 X-0.9330 Y-35.5904
G01 X-0.9142 Y-35.6357
G01 X-0.8987 Y-35.6691
G01 X-0.8819 Y-35.7019
G01 X-0.8577 Y-35.7446
G01 X-0.8382 Y-35.7758
G01 X-0.8105 Y-35.8163
G01 X-0.7883 Y-35.8457
G01 X-0.7572 Y-35.8836
G01 X-0.7157 Y-35.9289
G01 X-0.6806 Y-35.9631
G01 X-0.6438 Y-35.9956
G01 X-0.6055 Y-36.0263
G01 X-0.5657 Y-36.0551
G01 X-0.5141 Y-36.0882
G01 X-0.4714 Y-36.1124
G01 X-0.4164 Y-36.1396
G01 X-0.3713 Y-36.1590
G01 X-0.3137 Y-36.1800
G01 X-0.2667 Y-36.1943
G01 X-0.2191 Y-36.2062
G01 X-0.1589 Y-36.2178
G01 X-0.1102 Y-36.2244
G01 X-0.0613 Y-36.2286
G01 X-0.0123 Y-36.2304
G01 X21.4751 Y-36.2305
G01 X21.4751 Y-52.7327
G01 X21.4758 Y-52.7695
G01 X21.4778 Y-52.8062
G01 X21.4812 Y-52.8429
G01 X21.4859 Y-52.8794
G01 X21.4920 Y-52.9157
G01 X21.4994 Y-52.9518
G01 X21.5081 Y-52.9875
G01 X21.5182 Y-53.0230
G01 X21.5295 Y-53.0580
G01 X21.5421 Y-53.0926
G01 X21.5560 Y-53.1267
G01 X21.5711 Y-53.1602
G01 X21.5875 Y-53.1932
G01 X21.6050 Y-53.2256
G01 X21.6238 Y-53.2573
G01 X21.6437 Y-53.2882
G01 X21.6647 Y-53.3185
G01 X21.6868 Y-53.3479
G01 X21.7100 Y-53.3765
G01 X21.7342 Y-53.4042
G01 X21.7594 Y-53.4311
G01 X21.7856 Y-53.4569
G01 X21.8127 Y-53.4818
G01 X21.8407 Y-53.5057
G01 X21.8696 Y-53.5285
G01 X21.9094 Y-53.5573
G01 X21.9401 Y-53.5775
G01 X21.9716 Y-53.5966
G01 X22.0037 Y-53.6146
G01 X22.0365 Y-53.6313
G01 X22.0699 Y-53.6469
G01 X22.1038 Y-53.6612
G01 X22.1382 Y-53.6742
G01 X22.1848 Y-53.6896
G01 X22.2203 Y-53.6997
G01 X22.2560 Y-53.7084
G01 X22.3042 Y-53.7180
G01 X22.3527 Y-53.7252
G01 X22.3893 Y-53.7290
G01 X22.4383 Y-53.7320
G01 X22.4751 Y-53.7327
G01 X49.4945 Y-53.7327
G01 X49.4946 Y-80.6123
G01 X49.4957 Y-80.6491
G01 X49.4982 Y-80.6858
G01 X49.5036 Y-80.7346
G01 X49.5092 Y-80.7710
G01 X49.5162 Y-80.8071
G01 X49.5245 Y-80.8430
G01 X49.5376 Y-80.8903
G01 X49.5489 Y-80.9253
G01 X49.5615 Y-80.9599
G01 X49.5754 Y-80.9940
G01 X49.5905 Y-81.0276
G01 X49.6069 Y-81.0605
G01 X49.6306 Y-81.1035
G01 X49.6497 Y-81.1350
G01 X49.6699 Y-81.1657
G01 X49.6913 Y-81.1957
G01 X49.7294 Y-81.2438
G01 X49.7619 Y-81.2806
G01 X49.7961 Y-81.3157
G01 X49.8414 Y-81.3572
G01 X49.8890 Y-81.3958
G01 X49.9390 Y-81.4315
G01 X49.9804 Y-81.4577
G01 X50.0340 Y-81.4876
G01 X50.0893 Y-81.5142
G01 X50.1461 Y-81.5373
G01 X50.1925 Y-81.5533
G01 X50.2515 Y-81.5700
G01 X50.3115 Y-81.5831
G01 X50.3721 Y-81.5925
G01 X50.4332 Y-81.5981
G01 X50.4823 Y-81.5999
G01 X69.3729 Y-81.5999
G01 X69.4221 Y-81.5981
G01 X69.4589 Y-81.5952
G01 X69.5078 Y-81.5891
G01 X69.5563 Y-81.5807
G01 X69.6044 Y-81.5698
G01 X69.6400 Y-81.5602
G01 X69.6753 Y-81.5492
G01 X69.7216 Y-81.5326
G01 X69.7558 Y-81.5186
G01 X69.8006 Y-81.4980
G01 X69.8442 Y-81.4753
G01 X69.8762 Y-81.4568
G01 X69.9178 Y-81.4304
G01 X69.9481 Y-81.4093
G01 X69.9775 Y-81.3870
G01 X70.0155 Y-81.3557
G01 X70.0430 Y-81.3310
G01 X70.0695 Y-81.3053
G01 X70.1116 Y-81.2603
G01 X70.1453 Y-81.2199
G01 X75.0397 Y-76.2478
G01 X75.0624 Y-76.2328
G01 X75.0926 Y-76.2114
G01 X75.1410 Y-76.1734
G01 X75.1871 Y-76.1325
G01 X75.2305 Y-76.0888
G01 X75.2553 Y-76.0613
G01 X75.2866 Y-76.0233
G01 X75.3161 Y-75.9838
G01 X75.3369 Y-75.9533
G01 X75.3566 Y-75.9220
G01 X75.3810 Y-75.8791
G01 X75.4032 Y-75.8351
G01 X75.4184 Y-75.8015
G01 X75.4324 Y-75.7672
G01 X75.4491 Y-75.7209
G01 X75.4635 Y-75.6737
G01 X75.4727 Y-75.6379
G01 X75.4806 Y-75.6018
G01 X75.4891 Y-75.5533
G01 X75.4939 Y-75.5166
G01 X75.4981 Y-75.4675
G01 X75.5000 Y-75.4059
G01 X75.5000 Y-4.7787
G01 X75.4993 Y-4.7421
G01 X75.4963 Y-4.6933
G01 X75.4910 Y-4.6447
G01 X75.4832 Y-4.5964
G01 X75.4732 Y-4.5486
G01 X75.4641 Y-4.5131
G01 X75.4499 Y-4.4663
G01 X75.4335 Y-4.4203
G01 X75.4198 Y-4.3863
G01 X75.3995 Y-4.3418
G01 X75.3771 Y-4.2984
G01 X75.3526 Y-4.2561
G01 X75.3260 Y-4.2151
G01 X75.3048 Y-4.1852
G01 X75.2748 Y-4.1465
G01 X75.2511 Y-4.1186
G01 X75.2180 Y-4.0827
G01 X75.1831 Y-4.0484
G01 X75.1466 Y-4.0159
G01 X75.1182 Y-3.9927
G01 X75.0791 Y-3.9634
G01 X75.0385 Y-3.9361
G01 X74.9967 Y-3.9108
G01 X74.9605 Y-3.8911
G01 X70.5737 Y0.4203
G01 X70.5525 Y0.4635
G01 X70.5287 Y0.5063
G01 X70.5029 Y0.5478
G01 X70.4751 Y0.5881
G01 X70.4454 Y0.6270
G01 X70.4138 Y0.6643
G01 X70.3804 Y0.7001
G01 X70.3453 Y0.7342
G01 X70.3179 Y0.7586
G01 X70.2800 Y0.7896
G01 X70.2406 Y0.8187
G01 X70.1999 Y0.8458
G01 X70.1685 Y0.8648
G01 X70.1256 Y0.8883
G01 X70.0927 Y0.9046
G01 X70.0479 Y0.9243
G01 X70.0023 Y0.9419
G01 X69.9675 Y0.9536
G01 X69.9323 Y0.9640
G01 X69.8848 Y0.9758
G01 X69.8368 Y0.9854
G01 X69.8005 Y0.9910
G01 X69.7641 Y0.9952
G01 X69.7153 Y0.9988
G01 X69.6664 Y1.0000
G01 X-0.0123 Y0.9999
G01 X-0.0613 Y0.9981
G01 X-0.1102 Y0.9939
G01 X-0.1589 Y0.9873
G01 X-0.2071 Y0.9783
G01 X-0.2549 Y0.9670
G01 X-0.3020 Y0.9533
G01 X-0.3484 Y0.9373
G01 X-0.3940 Y0.9191
G01 X-0.4276 Y0.9040
G01 X-0.4714 Y0.8819
G01 X-0.5141 Y0.8577
G01 X-0.5556 Y0.8315
G01 X-0.5957 Y0.8032
G01 X-0.6344 Y0.7730
G01 X-0.6716 Y0.7410
G01 X-0.7071 Y0.7071
G01 X-0.7410 Y0.6716
G01 X-0.7730 Y0.6344
G01 X-0.8032 Y0.5957
G01 X-0.8315 Y0.5556
G01 X-0.8577 Y0.5141
G01 X-0.8819 Y0.4714
G01 X-0.9040 Y0.4276
G01 X-0.9239 Y0.3827
G01 X-0.9415 Y0.3369
G01 X-0.9569 Y0.2903
G01 X-0.9700 Y0.2430
G01 X-0.9808 Y0.1951
G01 X-0.9892 Y0.1467
G01 X-0.9952 Y0.0980
G01 X-0.9988 Y0.0491
G01 X-1.0000 Y0.0000
G00 X-1.0000 Y0.0000
G01 F70.00
G01 Z-0.7000
G01 F120.00
G01 X-0.9999 Y-35.2427
G01 X-0.9981 Y-35.2918
G01 X-0.9952 Y-35.3285
G01 X-0.9892 Y-35.3772
G01 X-0.9808 Y-35.4256
G01 X-0.9700 Y-35.4735
G01 X-0.9604 Y-35.5090
G01 X-0.9495 Y-35.5442
G01 X-0.9330 Y-35.5904
G01 X-0.9142 Y-35.6357
G01 X-0.8987 Y-35.6691
G01 X-0.8819 Y-35.7019
G01 X-0.8577 Y-35.7446
G01 X-0.8382 Y-35.7758
G01 X-0.8105 Y-35.8163
G01 X-0.7883 Y-35.8457
G01 X-0.7572 Y-35.8836
G01 X-0.7157 Y-35.9289
G01 X-0.6806 Y-35.9631
G01 X-0.6438 Y-35.9956
G01 X-0.6055 Y-36.0263
G01 X-0.5657 Y-36.0551
G01 X-0.5141 Y-36.0882
G01 X-0.4714 Y-36.1124
G01 X-0.4164 Y-36.1396
G01 X-0.3713 Y-36.1590
G01 X-0.3137 Y-36.1800
G01 X-0.2667 Y-36.1943
G01 X-0.2191 Y-36.2062
G01 X-0.1589 Y-36.2178
G01 X-0.1102 Y-36.2244
G01 X-0.0613 Y-36.2286
G01 X-0.0123 Y-36.2304
G01 X21.4751 Y-36.2305
G01 X21.4751 Y-52.7327
G01 X21.4758 Y-52.7695
G01 X21.4778 Y-52.8062
G01 X21.4812 Y-52.8429
G01 X21.4859 Y-52.8794
G01 X21.4920 Y-52.9157
G01 X21.4994 Y-52.9518
G01 X21.5081 Y-52.9875
G01 X21.5182 Y-53.0230
G01 X21.5295 Y-53.0580
G01 X21.5421 Y-53.0926
G01 X21.5560 Y-53.1267
G01 X21.5711 Y-53.1602
G01 X21.5875 Y-53.1932
G01 X21.6050 Y-53.2256
G01 X21.6238 Y-53.2573
G01 X21.6437 Y-53.2882
G01 X21.6647 Y-53.3185
G01 X21.6868 Y-53.3479
G01 X21.7100 Y-53.3765
G01 X21.7342 Y-53.4042
G01 X21.7594 Y-53.4311
G01 X21.7856 Y-53.4569
G01 X21.8127 Y-53.4818
G01 X21.8407 Y-53.5057
G01 X21.8696 Y-53.5285
G01 X21.9094 Y-53.5573
G01 X21.9401 Y-53.5775
G01 X21.9716 Y-53.5966
G01 X22.0037 Y-53.6146
G01 X22.0365 Y-53.6313
G01 X22.0699 Y-53.6469
G01 X22.1038 Y-53.6612
G01 X22.1382 Y-53.6742
G01 X22.1848 Y-53.6896
G01 X22.2203 Y-53.6997
G01 X22.2560 Y-53.7084
G01 X22.3042 Y-53.7180
G01 X22.3527 Y-53.7252
G01 X22.3893 Y-53.7290
G01 X22.4383 Y-53.7320
G01 X22.4751 Y-53.7327
G01 X49.4945 Y-53.7327
G01 X49.4946 Y-80.6123
G01 X49.4957 Y-80.6491
G01 X49.4982 Y-80.6858
G01 X49.5036 Y-80.7346
G01 X49.5092 Y-80.7710
G01 X49.5162 Y-80.8071
G01 X49.5245 Y-80.8430
G01 X49.5376 Y-80.8903
G01 X49.5489 Y-80.9253
G01 X49.5615 Y-80.9599
G01 X49.5754 Y-80.9940
G01 X49.5905 Y-81.0276
G01 X49.6069 Y-81.0605
G01 X49.6306 Y-81.1035
G01 X49.6497 Y-81.1350
G01 X49.6699 Y-81.1657
G01 X49.6913 Y-81.1957
G01 X49.7294 Y-81.2438
G01 X49.7619 Y-81.2806
G01 X49.7961 Y-81.3157
G01 X49.8414 Y-81.3572
G01 X49.8890 Y-81.3958
G01 X49.9390 Y-81.4315
G01 X49.9804 Y-81.4577
G01 X50.0340 Y-81.4876
G01 X50.0893 Y-81.5142
G01 X50.1461 Y-81.5373
G01 X50.1925 Y-81.5533
G01 X50.2515 Y-81.5700
G01 X50.3115 Y-81.5831
G01 X50.3721 Y-81.5925
G01 X50.4332 Y-81.5981
G01 X50.4823 Y-81.5999
G01 X69.3729 Y-81.5999
G01 X69.4221 Y-81.5981
G01 X69.4589 Y-81.5952
G01 X69.5078 Y-81.5891
G01 X69.5563 Y-81.5807
G01 X69.6044 Y-81.5698
G01 X69.6400 Y-81.5602
G01 X69.6753 Y-81.5492
G01 X69.7216 Y-81.5326
G01 X69.7558 Y-81.5186
G01 X69.8006 Y-81.4980
G01 X69.8442 Y-81.4753
G01 X69.8762 Y-81.4568
G01 X69.9178 Y-81.4304
G01 X69.9481 Y-81.4093
G01 X69.9775 Y-81.3870
G01 X70.0155 Y-81.3557
G01 X70.0430 Y-81.3310
G01 X70.0695 Y-81.3053
G01 X70.1116 Y-81.2603
G01 X70.1453 Y-81.2199
G01 X75.0397 Y-76.2478
G01 X75.0624 Y-76.2328
G01 X75.0926 Y-76.2114
G01 X75.1410 Y-76.1734
G01 X75.1871 Y-76.1325
G01 X75.2305 Y-76.0888
G01 X75.2553 Y-76.0613
G01 X75.2866 Y-76.0233
G01 X75.3161 Y-75.9838
G01 X75.3369 Y-75.9533
G01 X75.3566 Y-75.9220
G01 X75.3810 Y-75.8791
G01 X75.4032 Y-75.8351
G01 X75.4184 Y-75.8015
G01 X75.4324 Y-75.7672
G01 X75.4491 Y-75.7209
G01 X75.4635 Y-75.6737
G01 X75.4727 Y-75.6379
G01 X75.4806 Y-75.6018
G01 X75.4891 Y-75.5533
G01 X75.4939 Y-75.5166
G01 X75.4981 Y-75.4675
G01 X75.5000 Y-75.4059
G01 X75.5000 Y-4.7787
G01 X75.4993 Y-4.7421
G01 X75.4963 Y-4.6933
G01 X75.4910 Y-4.6447
G01 X75.4832 Y-4.5964
G01 X75.4732 Y-4.5486
G01 X75.4641 Y-4.5131
G01 X75.4499 Y-4.4663
G01 X75.4335 Y-4.4203
G01 X75.4198 Y-4.3863
G01 X75.3995 Y-4.3418
G01 X75.3771 Y-4.2984
G01 X75.3526 Y-4.2561
G01 X75.3260 Y-4.2151
G01 X75.3048 Y-4.1852
G01 X75.2748 Y-4.1465
G01 X75.2511 Y-4.1186
G01 X75.2180 Y-4.0827
G01 X75.1831 Y-4.0484
G01 X75.1466 Y-4.0159
G01 X75.1182 Y-3.9927
G01 X75.0791 Y-3.9634
G01 X75.0385 Y-3.9361
G01 X74.9967 Y-3.9108
G01 X74.9605 Y-3.8911
G01 X70.5737 Y0.4203
G01 X70.5525 Y0.4635
G01 X70.5287 Y0.5063
G01 X70.5029 Y0.5478
G01 X70.4751 Y0.5881
G01 X70.4454 Y0.6270
G01 X70.4138 Y0.6643
G01 X70.3804 Y0.7001
G01 X70.3453 Y0.7342
G01 X70.3179 Y0.7586
G01 X70.2800 Y0.7896
G01 X70.2406 Y0.8187
G01 X70.1999 Y0.8458
G01 X70.1685 Y0.8648
G01 X70.1256 Y0.8883
G01 X70.0927 Y0.9046
G01 X70.0479 Y0.9243
G01 X70.0023 Y0.9419
G01 X69.9675 Y0.9536
G01 X69.9323 Y0.9640
G01 X69.8848 Y0.9758
G01 X69.8368 Y0.9854
G01 X69.8005 Y0.9910
G01 X69.7641 Y0.9952
G01 X69.7153 Y0.9988
G01 X69.6664 Y1.0000
G01 X-0.0123 Y0.9999
G01 X-0.0613 Y0.9981
G01 X-0.1102 Y0.9939
G01 X-0.1589 Y0.9873
G01 X-0.2071 Y0.9783
G01 X-0.2549 Y0.9670
G01 X-0.3020 Y0.9533
G01 X-0.3484 Y0.9373
G01 X-0.3940 Y0.9191
G01 X-0.4276 Y0.9040
G01 X-0.4714 Y0.8819
G01 X-0.5141 Y0.8577
G01 X-0.5556 Y0.8315
G01 X-0.5957 Y0.8032
G01 X-0.6344 Y0.7730
G01 X-0.6716 Y0.7410
G01 X-0.7071 Y0.7071
G01 X-0.7410 Y0.6716
G01 X-0.7730 Y0.6344
G01 X-0.8032 Y0.5957
G01 X-0.8315 Y0.5556
G01 X-0.8577 Y0.5141
G01 X-0.8819 Y0.4714
G01 X-0.9040 Y0.4276
G01 X-0.9239 Y0.3827
G01 X-0.9415 Y0.3369
G01 X-0.9569 Y0.2903
G01 X-0.9700 Y0.2430
G01 X-0.9808 Y0.1951
G01 X-0.9892 Y0.1467
G01 X-0.9952 Y0.0980
G01 X-0.9988 Y0.0491
G01 X-1.0000 Y0.0000
G00 X-1.0000 Y0.0000
G01 F70.00
G01 Z-0.8000
G01 F120.00
G01 X-0.9999 Y-35.2427
G01 X-0.9981 Y-35.2918
G01 X-0.9952 Y-35.3285
G01 X-0.9892 Y-35.3772
G01 X-0.9808 Y-35.4256
G01 X-0.9700 Y-35.4735
G01 X-0.9604 Y-35.5090
G01 X-0.9495 Y-35.5442
G01 X-0.9330 Y-35.5904
G01 X-0.9142 Y-35.6357
G01 X-0.8987 Y-35.6691
G01 X-0.8819 Y-35.7019
G01 X-0.8577 Y-35.7446
G01 X-0.8382 Y-35.7758
G01 X-0.8105 Y-35.8163
G01 X-0.7883 Y-35.8457
G01 X-0.7572 Y-35.8836
G01 X-0.7157 Y-35.9289
G01 X-0.6806 Y-35.9631
G01 X-0.6438 Y-35.9956
G01 X-0.6055 Y-36.0263
G01 X-0.5657 Y-36.0551
G01 X-0.5141 Y-36.0882
G01 X-0.4714 Y-36.1124
G01 X-0.4164 Y-36.1396
G01 X-0.3713 Y-36.1590
G01 X-0.3137 Y-36.1800
G01 X-0.2667 Y-36.1943
G01 X-0.2191 Y-36.2062
G01 X-0.1589 Y-36.2178
G01 X-0.1102 Y-36.2244
G01 X-0.0613 Y-36.2286
G01 X-0.0123 Y-36.2304
G01 X21.4751 Y-36.2305
G01 X21.4751 Y-52.7327
G01 X21.4758 Y-52.7695
G01 X21.4778 Y-52.8062
G01 X21.4812 Y-52.8429
G01 X21.4859 Y-52.8794
G01 X21.4920 Y-52.9157
G01 X21.4994 Y-52.9518
G01 X21.5081 Y-52.9875
G01 X21.5182 Y-53.0230
G01 X21.5295 Y-53.0580
G01 X21.5421 Y-53.0926
G01 X21.5560 Y-53.1267
G01 X21.5711 Y-53.1602
G01 X21.5875 Y-53.1932
G01 X21.6050 Y-53.2256
G01 X21.6238 Y-53.2573
G01 X21.6437 Y-53.2882
G01 X21.6647 Y-53.3185
G01 X21.6868 Y-53.3479
G01 X21.7100 Y-53.3765
G01 X21.7342 Y-53.4042
G01 X21.7594 Y-53.4311
G01 X21.7856 Y-53.4569
G01 X21.8127 Y-53.4818
G01 X21.8407 Y-53.5057
G01 X21.8696 Y-53.5285
G01 X21.9094 Y-53.5573
G01 X21.9401 Y-53.5775
G01 X21.9716 Y-53.5966
G01 X22.0037 Y-53.6146
G01 X22.0365 Y-53.6313
G01 X22.0699 Y-53.6469
G01 X22.1038 Y-53.6612
G01 X22.1382 Y-53.6742
G01 X22.1848 Y-53.6896
G01 X22.2203 Y-53.6997
G01 X22.2560 Y-53.7084
G01 X22.3042 Y-53.7180
G01 X22.3527 Y-53.7252
G01 X22.3893 Y-53.7290
G01 X22.4383 Y-53.7320
G01 X22.4751 Y-53.7327
G01 X49.4945 Y-53.7327
G01 X49.4946 Y-80.6123
G01 X49.4957 Y-80.6491
G01 X49.4982 Y-80.6858
G01 X49.5036 Y-80.7346
G01 X49.5092 Y-80.7710
G01 X49.5162 Y-80.8071
G01 X49.5245 Y-80.8430
G01 X49.5376 Y-80.8903
G01 X49.5489 Y-80.9253
G01 X49.5615 Y-80.9599
G01 X49.5754 Y-80.9940
G01 X49.5905 Y-81.0276
G01 X49.6069 Y-81.0605
G01 X49.6306 Y-81.1035
G01 X49.6497 Y-81.1350
G01 X49.6699 Y-81.1657
G01 X49.6913 Y-81.1957
G01 X49.7294 Y-81.2438
G01 X49.7619 Y-81.2806
G01 X49.7961 Y-81.3157
G01 X49.8414 Y-81.3572
G01 X49.8890 Y-81.3958
G01 X49.9390 Y-81.4315
G01 X49.9804 Y-81.4577
G01 X50.0340 Y-81.4876
G01 X50.0893 Y-81.5142
G01 X50.1461 Y-81.5373
G01 X50.1925 Y-81.5533
G01 X50.2515 Y-81.5700
G01 X50.3115 Y-81.5831
G01 X50.3721 Y-81.5925
G01 X50.4332 Y-81.5981
G01 X50.4823 Y-81.5999
G01 X69.3729 Y-81.5999
G01 X69.4221 Y-81.5981
G01 X69.4589 Y-81.5952
G01 X69.5078 Y-81.5891
G01 X69.5563 Y-81.5807
G01 X69.6044 Y-81.5698
G01 X69.6400 Y-81.5602
G01 X69.6753 Y-81.5492
G01 X69.7216 Y-81.5326
G01 X69.7558 Y-81.5186
G01 X69.8006 Y-81.4980
G01 X69.8442 Y-81.4753
G01 X69.8762 Y-81.4568
G01 X69.9178 Y-81.4304
G01 X69.9481 Y-81.4093
G01 X69.9775 Y-81.3870
G01 X70.0155 Y-81.3557
G01 X70.0430 Y-81.3310
G01 X70.0695 Y-81.3053
G01 X70.1116 Y-81.2603
G01 X70.1453 Y-81.2199
G01 X75.0397 Y-76.2478
G01 X75.0624 Y-76.2328
G01 X75.0926 Y-76.2114
G01 X75.1410 Y-76.1734
G01 X75.1871 Y-76.1325
G01 X75.2305 Y-76.0888
G01 X75.2553 Y-76.0613
G01 X75.2866 Y-76.0233
G01 X75.3161 Y-75.9838
G01 X75.3369 Y-75.9533
G01 X75.3566 Y-75.9220
G01 X75.3810 Y-75.8791
G01 X75.4032 Y-75.8351
G01 X75.4184 Y-75.8015
G01 X75.4324 Y-75.7672
G01 X75.4491 Y-75.7209
G01 X75.4635 Y-75.6737
G01 X75.4727 Y-75.6379
G01 X75.4806 Y-75.6018
G01 X75.4891 Y-75.5533
G01 X75.4939 Y-75.5166
G01 X75.4981 Y-75.4675
G01 X75.5000 Y-75.4059
G01 X75.5000 Y-4.7787
G01 X75.4993 Y-4.7421
G01 X75.4963 Y-4.6933
G01 X75.4910 Y-4.6447
G01 X75.4832 Y-4.5964
G01 X75.4732 Y-4.5486
G01 X75.4641 Y-4.5131
G01 X75.4499 Y-4.4663
G01 X75.4335 Y-4.4203
G01 X75.4198 Y-4.3863
G01 X75.3995 Y-4.3418
G01 X75.3771 Y-4.2984
G01 X75.3526 Y-4.2561
G01 X75.3260 Y-4.2151
G01 X75.3048 Y-4.1852
G01 X75.2748 Y-4.1465
G01 X75.2511 Y-4.1186
G01 X75.2180 Y-4.0827
G01 X75.1831 Y-4.0484
G01 X75.1466 Y-4.0159
G01 X75.1182 Y-3.9927
G01 X75.0791 Y-3.9634
G01 X75.0385 Y-3.9361
G01 X74.9967 Y-3.9108
G01 X74.9605 Y-3.8911
G01 X70.5737 Y0.4203
G01 X70.5525 Y0.4635
G01 X70.5287 Y0.5063
G01 X70.5029 Y0.5478
G01 X70.4751 Y0.5881
G01 X70.4454 Y0.6270
G01 X70.4138 Y0.6643
G01 X70.3804 Y0.7001
G01 X70.3453 Y0.7342
G01 X70.3179 Y0.7586
G01 X70.2800 Y0.7896
G01 X70.2406 Y0.8187
G01 X70.1999 Y0.8458
G01 X70.1685 Y0.8648
G01 X70.1256 Y0.8883
G01 X70.0927 Y0.9046
G01 X70.0479 Y0.9243
G01 X70.0023 Y0.9419
G01 X69.9675 Y0.9536
G01 X69.9323 Y0.9640
G01 X69.8848 Y0.9758
G01 X69.8368 Y0.9854
G01 X69.8005 Y0.9910
G01 X69.7641 Y0.9952
G01 X69.7153 Y0.9988
G01 X69.6664 Y1.0000
G01 X-0.0123 Y0.9999
G01 X-0.0613 Y0.9981
G01 X-0.1102 Y0.9939
G01 X-0.1589 Y0.9873
G01 X-0.2071 Y0.9783
G01 X-0.2549 Y0.9670
G01 X-0.3020 Y0.9533
G01 X-0.3484 Y0.9373
G01 X-0.3940 Y0.9191
G01 X-0.4276 Y0.9040
G01 X-0.4714 Y0.8819
G01 X-0.5141 Y0.8577
G01 X-0.5556 Y0.8315
G01 X-0.5957 Y0.8032
G01 X-0.6344 Y0.7730
G01 X-0.6716 Y0.7410
G01 X-0.7071 Y0.7071
G01 X-0.7410 Y0.6716
G01 X-0.7730 Y0.6344
G01 X-0.8032 Y0.5957
G01 X-0.8315 Y0.5556
G01 X-0.8577 Y0.5141
G01 X-0.8819 Y0.4714
G01 X-0.9040 Y0.4276
G01 X-0.9239 Y0.3827
G01 X-0.9415 Y0.3369
G01 X-0.9569 Y0.2903
G01 X-0.9700 Y0.2430
G01 X-0.9808 Y0.1951
G01 X-0.9892 Y0.1467
G01 X-0.9952 Y0.0980
G01 X-0.9988 Y0.0491
G01 X-1.0000 Y0.0000
G00 X-1.0000 Y0.0000
G01 F70.00
G01 Z-0.9000
G01 F120.00
G01 X-0.9999 Y-35.2427
G01 X-0.9981 Y-35.2918
G01 X-0.9952 Y-35.3285
G01 X-0.9892 Y-35.3772
G01 X-0.9808 Y-35.4256
G01 X-0.9700 Y-35.4735
G01 X-0.9604 Y-35.5090
G01 X-0.9495 Y-35.5442
G01 X-0.9330 Y-35.5904
G01 X-0.9142 Y-35.6357
G01 X-0.8987 Y-35.6691
G01 X-0.8819 Y-35.7019
G01 X-0.8577 Y-35.7446
G01 X-0.8382 Y-35.7758
G01 X-0.8105 Y-35.8163
G01 X-0.7883 Y-35.8457
G01 X-0.7572 Y-35.8836
G01 X-0.7157 Y-35.9289
G01 X-0.6806 Y-35.9631
G01 X-0.6438 Y-35.9956
G01 X-0.6055 Y-36.0263
G01 X-0.5657 Y-36.0551
G01 X-0.5141 Y-36.0882
G01 X-0.4714 Y-36.1124
G01 X-0.4164 Y-36.1396
G01 X-0.3713 Y-36.1590
G01 X-0.3137 Y-36.1800
G01 X-0.2667 Y-36.1943
G01 X-0.2191 Y-36.2062
G01 X-0.1589 Y-36.2178
G01 X-0.1102 Y-36.2244
G01 X-0.0613 Y-36.2286
G01 X-0.0123 Y-36.2304
G01 X21.4751 Y-36.2305
G01 X21.4751 Y-52.7327
G01 X21.4758 Y-52.7695
G01 X21.4778 Y-52.8062
G01 X21.4812 Y-52.8429
G01 X21.4859 Y-52.8794
G01 X21.4920 Y-52.9157
G01 X21.4994 Y-52.9518
G01 X21.5081 Y-52.9875
G01 X21.5182 Y-53.0230
G01 X21.5295 Y-53.0580
G01 X21.5421 Y-53.0926
G01 X21.5560 Y-53.1267
G01 X21.5711 Y-53.1602
G01 X21.5875 Y-53.1932
G01 X21.6050 Y-53.2256
G01 X21.6238 Y-53.2573
G01 X21.6437 Y-53.2882
G01 X21.6647 Y-53.3185
G01 X21.6868 Y-53.3479
G01 X21.7100 Y-53.3765
G01 X21.7342 Y-53.4042
G01 X21.7594 Y-53.4311
G01 X21.7856 Y-53.4569
G01 X21.8127 Y-53.4818
G01 X21.8407 Y-53.5057
G01 X21.8696 Y-53.5285
G01 X21.9094 Y-53.5573
G01 X21.9401 Y-53.5775
G01 X21.9716 Y-53.5966
G01 X22.0037 Y-53.6146
G01 X22.0365 Y-53.6313
G01 X22.0699 Y-53.6469
G01 X22.1038 Y-53.6612
G01 X22.1382 Y-53.6742
G01 X22.1848 Y-53.6896
G01 X22.2203 Y-53.6997
G01 X22.2560 Y-53.7084
G01 X22.3042 Y-53.7180
G01 X22.3527 Y-53.7252
G01 X22.3893 Y-53.7290
G01 X22.4383 Y-53.7320
G01 X22.4751 Y-53.7327
G01 X49.4945 Y-53.7327
G01 X49.4946 Y-80.6123
G01 X49.4957 Y-80.6491
G01 X49.4982 Y-80.6858
G01 X49.5036 Y-80.7346
G01 X49.5092 Y-80.7710
G01 X49.5162 Y-80.8071
G01 X49.5245 Y-80.8430
G01 X49.5376 Y-80.8903
G01 X49.5489 Y-80.9253
G01 X49.5615 Y-80.9599
G01 X49.5754 Y-80.9940
G01 X49.5905 Y-81.0276
G01 X49.6069 Y-81.0605
G01 X49.6306 Y-81.1035
G01 X49.6497 Y-81.1350
G01 X49.6699 Y-81.1657
G01 X49.6913 Y-81.1957
G01 X49.7294 Y-81.2438
G01 X49.7619 Y-81.2806
G01 X49.7961 Y-81.3157
G01 X49.8414 Y-81.3572
G01 X49.8890 Y-81.3958
G01 X49.9390 Y-81.4315
G01 X49.9804 Y-81.4577
G01 X50.0340 Y-81.4876
G01 X50.0893 Y-81.5142
G01 X50.1461 Y-81.5373
G01 X50.1925 Y-81.5533
G01 X50.2515 Y-81.5700
G01 X50.3115 Y-81.5831
G01 X50.3721 Y-81.5925
G01 X50.4332 Y-81.5981
G01 X50.4823 Y-81.5999
G01 X69.3729 Y-81.5999
G01 X69.4221 Y-81.5981
G01 X69.4589 Y-81.5952
G01 X69.5078 Y-81.5891
G01 X69.5563 Y-81.5807
G01 X69.6044 Y-81.5698
G01 X69.6400 Y-81.5602
G01 X69.6753 Y-81.5492
G01 X69.7216 Y-81.5326
G01 X69.7558 Y-81.5186
G01 X69.8006 Y-81.4980
G01 X69.8442 Y-81.4753
G01 X69.8762 Y-81.4568
G01 X69.9178 Y-81.4304
G01 X69.9481 Y-81.4093
G01 X69.9775 Y-81.3870
G01 X70.0155 Y-81.3557
G01 X70.0430 Y-81.3310
G01 X70.0695 Y-81.3053
G01 X70.1116 Y-81.2603
G01 X70.1453 Y-81.2199
G01 X75.0397 Y-76.2478
G01 X75.0624 Y-76.2328
G01 X75.0926 Y-76.2114
G01 X75.1410 Y-76.1734
G01 X75.1871 Y-76.1325
G01 X75.2305 Y-76.0888
G01 X75.2553 Y-76.0613
G01 X75.2866 Y-76.0233
G01 X75.3161 Y-75.9838
G01 X75.3369 Y-75.9533
G01 X75.3566 Y-75.9220
G01 X75.3810 Y-75.8791
G01 X75.4032 Y-75.8351
G01 X75.4184 Y-75.8015
G01 X75.4324 Y-75.7672
G01 X75.4491 Y-75.7209
G01 X75.4635 Y-75.6737
G01 X75.4727 Y-75.6379
G01 X75.4806 Y-75.6018
G01 X75.4891 Y-75.5533
G01 X75.4939 Y-75.5166
G01 X75.4981 Y-75.4675
G01 X75.5000 Y-75.4059
G01 X75.5000 Y-4.7787
G01 X75.4993 Y-4.7421
G01 X75.4963 Y-4.6933
G01 X75.4910 Y-4.6447
G01 X75.4832 Y-4.5964
G01 X75.4732 Y-4.5486
G01 X75.4641 Y-4.5131
G01 X75.4499 Y-4.4663
G01 X75.4335 Y-4.4203
G01 X75.4198 Y-4.3863
G01 X75.3995 Y-4.3418
G01 X75.3771 Y-4.2984
G01 X75.3526 Y-4.2561
G01 X75.3260 Y-4.2151
G01 X75.3048 Y-4.1852
G01 X75.2748 Y-4.1465
G01 X75.2511 Y-4.1186
G01 X75.2180 Y-4.0827
G01 X75.1831 Y-4.0484
G01 X75.1466 Y-4.0159
G01 X75.1182 Y-3.9927
G01 X75.0791 Y-3.9634
G01 X75.0385 Y-3.9361
G01 X74.9967 Y-3.9108
G01 X74.9605 Y-3.8911
G01 X70.5737 Y0.4203
G01 X70.5525 Y0.4635
G01 X70.5287 Y0.5063
G01 X70.5029 Y0.5478
G01 X70.4751 Y0.5881
G01 X70.4454 Y0.6270
G01 X70.4138 Y0.6643
G01 X70.3804 Y0.7001
G01 X70.3453 Y0.7342
G01 X70.3179 Y0.7586
G01 X70.2800 Y0.7896
G01 X70.2406 Y0.8187
G01 X70.1999 Y0.8458
G01 X70.1685 Y0.8648
G01 X70.1256 Y0.8883
G01 X70.0927 Y0.9046
G01 X70.0479 Y0.9243
G01 X70.0023 Y0.9419
G01 X69.9675 Y0.9536
G01 X69.9323 Y0.9640
G01 X69.8848 Y0.9758
G01 X69.8368 Y0.9854
G01 X69.8005 Y0.9910
G01 X69.7641 Y0.9952
G01 X69.7153 Y0.9988
G01 X69.6664 Y1.0000
G01 X-0.0123 Y0.9999
G01 X-0.0613 Y0.9981
G01 X-0.1102 Y0.9939
G01 X-0.1589 Y0.9873
G01 X-0.2071 Y0.9783
G01 X-0.2549 Y0.9670
G01 X-0.3020 Y0.9533
G01 X-0.3484 Y0.9373
G01 X-0.3940 Y0.9191
G01 X-0.4276 Y0.9040
G01 X-0.4714 Y0.8819
G01 X-0.5141 Y0.8577
G01 X-0.5556 Y0.8315
G01 X-0.5957 Y0.8032
G01 X-0.6344 Y0.7730
G01 X-0.6716 Y0.7410
G01 X-0.7071 Y0.7071
G01 X-0.7410 Y0.6716
G01 X-0.7730 Y0.6344
G01 X-0.8032 Y0.5957
G01 X-0.8315 Y0.5556
G01 X-0.8577 Y0.5141
G01 X-0.8819 Y0.4714
G01 X-0.9040 Y0.4276
G01 X-0.9239 Y0.3827
G01 X-0.9415 Y0.3369
G01 X-0.9569 Y0.2903
G01 X-0.9700 Y0.2430
G01 X-0.9808 Y0.1951
G01 X-0.9892 Y0.1467
G01 X-0.9952 Y0.0980
G01 X-0.9988 Y0.0491
G01 X-1.0000 Y0.0000
G00 X-1.0000 Y0.0000
G01 F70.00
G01 Z-1.0000
G01 F120.00
G01 X-0.9999 Y-35.2427
G01 X-0.9981 Y-35.2918
G01 X-0.9952 Y-35.3285
G01 X-0.9892 Y-35.3772
G01 X-0.9808 Y-35.4256
G01 X-0.9700 Y-35.4735
G01 X-0.9604 Y-35.5090
G01 X-0.9495 Y-35.5442
G01 X-0.9330 Y-35.5904
G01 X-0.9142 Y-35.6357
G01 X-0.8987 Y-35.6691
G01 X-0.8819 Y-35.7019
G01 X-0.8577 Y-35.7446
G01 X-0.8382 Y-35.7758
G01 X-0.8105 Y-35.8163
G01 X-0.7883 Y-35.8457
G01 X-0.7572 Y-35.8836
G01 X-0.7157 Y-35.9289
G01 X-0.6806 Y-35.9631
G01 X-0.6438 Y-35.9956
G01 X-0.6055 Y-36.0263
G01 X-0.5657 Y-36.0551
G01 X-0.5141 Y-36.0882
G01 X-0.4714 Y-36.1124
G01 X-0.4164 Y-36.1396
G01 X-0.3713 Y-36.1590
G01 X-0.3137 Y-36.1800
G01 X-0.2667 Y-36.1943
G01 X-0.2191 Y-36.2062
G01 X-0.1589 Y-36.2178
G01 X-0.1102 Y-36.2244
G01 X-0.0613 Y-36.2286
G01 X-0.0123 Y-36.2304
G01 X21.4751 Y-36.2305
G01 X21.4751 Y-52.7327
G01 X21.4758 Y-52.7695
G01 X21.4778 Y-52.8062
G01 X21.4812 Y-52.8429
G01 X21.4859 Y-52.8794
G01 X21.4920 Y-52.9157
G01 X21.4994 Y-52.9518
G01 X21.5081 Y-52.9875
G01 X21.5182 Y-53.0230
G01 X21.5295 Y-53.0580
G01 X21.5421 Y-53.0926
G01 X21.5560 Y-53.1267
G01 X21.5711 Y-53.1602
G01 X21.5875 Y-53.1932
G01 X21.6050 Y-53.2256
G01 X21.6238 Y-53.2573
G01 X21.6437 Y-53.2882
G01 X21.6647 Y-53.3185
G01 X21.6868 Y-53.3479
G01 X21.7100 Y-53.3765
G01 X21.7342 Y-53.4042
G01 X21.7594 Y-53.4311
G01 X21.7856 Y-53.4569
G01 X21.8127 Y-53.4818
G01 X21.8407 Y-53.5057
G01 X21.8696 Y-53.5285
G01 X21.9094 Y-53.5573
G01 X21.9401 Y-53.5775
G01 X21.9716 Y-53.5966
G01 X22.0037 Y-53.6146
G01 X22.0365 Y-53.6313
G01 X22.0699 Y-53.6469
G01 X22.1038 Y-53.6612
G01 X22.1382 Y-53.6742
G01 X22.1848 Y-53.6896
G01 X22.2203 Y-53.6997
G01 X22.2560 Y-53.7084
G01 X22.3042 Y-53.7180
G01 X22.3527 Y-53.7252
G01 X22.3893 Y-53.7290
G01 X22.4383 Y-53.7320
G01 X22.4751 Y-53.7327
G01 X49.4945 Y-53.7327
G01 X49.4946 Y-80.6123
G01 X49.4957 Y-80.6491
G01 X49.4982 Y-80.6858
G01 X49.5036 Y-80.7346
G01 X49.5092 Y-80.7710
G01 X49.5162 Y-80.8071
G01 X49.5245 Y-80.8430
G01 X49.5376 Y-80.8903
G01 X49.5489 Y-80.9253
G01 X49.5615 Y-80.9599
G01 X49.5754 Y-80.9940
G01 X49.5905 Y-81.0276
G01 X49.6069 Y-81.0605
G01 X49.6306 Y-81.1035
G01 X49.6497 Y-81.1350
G01 X49.6699 Y-81.1657
G01 X49.6913 Y-81.1957
G01 X49.7294 Y-81.2438
G01 X49.7619 Y-81.2806
G01 X49.7961 Y-81.3157
G01 X49.8414 Y-81.3572
G01 X49.8890 Y-81.3958
G01 X49.9390 Y-81.4315
G01 X49.9804 Y-81.4577
G01 X50.0340 Y-81.4876
G01 X50.0893 Y-81.5142
G01 X50.1461 Y-81.5373
G01 X50.1925 Y-81.5533
G01 X50.2515 Y-81.5700
G01 X50.3115 Y-81.5831
G01 X50.3721 Y-81.5925
G01 X50.4332 Y-81.5981
G01 X50.4823 Y-81.5999
G01 X69.3729 Y-81.5999
G01 X69.4221 Y-81.5981
G01 X69.4589 Y-81.5952
G01 X69.5078 Y-81.5891
G01 X69.5563 Y-81.5807
G01 X69.6044 Y-81.5698
G01 X69.6400 Y-81.5602
G01 X69.6753 Y-81.5492
G01 X69.7216 Y-81.5326
G01 X69.7558 Y-81.5186
G01 X69.8006 Y-81.4980
G01 X69.8442 Y-81.4753
G01 X69.8762 Y-81.4568
G01 X69.9178 Y-81.4304
G01 X69.9481 Y-81.4093
G01 X69.9775 Y-81.3870
G01 X70.0155 Y-81.3557
G01 X70.0430 Y-81.3310
G01 X70.0695 Y-81.3053
G01 X70.1116 Y-81.2603
G01 X70.1453 Y-81.2199
G01 X75.0397 Y-76.2478
G01 X75.0624 Y-76.2328
G01 X75.0926 Y-76.2114
G01 X75.1410 Y-76.1734
G01 X75.1871 Y-76.1325
G01 X75.2305 Y-76.0888
G01 X75.2553 Y-76.0613
G01 X75.2866 Y-76.0233
G01 X75.3161 Y-75.9838
G01 X75.3369 Y-75.9533
G01 X75.3566 Y-75.9220
G01 X75.3810 Y-75.8791
G01 X75.4032 Y-75.8351
G01 X75.4184 Y-75.8015
G01 X75.4324 Y-75.7672
G01 X75.4491 Y-75.7209
G01 X75.4635 Y-75.6737
G01 X75.4727 Y-75.6379
G01 X75.4806 Y-75.6018
G01 X75.4891 Y-75.5533
G01 X75.4939 Y-75.5166
G01 X75.4981 Y-75.4675
G01 X75.5000 Y-75.4059
G01 X75.5000 Y-4.7787
G01 X75.4993 Y-4.7421
G01 X75.4963 Y-4.6933
G01 X75.4910 Y-4.6447
G01 X75.4832 Y-4.5964
G01 X75.4732 Y-4.5486
G01 X75.4641 Y-4.5131
G01 X75.4499 Y-4.4663
G01 X75.4335 Y-4.4203
G01 X75.4198 Y-4.3863
G01 X75.3995 Y-4.3418
G01 X75.3771 Y-4.2984
G01 X75.3526 Y-4.2561
G01 X75.3260 Y-4.2151
G01 X75.3048 Y-4.1852
G01 X75.2748 Y-4.1465
G01 X75.2511 Y-4.1186
G01 X75.2180 Y-4.0827
G01 X75.1831 Y-4.0484
G01 X75.1466 Y-4.0159
G01 X75.1182 Y-3.9927
G01 X75.0791 Y-3.9634
G01 X75.0385 Y-3.9361
G01 X74.9967 Y-3.9108
G01 X74.9605 Y-3.8911
G01 X70.5737 Y0.4203
G01 X70.5525 Y0.4635
G01 X70.5287 Y0.5063
G01 X70.5029 Y0.5478
G01 X70.4751 Y0.5881
G01 X70.4454 Y0.6270
G01 X70.4138 Y0.6643
G01 X70.3804 Y0.7001
G01 X70.3453 Y0.7342
G01 X70.3179 Y0.7586
G01 X70.2800 Y0.7896
G01 X70.2406 Y0.8187
G01 X70.1999 Y0.8458
G01 X70.1685 Y0.8648
G01 X70.1256 Y0.8883
G01 X70.0927 Y0.9046
G01 X70.0479 Y0.9243
G01 X70.0023 Y0.9419
G01 X69.9675 Y0.9536
G01 X69.9323 Y0.9640
G01 X69.8848 Y0.9758
G01 X69.8368 Y0.9854
G01 X69.8005 Y0.9910
G01 X69.7641 Y0.9952
G01 X69.7153 Y0.9988
G01 X69.6664 Y1.0000
G01 X-0.0123 Y0.9999
G01 X-0.0613 Y0.9981
G01 X-0.1102 Y0.9939
G01 X-0.1589 Y0.9873
G01 X-0.2071 Y0.9783
G01 X-0.2549 Y0.9670
G01 X-0.3020 Y0.9533
G01 X-0.3484 Y0.9373
G01 X-0.3940 Y0.9191
G01 X-0.4276 Y0.9040
G01 X-0.4714 Y0.8819
G01 X-0.5141 Y0.8577
G01 X-0.5556 Y0.8315
G01 X-0.5957 Y0.8032
G01 X-0.6344 Y0.7730
G01 X-0.6716 Y0.7410
G01 X-0.7071 Y0.7071
G01 X-0.7410 Y0.6716
G01 X-0.7730 Y0.6344
G01 X-0.8032 Y0.5957
G01 X-0.8315 Y0.5556
G01 X-0.8577 Y0.5141
G01 X-0.8819 Y0.4714
G01 X-0.9040 Y0.4276
G01 X-0.9239 Y0.3827
G01 X-0.9415 Y0.3369
G01 X-0.9569 Y0.2903
G01 X-0.9700 Y0.2430
G01 X-0.9808 Y0.1951
G01 X-0.9892 Y0.1467
G01 X-0.9952 Y0.0980
G01 X-0.9988 Y0.0491
G01 X-1.0000 Y0.0000
G00 X-1.0000 Y0.0000
G01 F70.00
G01 Z-1.1000
G01 F120.00
G01 X-0.9999 Y-35.2427
G01 X-0.9981 Y-35.2918
G01 X-0.9952 Y-35.3285
G01 X-0.9892 Y-35.3772
G01 X-0.9808 Y-35.4256
G01 X-0.9700 Y-35.4735
G01 X-0.9604 Y-35.5090
G01 X-0.9495 Y-35.5442
G01 X-0.9330 Y-35.5904
G01 X-0.9142 Y-35.6357
G01 X-0.8987 Y-35.6691
G01 X-0.8819 Y-35.7019
G01 X-0.8577 Y-35.7446
G01 X-0.8382 Y-35.7758
G01 X-0.8105 Y-35.8163
G01 X-0.7883 Y-35.8457
G01 X-0.7572 Y-35.8836
G01 X-0.7157 Y-35.9289
G01 X-0.6806 Y-35.9631
G01 X-0.6438 Y-35.9956
G01 X-0.6055 Y-36.0263
G01 X-0.5657 Y-36.0551
G01 X-0.5141 Y-36.0882
G01 X-0.4714 Y-36.1124
G01 X-0.4164 Y-36.1396
G01 X-0.3713 Y-36.1590
G01 X-0.3137 Y-36.1800
G01 X-0.2667 Y-36.1943
G01 X-0.2191 Y-36.2062
G01 X-0.1589 Y-36.2178
G01 X-0.1102 Y-36.2244
G01 X-0.0613 Y-36.2286
G01 X-0.0123 Y-36.2304
G01 X21.4751 Y-36.2305
G01 X21.4751 Y-52.7327
G01 X21.4758 Y-52.7695
G01 X21.4778 Y-52.8062
G01 X21.4812 Y-52.8429
G01 X21.4859 Y-52.8794
G01 X21.4920 Y-52.9157
G01 X21.4994 Y-52.9518
G01 X21.5081 Y-52.9875
G01 X21.5182 Y-53.0230
G01 X21.5295 Y-53.0580
G01 X21.5421 Y-53.0926
G01 X21.5560 Y-53.1267
G01 X21.5711 Y-53.1602
G01 X21.5875 Y-53.1932
G01 X21.6050 Y-53.2256
G01 X21.6238 Y-53.2573
G01 X21.6437 Y-53.2882
G01 X21.6647 Y-53.3185
G01 X21.6868 Y-53.3479
G01 X21.7100 Y-53.3765
G01 X21.7342 Y-53.4042
G01 X21.7594 Y-53.4311
G01 X21.7856 Y-53.4569
G01 X21.8127 Y-53.4818
G01 X21.8407 Y-53.5057
G01 X21.8696 Y-53.5285
G01 X21.9094 Y-53.5573
G01 X21.9401 Y-53.5775
G01 X21.9716 Y-53.5966
G01 X22.0037 Y-53.6146
G01 X22.0365 Y-53.6313
G01 X22.0699 Y-53.6469
G01 X22.1038 Y-53.6612
G01 X22.1382 Y-53.6742
G01 X22.1848 Y-53.6896
G01 X22.2203 Y-53.6997
G01 X22.2560 Y-53.7084
G01 X22.3042 Y-53.7180
G01 X22.3527 Y-53.7252
G01 X22.3893 Y-53.7290
G01 X22.4383 Y-53.7320
G01 X22.4751 Y-53.7327
G01 X49.4945 Y-53.7327
G01 X49.4946 Y-80.6123
G01 X49.4957 Y-80.6491
G01 X49.4982 Y-80.6858
G01 X49.5036 Y-80.7346
G01 X49.5092 Y-80.7710
G01 X49.5162 Y-80.8071
G01 X49.5245 Y-80.8430
G01 X49.5376 Y-80.8903
G01 X49.5489 Y-80.9253
G01 X49.5615 Y-80.9599
G01 X49.5754 Y-80.9940
G01 X49.5905 Y-81.0276
G01 X49.6069 Y-81.0605
G01 X49.6306 Y-81.1035
G01 X49.6497 Y-81.1350
G01 X49.6699 Y-81.1657
G01 X49.6913 Y-81.1957
G01 X49.7294 Y-81.2438
G01 X49.7619 Y-81.2806
G01 X49.7961 Y-81.3157
G01 X49.8414 Y-81.3572
G01 X49.8890 Y-81.3958
G01 X49.9390 Y-81.4315
G01 X49.9804 Y-81.4577
G01 X50.0340 Y-81.4876
G01 X50.0893 Y-81.5142
G01 X50.1461 Y-81.5373
G01 X50.1925 Y-81.5533
G01 X50.2515 Y-81.5700
G01 X50.3115 Y-81.5831
G01 X50.3721 Y-81.5925
G01 X50.4332 Y-81.5981
G01 X50.4823 Y-81.5999
G01 X69.3729 Y-81.5999
G01 X69.4221 Y-81.5981
G01 X69.4589 Y-81.5952
G01 X69.5078 Y-81.5891
G01 X69.5563 Y-81.5807
G01 X69.6044 Y-81.5698
G01 X69.6400 Y-81.5602
G01 X69.6753 Y-81.5492
G01 X69.7216 Y-81.5326
G01 X69.7558 Y-81.5186
G01 X69.8006 Y-81.4980
G01 X69.8442 Y-81.4753
G01 X69.8762 Y-81.4568
G01 X69.9178 Y-81.4304
G01 X69.9481 Y-81.4093
G01 X69.9775 Y-81.3870
G01 X70.0155 Y-81.3557
G01 X70.0430 Y-81.3310
G01 X70.0695 Y-81.3053
G01 X70.1116 Y-81.2603
G01 X70.1453 Y-81.2199
G01 X75.0397 Y-76.2478
G01 X75.0624 Y-76.2328
G01 X75.0926 Y-76.2114
G01 X75.1410 Y-76.1734
G01 X75.1871 Y-76.1325
G01 X75.2305 Y-76.0888
G01 X75.2553 Y-76.0613
G01 X75.2866 Y-76.0233
G01 X75.3161 Y-75.9838
G01 X75.3369 Y-75.9533
G01 X75.3566 Y-75.9220
G01 X75.3810 Y-75.8791
G01 X75.4032 Y-75.8351
G01 X75.4184 Y-75.8015
G01 X75.4324 Y-75.7672
G01 X75.4491 Y-75.7209
G01 X75.4635 Y-75.6737
G01 X75.4727 Y-75.6379
G01 X75.4806 Y-75.6018
G01 X75.4891 Y-75.5533
G01 X75.4939 Y-75.5166
G01 X75.4981 Y-75.4675
G01 X75.5000 Y-75.4059
G01 X75.5000 Y-4.7787
G01 X75.4993 Y-4.7421
G01 X75.4963 Y-4.6933
G01 X75.4910 Y-4.6447
G01 X75.4832 Y-4.5964
G01 X75.4732 Y-4.5486
G01 X75.4641 Y-4.5131
G01 X75.4499 Y-4.4663
G01 X75.4335 Y-4.4203
G01 X75.4198 Y-4.3863
G01 X75.3995 Y-4.3418
G01 X75.3771 Y-4.2984
G01 X75.3526 Y-4.2561
G01 X75.3260 Y-4.2151
G01 X75.3048 Y-4.1852
G01 X75.2748 Y-4.1465
G01 X75.2511 Y-4.1186
G01 X75.2180 Y-4.0827
G01 X75.1831 Y-4.0484
G01 X75.1466 Y-4.0159
G01 X75.1182 Y-3.9927
G01 X75.0791 Y-3.9634
G01 X75.0385 Y-3.9361
G01 X74.9967 Y-3.9108
G01 X74.9605 Y-3.8911
G01 X70.5737 Y0.4203
G01 X70.5525 Y0.4635
G01 X70.5287 Y0.5063
G01 X70.5029 Y0.5478
G01 X70.4751 Y0.5881
G01 X70.4454 Y0.6270
G01 X70.4138 Y0.6643
G01 X70.3804 Y0.7001
G01 X70.3453 Y0.7342
G01 X70.3179 Y0.7586
G01 X70.2800 Y0.7896
G01 X70.2406 Y0.8187
G01 X70.1999 Y0.8458
G01 X70.1685 Y0.8648
G01 X70.1256 Y0.8883
G01 X70.0927 Y0.9046
G01 X70.0479 Y0.9243
G01 X70.0023 Y0.9419
G01 X69.9675 Y0.9536
G01 X69.9323 Y0.9640
G01 X69.8848 Y0.9758
G01 X69.8368 Y0.9854
G01 X69.8005 Y0.9910
G01 X69.7641 Y0.9952
G01 X69.7153 Y0.9988
G01 X69.6664 Y1.0000
G01 X-0.0123 Y0.9999
G01 X-0.0613 Y0.9981
G01 X-0.1102 Y0.9939
G01 X-0.1589 Y0.9873
G01 X-0.2071 Y0.9783
G01 X-0.2549 Y0.9670
G01 X-0.3020 Y0.9533
G01 X-0.3484 Y0.9373
G01 X-0.3940 Y0.9191
G01 X-0.4276 Y0.9040
G01 X-0.4714 Y0.8819
G01 X-0.5141 Y0.8577
G01 X-0.5556 Y0.8315
G01 X-0.5957 Y0.8032
G01 X-0.6344 Y0.7730
G01 X-0.6716 Y0.7410
G01 X-0.7071 Y0.7071
G01 X-0.7410 Y0.6716
G01 X-0.7730 Y0.6344
G01 X-0.8032 Y0.5957
G01 X-0.8315 Y0.5556
G01 X-0.8577 Y0.5141
G01 X-0.8819 Y0.4714
G01 X-0.9040 Y0.4276
G01 X-0.9239 Y0.3827
G01 X-0.9415 Y0.3369
G01 X-0.9569 Y0.2903
G01 X-0.9700 Y0.2430
G01 X-0.9808 Y0.1951
G01 X-0.9892 Y0.1467
G01 X-0.9952 Y0.0980
G01 X-0.9988 Y0.0491
G01 X-1.0000 Y0.0000
G00 X-1.0000 Y0.0000
G01 F70.00
G01 Z-1.2000
G01 F120.00
G01 X-0.9999 Y-35.2427
G01 X-0.9981 Y-35.2918
G01 X-0.9952 Y-35.3285
G01 X-0.9892 Y-35.3772
G01 X-0.9808 Y-35.4256
G01 X-0.9700 Y-35.4735
G01 X-0.9604 Y-35.5090
G01 X-0.9495 Y-35.5442
G01 X-0.9330 Y-35.5904
G01 X-0.9142 Y-35.6357
G01 X-0.8987 Y-35.6691
G01 X-0.8819 Y-35.7019
G01 X-0.8577 Y-35.7446
G01 X-0.8382 Y-35.7758
G01 X-0.8105 Y-35.8163
G01 X-0.7883 Y-35.8457
G01 X-0.7572 Y-35.8836
G01 X-0.7157 Y-35.9289
G01 X-0.6806 Y-35.9631
G01 X-0.6438 Y-35.9956
G01 X-0.6055 Y-36.0263
G01 X-0.5657 Y-36.0551
G01 X-0.5141 Y-36.0882
G01 X-0.4714 Y-36.1124
G01 X-0.4164 Y-36.1396
G01 X-0.3713 Y-36.1590
G01 X-0.3137 Y-36.1800
G01 X-0.2667 Y-36.1943
G01 X-0.2191 Y-36.2062
G01 X-0.1589 Y-36.2178
G01 X-0.1102 Y-36.2244
G01 X-0.0613 Y-36.2286
G01 X-0.0123 Y-36.2304
G01 X21.4751 Y-36.2305
G01 X21.4751 Y-52.7327
G01 X21.4758 Y-52.7695
G01 X21.4778 Y-52.8062
G01 X21.4812 Y-52.8429
G01 X21.4859 Y-52.8794
G01 X21.4920 Y-52.9157
G01 X21.4994 Y-52.9518
G01 X21.5081 Y-52.9875
G01 X21.5182 Y-53.0230
G01 X21.5295 Y-53.0580
G01 X21.5421 Y-53.0926
G01 X21.5560 Y-53.1267
G01 X21.5711 Y-53.1602
G01 X21.5875 Y-53.1932
G01 X21.6050 Y-53.2256
G01 X21.6238 Y-53.2573
G01 X21.6437 Y-53.2882
G01 X21.6647 Y-53.3185
G01 X21.6868 Y-53.3479
G01 X21.7100 Y-53.3765
G01 X21.7342 Y-53.4042
G01 X21.7594 Y-53.4311
G01 X21.7856 Y-53.4569
G01 X21.8127 Y-53.4818
G01 X21.8407 Y-53.5057
G01 X21.8696 Y-53.5285
G01 X21.9094 Y-53.5573
G01 X21.9401 Y-53.5775
G01 X21.9716 Y-53.5966
G01 X22.0037 Y-53.6146
G01 X22.0365 Y-53.6313
G01 X22.0699 Y-53.6469
G01 X22.1038 Y-53.6612
G01 X22.1382 Y-53.6742
G01 X22.1848 Y-53.6896
G01 X22.2203 Y-53.6997
G01 X22.2560 Y-53.7084
G01 X22.3042 Y-53.7180
G01 X22.3527 Y-53.7252
G01 X22.3893 Y-53.7290
G01 X22.4383 Y-53.7320
G01 X22.4751 Y-53.7327
G01 X49.4945 Y-53.7327
G01 X49.4946 Y-80.6123
G01 X49.4957 Y-80.6491
G01 X49.4982 Y-80.6858
G01 X49.5036 Y-80.7346
G01 X49.5092 Y-80.7710
G01 X49.5162 Y-80.8071
G01 X49.5245 Y-80.8430
G01 X49.5376 Y-80.8903
G01 X49.5489 Y-80.9253
G01 X49.5615 Y-80.9599
G01 X49.5754 Y-80.9940
G01 X49.5905 Y-81.0276
G01 X49.6069 Y-81.0605
G01 X49.6306 Y-81.1035
G01 X49.6497 Y-81.1350
G01 X49.6699 Y-81.1657
G01 X49.6913 Y-81.1957
G01 X49.7294 Y-81.2438
G01 X49.7619 Y-81.2806
G01 X49.7961 Y-81.3157
G01 X49.8414 Y-81.3572
G01 X49.8890 Y-81.3958
G01 X49.9390 Y-81.4315
G01 X49.9804 Y-81.4577
G01 X50.0340 Y-81.4876
G01 X50.0893 Y-81.5142
G01 X50.1461 Y-81.5373
G01 X50.1925 Y-81.5533
G01 X50.2515 Y-81.5700
G01 X50.3115 Y-81.5831
G01 X50.3721 Y-81.5925
G01 X50.4332 Y-81.5981
G01 X50.4823 Y-81.5999
G01 X69.3729 Y-81.5999
G01 X69.4221 Y-81.5981
G01 X69.4589 Y-81.5952
G01 X69.5078 Y-81.5891
G01 X69.5563 Y-81.5807
G01 X69.6044 Y-81.5698
G01 X69.6400 Y-81.5602
G01 X69.6753 Y-81.5492
G01 X69.7216 Y-81.5326
G01 X69.7558 Y-81.5186
G01 X69.8006 Y-81.4980
G01 X69.8442 Y-81.4753
G01 X69.8762 Y-81.4568
G01 X69.9178 Y-81.4304
G01 X69.9481 Y-81.4093
G01 X69.9775 Y-81.3870
G01 X70.0155 Y-81.3557
G01 X70.0430 Y-81.3310
G01 X70.0695 Y-81.3053
G01 X70.1116 Y-81.2603
G01 X70.1453 Y-81.2199
G01 X75.0397 Y-76.2478
G01 X75.0624 Y-76.2328
G01 X75.0926 Y-76.2114
G01 X75.1410 Y-76.1734
G01 X75.1871 Y-76.1325
G01 X75.2305 Y-76.0888
G01 X75.2553 Y-76.0613
G01 X75.2866 Y-76.0233
G01 X75.3161 Y-75.9838
G01 X75.3369 Y-75.9533
G01 X75.3566 Y-75.9220
G01 X75.3810 Y-75.8791
G01 X75.4032 Y-75.8351
G01 X75.4184 Y-75.8015
G01 X75.4324 Y-75.7672
G01 X75.4491 Y-75.7209
G01 X75.4635 Y-75.6737
G01 X75.4727 Y-75.6379
G01 X75.4806 Y-75.6018
G01 X75.4891 Y-75.5533
G01 X75.4939 Y-75.5166
G01 X75.4981 Y-75.4675
G01 X75.5000 Y-75.4059
G01 X75.5000 Y-4.7787
G01 X75.4993 Y-4.7421
G01 X75.4963 Y-4.6933
G01 X75.4910 Y-4.6447
G01 X75.4832 Y-4.5964
G01 X75.4732 Y-4.5486
G01 X75.4641 Y-4.5131
G01 X75.4499 Y-4.4663
G01 X75.4335 Y-4.4203
G01 X75.4198 Y-4.3863
G01 X75.3995 Y-4.3418
G01 X75.3771 Y-4.2984
G01 X75.3526 Y-4.2561
G01 X75.3260 Y-4.2151
G01 X75.3048 Y-4.1852
G01 X75.2748 Y-4.1465
G01 X75.2511 Y-4.1186
G01 X75.2180 Y-4.0827
G01 X75.1831 Y-4.0484
G01 X75.1466 Y-4.0159
G01 X75.1182 Y-3.9927
G01 X75.0791 Y-3.9634
G01 X75.0385 Y-3.9361
G01 X74.9967 Y-3.9108
G01 X74.9605 Y-3.8911
G01 X70.5737 Y0.4203
G01 X70.5525 Y0.4635
G01 X70.5287 Y0.5063
G01 X70.5029 Y0.5478
G01 X70.4751 Y0.5881
G01 X70.4454 Y0.6270
G01 X70.4138 Y0.6643
G01 X70.3804 Y0.7001
G01 X70.3453 Y0.7342
G01 X70.3179 Y0.7586
G01 X70.2800 Y0.7896
G01 X70.2406 Y0.8187
G01 X70.1999 Y0.8458
G01 X70.1685 Y0.8648
G01 X70.1256 Y0.8883
G01 X70.0927 Y0.9046
G01 X70.0479 Y0.9243
G01 X70.0023 Y0.9419
G01 X69.9675 Y0.9536
G01 X69.9323 Y0.9640
G01 X69.8848 Y0.9758
G01 X69.8368 Y0.9854
G01 X69.8005 Y0.9910
G01 X69.7641 Y0.9952
G01 X69.7153 Y0.9988
G01 X69.6664 Y1.0000
G01 X-0.0123 Y0.9999
G01 X-0.0613 Y0.9981
G01 X-0.1102 Y0.9939
G01 X-0.1589 Y0.9873
G01 X-0.2071 Y0.9783
G01 X-0.2549 Y0.9670
G01 X-0.3020 Y0.9533
G01 X-0.3484 Y0.9373
G01 X-0.3940 Y0.9191
G01 X-0.4276 Y0.9040
G01 X-0.4714 Y0.8819
G01 X-0.5141 Y0.8577
G01 X-0.5556 Y0.8315
G01 X-0.5957 Y0.8032
G01 X-0.6344 Y0.7730
G01 X-0.6716 Y0.7410
G01 X-0.7071 Y0.7071
G01 X-0.7410 Y0.6716
G01 X-0.7730 Y0.6344
G01 X-0.8032 Y0.5957
G01 X-0.8315 Y0.5556
G01 X-0.8577 Y0.5141
G01 X-0.8819 Y0.4714
G01 X-0.9040 Y0.4276
G01 X-0.9239 Y0.3827
G01 X-0.9415 Y0.3369
G01 X-0.9569 Y0.2903
G01 X-0.9700 Y0.2430
G01 X-0.9808 Y0.1951
G01 X-0.9892 Y0.1467
G01 X-0.9952 Y0.0980
G01 X-0.9988 Y0.0491
G01 X-1.0000 Y0.0000
G00 X-1.0000 Y0.0000
G01 F70.00
G01 Z-1.3000
G01 F120.00
G01 X-0.9999 Y-35.2427
G01 X-0.9981 Y-35.2918
G01 X-0.9952 Y-35.3285
G01 X-0.9892 Y-35.3772
G01 X-0.9808 Y-35.4256
G01 X-0.9700 Y-35.4735
G01 X-0.9604 Y-35.5090
G01 X-0.9495 Y-35.5442
G01 X-0.9330 Y-35.5904
G01 X-0.9142 Y-35.6357
G01 X-0.8987 Y-35.6691
G01 X-0.8819 Y-35.7019
G01 X-0.8577 Y-35.7446
G01 X-0.8382 Y-35.7758
G01 X-0.8105 Y-35.8163
G01 X-0.7883 Y-35.8457
G01 X-0.7572 Y-35.8836
G01 X-0.7157 Y-35.9289
G01 X-0.6806 Y-35.9631
G01 X-0.6438 Y-35.9956
G01 X-0.6055 Y-36.0263
G01 X-0.5657 Y-36.0551
G01 X-0.5141 Y-36.0882
G01 X-0.4714 Y-36.1124
G01 X-0.4164 Y-36.1396
G01 X-0.3713 Y-36.1590
G01 X-0.3137 Y-36.1800
G01 X-0.2667 Y-36.1943
G01 X-0.2191 Y-36.2062
G01 X-0.1589 Y-36.2178
G01 X-0.1102 Y-36.2244
G01 X-0.0613 Y-36.2286
G01 X-0.0123 Y-36.2304
G01 X21.4751 Y-36.2305
G01 X21.4751 Y-52.7327
G01 X21.4758 Y-52.7695
G01 X21.4778 Y-52.8062
G01 X21.4812 Y-52.8429
G01 X21.4859 Y-52.8794
G01 X21.4920 Y-52.9157
G01 X21.4994 Y-52.9518
G01 X21.5081 Y-52.9875
G01 X21.5182 Y-53.0230
G01 X21.5295 Y-53.0580
G01 X21.5421 Y-53.0926
G01 X21.5560 Y-53.1267
G01 X21.5711 Y-53.1602
G01 X21.5875 Y-53.1932
G01 X21.6050 Y-53.2256
G01 X21.6238 Y-53.2573
G01 X21.6437 Y-53.2882
G01 X21.6647 Y-53.3185
G01 X21.6868 Y-53.3479
G01 X21.7100 Y-53.3765
G01 X21.7342 Y-53.4042
G01 X21.7594 Y-53.4311
G01 X21.7856 Y-53.4569
G01 X21.8127 Y-53.4818
G01 X21.8407 Y-53.5057
G01 X21.8696 Y-53.5285
G01 X21.9094 Y-53.5573
G01 X21.9401 Y-53.5775
G01 X21.9716 Y-53.5966
G01 X22.0037 Y-53.6146
G01 X22.0365 Y-53.6313
G01 X22.0699 Y-53.6469
G01 X22.1038 Y-53.6612
G01 X22.1382 Y-53.6742
G01 X22.1848 Y-53.6896
G01 X22.2203 Y-53.6997
G01 X22.2560 Y-53.7084
G01 X22.3042 Y-53.7180
G01 X22.3527 Y-53.7252
G01 X22.3893 Y-53.7290
G01 X22.4383 Y-53.7320
G01 X22.4751 Y-53.7327
G01 X49.4945 Y-53.7327
G01 X49.4946 Y-80.6123
G01 X49.4957 Y-80.6491
G01 X49.4982 Y-80.6858
G01 X49.5036 Y-80.7346
G01 X49.5092 Y-80.7710
G01 X49.5162 Y-80.8071
G01 X49.5245 Y-80.8430
G01 X49.5376 Y-80.8903
G01 X49.5489 Y-80.9253
G01 X49.5615 Y-80.9599
G01 X49.5754 Y-80.9940
G01 X49.5905 Y-81.0276
G01 X49.6069 Y-81.0605
G01 X49.6306 Y-81.1035
G01 X49.6497 Y-81.1350
G01 X49.6699 Y-81.1657
G01 X49.6913 Y-81.1957
G01 X49.7294 Y-81.2438
G01 X49.7619 Y-81.2806
G01 X49.7961 Y-81.3157
G01 X49.8414 Y-81.3572
G01 X49.8890 Y-81.3958
G01 X49.9390 Y-81.4315
G01 X49.9804 Y-81.4577
G01 X50.0340 Y-81.4876
G01 X50.0893 Y-81.5142
G01 X50.1461 Y-81.5373
G01 X50.1925 Y-81.5533
G01 X50.2515 Y-81.5700
G01 X50.3115 Y-81.5831
G01 X50.3721 Y-81.5925
G01 X50.4332 Y-81.5981
G01 X50.4823 Y-81.5999
G01 X69.3729 Y-81.5999
G01 X69.4221 Y-81.5981
G01 X69.4589 Y-81.5952
G01 X69.5078 Y-81.5891
G01 X69.5563 Y-81.5807
G01 X69.6044 Y-81.5698
G01 X69.6400 Y-81.5602
G01 X69.6753 Y-81.5492
G01 X69.7216 Y-81.5326
G01 X69.7558 Y-81.5186
G01 X69.8006 Y-81.4980
G01 X69.8442 Y-81.4753
G01 X69.8762 Y-81.4568
G01 X69.9178 Y-81.4304
G01 X69.9481 Y-81.4093
G01 X69.9775 Y-81.3870
G01 X70.0155 Y-81.3557
G01 X70.0430 Y-81.3310
G01 X70.0695 Y-81.3053
G01 X70.1116 Y-81.2603
G01 X70.1453 Y-81.2199
G01 X75.0397 Y-76.2478
G01 X75.0624 Y-76.2328
G01 X75.0926 Y-76.2114
G01 X75.1410 Y-76.1734
G01 X75.1871 Y-76.1325
G01 X75.2305 Y-76.0888
G01 X75.2553 Y-76.0613
G01 X75.2866 Y-76.0233
G01 X75.3161 Y-75.9838
G01 X75.3369 Y-75.9533
G01 X75.3566 Y-75.9220
G01 X75.3810 Y-75.8791
G01 X75.4032 Y-75.8351
G01 X75.4184 Y-75.8015
G01 X75.4324 Y-75.7672
G01 X75.4491 Y-75.7209
G01 X75.4635 Y-75.6737
G01 X75.4727 Y-75.6379
G01 X75.4806 Y-75.6018
G01 X75.4891 Y-75.5533
G01 X75.4939 Y-75.5166
G01 X75.4981 Y-75.4675
G01 X75.5000 Y-75.4059
G01 X75.5000 Y-4.7787
G01 X75.4993 Y-4.7421
G01 X75.4963 Y-4.6933
G01 X75.4910 Y-4.6447
G01 X75.4832 Y-4.5964
G01 X75.4732 Y-4.5486
G01 X75.4641 Y-4.5131
G01 X75.4499 Y-4.4663
G01 X75.4335 Y-4.4203
G01 X75.4198 Y-4.3863
G01 X75.3995 Y-4.3418
G01 X75.3771 Y-4.2984
G01 X75.3526 Y-4.2561
G01 X75.3260 Y-4.2151
G01 X75.3048 Y-4.1852
G01 X75.2748 Y-4.1465
G01 X75.2511 Y-4.1186
G01 X75.2180 Y-4.0827
G01 X75.1831 Y-4.0484
G01 X75.1466 Y-4.0159
G01 X75.1182 Y-3.9927
G01 X75.0791 Y-3.9634
G01 X75.0385 Y-3.9361
G01 X74.9967 Y-3.9108
G01 X74.9605 Y-3.8911
G01 X70.5737 Y0.4203
G01 X70.5525 Y0.4635
G01 X70.5287 Y0.5063
G01 X70.5029 Y0.5478
G01 X70.4751 Y0.5881
G01 X70.4454 Y0.6270
G01 X70.4138 Y0.6643
G01 X70.3804 Y0.7001
G01 X70.3453 Y0.7342
G01 X70.3179 Y0.7586
G01 X70.2800 Y0.7896
G01 X70.2406 Y0.8187
G01 X70.1999 Y0.8458
G01 X70.1685 Y0.8648
G01 X70.1256 Y0.8883
G01 X70.0927 Y0.9046
G01 X70.0479 Y0.9243
G01 X70.0023 Y0.9419
G01 X69.9675 Y0.9536
G01 X69.9323 Y0.9640
G01 X69.8848 Y0.9758
G01 X69.8368 Y0.9854
G01 X69.8005 Y0.9910
G01 X69.7641 Y0.9952
G01 X69.7153 Y0.9988
G01 X69.6664 Y1.0000
G01 X-0.0123 Y0.9999
G01 X-0.0613 Y0.9981
G01 X-0.1102 Y0.9939
G01 X-0.1589 Y0.9873
G01 X-0.2071 Y0.9783
G01 X-0.2549 Y0.9670
G01 X-0.3020 Y0.9533
G01 X-0.3484 Y0.9373
G01 X-0.3940 Y0.9191
G01 X-0.4276 Y0.9040
G01 X-0.4714 Y0.8819
G01 X-0.5141 Y0.8577
G01 X-0.5556 Y0.8315
G01 X-0.5957 Y0.8032
G01 X-0.6344 Y0.7730
G01 X-0.6716 Y0.7410
G01 X-0.7071 Y0.7071
G01 X-0.7410 Y0.6716
G01 X-0.7730 Y0.6344
G01 X-0.8032 Y0.5957
G01 X-0.8315 Y0.5556
G01 X-0.8577 Y0.5141
G01 X-0.8819 Y0.4714
G01 X-0.9040 Y0.4276
G01 X-0.9239 Y0.3827
G01 X-0.9415 Y0.3369
G01 X-0.9569 Y0.2903
G01 X-0.9700 Y0.2430
G01 X-0.9808 Y0.1951
G01 X-0.9892 Y0.1467
G01 X-0.9952 Y0.0980
G01 X-0.9988 Y0.0491
G01 X-1.0000 Y0.0000
G00 X-1.0000 Y0.0000
G01 F70.00
G01 Z-1.4000
G01 F120.00
G01 X-0.9999 Y-35.2427
G01 X-0.9981 Y-35.2918
G01 X-0.9952 Y-35.3285
G01 X-0.9892 Y-35.3772
G01 X-0.9808 Y-35.4256
G01 X-0.9700 Y-35.4735
G01 X-0.9604 Y-35.5090
G01 X-0.9495 Y-35.5442
G01 X-0.9330 Y-35.5904
G01 X-0.9142 Y-35.6357
G01 X-0.8987 Y-35.6691
G01 X-0.8819 Y-35.7019
G01 X-0.8577 Y-35.7446
G01 X-0.8382 Y-35.7758
G01 X-0.8105 Y-35.8163
G01 X-0.7883 Y-35.8457
G01 X-0.7572 Y-35.8836
G01 X-0.7157 Y-35.9289
G01 X-0.6806 Y-35.9631
G01 X-0.6438 Y-35.9956
G01 X-0.6055 Y-36.0263
G01 X-0.5657 Y-36.0551
G01 X-0.5141 Y-36.0882
G01 X-0.4714 Y-36.1124
G01 X-0.4164 Y-36.1396
G01 X-0.3713 Y-36.1590
G01 X-0.3137 Y-36.1800
G01 X-0.2667 Y-36.1943
G01 X-0.2191 Y-36.2062
G01 X-0.1589 Y-36.2178
G01 X-0.1102 Y-36.2244
G01 X-0.0613 Y-36.2286
G01 X-0.0123 Y-36.2304
G01 X21.4751 Y-36.2305
G01 X21.4751 Y-52.7327
G01 X21.4758 Y-52.7695
G01 X21.4778 Y-52.8062
G01 X21.4812 Y-52.8429
G01 X21.4859 Y-52.8794
G01 X21.4920 Y-52.9157
G01 X21.4994 Y-52.9518
G01 X21.5081 Y-52.9875
G01 X21.5182 Y-53.0230
G01 X21.5295 Y-53.0580
G01 X21.5421 Y-53.0926
G01 X21.5560 Y-53.1267
G01 X21.5711 Y-53.1602
G01 X21.5875 Y-53.1932
G01 X21.6050 Y-53.2256
G01 X21.6238 Y-53.2573
G01 X21.6437 Y-53.2882
G01 X21.6647 Y-53.3185
G01 X21.6868 Y-53.3479
G01 X21.7100 Y-53.3765
G01 X21.7342 Y-53.4042
G01 X21.7594 Y-53.4311
G01 X21.7856 Y-53.4569
G01 X21.8127 Y-53.4818
G01 X21.8407 Y-53.5057
G01 X21.8696 Y-53.5285
G01 X21.9094 Y-53.5573
G01 X21.9401 Y-53.5775
G01 X21.9716 Y-53.5966
G01 X22.0037 Y-53.6146
G01 X22.0365 Y-53.6313
G01 X22.0699 Y-53.6469
G01 X22.1038 Y-53.6612
G01 X22.1382 Y-53.6742
G01 X22.1848 Y-53.6896
G01 X22.2203 Y-53.6997
G01 X22.2560 Y-53.7084
G01 X22.3042 Y-53.7180
G01 X22.3527 Y-53.7252
G01 X22.3893 Y-53.7290
G01 X22.4383 Y-53.7320
G01 X22.4751 Y-53.7327
G01 X49.4945 Y-53.7327
G01 X49.4946 Y-80.6123
G01 X49.4957 Y-80.6491
G01 X49.4982 Y-80.6858
G01 X49.5036 Y-80.7346
G01 X49.5092 Y-80.7710
G01 X49.5162 Y-80.8071
G01 X49.5245 Y-80.8430
G01 X49.5376 Y-80.8903
G01 X49.5489 Y-80.9253
G01 X49.5615 Y-80.9599
G01 X49.5754 Y-80.9940
G01 X49.5905 Y-81.0276
G01 X49.6069 Y-81.0605
G01 X49.6306 Y-81.1035
G01 X49.6497 Y-81.1350
G01 X49.6699 Y-81.1657
G01 X49.6913 Y-81.1957
G01 X49.7294 Y-81.2438
G01 X49.7619 Y-81.2806
G01 X49.7961 Y-81.3157
G01 X49.8414 Y-81.3572
G01 X49.8890 Y-81.3958
G01 X49.9390 Y-81.4315
G01 X49.9804 Y-81.4577
G01 X50.0340 Y-81.4876
G01 X50.0893 Y-81.5142
G01 X50.1461 Y-81.5373
G01 X50.1925 Y-81.5533
G01 X50.2515 Y-81.5700
G01 X50.3115 Y-81.5831
G01 X50.3721 Y-81.5925
G01 X50.4332 Y-81.5981
G01 X50.4823 Y-81.5999
G01 X69.3729 Y-81.5999
G01 X69.4221 Y-81.5981
G01 X69.4589 Y-81.5952
G01 X69.5078 Y-81.5891
G01 X69.5563 Y-81.5807
G01 X69.6044 Y-81.5698
G01 X69.6400 Y-81.5602
G01 X69.6753 Y-81.5492
G01 X69.7216 Y-81.5326
G01 X69.7558 Y-81.5186
G01 X69.8006 Y-81.4980
G01 X69.8442 Y-81.4753
G01 X69.8762 Y-81.4568
G01 X69.9178 Y-81.4304
G01 X69.9481 Y-81.4093
G01 X69.9775 Y-81.3870
G01 X70.0155 Y-81.3557
G01 X70.0430 Y-81.3310
G01 X70.0695 Y-81.3053
G01 X70.1116 Y-81.2603
G01 X70.1453 Y-81.2199
G01 X75.0397 Y-76.2478
G01 X75.0624 Y-76.2328
G01 X75.0926 Y-76.2114
G01 X75.1410 Y-76.1734
G01 X75.1871 Y-76.1325
G01 X75.2305 Y-76.0888
G01 X75.2553 Y-76.0613
G01 X75.2866 Y-76.0233
G01 X75.3161 Y-75.9838
G01 X75.3369 Y-75.9533
G01 X75.3566 Y-75.9220
G01 X75.3810 Y-75.8791
G01 X75.4032 Y-75.8351
G01 X75.4184 Y-75.8015
G01 X75.4324 Y-75.7672
G01 X75.4491 Y-75.7209
G01 X75.4635 Y-75.6737
G01 X75.4727 Y-75.6379
G01 X75.4806 Y-75.6018
G01 X75.4891 Y-75.5533
G01 X75.4939 Y-75.5166
G01 X75.4981 Y-75.4675
G01 X75.5000 Y-75.4059
G01 X75.5000 Y-4.7787
G01 X75.4993 Y-4.7421
G01 X75.4963 Y-4.6933
G01 X75.4910 Y-4.6447
G01 X75.4832 Y-4.5964
G01 X75.4732 Y-4.5486
G01 X75.4641 Y-4.5131
G01 X75.4499 Y-4.4663
G01 X75.4335 Y-4.4203
G01 X75.4198 Y-4.3863
G01 X75.3995 Y-4.3418
G01 X75.3771 Y-4.2984
G01 X75.3526 Y-4.2561
G01 X75.3260 Y-4.2151
G01 X75.3048 Y-4.1852
G01 X75.2748 Y-4.1465
G01 X75.2511 Y-4.1186
G01 X75.2180 Y-4.0827
G01 X75.1831 Y-4.0484
G01 X75.1466 Y-4.0159
G01 X75.1182 Y-3.9927
G01 X75.0791 Y-3.9634
G01 X75.0385 Y-3.9361
G01 X74.9967 Y-3.9108
G01 X74.9605 Y-3.8911
G01 X70.5737 Y0.4203
G01 X70.5525 Y0.4635
G01 X70.5287 Y0.5063
G01 X70.5029 Y0.5478
G01 X70.4751 Y0.5881
G01 X70.4454 Y0.6270
G01 X70.4138 Y0.6643
G01 X70.3804 Y0.7001
G01 X70.3453 Y0.7342
G01 X70.3179 Y0.7586
G01 X70.2800 Y0.7896
G01 X70.2406 Y0.8187
G01 X70.1999 Y0.8458
G01 X70.1685 Y0.8648
G01 X70.1256 Y0.8883
G01 X70.0927 Y0.9046
G01 X70.0479 Y0.9243
G01 X70.0023 Y0.9419
G01 X69.9675 Y0.9536
G01 X69.9323 Y0.9640
G01 X69.8848 Y0.9758
G01 X69.8368 Y0.9854
G01 X69.8005 Y0.9910
G01 X69.7641 Y0.9952
G01 X69.7153 Y0.9988
G01 X69.6664 Y1.0000
G01 X-0.0123 Y0.9999
G01 X-0.0613 Y0.9981
G01 X-0.1102 Y0.9939
G01 X-0.1589 Y0.9873
G01 X-0.2071 Y0.9783
G01 X-0.2549 Y0.9670
G01 X-0.3020 Y0.9533
G01 X-0.3484 Y0.9373
G01 X-0.3940 Y0.9191
G01 X-0.4276 Y0.9040
G01 X-0.4714 Y0.8819
G01 X-0.5141 Y0.8577
G01 X-0.5556 Y0.8315
G01 X-0.5957 Y0.8032
G01 X-0.6344 Y0.7730
G01 X-0.6716 Y0.7410
G01 X-0.7071 Y0.7071
G01 X-0.7410 Y0.6716
G01 X-0.7730 Y0.6344
G01 X-0.8032 Y0.5957
G01 X-0.8315 Y0.5556
G01 X-0.8577 Y0.5141
G01 X-0.8819 Y0.4714
G01 X-0.9040 Y0.4276
G01 X-0.9239 Y0.3827
G01 X-0.9415 Y0.3369
G01 X-0.9569 Y0.2903
G01 X-0.9700 Y0.2430
G01 X-0.9808 Y0.1951
G01 X-0.9892 Y0.1467
G01 X-0.9952 Y0.0980
G01 X-0.9988 Y0.0491
G01 X-1.0000 Y0.0000
G00 X-1.0000 Y0.0000
G01 F70.00
G01 Z-1.5000
G01 F120.00
G01 X-0.9999 Y-35.2427
G01 X-0.9981 Y-35.2918
G01 X-0.9952 Y-35.3285
G01 X-0.9892 Y-35.3772
G01 X-0.9808 Y-35.4256
G01 X-0.9700 Y-35.4735
G01 X-0.9604 Y-35.5090
G01 X-0.9495 Y-35.5442
G01 X-0.9330 Y-35.5904
G01 X-0.9142 Y-35.6357
G01 X-0.8987 Y-35.6691
G01 X-0.8819 Y-35.7019
G01 X-0.8577 Y-35.7446
G01 X-0.8382 Y-35.7758
G01 X-0.8105 Y-35.8163
G01 X-0.7883 Y-35.8457
G01 X-0.7572 Y-35.8836
G01 X-0.7157 Y-35.9289
G01 X-0.6806 Y-35.9631
G01 X-0.6438 Y-35.9956
G01 X-0.6055 Y-36.0263
G01 X-0.5657 Y-36.0551
G01 X-0.5141 Y-36.0882
G01 X-0.4714 Y-36.1124
G01 X-0.4164 Y-36.1396
G01 X-0.3713 Y-36.1590
G01 X-0.3137 Y-36.1800
G01 X-0.2667 Y-36.1943
G01 X-0.2191 Y-36.2062
G01 X-0.1589 Y-36.2178
G01 X-0.1102 Y-36.2244
G01 X-0.0613 Y-36.2286
G01 X-0.0123 Y-36.2304
G01 X21.4751 Y-36.2305
G01 X21.4751 Y-52.7327
G01 X21.4758 Y-52.7695
G01 X21.4778 Y-52.8062
G01 X21.4812 Y-52.8429
G01 X21.4859 Y-52.8794
G01 X21.4920 Y-52.9157
G01 X21.4994 Y-52.9518
G01 X21.5081 Y-52.9875
G01 X21.5182 Y-53.0230
G01 X21.5295 Y-53.0580
G01 X21.5421 Y-53.0926
G01 X21.5560 Y-53.1267
G01 X21.5711 Y-53.1602
G01 X21.5875 Y-53.1932
G01 X21.6050 Y-53.2256
G01 X21.6238 Y-53.2573
G01 X21.6437 Y-53.2882
G01 X21.6647 Y-53.3185
G01 X21.6868 Y-53.3479
G01 X21.7100 Y-53.3765
G01 X21.7342 Y-53.4042
G01 X21.7594 Y-53.4311
G01 X21.7856 Y-53.4569
G01 X21.8127 Y-53.4818
G01 X21.8407 Y-53.5057
G01 X21.8696 Y-53.5285
G01 X21.9094 Y-53.5573
G01 X21.9401 Y-53.5775
G01 X21.9716 Y-53.5966
G01 X22.0037 Y-53.6146
G01 X22.0365 Y-53.6313
G01 X22.0699 Y-53.6469
G01 X22.1038 Y-53.6612
G01 X22.1382 Y-53.6742
G01 X22.1848 Y-53.6896
G01 X22.2203 Y-53.6997
G01 X22.2560 Y-53.7084
G01 X22.3042 Y-53.7180
G01 X22.3527 Y-53.7252
G01 X22.3893 Y-53.7290
G01 X22.4383 Y-53.7320
G01 X22.4751 Y-53.7327
G01 X49.4945 Y-53.7327
G01 X49.4946 Y-80.6123
G01 X49.4957 Y-80.6491
G01 X49.4982 Y-80.6858
G01 X49.5036 Y-80.7346
G01 X49.5092 Y-80.7710
G01 X49.5162 Y-80.8071
G01 X49.5245 Y-80.8430
G01 X49.5376 Y-80.8903
G01 X49.5489 Y-80.9253
G01 X49.5615 Y-80.9599
G01 X49.5754 Y-80.9940
G01 X49.5905 Y-81.0276
G01 X49.6069 Y-81.0605
G01 X49.6306 Y-81.1035
G01 X49.6497 Y-81.1350
G01 X49.6699 Y-81.1657
G01 X49.6913 Y-81.1957
G01 X49.7294 Y-81.2438
G01 X49.7619 Y-81.2806
G01 X49.7961 Y-81.3157
G01 X49.8414 Y-81.3572
G01 X49.8890 Y-81.3958
G01 X49.9390 Y-81.4315
G01 X49.9804 Y-81.4577
G01 X50.0340 Y-81.4876
G01 X50.0893 Y-81.5142
G01 X50.1461 Y-81.5373
G01 X50.1925 Y-81.5533
G01 X50.2515 Y-81.5700
G01 X50.3115 Y-81.5831
G01 X50.3721 Y-81.5925
G01 X50.4332 Y-81.5981
G01 X50.4823 Y-81.5999
G01 X69.3729 Y-81.5999
G01 X69.4221 Y-81.5981
G01 X69.4589 Y-81.5952
G01 X69.5078 Y-81.5891
G01 X69.5563 Y-81.5807
G01 X69.6044 Y-81.5698
G01 X69.6400 Y-81.5602
G01 X69.6753 Y-81.5492
G01 X69.7216 Y-81.5326
G01 X69.7558 Y-81.5186
G01 X69.8006 Y-81.4980
G01 X69.8442 Y-81.4753
G01 X69.8762 Y-81.4568
G01 X69.9178 Y-81.4304
G01 X69.9481 Y-81.4093
G01 X69.9775 Y-81.3870
G01 X70.0155 Y-81.3557
G01 X70.0430 Y-81.3310
G01 X70.0695 Y-81.3053
G01 X70.1116 Y-81.2603
G01 X70.1453 Y-81.2199
G01 X75.0397 Y-76.2478
G01 X75.0624 Y-76.2328
G01 X75.0926 Y-76.2114
G01 X75.1410 Y-76.1734
G01 X75.1871 Y-76.1325
G01 X75.2305 Y-76.0888
G01 X75.2553 Y-76.0613
G01 X75.2866 Y-76.0233
G01 X75.3161 Y-75.9838
G01 X75.3369 Y-75.9533
G01 X75.3566 Y-75.9220
G01 X75.3810 Y-75.8791
G01 X75.4032 Y-75.8351
G01 X75.4184 Y-75.8015
G01 X75.4324 Y-75.7672
G01 X75.4491 Y-75.7209
G01 X75.4635 Y-75.6737
G01 X75.4727 Y-75.6379
G01 X75.4806 Y-75.6018
G01 X75.4891 Y-75.5533
G01 X75.4939 Y-75.5166
G01 X75.4981 Y-75.4675
G01 X75.5000 Y-75.4059
G01 X75.5000 Y-4.7787
G01 X75.4993 Y-4.7421
G01 X75.4963 Y-4.6933
G01 X75.4910 Y-4.6447
G01 X75.4832 Y-4.5964
G01 X75.4732 Y-4.5486
G01 X75.4641 Y-4.5131
G01 X75.4499 Y-4.4663
G01 X75.4335 Y-4.4203
G01 X75.4198 Y-4.3863
G01 X75.3995 Y-4.3418
G01 X75.3771 Y-4.2984
G01 X75.3526 Y-4.2561
G01 X75.3260 Y-4.2151
G01 X75.3048 Y-4.1852
G01 X75.2748 Y-4.1465
G01 X75.2511 Y-4.1186
G01 X75.2180 Y-4.0827
G01 X75.1831 Y-4.0484
G01 X75.1466 Y-4.0159
G01 X75.1182 Y-3.9927
G01 X75.0791 Y-3.9634
G01 X75.0385 Y-3.9361
G01 X74.9967 Y-3.9108
G01 X74.9605 Y-3.8911
G01 X70.5737 Y0.4203
G01 X70.5525 Y0.4635
G01 X70.5287 Y0.5063
G01 X70.5029 Y0.5478
G01 X70.4751 Y0.5881
G01 X70.4454 Y0.6270
G01 X70.4138 Y0.6643
G01 X70.3804 Y0.7001
G01 X70.3453 Y0.7342
G01 X70.3179 Y0.7586
G01 X70.2800 Y0.7896
G01 X70.2406 Y0.8187
G01 X70.1999 Y0.8458
G01 X70.1685 Y0.8648
G01 X70.1256 Y0.8883
G01 X70.0927 Y0.9046
G01 X70.0479 Y0.9243
G01 X70.0023 Y0.9419
G01 X69.9675 Y0.9536
G01 X69.9323 Y0.9640
G01 X69.8848 Y0.9758
G01 X69.8368 Y0.9854
G01 X69.8005 Y0.9910
G01 X69.7641 Y0.9952
G01 X69.7153 Y0.9988
G01 X69.6664 Y1.0000
G01 X-0.0123 Y0.9999
G01 X-0.0613 Y0.9981
G01 X-0.1102 Y0.9939
G01 X-0.1589 Y0.9873
G01 X-0.2071 Y0.9783
G01 X-0.2549 Y0.9670
G01 X-0.3020 Y0.9533
G01 X-0.3484 Y0.9373
G01 X-0.3940 Y0.9191
G01 X-0.4276 Y0.9040
G01 X-0.4714 Y0.8819
G01 X-0.5141 Y0.8577
G01 X-0.5556 Y0.8315
G01 X-0.5957 Y0.8032
G01 X-0.6344 Y0.7730
G01 X-0.6716 Y0.7410
G01 X-0.7071 Y0.7071
G01 X-0.7410 Y0.6716
G01 X-0.7730 Y0.6344
G01 X-0.8032 Y0.5957
G01 X-0.8315 Y0.5556
G01 X-0.8577 Y0.5141
G01 X-0.8819 Y0.4714
G01 X-0.9040 Y0.4276
G01 X-0.9239 Y0.3827
G01 X-0.9415 Y0.3369
G01 X-0.9569 Y0.2903
G01 X-0.9700 Y0.2430
G01 X-0.9808 Y0.1951
G01 X-0.9892 Y0.1467
G01 X-0.9952 Y0.0980
G01 X-0.9988 Y0.0491
G01 X-1.0000 Y0.0000
G00 X-1.0000 Y0.0000
G01 F70.00
G01 Z-1.6000
G01 F120.00
G01 X-0.9999 Y-35.2427
G01 X-0.9981 Y-35.2918
G01 X-0.9952 Y-35.3285
G01 X-0.9892 Y-35.3772
G01 X-0.9808 Y-35.4256
G01 X-0.9700 Y-35.4735
G01 X-0.9604 Y-35.5090
G01 X-0.9495 Y-35.5442
G01 X-0.9330 Y-35.5904
G01 X-0.9142 Y-35.6357
G01 X-0.8987 Y-35.6691
G01 X-0.8819 Y-35.7019
G01 X-0.8577 Y-35.7446
G01 X-0.8382 Y-35.7758
G01 X-0.8105 Y-35.8163
G01 X-0.7883 Y-35.8457
G01 X-0.7572 Y-35.8836
G01 X-0.7157 Y-35.9289
G01 X-0.6806 Y-35.9631
G01 X-0.6438 Y-35.9956
G01 X-0.6055 Y-36.0263
G01 X-0.5657 Y-36.0551
G01 X-0.5141 Y-36.0882
G01 X-0.4714 Y-36.1124
G01 X-0.4164 Y-36.1396
G01 X-0.3713 Y-36.1590
G01 X-0.3137 Y-36.1800
G01 X-0.2667 Y-36.1943
G01 X-0.2191 Y-36.2062
G01 X-0.1589 Y-36.2178
G01 X-0.1102 Y-36.2244
G01 X-0.0613 Y-36.2286
G01 X-0.0123 Y-36.2304
G01 X21.4751 Y-36.2305
G01 X21.4751 Y-52.7327
G01 X21.4758 Y-52.7695
G01 X21.4778 Y-52.8062
G01 X21.4812 Y-52.8429
G01 X21.4859 Y-52.8794
G01 X21.4920 Y-52.9157
G01 X21.4994 Y-52.9518
G01 X21.5081 Y-52.9875
G01 X21.5182 Y-53.0230
G01 X21.5295 Y-53.0580
G01 X21.5421 Y-53.0926
G01 X21.5560 Y-53.1267
G01 X21.5711 Y-53.1602
G01 X21.5875 Y-53.1932
G01 X21.6050 Y-53.2256
G01 X21.6238 Y-53.2573
G01 X21.6437 Y-53.2882
G01 X21.6647 Y-53.3185
G01 X21.6868 Y-53.3479
G01 X21.7100 Y-53.3765
G01 X21.7342 Y-53.4042
G01 X21.7594 Y-53.4311
G01 X21.7856 Y-53.4569
G01 X21.8127 Y-53.4818
G01 X21.8407 Y-53.5057
G01 X21.8696 Y-53.5285
G01 X21.9094 Y-53.5573
G01 X21.9401 Y-53.5775
G01 X21.9716 Y-53.5966
G01 X22.0037 Y-53.6146
G01 X22.0365 Y-53.6313
G01 X22.0699 Y-53.6469
G01 X22.1038 Y-53.6612
G01 X22.1382 Y-53.6742
G01 X22.1848 Y-53.6896
G01 X22.2203 Y-53.6997
G01 X22.2560 Y-53.7084
G01 X22.3042 Y-53.7180
G01 X22.3527 Y-53.7252
G01 X22.3893 Y-53.7290
G01 X22.4383 Y-53.7320
G01 X22.4751 Y-53.7327
G01 X49.4945 Y-53.7327
G01 X49.4946 Y-80.6123
G01 X49.4957 Y-80.6491
G01 X49.4982 Y-80.6858
G01 X49.5036 Y-80.7346
G01 X49.5092 Y-80.7710
G01 X49.5162 Y-80.8071
G01 X49.5245 Y-80.8430
G01 X49.5376 Y-80.8903
G01 X49.5489 Y-80.9253
G01 X49.5615 Y-80.9599
G01 X49.5754 Y-80.9940
G01 X49.5905 Y-81.0276
G01 X49.6069 Y-81.0605
G01 X49.6306 Y-81.1035
G01 X49.6497 Y-81.1350
G01 X49.6699 Y-81.1657
G01 X49.6913 Y-81.1957
G01 X49.7294 Y-81.2438
G01 X49.7619 Y-81.2806
G01 X49.7961 Y-81.3157
G01 X49.8414 Y-81.3572
G01 X49.8890 Y-81.3958
G01 X49.9390 Y-81.4315
G01 X49.9804 Y-81.4577
G01 X50.0340 Y-81.4876
G01 X50.0893 Y-81.5142
G01 X50.1461 Y-81.5373
G01 X50.1925 Y-81.5533
G01 X50.2515 Y-81.5700
G01 X50.3115 Y-81.5831
G01 X50.3721 Y-81.5925
G01 X50.4332 Y-81.5981
G01 X50.4823 Y-81.5999
G01 X69.3729 Y-81.5999
G01 X69.4221 Y-81.5981
G01 X69.4589 Y-81.5952
G01 X69.5078 Y-81.5891
G01 X69.5563 Y-81.5807
G01 X69.6044 Y-81.5698
G01 X69.6400 Y-81.5602
G01 X69.6753 Y-81.5492
G01 X69.7216 Y-81.5326
G01 X69.7558 Y-81.5186
G01 X69.8006 Y-81.4980
G01 X69.8442 Y-81.4753
G01 X69.8762 Y-81.4568
G01 X69.9178 Y-81.4304
G01 X69.9481 Y-81.4093
G01 X69.9775 Y-81.3870
G01 X70.0155 Y-81.3557
G01 X70.0430 Y-81.3310
G01 X70.0695 Y-81.3053
G01 X70.1116 Y-81.2603
G01 X70.1453 Y-81.2199
G01 X75.0397 Y-76.2478
G01 X75.0624 Y-76.2328
G01 X75.0926 Y-76.2114
G01 X75.1410 Y-76.1734
G01 X75.1871 Y-76.1325
G01 X75.2305 Y-76.0888
G01 X75.2553 Y-76.0613
G01 X75.2866 Y-76.0233
G01 X75.3161 Y-75.9838
G01 X75.3369 Y-75.9533
G01 X75.3566 Y-75.9220
G01 X75.3810 Y-75.8791
G01 X75.4032 Y-75.8351
G01 X75.4184 Y-75.8015
G01 X75.4324 Y-75.7672
G01 X75.4491 Y-75.7209
G01 X75.4635 Y-75.6737
G01 X75.4727 Y-75.6379
G01 X75.4806 Y-75.6018
G01 X75.4891 Y-75.5533
G01 X75.4939 Y-75.5166
G01 X75.4981 Y-75.4675
G01 X75.5000 Y-75.4059
G01 X75.5000 Y-4.7787
G01 X75.4993 Y-4.7421
G01 X75.4963 Y-4.6933
G01 X75.4910 Y-4.6447
G01 X75.4832 Y-4.5964
G01 X75.4732 Y-4.5486
G01 X75.4641 Y-4.5131
G01 X75.4499 Y-4.4663
G01 X75.4335 Y-4.4203
G01 X75.4198 Y-4.3863
G01 X75.3995 Y-4.3418
G01 X75.3771 Y-4.2984
G01 X75.3526 Y-4.2561
G01 X75.3260 Y-4.2151
G01 X75.3048 Y-4.1852
G01 X75.2748 Y-4.1465
G01 X75.2511 Y-4.1186
G01 X75.2180 Y-4.0827
G01 X75.1831 Y-4.0484
G01 X75.1466 Y-4.0159
G01 X75.1182 Y-3.9927
G01 X75.0791 Y-3.9634
G01 X75.0385 Y-3.9361
G01 X74.9967 Y-3.9108
G01 X74.9605 Y-3.8911
G01 X70.5737 Y0.4203
G01 X70.5525 Y0.4635
G01 X70.5287 Y0.5063
G01 X70.5029 Y0.5478
G01 X70.4751 Y0.5881
G01 X70.4454 Y0.6270
G01 X70.4138 Y0.6643
G01 X70.3804 Y0.7001
G01 X70.3453 Y0.7342
G01 X70.3179 Y0.7586
G01 X70.2800 Y0.7896
G01 X70.2406 Y0.8187
G01 X70.1999 Y0.8458
G01 X70.1685 Y0.8648
G01 X70.1256 Y0.8883
G01 X70.0927 Y0.9046
G01 X70.0479 Y0.9243
G01 X70.0023 Y0.9419
G01 X69.9675 Y0.9536
G01 X69.9323 Y0.9640
G01 X69.8848 Y0.9758
G01 X69.8368 Y0.9854
G01 X69.8005 Y0.9910
G01 X69.7641 Y0.9952
G01 X69.7153 Y0.9988
G01 X69.6664 Y1.0000
G01 X-0.0123 Y0.9999
G01 X-0.0613 Y0.9981
G01 X-0.1102 Y0.9939
G01 X-0.1589 Y0.9873
G01 X-0.2071 Y0.9783
G01 X-0.2549 Y0.9670
G01 X-0.3020 Y0.9533
G01 X-0.3484 Y0.9373
G01 X-0.3940 Y0.9191
G01 X-0.4276 Y0.9040
G01 X-0.4714 Y0.8819
G01 X-0.5141 Y0.8577
G01 X-0.5556 Y0.8315
G01 X-0.5957 Y0.8032
G01 X-0.6344 Y0.7730
G01 X-0.6716 Y0.7410
G01 X-0.7071 Y0.7071
G01 X-0.7410 Y0.6716
G01 X-0.7730 Y0.6344
G01 X-0.8032 Y0.5957
G01 X-0.8315 Y0.5556
G01 X-0.8577 Y0.5141
G01 X-0.8819 Y0.4714
G01 X-0.9040 Y0.4276
G01 X-0.9239 Y0.3827
G01 X-0.9415 Y0.3369
G01 X-0.9569 Y0.2903
G01 X-0.9700 Y0.2430
G01 X-0.9808 Y0.1951
G01 X-0.9892 Y0.1467
G01 X-0.9952 Y0.0980
G01 X-0.9988 Y0.0491
G01 X-1.0000 Y0.0000
G00 X-1.0000 Y0.0000
G01 F70.00
G01 Z-1.7000
G01 F120.00
G01 X-0.9999 Y-35.2427
G01 X-0.9981 Y-35.2918
G01 X-0.9952 Y-35.3285
G01 X-0.9892 Y-35.3772
G01 X-0.9808 Y-35.4256
G01 X-0.9700 Y-35.4735
G01 X-0.9604 Y-35.5090
G01 X-0.9495 Y-35.5442
G01 X-0.9330 Y-35.5904
G01 X-0.9142 Y-35.6357
G01 X-0.8987 Y-35.6691
G01 X-0.8819 Y-35.7019
G01 X-0.8577 Y-35.7446
G01 X-0.8382 Y-35.7758
G01 X-0.8105 Y-35.8163
G01 X-0.7883 Y-35.8457
G01 X-0.7572 Y-35.8836
G01 X-0.7157 Y-35.9289
G01 X-0.6806 Y-35.9631
G01 X-0.6438 Y-35.9956
G01 X-0.6055 Y-36.0263
G01 X-0.5657 Y-36.0551
G01 X-0.5141 Y-36.0882
G01 X-0.4714 Y-36.1124
G01 X-0.4164 Y-36.1396
G01 X-0.3713 Y-36.1590
G01 X-0.3137 Y-36.1800
G01 X-0.2667 Y-36.1943
G01 X-0.2191 Y-36.2062
G01 X-0.1589 Y-36.2178
G01 X-0.1102 Y-36.2244
G01 X-0.0613 Y-36.2286
G01 X-0.0123 Y-36.2304
G01 X21.4751 Y-36.2305
G01 X21.4751 Y-52.7327
G01 X21.4758 Y-52.7695
G01 X21.4778 Y-52.8062
G01 X21.4812 Y-52.8429
G01 X21.4859 Y-52.8794
G01 X21.4920 Y-52.9157
G01 X21.4994 Y-52.9518
G01 X21.5081 Y-52.9875
G01 X21.5182 Y-53.0230
G01 X21.5295 Y-53.0580
G01 X21.5421 Y-53.0926
G01 X21.5560 Y-53.1267
G01 X21.5711 Y-53.1602
G01 X21.5875 Y-53.1932
G01 X21.6050 Y-53.2256
G01 X21.6238 Y-53.2573
G01 X21.6437 Y-53.2882
G01 X21.6647 Y-53.3185
G01 X21.6868 Y-53.3479
G01 X21.7100 Y-53.3765
G01 X21.7342 Y-53.4042
G01 X21.7594 Y-53.4311
G01 X21.7856 Y-53.4569
G01 X21.8127 Y-53.4818
G01 X21.8407 Y-53.5057
G01 X21.8696 Y-53.5285
G01 X21.9094 Y-53.5573
G01 X21.9401 Y-53.5775
G01 X21.9716 Y-53.5966
G01 X22.0037 Y-53.6146
G01 X22.0365 Y-53.6313
G01 X22.0699 Y-53.6469
G01 X22.1038 Y-53.6612
G01 X22.1382 Y-53.6742
G01 X22.1848 Y-53.6896
G01 X22.2203 Y-53.6997
G01 X22.2560 Y-53.7084
G01 X22.3042 Y-53.7180
G01 X22.3527 Y-53.7252
G01 X22.3893 Y-53.7290
G01 X22.4383 Y-53.7320
G01 X22.4751 Y-53.7327
G01 X49.4945 Y-53.7327
G01 X49.4946 Y-80.6123
G01 X49.4957 Y-80.6491
G01 X49.4982 Y-80.6858
G01 X49.5036 Y-80.7346
G01 X49.5092 Y-80.7710
G01 X49.5162 Y-80.8071
G01 X49.5245 Y-80.8430
G01 X49.5376 Y-80.8903
G01 X49.5489 Y-80.9253
G01 X49.5615 Y-80.9599
G01 X49.5754 Y-80.9940
G01 X49.5905 Y-81.0276
G01 X49.6069 Y-81.0605
G01 X49.6306 Y-81.1035
G01 X49.6497 Y-81.1350
G01 X49.6699 Y-81.1657
G01 X49.6913 Y-81.1957
G01 X49.7294 Y-81.2438
G01 X49.7619 Y-81.2806
G01 X49.7961 Y-81.3157
G01 X49.8414 Y-81.3572
G01 X49.8890 Y-81.3958
G01 X49.9390 Y-81.4315
G01 X49.9804 Y-81.4577
G01 X50.0340 Y-81.4876
G01 X50.0893 Y-81.5142
G01 X50.1461 Y-81.5373
G01 X50.1925 Y-81.5533
G01 X50.2515 Y-81.5700
G01 X50.3115 Y-81.5831
G01 X50.3721 Y-81.5925
G01 X50.4332 Y-81.5981
G01 X50.4823 Y-81.5999
G01 X69.3729 Y-81.5999
G01 X69.4221 Y-81.5981
G01 X69.4589 Y-81.5952
G01 X69.5078 Y-81.5891
G01 X69.5563 Y-81.5807
G01 X69.6044 Y-81.5698
G01 X69.6400 Y-81.5602
G01 X69.6753 Y-81.5492
G01 X69.7216 Y-81.5326
G01 X69.7558 Y-81.5186
G01 X69.8006 Y-81.4980
G01 X69.8442 Y-81.4753
G01 X69.8762 Y-81.4568
G01 X69.9178 Y-81.4304
G01 X69.9481 Y-81.4093
G01 X69.9775 Y-81.3870
G01 X70.0155 Y-81.3557
G01 X70.0430 Y-81.3310
G01 X70.0695 Y-81.3053
G01 X70.1116 Y-81.2603
G01 X70.1453 Y-81.2199
G01 X75.0397 Y-76.2478
G01 X75.0624 Y-76.2328
G01 X75.0926 Y-76.2114
G01 X75.1410 Y-76.1734
G01 X75.1871 Y-76.1325
G01 X75.2305 Y-76.0888
G01 X75.2553 Y-76.0613
G01 X75.2866 Y-76.0233
G01 X75.3161 Y-75.9838
G01 X75.3369 Y-75.9533
G01 X75.3566 Y-75.9220
G01 X75.3810 Y-75.8791
G01 X75.4032 Y-75.8351
G01 X75.4184 Y-75.8015
G01 X75.4324 Y-75.7672
G01 X75.4491 Y-75.7209
G01 X75.4635 Y-75.6737
G01 X75.4727 Y-75.6379
G01 X75.4806 Y-75.6018
G01 X75.4891 Y-75.5533
G01 X75.4939 Y-75.5166
G01 X75.4981 Y-75.4675
G01 X75.5000 Y-75.4059
G01 X75.5000 Y-4.7787
G01 X75.4993 Y-4.7421
G01 X75.4963 Y-4.6933
G01 X75.4910 Y-4.6447
G01 X75.4832 Y-4.5964
G01 X75.4732 Y-4.5486
G01 X75.4641 Y-4.5131
G01 X75.4499 Y-4.4663
G01 X75.4335 Y-4.4203
G01 X75.4198 Y-4.3863
G01 X75.3995 Y-4.3418
G01 X75.3771 Y-4.2984
G01 X75.3526 Y-4.2561
G01 X75.3260 Y-4.2151
G01 X75.3048 Y-4.1852
G01 X75.2748 Y-4.1465
G01 X75.2511 Y-4.1186
G01 X75.2180 Y-4.0827
G01 X75.1831 Y-4.0484
G01 X75.1466 Y-4.0159
G01 X75.1182 Y-3.9927
G01 X75.0791 Y-3.9634
G01 X75.0385 Y-3.9361
G01 X74.9967 Y-3.9108
G01 X74.9605 Y-3.8911
G01 X70.5737 Y0.4203
G01 X70.5525 Y0.4635
G01 X70.5287 Y0.5063
G01 X70.5029 Y0.5478
G01 X70.4751 Y0.5881
G01 X70.4454 Y0.6270
G01 X70.4138 Y0.6643
G01 X70.3804 Y0.7001
G01 X70.3453 Y0.7342
G01 X70.3179 Y0.7586
G01 X70.2800 Y0.7896
G01 X70.2406 Y0.8187
G01 X70.1999 Y0.8458
G01 X70.1685 Y0.8648
G01 X70.1256 Y0.8883
G01 X70.0927 Y0.9046
G01 X70.0479 Y0.9243
G01 X70.0023 Y0.9419
G01 X69.9675 Y0.9536
G01 X69.9323 Y0.9640
G01 X69.8848 Y0.9758
G01 X69.8368 Y0.9854
G01 X69.8005 Y0.9910
G01 X69.7641 Y0.9952
G01 X69.7153 Y0.9988
G01 X69.6664 Y1.0000
G01 X-0.0123 Y0.9999
G01 X-0.0613 Y0.9981
G01 X-0.1102 Y0.9939
G01 X-0.1589 Y0.9873
G01 X-0.2071 Y0.9783
G01 X-0.2549 Y0.9670
G01 X-0.3020 Y0.9533
G01 X-0.3484 Y0.9373
G01 X-0.3940 Y0.9191
G01 X-0.4276 Y0.9040
G01 X-0.4714 Y0.8819
G01 X-0.5141 Y0.8577
G01 X-0.5556 Y0.8315
G01 X-0.5957 Y0.8032
G01 X-0.6344 Y0.7730
G01 X-0.6716 Y0.7410
G01 X-0.7071 Y0.7071
G01 X-0.7410 Y0.6716
G01 X-0.7730 Y0.6344
G01 X-0.8032 Y0.5957
G01 X-0.8315 Y0.5556
G01 X-0.8577 Y0.5141
G01 X-0.8819 Y0.4714
G01 X-0.9040 Y0.4276
G01 X-0.9239 Y0.3827
G01 X-0.9415 Y0.3369
G01 X-0.9569 Y0.2903
G01 X-0.9700 Y0.2430
G01 X-0.9808 Y0.1951
G01 X-0.9892 Y0.1467
G01 X-0.9952 Y0.0980
G01 X-0.9988 Y0.0491
G01 X-1.0000 Y0.0000
G00 Z2.0000
M05
G00 Z2.0000
G00 Z25.00

