(G-CODE GENERATED BY FLATCAM v8.993 - www.flatcam.org - Version Date: 2020/06/05)

(Name: LPF.drl_cnc)
(Type: G-code from Excellon)
(Units: MM)

(Created on Sunday, 27 September 2020 at 16:01)

(This preprocessor is the default preprocessor used by FlatCAM.)
(It is made to work with MACH3 compatible motion controllers.)


(TOOLS DIAMETER: )
(Tool: 1 -> Dia: 0.5)
(Tool: 2 -> Dia: 0.8)

(FEEDRATE Z: )
(Tool: 1 -> Feedrate: 300)
(Tool: 2 -> Feedrate: 300)

(FEEDRATE RAPIDS: )
(Tool: 1 -> Feedrate Rapids: 1500)
(Tool: 2 -> Feedrate Rapids: 1500)

(Z_CUT: )
(Tool: 1 -> Z_Cut: -1.7)
(Tool: 2 -> Z_Cut: -1.7)

(Tools Offset: )
(Tool: 1 -> Offset Z: -0.0)
(Tool: 2 -> Offset Z: -0.0)

(Z_MOVE: )
(Tool: 1 -> Z_Move: 2)
(Tool: 2 -> Z_Move: 2)

(Z Start: None mm)
(Z End: 2.0 mm)
(Steps per circle: 128)
(Preprocessor Excellon: default)

(X range:    2.2600 ...   37.6600  mm)
(Y range:   -7.7100 ...   -2.2100  mm)

(Spindle Speed: None RPM)
G21
G90
G94



G00 Z2.0000

G01 F300.00
M03
G00 X7.4600 Y-7.4600
G01 Z-1.7000
G01 Z0
G00 Z2.0000
G00 X9.9600 Y-7.4600
G01 Z-1.7000
G01 Z0
G00 Z2.0000
G00 X12.4600 Y-7.4600
G01 Z-1.7000
G01 Z0
G00 Z2.0000
G00 X17.4600 Y-7.4600
G01 Z-1.7000
G01 Z0
G00 Z2.0000
G00 X19.9600 Y-7.4600
G01 Z-1.7000
G01 Z0
G00 Z2.0000
G00 X22.4600 Y-7.4600
G01 Z-1.7000
G01 Z0
G00 Z2.0000
G00 X27.4600 Y-7.4600
G01 Z-1.7000
G01 Z0
G00 Z2.0000
G00 X29.9600 Y-7.4600
G01 Z-1.7000
G01 Z0
G00 Z2.0000
G00 X32.4600 Y-7.4600
G01 Z-1.7000
G01 Z0
G00 Z2.0000
G00 X32.4600 Y-2.4600
G01 Z-1.7000
G01 Z0
G00 Z2.0000
G00 X27.4600 Y-2.4600
G01 Z-1.7000
G01 Z0
G00 Z2.0000
G00 X22.4600 Y-2.4600
G01 Z-1.7000
G01 Z0
G00 Z2.0000
G00 X17.4600 Y-2.4600
G01 Z-1.7000
G01 Z0
G00 Z2.0000
G00 X12.4600 Y-2.4600
G01 Z-1.7000
G01 Z0
G00 Z2.0000
G00 X7.4600 Y-2.4600
G01 Z-1.7000
G01 Z0
G00 Z2.0000
G01 F300.00
M03
G00 X2.6600 Y-5.9600
G01 Z-1.7000
G01 Z0
G00 Z2.0000
G00 X2.6600 Y-3.4200
G01 Z-1.7000
G01 Z0
G00 Z2.0000
G00 X37.2600 Y-5.9600
G01 Z-1.7000
G01 Z0
G00 Z2.0000
G00 X37.2600 Y-3.4200
G01 Z-1.7000
G01 Z0
G00 Z2.0000
M05
G00 Z2.00

