(G-CODE GENERATED BY FLATCAM v8.993 - www.flatcam.org - Version Date: 2020/06/05)

(Name: LPF_SMD_Ф1_верх.gbr_iso_combined_cnc)
(Type: G-code from Geometry)
(Units: MM)

(Created on Tuesday, 24 November 2020 at 01:24)

(This preprocessor is the default preprocessor used by FlatCAM.)
(It is made to work with MACH3 compatible motion controllers.)

(TOOL DIAMETER: 0.14 mm)
(Feedrate_XY: 120.0 mm/min)
(Feedrate_Z: 70.0 mm/min)
(Feedrate rapids 1500.0 mm/min)

(Z_Cut: -0.06 mm)
(Z_Move: 2.0 mm)
(Z Start: None mm)
(Z End: 25.0 mm)
(Steps per circle: 128)
(Preprocessor Geometry: default)

(X range:    1.0850 ...   30.9250  mm)
(Y range:   -7.9625 ...   -0.8925  mm)

(Spindle Speed: 10000 RPM)
G21
G90
G94



G01 F120.00
G00 Z2.0000

M03 S10000
G00 X5.1431 Y-1.0325
G01 F70.00
G01 Z-0.0600
G01 F120.00
G01 X5.1268 Y-1.0411
G01 X5.1116 Y-1.0508
G01 X5.0973 Y-1.0618
G01 X5.0840 Y-1.0740
G01 X5.0718 Y-1.0873
G01 X5.0608 Y-1.1016
G01 X5.0511 Y-1.1168
G01 X5.0425 Y-1.1331
G01 X5.0425 Y-1.0325
G01 X5.1431 Y-1.0325
G00 Z2.0000
G00 X7.0225 Y-1.1331
G01 F70.00
G01 Z-0.0600
G01 F120.00
G01 X7.0139 Y-1.1168
G01 X7.0042 Y-1.1016
G01 X6.9932 Y-1.0873
G01 X6.9810 Y-1.0740
G01 X6.9677 Y-1.0618
G01 X6.9534 Y-1.0508
G01 X6.9382 Y-1.0411
G01 X6.9219 Y-1.0325
G01 X7.0225 Y-1.0325
G01 X7.0225 Y-1.1331
G00 Z2.0000
G00 X7.9431 Y-1.0325
G01 F70.00
G01 Z-0.0600
G01 F120.00
G01 X7.9268 Y-1.0411
G01 X7.9116 Y-1.0508
G01 X7.8973 Y-1.0618
G01 X7.8840 Y-1.0740
G01 X7.8718 Y-1.0873
G01 X7.8608 Y-1.1016
G01 X7.8511 Y-1.1168
G01 X7.8425 Y-1.1331
G01 X7.8425 Y-1.0325
G01 X7.9431 Y-1.0325
G00 Z2.0000
G00 X9.8225 Y-1.1331
G01 F70.00
G01 Z-0.0600
G01 F120.00
G01 X9.8139 Y-1.1168
G01 X9.8042 Y-1.1016
G01 X9.7932 Y-1.0873
G01 X9.7810 Y-1.0740
G01 X9.7677 Y-1.0618
G01 X9.7534 Y-1.0508
G01 X9.7382 Y-1.0411
G01 X9.7219 Y-1.0325
G01 X9.8225 Y-1.0325
G01 X9.8225 Y-1.1331
G00 Z2.0000
G00 X9.9435 Y-1.7123
G01 F70.00
G01 Z-0.0600
G01 F120.00
G01 X9.8425 Y-1.7123
G01 X9.8425 Y-1.6116
G01 X9.8511 Y-1.6279
G01 X9.8608 Y-1.6431
G01 X9.8718 Y-1.6574
G01 X9.8840 Y-1.6706
G01 X9.8973 Y-1.6828
G01 X9.9116 Y-1.6938
G01 X9.9268 Y-1.7036
G01 X9.9435 Y-1.7123
G00 Z2.0000
G00 X10.7375 Y-1.6116
G01 F70.00
G01 Z-0.0600
G01 F120.00
G01 X10.7375 Y-1.7124
G01 X10.6365 Y-1.7124
G01 X10.6532 Y-1.7036
G01 X10.6684 Y-1.6938
G01 X10.6827 Y-1.6828
G01 X10.6960 Y-1.6706
G01 X10.7082 Y-1.6574
G01 X10.7192 Y-1.6431
G01 X10.7289 Y-1.6279
G01 X10.7375 Y-1.6116
G00 Z2.0000
G00 X10.8581 Y-1.0325
G01 F70.00
G01 Z-0.0600
G01 F120.00
G01 X10.8418 Y-1.0411
G01 X10.8266 Y-1.0508
G01 X10.8123 Y-1.0618
G01 X10.7990 Y-1.0740
G01 X10.7868 Y-1.0873
G01 X10.7758 Y-1.1016
G01 X10.7661 Y-1.1168
G01 X10.7575 Y-1.1331
G01 X10.7575 Y-1.0325
G01 X10.8581 Y-1.0325
G00 Z2.0000
G00 X12.7375 Y-1.1331
G01 F70.00
G01 Z-0.0600
G01 F120.00
G01 X12.7289 Y-1.1168
G01 X12.7192 Y-1.1016
G01 X12.7082 Y-1.0873
G01 X12.6960 Y-1.0740
G01 X12.6827 Y-1.0618
G01 X12.6684 Y-1.0508
G01 X12.6532 Y-1.0411
G01 X12.6369 Y-1.0325
G01 X12.7375 Y-1.0325
G01 X12.7375 Y-1.1331
G00 Z2.0000
G00 X13.6581 Y-1.0325
G01 F70.00
G01 Z-0.0600
G01 F120.00
G01 X13.6418 Y-1.0411
G01 X13.6266 Y-1.0508
G01 X13.6123 Y-1.0618
G01 X13.5990 Y-1.0740
G01 X13.5868 Y-1.0873
G01 X13.5758 Y-1.1016
G01 X13.5661 Y-1.1168
G01 X13.5575 Y-1.1331
G01 X13.5575 Y-1.0325
G01 X13.6581 Y-1.0325
G00 Z2.0000
G00 X15.5375 Y-1.1331
G01 F70.00
G01 Z-0.0600
G01 F120.00
G01 X15.5289 Y-1.1168
G01 X15.5192 Y-1.1016
G01 X15.5082 Y-1.0873
G01 X15.4960 Y-1.0740
G01 X15.4827 Y-1.0618
G01 X15.4684 Y-1.0508
G01 X15.4532 Y-1.0411
G01 X15.4369 Y-1.0325
G01 X15.5375 Y-1.0325
G01 X15.5375 Y-1.1331
G00 Z2.0000
G00 X15.6585 Y-1.7123
G01 F70.00
G01 Z-0.0600
G01 F120.00
G01 X15.5575 Y-1.7123
G01 X15.5575 Y-1.6116
G01 X15.5661 Y-1.6279
G01 X15.5758 Y-1.6431
G01 X15.5868 Y-1.6574
G01 X15.5990 Y-1.6706
G01 X15.6123 Y-1.6828
G01 X15.6266 Y-1.6938
G01 X15.6418 Y-1.7036
G01 X15.6585 Y-1.7123
G00 Z2.0000
G00 X16.4525 Y-1.6116
G01 F70.00
G01 Z-0.0600
G01 F120.00
G01 X16.4525 Y-1.7124
G01 X16.3515 Y-1.7124
G01 X16.3682 Y-1.7036
G01 X16.3834 Y-1.6938
G01 X16.3977 Y-1.6828
G01 X16.4110 Y-1.6706
G01 X16.4232 Y-1.6574
G01 X16.4342 Y-1.6431
G01 X16.4439 Y-1.6279
G01 X16.4525 Y-1.6116
G00 Z2.0000
G00 X16.5731 Y-1.0325
G01 F70.00
G01 Z-0.0600
G01 F120.00
G01 X16.5568 Y-1.0411
G01 X16.5416 Y-1.0508
G01 X16.5273 Y-1.0618
G01 X16.5140 Y-1.0740
G01 X16.5018 Y-1.0873
G01 X16.4908 Y-1.1016
G01 X16.4811 Y-1.1168
G01 X16.4725 Y-1.1331
G01 X16.4725 Y-1.0325
G01 X16.5731 Y-1.0325
G00 Z2.0000
G00 X18.4525 Y-1.1331
G01 F70.00
G01 Z-0.0600
G01 F120.00
G01 X18.4439 Y-1.1168
G01 X18.4342 Y-1.1016
G01 X18.4232 Y-1.0873
G01 X18.4110 Y-1.0740
G01 X18.3977 Y-1.0618
G01 X18.3834 Y-1.0508
G01 X18.3682 Y-1.0411
G01 X18.3519 Y-1.0325
G01 X18.4525 Y-1.0325
G01 X18.4525 Y-1.1331
G00 Z2.0000
G00 X19.3731 Y-1.0325
G01 F70.00
G01 Z-0.0600
G01 F120.00
G01 X19.3568 Y-1.0411
G01 X19.3416 Y-1.0508
G01 X19.3273 Y-1.0618
G01 X19.3140 Y-1.0740
G01 X19.3018 Y-1.0873
G01 X19.2908 Y-1.1016
G01 X19.2811 Y-1.1168
G01 X19.2725 Y-1.1331
G01 X19.2725 Y-1.0325
G01 X19.3731 Y-1.0325
G00 Z2.0000
G00 X21.2525 Y-1.1331
G01 F70.00
G01 Z-0.0600
G01 F120.00
G01 X21.2439 Y-1.1168
G01 X21.2342 Y-1.1016
G01 X21.2232 Y-1.0873
G01 X21.2110 Y-1.0740
G01 X21.1977 Y-1.0618
G01 X21.1834 Y-1.0508
G01 X21.1682 Y-1.0411
G01 X21.1519 Y-1.0325
G01 X21.2525 Y-1.0325
G01 X21.2525 Y-1.1331
G00 Z2.0000
G00 X21.3735 Y-1.7123
G01 F70.00
G01 Z-0.0600
G01 F120.00
G01 X21.2725 Y-1.7123
G01 X21.2725 Y-1.6116
G01 X21.2811 Y-1.6279
G01 X21.2908 Y-1.6431
G01 X21.3018 Y-1.6574
G01 X21.3140 Y-1.6706
G01 X21.3273 Y-1.6828
G01 X21.3416 Y-1.6938
G01 X21.3568 Y-1.7036
G01 X21.3735 Y-1.7123
G00 Z2.0000
G00 X22.1675 Y-1.6116
G01 F70.00
G01 Z-0.0600
G01 F120.00
G01 X22.1675 Y-1.7124
G01 X22.0665 Y-1.7124
G01 X22.0832 Y-1.7036
G01 X22.0984 Y-1.6938
G01 X22.1127 Y-1.6828
G01 X22.1260 Y-1.6706
G01 X22.1382 Y-1.6574
G01 X22.1492 Y-1.6431
G01 X22.1589 Y-1.6279
G01 X22.1675 Y-1.6116
G00 Z2.0000
G00 X22.2881 Y-1.0325
G01 F70.00
G01 Z-0.0600
G01 F120.00
G01 X22.2718 Y-1.0411
G01 X22.2566 Y-1.0508
G01 X22.2423 Y-1.0618
G01 X22.2290 Y-1.0740
G01 X22.2168 Y-1.0873
G01 X22.2058 Y-1.1016
G01 X22.1961 Y-1.1168
G01 X22.1875 Y-1.1331
G01 X22.1875 Y-1.0325
G01 X22.2881 Y-1.0325
G00 Z2.0000
G00 X24.1675 Y-1.1331
G01 F70.00
G01 Z-0.0600
G01 F120.00
G01 X24.1589 Y-1.1168
G01 X24.1492 Y-1.1016
G01 X24.1382 Y-1.0873
G01 X24.1260 Y-1.0740
G01 X24.1127 Y-1.0618
G01 X24.0984 Y-1.0508
G01 X24.0832 Y-1.0411
G01 X24.0669 Y-1.0325
G01 X24.1675 Y-1.0325
G01 X24.1675 Y-1.1331
G00 Z2.0000
G00 X25.0881 Y-1.0325
G01 F70.00
G01 Z-0.0600
G01 F120.00
G01 X25.0718 Y-1.0411
G01 X25.0566 Y-1.0508
G01 X25.0423 Y-1.0618
G01 X25.0290 Y-1.0740
G01 X25.0168 Y-1.0873
G01 X25.0058 Y-1.1016
G01 X24.9961 Y-1.1168
G01 X24.9875 Y-1.1331
G01 X24.9875 Y-1.0325
G01 X25.0881 Y-1.0325
G00 Z2.0000
G00 X26.9675 Y-1.1331
G01 F70.00
G01 Z-0.0600
G01 F120.00
G01 X26.9589 Y-1.1168
G01 X26.9492 Y-1.1016
G01 X26.9382 Y-1.0873
G01 X26.9260 Y-1.0740
G01 X26.9127 Y-1.0618
G01 X26.8984 Y-1.0508
G01 X26.8832 Y-1.0411
G01 X26.8669 Y-1.0325
G01 X26.9675 Y-1.0325
G01 X26.9675 Y-1.1331
G00 Z2.0000
G00 X26.8669 Y-3.4125
G01 F70.00
G01 Z-0.0600
G01 F120.00
G01 X26.8832 Y-3.4039
G01 X26.8984 Y-3.3942
G01 X26.9127 Y-3.3832
G01 X26.9260 Y-3.3710
G01 X26.9382 Y-3.3577
G01 X26.9492 Y-3.3434
G01 X26.9589 Y-3.3282
G01 X26.9675 Y-3.3119
G01 X26.9675 Y-3.4125
G01 X26.8669 Y-3.4125
G00 Z2.0000
G00 X26.4888 Y-3.5337
G01 F70.00
G01 Z-0.0600
G01 F120.00
G01 X26.4887 Y-3.4325
G01 X26.5896 Y-3.4325
G01 X26.5733 Y-3.4411
G01 X26.5581 Y-3.4508
G01 X26.5438 Y-3.4619
G01 X26.5305 Y-3.4741
G01 X26.5183 Y-3.4874
G01 X26.5073 Y-3.5017
G01 X26.4976 Y-3.5169
G01 X26.4888 Y-3.5337
G00 Z2.0000
G00 X26.5900 Y-4.2225
G01 F70.00
G01 Z-0.0600
G01 F120.00
G01 X26.4894 Y-4.2225
G01 X26.4893 Y-4.1217
G01 X26.4981 Y-4.1383
G01 X26.5078 Y-4.1535
G01 X26.5188 Y-4.1678
G01 X26.5310 Y-4.1811
G01 X26.5443 Y-4.1932
G01 X26.5586 Y-4.2042
G01 X26.5737 Y-4.2140
G01 X26.5900 Y-4.2225
G00 Z2.0000
G00 X26.9700 Y-4.3431
G01 F70.00
G01 Z-0.0600
G01 F120.00
G01 X26.9614 Y-4.3268
G01 X26.9517 Y-4.3116
G01 X26.9407 Y-4.2973
G01 X26.9285 Y-4.2840
G01 X26.9152 Y-4.2718
G01 X26.9009 Y-4.2608
G01 X26.8857 Y-4.2511
G01 X26.8694 Y-4.2425
G01 X26.9700 Y-4.2425
G01 X26.9700 Y-4.3431
G00 Z2.0000
G00 X27.0911 Y-4.5715
G01 F70.00
G01 Z-0.0600
G01 F120.00
G01 X26.9900 Y-4.5715
G01 X26.9900 Y-4.4706
G01 X26.9986 Y-4.4870
G01 X27.0083 Y-4.5022
G01 X27.0194 Y-4.5164
G01 X27.0316 Y-4.5297
G01 X27.0449 Y-4.5419
G01 X27.0592 Y-4.5529
G01 X27.0744 Y-4.5627
G01 X27.0911 Y-4.5715
G00 Z2.0000
G00 X27.4760 Y-4.5308
G01 F70.00
G01 Z-0.0600
G01 F120.00
G01 X27.4627 Y-4.5712
G01 X27.4179 Y-4.5712
G01 X27.4324 Y-4.5637
G01 X27.4476 Y-4.5542
G01 X27.4620 Y-4.5434
G01 X27.4760 Y-4.5308
G00 Z2.0000
G00 X27.4187 Y-5.5915
G01 F70.00
G01 Z-0.0600
G01 F120.00
G01 X27.4635 Y-5.5915
G01 X27.4769 Y-5.6318
G01 X27.4630 Y-5.6194
G01 X27.4486 Y-5.6086
G01 X27.4333 Y-5.5990
G01 X27.4187 Y-5.5915
G00 Z2.0000
G00 X27.1100 Y-5.7819
G01 F70.00
G01 Z-0.0600
G01 F120.00
G01 X27.1100 Y-6.6958
G01 X26.8500 Y-6.6958
G01 X26.8500 Y-6.3325
G01 X26.8491 Y-6.3214
G01 X26.8459 Y-6.3089
G01 X26.8409 Y-6.2980
G01 X26.8341 Y-6.2881
G01 X26.8251 Y-6.2789
G01 X26.8152 Y-6.2720
G01 X26.8044 Y-6.2669
G01 X26.7928 Y-6.2637
G01 X26.7800 Y-6.2625
G01 X25.1800 Y-6.2625
G01 X25.1647 Y-6.2642
G01 X25.1540 Y-6.2675
G01 X25.1448 Y-6.2720
G01 X25.1356 Y-6.2784
G01 X25.1281 Y-6.2855
G01 X25.1213 Y-6.2943
G01 X25.1164 Y-6.3034
G01 X25.1125 Y-6.3138
G01 X25.1105 Y-6.3239
G01 X25.1100 Y-6.3325
G01 X25.1100 Y-6.6958
G01 X24.8500 Y-6.6958
G01 X24.8500 Y-4.1025
G01 X25.2787 Y-4.1025
G01 X25.2882 Y-4.1019
G01 X25.3007 Y-4.0990
G01 X25.3117 Y-4.0942
G01 X25.3225 Y-4.0871
G01 X25.3312 Y-4.0788
G01 X25.3388 Y-4.0685
G01 X25.3444 Y-4.0568
G01 X25.3476 Y-4.0453
G01 X25.3487 Y-4.0324
G01 X25.3483 Y-3.6190
G01 X25.3463 Y-3.6054
G01 X25.3420 Y-3.5933
G01 X25.3356 Y-3.5822
G01 X25.3266 Y-3.5718
G01 X25.3172 Y-3.5643
G01 X25.3059 Y-3.5582
G01 X25.2937 Y-3.5542
G01 X25.2809 Y-3.5525
G01 X24.8475 Y-3.5525
G01 X24.8475 Y-0.8925
G01 X27.1075 Y-0.8925
G01 X27.1075 Y-3.5525
G01 X26.6765 Y-3.5525
G01 X26.6637 Y-3.5542
G01 X26.6515 Y-3.5582
G01 X26.6402 Y-3.5643
G01 X26.6302 Y-3.5724
G01 X26.6218 Y-3.5822
G01 X26.6154 Y-3.5934
G01 X26.6112 Y-3.6055
G01 X26.6092 Y-3.6191
G01 X26.6094 Y-4.0334
G01 X26.6108 Y-4.0462
G01 X26.6141 Y-4.0577
G01 X26.6194 Y-4.0685
G01 X26.6270 Y-4.0789
G01 X26.6357 Y-4.0872
G01 X26.6465 Y-4.0942
G01 X26.6583 Y-4.0992
G01 X26.6700 Y-4.1019
G01 X26.6794 Y-4.1025
G01 X27.1100 Y-4.1025
G01 X27.1103 Y-4.3881
G01 X27.1138 Y-4.4040
G01 X27.1209 Y-4.4187
G01 X27.1311 Y-4.4313
G01 X27.1440 Y-4.4412
G01 X27.1517 Y-4.4452
G01 X27.1597 Y-4.4482
G01 X27.1681 Y-4.4502
G01 X27.1766 Y-4.4511
G01 X27.3314 Y-4.4510
G01 X27.3433 Y-4.4495
G01 X27.3556 Y-4.4457
G01 X27.3662 Y-4.4402
G01 X27.3764 Y-4.4323
G01 X27.3845 Y-4.4234
G01 X27.3913 Y-4.4125
G01 X27.4043 Y-4.3797
G01 X27.4407 Y-4.2976
G01 X27.4811 Y-4.2174
G01 X27.5254 Y-4.1392
G01 X27.5734 Y-4.0633
G01 X27.6251 Y-3.9899
G01 X27.6804 Y-3.9191
G01 X27.7391 Y-3.8511
G01 X27.8010 Y-3.7860
G01 X27.8661 Y-3.7241
G01 X27.9341 Y-3.6654
G01 X28.0049 Y-3.6101
G01 X28.0783 Y-3.5584
G01 X28.1542 Y-3.5104
G01 X28.2324 Y-3.4661
G01 X28.3126 Y-3.4257
G01 X28.3947 Y-3.3893
G01 X28.4785 Y-3.3570
G01 X28.5638 Y-3.3288
G01 X28.6504 Y-3.3049
G01 X28.7380 Y-3.2852
G01 X28.8265 Y-3.2698
G01 X28.9156 Y-3.2588
G01 X29.0052 Y-3.2522
G01 X29.0950 Y-3.2500
G01 X29.1848 Y-3.2522
G01 X29.2744 Y-3.2588
G01 X29.3635 Y-3.2698
G01 X29.4520 Y-3.2852
G01 X29.5396 Y-3.3049
G01 X29.6262 Y-3.3288
G01 X29.7115 Y-3.3570
G01 X29.7953 Y-3.3893
G01 X29.8774 Y-3.4257
G01 X29.9576 Y-3.4661
G01 X30.0358 Y-3.5104
G01 X30.1117 Y-3.5584
G01 X30.1851 Y-3.6101
G01 X30.2559 Y-3.6654
G01 X30.3239 Y-3.7241
G01 X30.3890 Y-3.7860
G01 X30.4509 Y-3.8511
G01 X30.5096 Y-3.9191
G01 X30.5649 Y-3.9899
G01 X30.6166 Y-4.0633
G01 X30.6646 Y-4.1392
G01 X30.7089 Y-4.2174
G01 X30.7493 Y-4.2976
G01 X30.7857 Y-4.3797
G01 X30.8180 Y-4.4635
G01 X30.8462 Y-4.5488
G01 X30.8701 Y-4.6354
G01 X30.8898 Y-4.7230
G01 X30.9052 Y-4.8115
G01 X30.9162 Y-4.9006
G01 X30.9228 Y-4.9902
G01 X30.9250 Y-5.0800
G01 X30.9228 Y-5.1698
G01 X30.9162 Y-5.2594
G01 X30.9052 Y-5.3485
G01 X30.8898 Y-5.4370
G01 X30.8701 Y-5.5246
G01 X30.8462 Y-5.6112
G01 X30.8180 Y-5.6965
G01 X30.7857 Y-5.7803
G01 X30.7493 Y-5.8624
G01 X30.7089 Y-5.9426
G01 X30.6646 Y-6.0208
G01 X30.6166 Y-6.0967
G01 X30.5649 Y-6.1701
G01 X30.5096 Y-6.2409
G01 X30.4509 Y-6.3089
G01 X30.3890 Y-6.3740
G01 X30.3239 Y-6.4359
G01 X30.2559 Y-6.4946
G01 X30.1851 Y-6.5499
G01 X30.1117 Y-6.6016
G01 X30.0358 Y-6.6496
G01 X29.9576 Y-6.6939
G01 X29.8774 Y-6.7343
G01 X29.7953 Y-6.7707
G01 X29.7115 Y-6.8030
G01 X29.6262 Y-6.8312
G01 X29.5396 Y-6.8551
G01 X29.4520 Y-6.8748
G01 X29.3635 Y-6.8902
G01 X29.2744 Y-6.9012
G01 X29.1848 Y-6.9078
G01 X29.0950 Y-6.9100
G01 X29.0052 Y-6.9078
G01 X28.9156 Y-6.9012
G01 X28.8265 Y-6.8902
G01 X28.7380 Y-6.8748
G01 X28.6504 Y-6.8551
G01 X28.5638 Y-6.8312
G01 X28.4785 Y-6.8030
G01 X28.3947 Y-6.7707
G01 X28.3126 Y-6.7343
G01 X28.2324 Y-6.6939
G01 X28.1542 Y-6.6496
G01 X28.0783 Y-6.6016
G01 X28.0049 Y-6.5499
G01 X27.9341 Y-6.4946
G01 X27.8661 Y-6.4359
G01 X27.8010 Y-6.3740
G01 X27.7391 Y-6.3089
G01 X27.6804 Y-6.2409
G01 X27.6251 Y-6.1701
G01 X27.5734 Y-6.0967
G01 X27.5254 Y-6.0208
G01 X27.4811 Y-5.9426
G01 X27.4407 Y-5.8624
G01 X27.4043 Y-5.7803
G01 X27.3924 Y-5.7503
G01 X27.3840 Y-5.7373
G01 X27.3722 Y-5.7260
G01 X27.3636 Y-5.7204
G01 X27.3542 Y-5.7161
G01 X27.3443 Y-5.7133
G01 X27.3341 Y-5.7119
G01 X27.1791 Y-5.7119
G01 X27.1655 Y-5.7134
G01 X27.1540 Y-5.7169
G01 X27.1432 Y-5.7223
G01 X27.1336 Y-5.7295
G01 X27.1253 Y-5.7382
G01 X27.1187 Y-5.7482
G01 X27.1141 Y-5.7583
G01 X27.1110 Y-5.7699
G01 X27.1100 Y-5.7819
G00 Z2.0000
G00 X27.0400 Y-5.7819
G01 F70.00
G01 Z-0.0600
G01 F120.00
G01 X27.0400 Y-6.6258
G01 X26.9200 Y-6.6258
G01 X26.9200 Y-6.3291
G01 X26.9182 Y-6.3103
G01 X26.9135 Y-6.2902
G01 X26.9051 Y-6.2696
G01 X26.8935 Y-6.2505
G01 X26.8790 Y-6.2335
G01 X26.8620 Y-6.2190
G01 X26.8429 Y-6.2074
G01 X26.8223 Y-6.1990
G01 X26.8022 Y-6.1943
G01 X26.7800 Y-6.1925
G01 X25.1800 Y-6.1925
G01 X25.1629 Y-6.1936
G01 X25.1477 Y-6.1963
G01 X25.1296 Y-6.2019
G01 X25.1125 Y-6.2099
G01 X25.0966 Y-6.2201
G01 X25.0822 Y-6.2323
G01 X25.0696 Y-6.2464
G01 X25.0590 Y-6.2620
G01 X25.0507 Y-6.2789
G01 X25.0442 Y-6.2985
G01 X25.0411 Y-6.3154
G01 X25.0400 Y-6.3308
G01 X25.0400 Y-6.6258
G01 X24.9200 Y-6.6258
G01 X24.9200 Y-4.1725
G01 X25.2805 Y-4.1725
G01 X25.2976 Y-4.1712
G01 X25.3161 Y-4.1674
G01 X25.3275 Y-4.1637
G01 X25.3386 Y-4.1590
G01 X25.3580 Y-4.1479
G01 X25.3753 Y-4.1339
G01 X25.3902 Y-4.1172
G01 X25.4022 Y-4.0984
G01 X25.4111 Y-4.0780
G01 X25.4146 Y-4.0664
G01 X25.4170 Y-4.0546
G01 X25.4187 Y-4.0324
G01 X25.4180 Y-3.6121
G01 X25.4146 Y-3.5901
G01 X25.4113 Y-3.5785
G01 X25.4070 Y-3.5673
G01 X25.4018 Y-3.5564
G01 X25.3957 Y-3.5461
G01 X25.3821 Y-3.5284
G01 X25.3723 Y-3.5187
G01 X25.3631 Y-3.5111
G01 X25.3532 Y-3.5042
G01 X25.3413 Y-3.4974
G01 X25.3287 Y-3.4919
G01 X25.3173 Y-3.4880
G01 X25.3040 Y-3.4849
G01 X25.2921 Y-3.4832
G01 X25.2784 Y-3.4825
G01 X24.9175 Y-3.4825
G01 X24.9175 Y-0.9625
G01 X27.0375 Y-0.9625
G01 X27.0375 Y-3.4825
G01 X26.6791 Y-3.4825
G01 X26.6653 Y-3.4832
G01 X26.6534 Y-3.4849
G01 X26.6401 Y-3.4880
G01 X26.6271 Y-3.4925
G01 X26.6161 Y-3.4975
G01 X26.6056 Y-3.5033
G01 X26.5943 Y-3.5111
G01 X26.5837 Y-3.5200
G01 X26.5753 Y-3.5285
G01 X26.5617 Y-3.5462
G01 X26.5556 Y-3.5566
G01 X26.5504 Y-3.5674
G01 X26.5432 Y-3.5886
G01 X26.5408 Y-3.6004
G01 X26.5394 Y-3.6123
G01 X26.5395 Y-4.0361
G01 X26.5418 Y-4.0582
G01 X26.5476 Y-4.0798
G01 X26.5568 Y-4.1001
G01 X26.5691 Y-4.1187
G01 X26.5842 Y-4.1351
G01 X26.6017 Y-4.1489
G01 X26.6212 Y-4.1598
G01 X26.6421 Y-4.1674
G01 X26.6606 Y-4.1712
G01 X26.6777 Y-4.1725
G01 X27.0400 Y-4.1725
G01 X27.0400 Y-4.3829
G01 X27.0409 Y-4.3966
G01 X27.0430 Y-4.4102
G01 X27.0471 Y-4.4251
G01 X27.0520 Y-4.4379
G01 X27.0582 Y-4.4502
G01 X27.0656 Y-4.4618
G01 X27.0740 Y-4.4727
G01 X27.0848 Y-4.4838
G01 X27.0967 Y-4.4937
G01 X27.1081 Y-4.5013
G01 X27.1218 Y-4.5085
G01 X27.1362 Y-4.5141
G01 X27.1528 Y-4.5185
G01 X27.1681 Y-4.5207
G01 X27.3357 Y-4.5209
G01 X27.3477 Y-4.5198
G01 X27.3595 Y-4.5176
G01 X27.3808 Y-4.5110
G01 X27.3918 Y-4.5061
G01 X27.4023 Y-4.5002
G01 X27.4202 Y-4.4870
G01 X27.4302 Y-4.4776
G01 X27.4381 Y-4.4685
G01 X27.4461 Y-4.4574
G01 X27.4522 Y-4.4471
G01 X27.4581 Y-4.4346
G01 X27.4690 Y-4.4065
G01 X27.5040 Y-4.3275
G01 X27.5429 Y-4.2504
G01 X27.5854 Y-4.1752
G01 X27.6316 Y-4.1022
G01 X27.6814 Y-4.0316
G01 X27.7345 Y-3.9635
G01 X27.7910 Y-3.8981
G01 X27.8505 Y-3.8355
G01 X27.9131 Y-3.7760
G01 X27.9785 Y-3.7195
G01 X28.0466 Y-3.6664
G01 X28.1172 Y-3.6166
G01 X28.1902 Y-3.5704
G01 X28.2654 Y-3.5279
G01 X28.3425 Y-3.4890
G01 X28.4215 Y-3.4540
G01 X28.5021 Y-3.4229
G01 X28.5841 Y-3.3958
G01 X28.6674 Y-3.3728
G01 X28.7516 Y-3.3539
G01 X28.8368 Y-3.3391
G01 X28.9225 Y-3.3285
G01 X29.0086 Y-3.3222
G01 X29.0950 Y-3.3200
G01 X29.1814 Y-3.3222
G01 X29.2675 Y-3.3285
G01 X29.3532 Y-3.3391
G01 X29.4384 Y-3.3539
G01 X29.5226 Y-3.3728
G01 X29.6059 Y-3.3958
G01 X29.6879 Y-3.4229
G01 X29.7685 Y-3.4540
G01 X29.8475 Y-3.4890
G01 X29.9246 Y-3.5279
G01 X29.9998 Y-3.5704
G01 X30.0728 Y-3.6166
G01 X30.1434 Y-3.6664
G01 X30.2115 Y-3.7195
G01 X30.2769 Y-3.7760
G01 X30.3395 Y-3.8355
G01 X30.3990 Y-3.8981
G01 X30.4555 Y-3.9635
G01 X30.5086 Y-4.0316
G01 X30.5584 Y-4.1022
G01 X30.6046 Y-4.1752
G01 X30.6471 Y-4.2504
G01 X30.6860 Y-4.3275
G01 X30.7210 Y-4.4065
G01 X30.7521 Y-4.4871
G01 X30.7792 Y-4.5691
G01 X30.8022 Y-4.6524
G01 X30.8211 Y-4.7366
G01 X30.8359 Y-4.8218
G01 X30.8465 Y-4.9075
G01 X30.8528 Y-4.9936
G01 X30.8550 Y-5.0800
G01 X30.8528 Y-5.1664
G01 X30.8465 Y-5.2525
G01 X30.8359 Y-5.3382
G01 X30.8211 Y-5.4234
G01 X30.8022 Y-5.5076
G01 X30.7792 Y-5.5909
G01 X30.7521 Y-5.6729
G01 X30.7210 Y-5.7535
G01 X30.6860 Y-5.8325
G01 X30.6471 Y-5.9096
G01 X30.6046 Y-5.9848
G01 X30.5584 Y-6.0578
G01 X30.5086 Y-6.1284
G01 X30.4555 Y-6.1965
G01 X30.3990 Y-6.2619
G01 X30.3395 Y-6.3245
G01 X30.2769 Y-6.3840
G01 X30.2115 Y-6.4405
G01 X30.1434 Y-6.4936
G01 X30.0728 Y-6.5434
G01 X29.9998 Y-6.5896
G01 X29.9246 Y-6.6321
G01 X29.8475 Y-6.6710
G01 X29.7685 Y-6.7060
G01 X29.6879 Y-6.7371
G01 X29.6059 Y-6.7642
G01 X29.5226 Y-6.7872
G01 X29.4384 Y-6.8061
G01 X29.3532 Y-6.8209
G01 X29.2675 Y-6.8315
G01 X29.1814 Y-6.8378
G01 X29.0950 Y-6.8400
G01 X29.0086 Y-6.8378
G01 X28.9225 Y-6.8315
G01 X28.8368 Y-6.8209
G01 X28.7516 Y-6.8061
G01 X28.6674 Y-6.7872
G01 X28.5841 Y-6.7642
G01 X28.5021 Y-6.7371
G01 X28.4215 Y-6.7060
G01 X28.3425 Y-6.6710
G01 X28.2654 Y-6.6321
G01 X28.1902 Y-6.5896
G01 X28.1172 Y-6.5434
G01 X28.0466 Y-6.4936
G01 X27.9785 Y-6.4405
G01 X27.9131 Y-6.3840
G01 X27.8505 Y-6.3245
G01 X27.7910 Y-6.2619
G01 X27.7345 Y-6.1965
G01 X27.6814 Y-6.1284
G01 X27.6316 Y-6.0578
G01 X27.5854 Y-5.9848
G01 X27.5429 Y-5.9096
G01 X27.5040 Y-5.8325
G01 X27.4690 Y-5.7535
G01 X27.4578 Y-5.7250
G01 X27.4517 Y-5.7127
G01 X27.4423 Y-5.6983
G01 X27.4324 Y-5.6865
G01 X27.4200 Y-5.6746
G01 X27.4062 Y-5.6644
G01 X27.3912 Y-5.6559
G01 X27.3737 Y-5.6488
G01 X27.3554 Y-5.6441
G01 X27.3383 Y-5.6420
G01 X27.1747 Y-5.6420
G01 X27.1560 Y-5.6440
G01 X27.1376 Y-5.6485
G01 X27.1170 Y-5.6569
G01 X27.0993 Y-5.6675
G01 X27.0822 Y-5.6817
G01 X27.0675 Y-5.6985
G01 X27.0557 Y-5.7174
G01 X27.0471 Y-5.7380
G01 X27.0418 Y-5.7597
G01 X27.0400 Y-5.7819
G00 Z2.0000
G00 X26.9900 Y-5.6924
G01 F70.00
G01 Z-0.0600
G01 F120.00
G01 X26.9900 Y-5.5918
G01 X27.0908 Y-5.5918
G01 X27.0742 Y-5.6005
G01 X27.0590 Y-5.6103
G01 X27.0447 Y-5.6213
G01 X27.0314 Y-5.6335
G01 X27.0193 Y-5.6467
G01 X27.0083 Y-5.6610
G01 X26.9985 Y-5.6762
G01 X26.9900 Y-5.6924
G00 Z2.0000
G00 X25.0600 Y-6.0795
G01 F70.00
G01 Z-0.0600
G01 F120.00
G01 X25.0600 Y-5.9855
G01 X25.0857 Y-5.9961
G01 X25.1153 Y-6.0049
G01 X25.1457 Y-6.0104
G01 X25.1766 Y-6.0125
G01 X26.7800 Y-6.0125
G01 X26.8109 Y-6.0108
G01 X26.8413 Y-6.0057
G01 X26.8711 Y-5.9973
G01 X26.9000 Y-5.9855
G01 X26.9000 Y-6.0795
G01 X26.8743 Y-6.0689
G01 X26.8447 Y-6.0601
G01 X26.8143 Y-6.0546
G01 X26.7834 Y-6.0525
G01 X25.1800 Y-6.0525
G01 X25.1491 Y-6.0542
G01 X25.1187 Y-6.0593
G01 X25.0889 Y-6.0677
G01 X25.0600 Y-6.0795
G00 Z2.0000
G00 X24.9900 Y-6.2431
G01 F70.00
G01 Z-0.0600
G01 F120.00
G01 X24.9900 Y-5.8219
G01 X25.0026 Y-5.8448
G01 X25.0193 Y-5.8677
G01 X25.0390 Y-5.8881
G01 X25.0612 Y-5.9057
G01 X25.0856 Y-5.9201
G01 X25.1117 Y-5.9311
G01 X25.1390 Y-5.9385
G01 X25.1671 Y-5.9421
G01 X26.7800 Y-5.9425
G01 X26.7954 Y-5.9419
G01 X26.8108 Y-5.9402
G01 X26.8385 Y-5.9342
G01 X26.8651 Y-5.9245
G01 X26.8790 Y-5.9177
G01 X26.8923 Y-5.9099
G01 X26.9051 Y-5.9012
G01 X26.9172 Y-5.8915
G01 X26.9373 Y-5.8716
G01 X26.9471 Y-5.8597
G01 X26.9560 Y-5.8470
G01 X26.9700 Y-5.8219
G01 X26.9700 Y-6.2431
G01 X26.9574 Y-6.2202
G01 X26.9407 Y-6.1973
G01 X26.9210 Y-6.1769
G01 X26.8988 Y-6.1593
G01 X26.8744 Y-6.1449
G01 X26.8483 Y-6.1339
G01 X26.8210 Y-6.1265
G01 X26.7929 Y-6.1229
G01 X25.1800 Y-6.1225
G01 X25.1517 Y-6.1244
G01 X25.1365 Y-6.1271
G01 X25.1215 Y-6.1308
G01 X25.1068 Y-6.1357
G01 X25.0925 Y-6.1416
G01 X25.0677 Y-6.1551
G01 X25.0448 Y-6.1718
G01 X25.0333 Y-6.1822
G01 X25.0227 Y-6.1934
G01 X25.0129 Y-6.2053
G01 X25.0040 Y-6.2180
G01 X24.9900 Y-6.2431
G00 Z2.0000
G00 X24.8500 Y-7.2692
G01 F70.00
G01 Z-0.0600
G01 F120.00
G01 X25.1100 Y-7.2692
G01 X25.1103 Y-7.6385
G01 X25.1115 Y-7.6470
G01 X25.1138 Y-7.6553
G01 X25.1171 Y-7.6632
G01 X25.1218 Y-7.6714
G01 X25.1276 Y-7.6789
G01 X25.1336 Y-7.6849
G01 X25.1404 Y-7.6902
G01 X25.1478 Y-7.6946
G01 X25.1630 Y-7.7004
G01 X25.1791 Y-7.7025
G01 X25.6934 Y-7.7025
G01 X25.6934 Y-7.9625
G01 X24.8500 Y-7.9625
G01 X24.8500 Y-7.2692
G00 Z2.0000
G00 X24.9200 Y-7.3392
G01 F70.00
G01 Z-0.0600
G01 F120.00
G01 X25.0400 Y-7.3392
G01 X25.0400 Y-7.6325
G01 X25.0413 Y-7.6513
G01 X25.0438 Y-7.6648
G01 X25.0476 Y-7.6780
G01 X25.0527 Y-7.6908
G01 X25.0590 Y-7.7030
G01 X25.0665 Y-7.7145
G01 X25.0740 Y-7.7239
G01 X25.0835 Y-7.7339
G01 X25.0939 Y-7.7429
G01 X25.1125 Y-7.7551
G01 X25.1312 Y-7.7637
G01 X25.1510 Y-7.7695
G01 X25.1714 Y-7.7722
G01 X25.6234 Y-7.7725
G01 X25.6234 Y-7.8925
G01 X24.9200 Y-7.8925
G01 X24.9200 Y-7.3392
G00 Z2.0000
G00 X24.9900 Y-7.7219
G01 F70.00
G01 Z-0.0600
G01 F120.00
G01 X24.9986 Y-7.7382
G01 X25.0083 Y-7.7534
G01 X25.0193 Y-7.7677
G01 X25.0315 Y-7.7810
G01 X25.0448 Y-7.7932
G01 X25.0591 Y-7.8042
G01 X25.0743 Y-7.8139
G01 X25.0906 Y-7.8225
G01 X24.9900 Y-7.8225
G01 X24.9900 Y-7.7219
G00 Z2.0000
G00 X26.2666 Y-7.9625
G01 F70.00
G01 Z-0.0600
G01 F120.00
G01 X26.2666 Y-7.7025
G01 X26.7809 Y-7.7025
G01 X26.7970 Y-7.7004
G01 X26.8122 Y-7.6946
G01 X26.8196 Y-7.6902
G01 X26.8264 Y-7.6849
G01 X26.8330 Y-7.6782
G01 X26.8382 Y-7.6714
G01 X26.8429 Y-7.6632
G01 X26.8462 Y-7.6553
G01 X26.8485 Y-7.6470
G01 X26.8497 Y-7.6385
G01 X26.8500 Y-7.2692
G01 X27.1100 Y-7.2692
G01 X27.1100 Y-7.9625
G01 X26.2666 Y-7.9625
G00 Z2.0000
G00 X26.3366 Y-7.8925
G01 F70.00
G01 Z-0.0600
G01 F120.00
G01 X26.3366 Y-7.7725
G01 X26.7886 Y-7.7722
G01 X26.8090 Y-7.7695
G01 X26.8288 Y-7.7637
G01 X26.8490 Y-7.7543
G01 X26.8661 Y-7.7429
G01 X26.8765 Y-7.7339
G01 X26.8849 Y-7.7252
G01 X26.8935 Y-7.7145
G01 X26.9010 Y-7.7030
G01 X26.9073 Y-7.6908
G01 X26.9124 Y-7.6780
G01 X26.9162 Y-7.6648
G01 X26.9187 Y-7.6513
G01 X26.9200 Y-7.6325
G01 X26.9200 Y-7.3392
G01 X27.0400 Y-7.3392
G01 X27.0400 Y-7.8925
G01 X26.3366 Y-7.8925
G00 Z2.0000
G00 X26.8694 Y-7.8225
G01 F70.00
G01 Z-0.0600
G01 F120.00
G01 X26.8857 Y-7.8139
G01 X26.9009 Y-7.8042
G01 X26.9152 Y-7.7932
G01 X26.9285 Y-7.7810
G01 X26.9407 Y-7.7677
G01 X26.9517 Y-7.7534
G01 X26.9614 Y-7.7382
G01 X26.9700 Y-7.7219
G01 X26.9700 Y-7.8225
G01 X26.8694 Y-7.8225
G00 Z2.0000
G00 X25.4690 Y-4.1213
G01 F70.00
G01 Z-0.0600
G01 F120.00
G01 X25.4691 Y-4.2225
G01 X25.3682 Y-4.2225
G01 X25.3845 Y-4.2139
G01 X25.3997 Y-4.2042
G01 X25.4140 Y-4.1931
G01 X25.4273 Y-4.1809
G01 X25.4395 Y-4.1676
G01 X25.4505 Y-4.1533
G01 X25.4602 Y-4.1381
G01 X25.4690 Y-4.1213
G00 Z2.0000
G00 X25.0906 Y-4.2425
G01 F70.00
G01 Z-0.0600
G01 F120.00
G01 X25.0743 Y-4.2511
G01 X25.0591 Y-4.2608
G01 X25.0448 Y-4.2718
G01 X25.0315 Y-4.2840
G01 X25.0193 Y-4.2973
G01 X25.0083 Y-4.3116
G01 X24.9986 Y-4.3268
G01 X24.9900 Y-4.3431
G01 X24.9900 Y-4.2425
G01 X25.0906 Y-4.2425
G00 Z2.0000
G00 X25.3678 Y-3.4325
G01 F70.00
G01 Z-0.0600
G01 F120.00
G01 X25.4684 Y-3.4325
G01 X25.4685 Y-3.5333
G01 X25.4597 Y-3.5167
G01 X25.4500 Y-3.5015
G01 X25.4390 Y-3.4872
G01 X25.4268 Y-3.4739
G01 X25.4135 Y-3.4618
G01 X25.3992 Y-3.4508
G01 X25.3841 Y-3.4410
G01 X25.3678 Y-3.4325
G00 Z2.0000
G00 X25.1775 Y-3.3625
G01 F70.00
G01 Z-0.0600
G01 F120.00
G01 X25.5383 Y-3.3625
G01 X25.5392 Y-4.2925
G01 X25.1783 Y-4.2925
G01 X25.1646 Y-4.2934
G01 X25.1510 Y-4.2955
G01 X25.1328 Y-4.3007
G01 X25.1155 Y-4.3082
G01 X25.0994 Y-4.3180
G01 X25.0835 Y-4.3311
G01 X25.0707 Y-4.3450
G01 X25.0599 Y-4.3605
G01 X25.0513 Y-4.3773
G01 X25.0446 Y-4.3968
G01 X25.0411 Y-4.4154
G01 X25.0400 Y-4.4325
G01 X25.0402 Y-5.7394
G01 X25.0424 Y-5.7581
G01 X25.0471 Y-5.7764
G01 X25.0542 Y-5.7939
G01 X25.0646 Y-5.8117
G01 X25.0763 Y-5.8265
G01 X25.0912 Y-5.8407
G01 X25.1066 Y-5.8517
G01 X25.1248 Y-5.8612
G01 X25.1377 Y-5.8660
G01 X25.1510 Y-5.8695
G01 X25.1646 Y-5.8716
G01 X25.1800 Y-5.8725
G01 X26.7800 Y-5.8725
G01 X26.8005 Y-5.8710
G01 X26.8190 Y-5.8670
G01 X26.8367 Y-5.8605
G01 X26.8534 Y-5.8517
G01 X26.8688 Y-5.8407
G01 X26.8826 Y-5.8278
G01 X26.8954 Y-5.8117
G01 X26.9051 Y-5.7954
G01 X26.9124 Y-5.7780
G01 X26.9179 Y-5.7564
G01 X26.9200 Y-5.7359
G01 X26.9200 Y-5.5219
G01 X27.5160 Y-5.5214
G01 X27.5261 Y-5.5577
G01 X27.5515 Y-5.6341
G01 X27.5798 Y-5.7076
G01 X27.6117 Y-5.7796
G01 X27.6503 Y-5.8561
G01 X27.6883 Y-5.9231
G01 X27.7324 Y-5.9926
G01 X27.7777 Y-6.0569
G01 X27.8273 Y-6.1204
G01 X27.8798 Y-6.1814
G01 X27.9329 Y-6.2372
G01 X27.9962 Y-6.2974
G01 X28.0546 Y-6.3477
G01 X28.1194 Y-6.3983
G01 X28.1839 Y-6.4436
G01 X28.2519 Y-6.4867
G01 X28.3219 Y-6.5264
G01 X28.3907 Y-6.5610
G01 X28.4706 Y-6.5964
G01 X28.5425 Y-6.6241
G01 X28.6189 Y-6.6494
G01 X28.6965 Y-6.6709
G01 X28.7717 Y-6.6878
G01 X28.8578 Y-6.7027
G01 X28.9343 Y-6.7121
G01 X29.0145 Y-6.7180
G01 X29.0950 Y-6.7200
G01 X29.1720 Y-6.7182
G01 X29.2557 Y-6.7121
G01 X29.3390 Y-6.7017
G01 X29.4149 Y-6.6885
G01 X29.4901 Y-6.6716
G01 X29.5743 Y-6.6483
G01 X29.6475 Y-6.6241
G01 X29.7194 Y-6.5964
G01 X29.7962 Y-6.5625
G01 X29.8681 Y-6.5264
G01 X29.9352 Y-6.4884
G01 X30.0090 Y-6.4417
G01 X30.0719 Y-6.3973
G01 X30.1327 Y-6.3499
G01 X30.1964 Y-6.2952
G01 X30.2571 Y-6.2372
G01 X30.3102 Y-6.1814
G01 X30.3627 Y-6.1204
G01 X30.4123 Y-6.0569
G01 X30.4567 Y-5.9940
G01 X30.5017 Y-5.9231
G01 X30.5429 Y-5.8500
G01 X30.5775 Y-5.7812
G01 X30.6095 Y-5.7092
G01 X30.6391 Y-5.6325
G01 X30.6644 Y-5.5561
G01 X30.6859 Y-5.4785
G01 X30.7035 Y-5.3999
G01 X30.7172 Y-5.3206
G01 X30.7271 Y-5.2407
G01 X30.7330 Y-5.1605
G01 X30.7350 Y-5.0766
G01 X30.7330 Y-4.9995
G01 X30.7271 Y-4.9193
G01 X30.7172 Y-4.8394
G01 X30.7028 Y-4.7567
G01 X30.6859 Y-4.6815
G01 X30.6633 Y-4.6007
G01 X30.6391 Y-4.5275
G01 X30.6114 Y-4.4556
G01 X30.5790 Y-4.3819
G01 X30.5414 Y-4.3069
G01 X30.5017 Y-4.2369
G01 X30.4586 Y-4.1689
G01 X30.4123 Y-4.1031
G01 X30.3627 Y-4.0396
G01 X30.3102 Y-3.9786
G01 X30.2547 Y-3.9203
G01 X30.1964 Y-3.8648
G01 X30.1354 Y-3.8123
G01 X30.0719 Y-3.7627
G01 X30.0061 Y-3.7164
G01 X29.9381 Y-3.6733
G01 X29.8681 Y-3.6336
G01 X29.7962 Y-3.5975
G01 X29.7226 Y-3.5648
G01 X29.6459 Y-3.5353
G01 X29.5711 Y-3.5106
G01 X29.4935 Y-3.4891
G01 X29.4149 Y-3.4715
G01 X29.3356 Y-3.4578
G01 X29.2557 Y-3.4479
G01 X29.1755 Y-3.4420
G01 X29.0950 Y-3.4400
G01 X29.0111 Y-3.4422
G01 X28.9308 Y-3.4483
G01 X28.8544 Y-3.4578
G01 X28.7784 Y-3.4709
G01 X28.6965 Y-3.4891
G01 X28.6222 Y-3.5097
G01 X28.5425 Y-3.5359
G01 X28.4674 Y-3.5648
G01 X28.3938 Y-3.5975
G01 X28.3234 Y-3.6328
G01 X28.2519 Y-3.6733
G01 X28.1839 Y-3.7164
G01 X28.1181 Y-3.7627
G01 X28.0546 Y-3.8123
G01 X27.9936 Y-3.8648
G01 X27.9353 Y-3.9203
G01 X27.8798 Y-3.9786
G01 X27.8262 Y-4.0409
G01 X27.7777 Y-4.1031
G01 X27.7314 Y-4.1689
G01 X27.6883 Y-4.2369
G01 X27.6478 Y-4.3084
G01 X27.6125 Y-4.3788
G01 X27.5792 Y-4.4540
G01 X27.5503 Y-4.5291
G01 X27.5261 Y-4.6023
G01 X27.5153 Y-4.6411
G01 X26.9200 Y-4.6416
G01 X26.9200 Y-4.4308
G01 X26.9193 Y-4.4188
G01 X26.9176 Y-4.4069
G01 X26.9145 Y-4.3935
G01 X26.9100 Y-4.3805
G01 X26.9043 Y-4.3680
G01 X26.8983 Y-4.3576
G01 X26.8904 Y-4.3464
G01 X26.8814 Y-4.3360
G01 X26.8714 Y-4.3265
G01 X26.8606 Y-4.3180
G01 X26.8429 Y-4.3074
G01 X26.8255 Y-4.3001
G01 X26.8073 Y-4.2952
G01 X26.7886 Y-4.2928
G01 X26.4195 Y-4.2925
G01 X26.4186 Y-3.3625
G01 X26.7792 Y-3.3625
G01 X26.7963 Y-3.3612
G01 X26.8115 Y-3.3583
G01 X26.8311 Y-3.3518
G01 X26.8495 Y-3.3426
G01 X26.8663 Y-3.3307
G01 X26.8824 Y-3.3152
G01 X26.8949 Y-3.2988
G01 X26.9048 Y-3.2808
G01 X26.9124 Y-3.2598
G01 X26.9164 Y-3.2396
G01 X26.9175 Y-3.2225
G01 X26.9174 Y-1.2173
G01 X26.9151 Y-1.1969
G01 X26.9104 Y-1.1786
G01 X26.9033 Y-1.1611
G01 X26.8929 Y-1.1433
G01 X26.8801 Y-1.1272
G01 X26.8663 Y-1.1143
G01 X26.8495 Y-1.1024
G01 X26.8327 Y-1.0938
G01 X26.8198 Y-1.0890
G01 X26.8065 Y-1.0855
G01 X26.7929 Y-1.0834
G01 X26.7792 Y-1.0825
G01 X25.1741 Y-1.0825
G01 X25.1587 Y-1.0838
G01 X25.1418 Y-1.0871
G01 X25.1255 Y-1.0925
G01 X25.1115 Y-1.0990
G01 X25.0983 Y-1.1071
G01 X25.0848 Y-1.1176
G01 X25.0738 Y-1.1285
G01 X25.0640 Y-1.1405
G01 X25.0532 Y-1.1580
G01 X25.0446 Y-1.1786
G01 X25.0396 Y-1.1986
G01 X25.0375 Y-1.2208
G01 X25.0377 Y-3.2294
G01 X25.0390 Y-3.2430
G01 X25.0413 Y-3.2548
G01 X25.0451 Y-3.2680
G01 X25.0502 Y-3.2808
G01 X25.0565 Y-3.2930
G01 X25.0640 Y-3.3045
G01 X25.0726 Y-3.3152
G01 X25.0810 Y-3.3239
G01 X25.0900 Y-3.3318
G01 X25.1012 Y-3.3399
G01 X25.1130 Y-3.3468
G01 X25.1255 Y-3.3525
G01 X25.1385 Y-3.3570
G01 X25.1502 Y-3.3598
G01 X25.1638 Y-3.3618
G01 X25.1775 Y-3.3625
G00 Z2.0000
G00 X25.1775 Y-3.2925
G01 F70.00
G01 Z-0.0600
G01 F120.00
G01 X25.6083 Y-3.2925
G01 X25.6092 Y-4.3625
G01 X25.1731 Y-4.3628
G01 X25.1630 Y-4.3646
G01 X25.1532 Y-4.3678
G01 X25.1440 Y-4.3725
G01 X25.1356 Y-4.3784
G01 X25.1287 Y-4.3849
G01 X25.1223 Y-4.3929
G01 X25.1171 Y-4.4018
G01 X25.1133 Y-4.4114
G01 X25.1109 Y-4.4214
G01 X25.1100 Y-4.4325
G01 X25.1100 Y-5.7342
G01 X25.1109 Y-5.7436
G01 X25.1133 Y-5.7536
G01 X25.1171 Y-5.7632
G01 X25.1218 Y-5.7714
G01 X25.1276 Y-5.7789
G01 X25.1343 Y-5.7855
G01 X25.1418 Y-5.7912
G01 X25.1509 Y-5.7961
G01 X25.1655 Y-5.8010
G01 X25.1800 Y-5.8025
G01 X26.7800 Y-5.8025
G01 X26.7903 Y-5.8017
G01 X26.8011 Y-5.7992
G01 X26.8107 Y-5.7954
G01 X26.8203 Y-5.7897
G01 X26.8289 Y-5.7826
G01 X26.8357 Y-5.7749
G01 X26.8417 Y-5.7655
G01 X26.8462 Y-5.7553
G01 X26.8490 Y-5.7445
G01 X26.8500 Y-5.7325
G01 X26.8500 Y-5.4520
G01 X27.5698 Y-5.4514
G01 X27.5931 Y-5.5374
G01 X27.6168 Y-5.6089
G01 X27.6445 Y-5.6808
G01 X27.6757 Y-5.7513
G01 X27.7096 Y-5.8186
G01 X27.7493 Y-5.8886
G01 X27.7896 Y-5.9522
G01 X27.8340 Y-6.0152
G01 X27.8814 Y-6.0760
G01 X27.9306 Y-6.1331
G01 X27.9848 Y-6.1902
G01 X28.0394 Y-6.2421
G01 X28.1003 Y-6.2947
G01 X28.1598 Y-6.3410
G01 X28.2228 Y-6.3854
G01 X28.2879 Y-6.4266
G01 X28.3534 Y-6.4638
G01 X28.4253 Y-6.5000
G01 X28.4942 Y-6.5305
G01 X28.5661 Y-6.5582
G01 X28.6393 Y-6.5824
G01 X28.7135 Y-6.6029
G01 X28.7887 Y-6.6198
G01 X28.8629 Y-6.6327
G01 X28.9428 Y-6.6426
G01 X29.0180 Y-6.6481
G01 X29.0959 Y-6.6500
G01 X29.1720 Y-6.6481
G01 X29.2472 Y-6.6426
G01 X29.3254 Y-6.6330
G01 X29.4013 Y-6.6198
G01 X29.4748 Y-6.6033
G01 X29.5507 Y-6.5824
G01 X29.6255 Y-6.5576
G01 X29.6958 Y-6.5305
G01 X29.7663 Y-6.4993
G01 X29.8366 Y-6.4638
G01 X29.9021 Y-6.4266
G01 X29.9658 Y-6.3863
G01 X30.0316 Y-6.3400
G01 X30.0910 Y-6.2936
G01 X30.1481 Y-6.2444
G01 X30.2052 Y-6.1902
G01 X30.2594 Y-6.1331
G01 X30.3086 Y-6.0760
G01 X30.3550 Y-6.0166
G01 X30.4004 Y-5.9522
G01 X30.4416 Y-5.8871
G01 X30.4788 Y-5.8216
G01 X30.5146 Y-5.7505
G01 X30.5455 Y-5.6808
G01 X30.5732 Y-5.6089
G01 X30.5974 Y-5.5357
G01 X30.6183 Y-5.4598
G01 X30.6348 Y-5.3863
G01 X30.6482 Y-5.3087
G01 X30.6576 Y-5.2322
G01 X30.6631 Y-5.1570
G01 X30.6650 Y-5.0817
G01 X30.6631 Y-5.0030
G01 X30.6574 Y-4.9261
G01 X30.6480 Y-4.8496
G01 X30.6348 Y-4.7737
G01 X30.6179 Y-4.6985
G01 X30.5974 Y-4.6243
G01 X30.5732 Y-4.5511
G01 X30.5455 Y-4.4792
G01 X30.5143 Y-4.4087
G01 X30.4796 Y-4.3399
G01 X30.4416 Y-4.2729
G01 X30.3994 Y-4.2063
G01 X30.3560 Y-4.1448
G01 X30.3075 Y-4.0827
G01 X30.2571 Y-4.0244
G01 X30.2052 Y-3.9698
G01 X30.1506 Y-3.9179
G01 X30.0910 Y-3.8664
G01 X30.0302 Y-3.8190
G01 X29.9672 Y-3.7746
G01 X29.9021 Y-3.7334
G01 X29.8351 Y-3.6954
G01 X29.7663 Y-3.6607
G01 X29.6958 Y-3.6295
G01 X29.6223 Y-3.6012
G01 X29.5507 Y-3.5776
G01 X29.4765 Y-3.5571
G01 X29.4013 Y-3.5402
G01 X29.3237 Y-3.5268
G01 X29.2489 Y-3.5176
G01 X29.1738 Y-3.5120
G01 X29.0967 Y-3.5100
G01 X29.0180 Y-3.5119
G01 X28.9428 Y-3.5174
G01 X28.8646 Y-3.5270
G01 X28.7887 Y-3.5402
G01 X28.7135 Y-3.5571
G01 X28.6393 Y-3.5776
G01 X28.5661 Y-3.6018
G01 X28.4942 Y-3.6295
G01 X28.4237 Y-3.6607
G01 X28.3549 Y-3.6954
G01 X28.2879 Y-3.7334
G01 X28.2228 Y-3.7746
G01 X28.1598 Y-3.8190
G01 X28.0977 Y-3.8675
G01 X28.0407 Y-3.9167
G01 X27.9836 Y-3.9711
G01 X27.9317 Y-4.0257
G01 X27.8825 Y-4.0827
G01 X27.8350 Y-4.1434
G01 X27.7896 Y-4.2078
G01 X27.7484 Y-4.2729
G01 X27.7104 Y-4.3399
G01 X27.6757 Y-4.4087
G01 X27.6445 Y-4.4792
G01 X27.6168 Y-4.5511
G01 X27.5926 Y-4.6243
G01 X27.5723 Y-4.6977
G01 X27.5692 Y-4.7111
G01 X26.8500 Y-4.7117
G01 X26.8497 Y-4.4265
G01 X26.8467 Y-4.4114
G01 X26.8405 Y-4.3973
G01 X26.8313 Y-4.3849
G01 X26.8203 Y-4.3753
G01 X26.8115 Y-4.3700
G01 X26.8020 Y-4.3660
G01 X26.7920 Y-4.3635
G01 X26.7817 Y-4.3625
G01 X26.3495 Y-4.3625
G01 X26.3486 Y-3.2925
G01 X26.7775 Y-3.2925
G01 X26.7861 Y-3.2920
G01 X26.7970 Y-3.2897
G01 X26.8082 Y-3.2854
G01 X26.8178 Y-3.2797
G01 X26.8264 Y-3.2726
G01 X26.8337 Y-3.2642
G01 X26.8396 Y-3.2547
G01 X26.8442 Y-3.2436
G01 X26.8467 Y-3.2328
G01 X26.8475 Y-3.2225
G01 X26.8475 Y-1.2208
G01 X26.8466 Y-1.2114
G01 X26.8445 Y-1.2022
G01 X26.8411 Y-1.1934
G01 X26.8362 Y-1.1843
G01 X26.8305 Y-1.1768
G01 X26.8232 Y-1.1695
G01 X26.8157 Y-1.1638
G01 X26.8066 Y-1.1589
G01 X26.7920 Y-1.1540
G01 X26.7775 Y-1.1525
G01 X25.1766 Y-1.1525
G01 X25.1613 Y-1.1544
G01 X25.1460 Y-1.1600
G01 X25.1324 Y-1.1689
G01 X25.1218 Y-1.1801
G01 X25.1158 Y-1.1895
G01 X25.1113 Y-1.1997
G01 X25.1085 Y-1.2105
G01 X25.1075 Y-1.2216
G01 X25.1075 Y-3.2242
G01 X25.1092 Y-3.2378
G01 X25.1135 Y-3.2509
G01 X25.1203 Y-3.2628
G01 X25.1286 Y-3.2726
G01 X25.1393 Y-3.2812
G01 X25.1515 Y-3.2875
G01 X25.1647 Y-3.2913
G01 X25.1775 Y-3.2925
G00 Z2.0000
G00 X24.9875 Y-3.3119
G01 F70.00
G01 Z-0.0600
G01 F120.00
G01 X24.9961 Y-3.3282
G01 X25.0058 Y-3.3434
G01 X25.0168 Y-3.3577
G01 X25.0290 Y-3.3710
G01 X25.0423 Y-3.3832
G01 X25.0566 Y-3.3942
G01 X25.0718 Y-3.4039
G01 X25.0881 Y-3.4125
G01 X24.9875 Y-3.4125
G01 X24.9875 Y-3.3119
G00 Z2.0000
G00 X24.0669 Y-3.4125
G01 F70.00
G01 Z-0.0600
G01 F120.00
G01 X24.0832 Y-3.4039
G01 X24.0984 Y-3.3942
G01 X24.1127 Y-3.3832
G01 X24.1260 Y-3.3710
G01 X24.1382 Y-3.3577
G01 X24.1492 Y-3.3434
G01 X24.1589 Y-3.3282
G01 X24.1675 Y-3.3119
G01 X24.1675 Y-3.4125
G01 X24.0669 Y-3.4125
G00 Z2.0000
G00 X22.5800 Y-4.3406
G01 F70.00
G01 Z-0.0600
G01 F120.00
G01 X22.5714 Y-4.3243
G01 X22.5617 Y-4.3091
G01 X22.5507 Y-4.2948
G01 X22.5385 Y-4.2815
G01 X22.5252 Y-4.2693
G01 X22.5109 Y-4.2583
G01 X22.4957 Y-4.2486
G01 X22.4794 Y-4.2400
G01 X22.5800 Y-4.2400
G01 X22.5800 Y-4.3406
G00 Z2.0000
G00 X22.2009 Y-4.2200
G01 F70.00
G01 Z-0.0600
G01 F120.00
G01 X22.1001 Y-4.2200
G01 X22.1001 Y-4.1190
G01 X22.1089 Y-4.1357
G01 X22.1187 Y-4.1509
G01 X22.1297 Y-4.1652
G01 X22.1419 Y-4.1785
G01 X22.1551 Y-4.1907
G01 X22.1694 Y-4.2017
G01 X22.1846 Y-4.2114
G01 X22.2009 Y-4.2200
G00 Z2.0000
G00 X22.1002 Y-3.5335
G01 F70.00
G01 Z-0.0600
G01 F120.00
G01 X22.1002 Y-2.7327
G01 X22.1675 Y-2.7327
G01 X22.1675 Y-3.2225
G01 X22.1683 Y-3.2405
G01 X22.1706 Y-3.2584
G01 X22.1758 Y-3.2810
G01 X22.1845 Y-3.3052
G01 X22.1961 Y-3.3282
G01 X22.2104 Y-3.3497
G01 X22.2272 Y-3.3692
G01 X22.2463 Y-3.3865
G01 X22.2673 Y-3.4013
G01 X22.2881 Y-3.4125
G01 X22.2595 Y-3.4148
G01 X22.2443 Y-3.4176
G01 X22.2294 Y-3.4215
G01 X22.2029 Y-3.4316
G01 X22.1891 Y-3.4385
G01 X22.1758 Y-3.4465
G01 X22.1632 Y-3.4554
G01 X22.1512 Y-3.4652
G01 X22.1313 Y-3.4853
G01 X22.1143 Y-3.5080
G01 X22.1064 Y-3.5212
G01 X22.1002 Y-3.5335
G00 Z2.0000
G00 X20.9791 Y-3.4325
G01 F70.00
G01 Z-0.0600
G01 F120.00
G01 X21.0651 Y-3.4325
G01 X21.0798 Y-3.4318
G01 X21.0798 Y-3.5335
G01 X21.0711 Y-3.5168
G01 X21.0613 Y-3.5016
G01 X21.0503 Y-3.4873
G01 X21.0381 Y-3.4740
G01 X21.0249 Y-3.4618
G01 X21.0106 Y-3.4508
G01 X20.9954 Y-3.4411
G01 X20.9791 Y-3.4325
G00 Z2.0000
G00 X21.0798 Y-4.1190
G01 F70.00
G01 Z-0.0600
G01 F120.00
G01 X21.0798 Y-4.2200
G01 X20.9791 Y-4.2200
G01 X20.9954 Y-4.2114
G01 X21.0106 Y-4.2017
G01 X21.0249 Y-4.1907
G01 X21.0381 Y-4.1785
G01 X21.0503 Y-4.1652
G01 X21.0613 Y-4.1509
G01 X21.0711 Y-4.1357
G01 X21.0798 Y-4.1190
G00 Z2.0000
G00 X20.7006 Y-4.2400
G01 F70.00
G01 Z-0.0600
G01 F120.00
G01 X20.6843 Y-4.2486
G01 X20.6691 Y-4.2583
G01 X20.6548 Y-4.2693
G01 X20.6415 Y-4.2815
G01 X20.6293 Y-4.2948
G01 X20.6183 Y-4.3091
G01 X20.6086 Y-4.3243
G01 X20.6000 Y-4.3406
G01 X20.6000 Y-4.2400
G01 X20.7006 Y-4.2400
G00 Z2.0000
G00 X19.4625 Y-3.3625
G01 F70.00
G01 Z-0.0600
G01 F120.00
G01 X21.0642 Y-3.3625
G01 X21.0762 Y-3.3618
G01 X21.0881 Y-3.3601
G01 X21.1097 Y-3.3543
G01 X21.1300 Y-3.3451
G01 X21.1403 Y-3.3389
G01 X21.1498 Y-3.3319
G01 X21.1498 Y-4.2900
G01 X20.7883 Y-4.2900
G01 X20.7729 Y-4.2911
G01 X20.7577 Y-4.2938
G01 X20.7380 Y-4.3000
G01 X20.7195 Y-4.3090
G01 X20.7025 Y-4.3207
G01 X20.6874 Y-4.3347
G01 X20.6746 Y-4.3508
G01 X20.6649 Y-4.3671
G01 X20.6571 Y-4.3861
G01 X20.6521 Y-4.4061
G01 X20.6505 Y-4.4180
G01 X20.6500 Y-4.4300
G01 X20.6501 Y-5.7352
G01 X20.6515 Y-5.7505
G01 X20.6542 Y-5.7640
G01 X20.6588 Y-5.7788
G01 X20.6642 Y-5.7914
G01 X20.6708 Y-5.8034
G01 X20.6796 Y-5.8161
G01 X20.6898 Y-5.8278
G01 X20.6999 Y-5.8371
G01 X20.7094 Y-5.8445
G01 X20.7195 Y-5.8510
G01 X20.7301 Y-5.8566
G01 X20.7412 Y-5.8612
G01 X20.7527 Y-5.8649
G01 X20.7644 Y-5.8676
G01 X20.7763 Y-5.8693
G01 X20.7883 Y-5.8700
G01 X22.3917 Y-5.8700
G01 X22.4071 Y-5.8689
G01 X22.4223 Y-5.8662
G01 X22.4372 Y-5.8618
G01 X22.4499 Y-5.8566
G01 X22.4663 Y-5.8474
G01 X22.4814 Y-5.8360
G01 X22.4949 Y-5.8227
G01 X22.5064 Y-5.8078
G01 X22.5158 Y-5.7914
G01 X22.5229 Y-5.7739
G01 X22.5276 Y-5.7556
G01 X22.5298 Y-5.7369
G01 X22.5300 Y-4.4300
G01 X22.5287 Y-4.4112
G01 X22.5245 Y-4.3910
G01 X22.5173 Y-4.3717
G01 X22.5064 Y-4.3522
G01 X22.4937 Y-4.3360
G01 X22.4788 Y-4.3218
G01 X22.4620 Y-4.3099
G01 X22.4436 Y-4.3007
G01 X22.4223 Y-4.2938
G01 X22.4071 Y-4.2911
G01 X22.3917 Y-4.2900
G01 X22.0301 Y-4.2900
G01 X22.0302 Y-2.6626
G01 X22.2375 Y-2.6627
G01 X22.2375 Y-3.2225
G01 X22.2388 Y-3.2413
G01 X22.2430 Y-3.2615
G01 X22.2495 Y-3.2792
G01 X22.2583 Y-3.2959
G01 X22.2704 Y-3.3126
G01 X22.2848 Y-3.3274
G01 X22.2997 Y-3.3389
G01 X22.3161 Y-3.3483
G01 X22.3336 Y-3.3554
G01 X22.3553 Y-3.3607
G01 X22.3775 Y-3.3625
G01 X23.9792 Y-3.3625
G01 X24.0014 Y-3.3604
G01 X24.0214 Y-3.3554
G01 X24.0420 Y-3.3468
G01 X24.0595 Y-3.3360
G01 X24.0728 Y-3.3251
G01 X24.0835 Y-3.3139
G01 X24.0929 Y-3.3017
G01 X24.1010 Y-3.2885
G01 X24.1081 Y-3.2729
G01 X24.1129 Y-3.2582
G01 X24.1162 Y-3.2413
G01 X24.1175 Y-3.2259
G01 X24.1175 Y-1.2208
G01 X24.1164 Y-1.2054
G01 X24.1137 Y-1.1902
G01 X24.1093 Y-1.1753
G01 X24.1041 Y-1.1626
G01 X24.0949 Y-1.1462
G01 X24.0835 Y-1.1311
G01 X24.0702 Y-1.1176
G01 X24.0553 Y-1.1061
G01 X24.0389 Y-1.0967
G01 X24.0214 Y-1.0896
G01 X24.0031 Y-1.0849
G01 X23.9844 Y-1.0827
G01 X22.3775 Y-1.0825
G01 X22.3638 Y-1.0832
G01 X22.3485 Y-1.0855
G01 X22.3287 Y-1.0913
G01 X22.3100 Y-1.0999
G01 X22.2927 Y-1.1111
G01 X22.2761 Y-1.1260
G01 X22.2630 Y-1.1419
G01 X22.2524 Y-1.1596
G01 X22.2440 Y-1.1802
G01 X22.2393 Y-1.2003
G01 X22.2375 Y-1.2225
G01 X22.2375 Y-1.7824
G01 X21.2025 Y-1.7823
G01 X21.2025 Y-1.2225
G01 X21.2012 Y-1.2037
G01 X21.1979 Y-1.1868
G01 X21.1918 Y-1.1689
G01 X21.1835 Y-1.1520
G01 X21.1729 Y-1.1364
G01 X21.1603 Y-1.1223
G01 X21.1459 Y-1.1101
G01 X21.1300 Y-1.0999
G01 X21.1129 Y-1.0919
G01 X21.0998 Y-1.0876
G01 X21.0881 Y-1.0849
G01 X21.0762 Y-1.0832
G01 X21.0625 Y-1.0825
G01 X19.4625 Y-1.0825
G01 X19.4471 Y-1.0834
G01 X19.4318 Y-1.0859
G01 X19.4170 Y-1.0901
G01 X19.4026 Y-1.0959
G01 X19.3862 Y-1.1051
G01 X19.3698 Y-1.1176
G01 X19.3565 Y-1.1311
G01 X19.3451 Y-1.1462
G01 X19.3359 Y-1.1626
G01 X19.3290 Y-1.1802
G01 X19.3246 Y-1.1986
G01 X19.3226 Y-1.2173
G01 X19.3225 Y-3.2259
G01 X19.3234 Y-3.2379
G01 X19.3255 Y-3.2515
G01 X19.3290 Y-3.2648
G01 X19.3338 Y-3.2777
G01 X19.3399 Y-3.2900
G01 X19.3471 Y-3.3017
G01 X19.3554 Y-3.3126
G01 X19.3647 Y-3.3227
G01 X19.3750 Y-3.3318
G01 X19.3862 Y-3.3399
G01 X19.3980 Y-3.3468
G01 X19.4105 Y-3.3525
G01 X19.4235 Y-3.3570
G01 X19.4352 Y-3.3598
G01 X19.4488 Y-3.3618
G01 X19.4625 Y-3.3625
G00 Z2.0000
G00 X19.4625 Y-3.2925
G01 F70.00
G01 Z-0.0600
G01 F120.00
G01 X21.0625 Y-3.2925
G01 X21.0753 Y-3.2913
G01 X21.0885 Y-3.2875
G01 X21.0977 Y-3.2830
G01 X21.1056 Y-3.2777
G01 X21.1126 Y-3.2714
G01 X21.1192 Y-3.2635
G01 X21.1242 Y-3.2555
G01 X21.1284 Y-3.2461
G01 X21.1312 Y-3.2362
G01 X21.1324 Y-3.2268
G01 X21.1325 Y-2.5927
G01 X21.2199 Y-2.5927
G01 X21.2198 Y-4.3600
G01 X20.7831 Y-4.3603
G01 X20.7730 Y-4.3621
G01 X20.7640 Y-4.3650
G01 X20.7555 Y-4.3691
G01 X20.7469 Y-4.3748
G01 X20.7399 Y-4.3811
G01 X20.7333 Y-4.3890
G01 X20.7283 Y-4.3970
G01 X20.7241 Y-4.4064
G01 X20.7210 Y-4.4180
G01 X20.7200 Y-4.4300
G01 X20.7200 Y-5.7300
G01 X20.7212 Y-5.7428
G01 X20.7244 Y-5.7544
G01 X20.7287 Y-5.7638
G01 X20.7343 Y-5.7724
G01 X20.7411 Y-5.7801
G01 X20.7490 Y-5.7867
G01 X20.7585 Y-5.7925
G01 X20.7680 Y-5.7965
G01 X20.7780 Y-5.7990
G01 X20.7883 Y-5.8000
G01 X22.3900 Y-5.8000
G01 X22.4053 Y-5.7983
G01 X22.4191 Y-5.7936
G01 X22.4274 Y-5.7891
G01 X22.4351 Y-5.7836
G01 X22.4419 Y-5.7770
G01 X22.4482 Y-5.7689
G01 X22.4529 Y-5.7607
G01 X22.4567 Y-5.7511
G01 X22.4590 Y-5.7420
G01 X22.4600 Y-5.7317
G01 X22.4600 Y-4.4300
G01 X22.4591 Y-4.4189
G01 X22.4567 Y-4.4089
G01 X22.4529 Y-4.3993
G01 X22.4477 Y-4.3904
G01 X22.4413 Y-4.3824
G01 X22.4344 Y-4.3759
G01 X22.4260 Y-4.3700
G01 X22.4168 Y-4.3653
G01 X22.4070 Y-4.3621
G01 X22.3969 Y-4.3603
G01 X21.9601 Y-4.3600
G01 X21.9602 Y-2.5926
G01 X22.3075 Y-2.5927
G01 X22.3077 Y-3.2276
G01 X22.3092 Y-3.2378
G01 X22.3122 Y-3.2477
G01 X22.3166 Y-3.2570
G01 X22.3223 Y-3.2656
G01 X22.3292 Y-3.2732
G01 X22.3372 Y-3.2797
G01 X22.3460 Y-3.2850
G01 X22.3555 Y-3.2890
G01 X22.3664 Y-3.2916
G01 X22.3775 Y-3.2925
G01 X23.9775 Y-3.2925
G01 X23.9878 Y-3.2917
G01 X23.9978 Y-3.2895
G01 X24.0074 Y-3.2858
G01 X24.0164 Y-3.2807
G01 X24.0288 Y-3.2701
G01 X24.0342 Y-3.2635
G01 X24.0388 Y-3.2563
G01 X24.0425 Y-3.2485
G01 X24.0452 Y-3.2403
G01 X24.0469 Y-3.2319
G01 X24.0475 Y-3.2234
G01 X24.0475 Y-1.2225
G01 X24.0460 Y-1.2080
G01 X24.0411 Y-1.1934
G01 X24.0362 Y-1.1843
G01 X24.0305 Y-1.1768
G01 X24.0239 Y-1.1701
G01 X24.0157 Y-1.1638
G01 X24.0074 Y-1.1592
G01 X23.9978 Y-1.1555
G01 X23.9886 Y-1.1534
G01 X23.9792 Y-1.1525
G01 X22.3775 Y-1.1525
G01 X22.3622 Y-1.1542
G01 X22.3515 Y-1.1575
G01 X22.3415 Y-1.1625
G01 X22.3324 Y-1.1689
G01 X22.3245 Y-1.1768
G01 X22.3179 Y-1.1858
G01 X22.3128 Y-1.1957
G01 X22.3094 Y-1.2063
G01 X22.3077 Y-1.2174
G01 X22.3075 Y-1.8524
G01 X21.1325 Y-1.8523
G01 X21.1324 Y-1.2182
G01 X21.1310 Y-1.2080
G01 X21.1284 Y-1.1989
G01 X21.1246 Y-1.1903
G01 X21.1197 Y-1.1822
G01 X21.1138 Y-1.1749
G01 X21.1062 Y-1.1678
G01 X21.0977 Y-1.1620
G01 X21.0893 Y-1.1578
G01 X21.0762 Y-1.1538
G01 X21.0625 Y-1.1525
G01 X19.4625 Y-1.1525
G01 X19.4472 Y-1.1542
G01 X19.4334 Y-1.1589
G01 X19.4251 Y-1.1634
G01 X19.4174 Y-1.1689
G01 X19.4101 Y-1.1761
G01 X19.4043 Y-1.1836
G01 X19.3992 Y-1.1926
G01 X19.3958 Y-1.2014
G01 X19.3935 Y-1.2105
G01 X19.3925 Y-1.2208
G01 X19.3925 Y-3.2234
G01 X19.3940 Y-3.2370
G01 X19.3982 Y-3.2501
G01 X19.4048 Y-3.2621
G01 X19.4136 Y-3.2726
G01 X19.4236 Y-3.2807
G01 X19.4357 Y-3.2872
G01 X19.4488 Y-3.2912
G01 X19.4625 Y-3.2925
G00 Z2.0000
G00 X19.2725 Y-3.3119
G01 F70.00
G01 Z-0.0600
G01 F120.00
G01 X19.2811 Y-3.3282
G01 X19.2908 Y-3.3434
G01 X19.3018 Y-3.3577
G01 X19.3140 Y-3.3710
G01 X19.3273 Y-3.3832
G01 X19.3416 Y-3.3942
G01 X19.3568 Y-3.4039
G01 X19.3731 Y-3.4125
G01 X19.2725 Y-3.4125
G01 X19.2725 Y-3.3119
G00 Z2.0000
G00 X18.3519 Y-3.4125
G01 F70.00
G01 Z-0.0600
G01 F120.00
G01 X18.3682 Y-3.4039
G01 X18.3834 Y-3.3942
G01 X18.3977 Y-3.3832
G01 X18.4110 Y-3.3710
G01 X18.4232 Y-3.3577
G01 X18.4342 Y-3.3434
G01 X18.4439 Y-3.3282
G01 X18.4525 Y-3.3119
G01 X18.4525 Y-3.4125
G01 X18.3519 Y-3.4125
G00 Z2.0000
G00 X16.8650 Y-4.3406
G01 F70.00
G01 Z-0.0600
G01 F120.00
G01 X16.8564 Y-4.3243
G01 X16.8467 Y-4.3091
G01 X16.8357 Y-4.2948
G01 X16.8235 Y-4.2815
G01 X16.8102 Y-4.2693
G01 X16.7959 Y-4.2583
G01 X16.7807 Y-4.2486
G01 X16.7644 Y-4.2400
G01 X16.8650 Y-4.2400
G01 X16.8650 Y-4.3406
G00 Z2.0000
G00 X16.4859 Y-4.2200
G01 F70.00
G01 Z-0.0600
G01 F120.00
G01 X16.3851 Y-4.2200
G01 X16.3851 Y-4.1190
G01 X16.3939 Y-4.1357
G01 X16.4037 Y-4.1509
G01 X16.4147 Y-4.1652
G01 X16.4269 Y-4.1785
G01 X16.4401 Y-4.1907
G01 X16.4544 Y-4.2017
G01 X16.4696 Y-4.2114
G01 X16.4859 Y-4.2200
G00 Z2.0000
G00 X16.3852 Y-3.5335
G01 F70.00
G01 Z-0.0600
G01 F120.00
G01 X16.3852 Y-2.7327
G01 X16.4525 Y-2.7327
G01 X16.4525 Y-3.2225
G01 X16.4533 Y-3.2405
G01 X16.4556 Y-3.2584
G01 X16.4608 Y-3.2810
G01 X16.4695 Y-3.3052
G01 X16.4811 Y-3.3282
G01 X16.4954 Y-3.3497
G01 X16.5122 Y-3.3692
G01 X16.5313 Y-3.3865
G01 X16.5523 Y-3.4013
G01 X16.5731 Y-3.4125
G01 X16.5445 Y-3.4148
G01 X16.5293 Y-3.4176
G01 X16.5144 Y-3.4215
G01 X16.4879 Y-3.4316
G01 X16.4741 Y-3.4385
G01 X16.4608 Y-3.4465
G01 X16.4482 Y-3.4554
G01 X16.4362 Y-3.4652
G01 X16.4163 Y-3.4853
G01 X16.3993 Y-3.5080
G01 X16.3914 Y-3.5212
G01 X16.3852 Y-3.5335
G00 Z2.0000
G00 X15.2641 Y-3.4325
G01 F70.00
G01 Z-0.0600
G01 F120.00
G01 X15.3501 Y-3.4325
G01 X15.3648 Y-3.4318
G01 X15.3648 Y-3.5335
G01 X15.3561 Y-3.5168
G01 X15.3463 Y-3.5016
G01 X15.3353 Y-3.4873
G01 X15.3231 Y-3.4740
G01 X15.3099 Y-3.4618
G01 X15.2956 Y-3.4508
G01 X15.2804 Y-3.4411
G01 X15.2641 Y-3.4325
G00 Z2.0000
G00 X15.3648 Y-4.1190
G01 F70.00
G01 Z-0.0600
G01 F120.00
G01 X15.3648 Y-4.2200
G01 X15.2641 Y-4.2200
G01 X15.2804 Y-4.2114
G01 X15.2956 Y-4.2017
G01 X15.3099 Y-4.1907
G01 X15.3231 Y-4.1785
G01 X15.3353 Y-4.1652
G01 X15.3463 Y-4.1509
G01 X15.3561 Y-4.1357
G01 X15.3648 Y-4.1190
G00 Z2.0000
G00 X14.9856 Y-4.2400
G01 F70.00
G01 Z-0.0600
G01 F120.00
G01 X14.9693 Y-4.2486
G01 X14.9541 Y-4.2583
G01 X14.9398 Y-4.2693
G01 X14.9265 Y-4.2815
G01 X14.9143 Y-4.2948
G01 X14.9033 Y-4.3091
G01 X14.8936 Y-4.3243
G01 X14.8850 Y-4.3406
G01 X14.8850 Y-4.2400
G01 X14.9856 Y-4.2400
G00 Z2.0000
G00 X13.7475 Y-3.3625
G01 F70.00
G01 Z-0.0600
G01 F120.00
G01 X15.3492 Y-3.3625
G01 X15.3612 Y-3.3618
G01 X15.3731 Y-3.3601
G01 X15.3947 Y-3.3543
G01 X15.4150 Y-3.3451
G01 X15.4253 Y-3.3389
G01 X15.4348 Y-3.3319
G01 X15.4348 Y-4.2900
G01 X15.0733 Y-4.2900
G01 X15.0579 Y-4.2911
G01 X15.0427 Y-4.2938
G01 X15.0230 Y-4.3000
G01 X15.0045 Y-4.3090
G01 X14.9875 Y-4.3207
G01 X14.9724 Y-4.3347
G01 X14.9596 Y-4.3508
G01 X14.9492 Y-4.3686
G01 X14.9421 Y-4.3861
G01 X14.9371 Y-4.4061
G01 X14.9355 Y-4.4180
G01 X14.9350 Y-4.4300
G01 X14.9351 Y-5.7352
G01 X14.9363 Y-5.7488
G01 X14.9392 Y-5.7640
G01 X14.9438 Y-5.7788
G01 X14.9492 Y-5.7914
G01 X14.9558 Y-5.8034
G01 X14.9646 Y-5.8161
G01 X14.9748 Y-5.8278
G01 X14.9849 Y-5.8371
G01 X14.9944 Y-5.8445
G01 X15.0045 Y-5.8510
G01 X15.0151 Y-5.8566
G01 X15.0262 Y-5.8612
G01 X15.0377 Y-5.8649
G01 X15.0494 Y-5.8676
G01 X15.0613 Y-5.8693
G01 X15.0733 Y-5.8700
G01 X16.6767 Y-5.8700
G01 X16.6921 Y-5.8689
G01 X16.7073 Y-5.8662
G01 X16.7222 Y-5.8618
G01 X16.7349 Y-5.8566
G01 X16.7513 Y-5.8474
G01 X16.7664 Y-5.8360
G01 X16.7799 Y-5.8227
G01 X16.7914 Y-5.8078
G01 X16.8008 Y-5.7914
G01 X16.8079 Y-5.7739
G01 X16.8126 Y-5.7556
G01 X16.8148 Y-5.7369
G01 X16.8150 Y-4.4300
G01 X16.8137 Y-4.4112
G01 X16.8095 Y-4.3910
G01 X16.8023 Y-4.3717
G01 X16.7914 Y-4.3522
G01 X16.7787 Y-4.3360
G01 X16.7638 Y-4.3218
G01 X16.7470 Y-4.3099
G01 X16.7286 Y-4.3007
G01 X16.7073 Y-4.2938
G01 X16.6921 Y-4.2911
G01 X16.6767 Y-4.2900
G01 X16.3151 Y-4.2900
G01 X16.3152 Y-2.6626
G01 X16.5225 Y-2.6627
G01 X16.5225 Y-3.2225
G01 X16.5238 Y-3.2413
G01 X16.5280 Y-3.2615
G01 X16.5345 Y-3.2792
G01 X16.5433 Y-3.2959
G01 X16.5554 Y-3.3126
G01 X16.5698 Y-3.3274
G01 X16.5847 Y-3.3389
G01 X16.6011 Y-3.3483
G01 X16.6186 Y-3.3554
G01 X16.6403 Y-3.3607
G01 X16.6625 Y-3.3625
G01 X18.2642 Y-3.3625
G01 X18.2864 Y-3.3604
G01 X18.3064 Y-3.3554
G01 X18.3254 Y-3.3476
G01 X18.3445 Y-3.3360
G01 X18.3578 Y-3.3251
G01 X18.3685 Y-3.3139
G01 X18.3779 Y-3.3017
G01 X18.3860 Y-3.2885
G01 X18.3931 Y-3.2729
G01 X18.3979 Y-3.2582
G01 X18.4012 Y-3.2413
G01 X18.4025 Y-3.2259
G01 X18.4025 Y-1.2208
G01 X18.4014 Y-1.2054
G01 X18.3987 Y-1.1902
G01 X18.3943 Y-1.1753
G01 X18.3891 Y-1.1626
G01 X18.3799 Y-1.1462
G01 X18.3685 Y-1.1311
G01 X18.3552 Y-1.1176
G01 X18.3403 Y-1.1061
G01 X18.3239 Y-1.0967
G01 X18.3064 Y-1.0896
G01 X18.2881 Y-1.0849
G01 X18.2694 Y-1.0827
G01 X16.6625 Y-1.0825
G01 X16.6488 Y-1.0832
G01 X16.6335 Y-1.0855
G01 X16.6137 Y-1.0913
G01 X16.5950 Y-1.0999
G01 X16.5777 Y-1.1111
G01 X16.5611 Y-1.1260
G01 X16.5480 Y-1.1419
G01 X16.5374 Y-1.1596
G01 X16.5290 Y-1.1802
G01 X16.5243 Y-1.2003
G01 X16.5225 Y-1.2225
G01 X16.5225 Y-1.7824
G01 X15.4875 Y-1.7823
G01 X15.4875 Y-1.2225
G01 X15.4862 Y-1.2037
G01 X15.4824 Y-1.1852
G01 X15.4762 Y-1.1673
G01 X15.4676 Y-1.1505
G01 X15.4579 Y-1.1364
G01 X15.4453 Y-1.1223
G01 X15.4309 Y-1.1101
G01 X15.4150 Y-1.0999
G01 X15.3979 Y-1.0919
G01 X15.3865 Y-1.0880
G01 X15.3731 Y-1.0849
G01 X15.3595 Y-1.0830
G01 X15.3475 Y-1.0825
G01 X13.7475 Y-1.0825
G01 X13.7321 Y-1.0834
G01 X13.7168 Y-1.0859
G01 X13.7020 Y-1.0901
G01 X13.6876 Y-1.0959
G01 X13.6712 Y-1.1051
G01 X13.6561 Y-1.1165
G01 X13.6426 Y-1.1298
G01 X13.6301 Y-1.1462
G01 X13.6209 Y-1.1626
G01 X13.6140 Y-1.1802
G01 X13.6096 Y-1.1986
G01 X13.6076 Y-1.2173
G01 X13.6075 Y-3.2259
G01 X13.6084 Y-3.2379
G01 X13.6105 Y-3.2515
G01 X13.6140 Y-3.2648
G01 X13.6188 Y-3.2777
G01 X13.6249 Y-3.2900
G01 X13.6321 Y-3.3017
G01 X13.6404 Y-3.3126
G01 X13.6497 Y-3.3227
G01 X13.6600 Y-3.3318
G01 X13.6712 Y-3.3399
G01 X13.6830 Y-3.3468
G01 X13.6955 Y-3.3525
G01 X13.7085 Y-3.3570
G01 X13.7202 Y-3.3598
G01 X13.7338 Y-3.3618
G01 X13.7475 Y-3.3625
G00 Z2.0000
G00 X13.7475 Y-3.2925
G01 F70.00
G01 Z-0.0600
G01 F120.00
G01 X15.3475 Y-3.2925
G01 X15.3612 Y-3.2912
G01 X15.3735 Y-3.2875
G01 X15.3820 Y-3.2834
G01 X15.3906 Y-3.2777
G01 X15.3982 Y-3.2708
G01 X15.4042 Y-3.2635
G01 X15.4096 Y-3.2547
G01 X15.4134 Y-3.2461
G01 X15.4160 Y-3.2370
G01 X15.4174 Y-3.2268
G01 X15.4175 Y-2.5927
G01 X15.5049 Y-2.5927
G01 X15.5048 Y-4.3600
G01 X15.0681 Y-4.3603
G01 X15.0588 Y-4.3619
G01 X15.0490 Y-4.3650
G01 X15.0405 Y-4.3691
G01 X15.0319 Y-4.3748
G01 X15.0249 Y-4.3811
G01 X15.0183 Y-4.3890
G01 X15.0129 Y-4.3978
G01 X15.0091 Y-4.4064
G01 X15.0060 Y-4.4180
G01 X15.0050 Y-4.4300
G01 X15.0050 Y-5.7300
G01 X15.0062 Y-5.7428
G01 X15.0094 Y-5.7544
G01 X15.0137 Y-5.7638
G01 X15.0198 Y-5.7731
G01 X15.0267 Y-5.7807
G01 X15.0347 Y-5.7872
G01 X15.0435 Y-5.7925
G01 X15.0530 Y-5.7965
G01 X15.0630 Y-5.7990
G01 X15.0733 Y-5.8000
G01 X16.6750 Y-5.8000
G01 X16.6903 Y-5.7983
G01 X16.7041 Y-5.7936
G01 X16.7124 Y-5.7891
G01 X16.7201 Y-5.7836
G01 X16.7269 Y-5.7770
G01 X16.7332 Y-5.7689
G01 X16.7379 Y-5.7607
G01 X16.7417 Y-5.7511
G01 X16.7440 Y-5.7420
G01 X16.7450 Y-5.7317
G01 X16.7450 Y-4.4300
G01 X16.7441 Y-4.4189
G01 X16.7417 Y-4.4089
G01 X16.7379 Y-4.3993
G01 X16.7327 Y-4.3904
G01 X16.7263 Y-4.3824
G01 X16.7194 Y-4.3759
G01 X16.7110 Y-4.3700
G01 X16.7018 Y-4.3653
G01 X16.6920 Y-4.3621
G01 X16.6819 Y-4.3603
G01 X16.2451 Y-4.3600
G01 X16.2452 Y-2.5926
G01 X16.5925 Y-2.5927
G01 X16.5927 Y-3.2276
G01 X16.5942 Y-3.2378
G01 X16.5972 Y-3.2477
G01 X16.6016 Y-3.2570
G01 X16.6073 Y-3.2656
G01 X16.6142 Y-3.2732
G01 X16.6222 Y-3.2797
G01 X16.6310 Y-3.2850
G01 X16.6405 Y-3.2890
G01 X16.6514 Y-3.2916
G01 X16.6625 Y-3.2925
G01 X18.2625 Y-3.2925
G01 X18.2728 Y-3.2917
G01 X18.2828 Y-3.2895
G01 X18.2924 Y-3.2858
G01 X18.3014 Y-3.2807
G01 X18.3138 Y-3.2701
G01 X18.3192 Y-3.2635
G01 X18.3238 Y-3.2563
G01 X18.3275 Y-3.2485
G01 X18.3302 Y-3.2403
G01 X18.3319 Y-3.2319
G01 X18.3325 Y-3.2234
G01 X18.3325 Y-1.2225
G01 X18.3310 Y-1.2080
G01 X18.3261 Y-1.1934
G01 X18.3212 Y-1.1843
G01 X18.3155 Y-1.1768
G01 X18.3089 Y-1.1701
G01 X18.3007 Y-1.1638
G01 X18.2924 Y-1.1592
G01 X18.2828 Y-1.1555
G01 X18.2736 Y-1.1534
G01 X18.2642 Y-1.1525
G01 X16.6625 Y-1.1525
G01 X16.6472 Y-1.1542
G01 X16.6365 Y-1.1575
G01 X16.6265 Y-1.1625
G01 X16.6174 Y-1.1689
G01 X16.6095 Y-1.1768
G01 X16.6029 Y-1.1858
G01 X16.5978 Y-1.1957
G01 X16.5944 Y-1.2063
G01 X16.5927 Y-1.2174
G01 X16.5925 Y-1.8524
G01 X15.4175 Y-1.8523
G01 X15.4174 Y-1.2182
G01 X15.4162 Y-1.2088
G01 X15.4134 Y-1.1989
G01 X15.4096 Y-1.1903
G01 X15.4047 Y-1.1822
G01 X15.3988 Y-1.1749
G01 X15.3912 Y-1.1678
G01 X15.3827 Y-1.1620
G01 X15.3743 Y-1.1578
G01 X15.3612 Y-1.1538
G01 X15.3475 Y-1.1525
G01 X13.7475 Y-1.1525
G01 X13.7330 Y-1.1540
G01 X13.7184 Y-1.1589
G01 X13.7093 Y-1.1638
G01 X13.7018 Y-1.1695
G01 X13.6945 Y-1.1768
G01 X13.6888 Y-1.1843
G01 X13.6842 Y-1.1926
G01 X13.6808 Y-1.2014
G01 X13.6785 Y-1.2105
G01 X13.6775 Y-1.2208
G01 X13.6775 Y-3.2234
G01 X13.6788 Y-3.2362
G01 X13.6828 Y-3.2493
G01 X13.6893 Y-3.2614
G01 X13.6980 Y-3.2720
G01 X13.7086 Y-3.2807
G01 X13.7207 Y-3.2872
G01 X13.7338 Y-3.2912
G01 X13.7475 Y-3.2925
G00 Z2.0000
G00 X13.5575 Y-3.3119
G01 F70.00
G01 Z-0.0600
G01 F120.00
G01 X13.5661 Y-3.3282
G01 X13.5758 Y-3.3434
G01 X13.5868 Y-3.3577
G01 X13.5990 Y-3.3710
G01 X13.6123 Y-3.3832
G01 X13.6266 Y-3.3942
G01 X13.6418 Y-3.4039
G01 X13.6581 Y-3.4125
G01 X13.5575 Y-3.4125
G01 X13.5575 Y-3.3119
G00 Z2.0000
G00 X12.6369 Y-3.4125
G01 F70.00
G01 Z-0.0600
G01 F120.00
G01 X12.6532 Y-3.4039
G01 X12.6684 Y-3.3942
G01 X12.6827 Y-3.3832
G01 X12.6960 Y-3.3710
G01 X12.7082 Y-3.3577
G01 X12.7192 Y-3.3434
G01 X12.7289 Y-3.3282
G01 X12.7375 Y-3.3119
G01 X12.7375 Y-3.4125
G01 X12.6369 Y-3.4125
G00 Z2.0000
G00 X11.2900 Y-4.1000
G01 F70.00
G01 Z-0.0600
G01 F120.00
G01 X11.2900 Y-6.6934
G01 X11.0300 Y-6.6934
G01 X11.0300 Y-6.3300
G01 X11.0291 Y-6.3189
G01 X11.0262 Y-6.3072
G01 X11.0213 Y-6.2962
G01 X11.0147 Y-6.2863
G01 X11.0057 Y-6.2770
G01 X10.9952 Y-6.2695
G01 X10.9844 Y-6.2644
G01 X10.9728 Y-6.2612
G01 X10.9600 Y-6.2600
G01 X9.3600 Y-6.2600
G01 X9.3447 Y-6.2617
G01 X9.3348 Y-6.2647
G01 X9.3248 Y-6.2695
G01 X9.3156 Y-6.2759
G01 X9.3081 Y-6.2830
G01 X9.3013 Y-6.2918
G01 X9.2964 Y-6.3009
G01 X9.2925 Y-6.3113
G01 X9.2905 Y-6.3214
G01 X9.2900 Y-6.3300
G01 X9.2900 Y-6.6934
G01 X9.0300 Y-6.6934
G01 X9.0300 Y-4.1000
G01 X9.4622 Y-4.1000
G01 X9.4750 Y-4.0983
G01 X9.4872 Y-4.0943
G01 X9.4985 Y-4.0882
G01 X9.5091 Y-4.0795
G01 X9.5174 Y-4.0696
G01 X9.5236 Y-4.0584
G01 X9.5278 Y-4.0462
G01 X9.5296 Y-4.0326
G01 X9.5296 Y-3.6225
G01 X9.5279 Y-3.6072
G01 X9.5243 Y-3.5957
G01 X9.5192 Y-3.5858
G01 X9.5127 Y-3.5768
G01 X9.5041 Y-3.5684
G01 X9.4942 Y-3.5616
G01 X9.4840 Y-3.5569
G01 X9.4725 Y-3.5537
G01 X9.4614 Y-3.5525
G01 X7.7025 Y-3.5525
G01 X7.7025 Y-0.8925
G01 X9.9625 Y-0.8925
G01 X9.9628 Y-1.5290
G01 X9.9653 Y-1.5416
G01 X9.9700 Y-1.5536
G01 X9.9768 Y-1.5645
G01 X9.9855 Y-1.5740
G01 X9.9958 Y-1.5817
G01 X10.0073 Y-1.5875
G01 X10.0197 Y-1.5910
G01 X10.0325 Y-1.5921
G01 X10.5509 Y-1.5921
G01 X10.5653 Y-1.5898
G01 X10.5790 Y-1.5847
G01 X10.5912 Y-1.5768
G01 X10.6011 Y-1.5672
G01 X10.6080 Y-1.5574
G01 X10.6131 Y-1.5465
G01 X10.6162 Y-1.5358
G01 X10.6175 Y-1.5239
G01 X10.6175 Y-0.8925
G01 X12.8775 Y-0.8925
G01 X12.8775 Y-3.5525
G01 X10.8595 Y-3.5525
G01 X10.8467 Y-3.5538
G01 X10.8352 Y-3.5572
G01 X10.8236 Y-3.5629
G01 X10.8133 Y-3.5706
G01 X10.8036 Y-3.5815
G01 X10.7964 Y-3.5941
G01 X10.7919 Y-3.6080
G01 X10.7904 Y-3.6216
G01 X10.7904 Y-4.0326
G01 X10.7919 Y-4.0445
G01 X10.7957 Y-4.0568
G01 X10.8012 Y-4.0674
G01 X10.8085 Y-4.0770
G01 X10.8187 Y-4.0862
G01 X10.8304 Y-4.0933
G01 X10.8433 Y-4.0979
G01 X10.8569 Y-4.0999
G01 X11.2900 Y-4.1000
G00 Z2.0000
G00 X11.2200 Y-4.1700
G01 F70.00
G01 Z-0.0600
G01 F120.00
G01 X11.2200 Y-6.6234
G01 X11.1000 Y-6.6234
G01 X11.1000 Y-6.3266
G01 X11.0982 Y-6.3078
G01 X11.0935 Y-6.2877
G01 X11.0851 Y-6.2671
G01 X11.0735 Y-6.2480
G01 X11.0590 Y-6.2310
G01 X11.0420 Y-6.2165
G01 X11.0245 Y-6.2057
G01 X11.0039 Y-6.1971
G01 X10.9822 Y-6.1918
G01 X10.9600 Y-6.1900
G01 X9.3600 Y-6.1900
G01 X9.3446 Y-6.1909
G01 X9.3277 Y-6.1938
G01 X9.3096 Y-6.1994
G01 X9.2910 Y-6.2082
G01 X9.2752 Y-6.2186
G01 X9.2610 Y-6.2310
G01 X9.2486 Y-6.2452
G01 X9.2382 Y-6.2610
G01 X9.2300 Y-6.2780
G01 X9.2242 Y-6.2960
G01 X9.2211 Y-6.3129
G01 X9.2200 Y-6.3283
G01 X9.2200 Y-6.6234
G01 X9.1000 Y-6.6234
G01 X9.1000 Y-4.1700
G01 X9.4596 Y-4.1700
G01 X9.4734 Y-4.1693
G01 X9.4870 Y-4.1673
G01 X9.5003 Y-4.1640
G01 X9.5132 Y-4.1593
G01 X9.5241 Y-4.1543
G01 X9.5360 Y-4.1474
G01 X9.5458 Y-4.1404
G01 X9.5562 Y-4.1314
G01 X9.5657 Y-4.1214
G01 X9.5788 Y-4.1034
G01 X9.5847 Y-4.0929
G01 X9.5896 Y-4.0820
G01 X9.5962 Y-4.0607
G01 X9.5994 Y-4.0386
G01 X9.5996 Y-3.6208
G01 X9.5986 Y-3.6054
G01 X9.5959 Y-3.5902
G01 X9.5890 Y-3.5689
G01 X9.5788 Y-3.5491
G01 X9.5657 Y-3.5311
G01 X9.5498 Y-3.5154
G01 X9.5316 Y-3.5024
G01 X9.5116 Y-3.4925
G01 X9.4903 Y-3.4859
G01 X9.4682 Y-3.4828
G01 X7.7725 Y-3.4825
G01 X7.7725 Y-0.9625
G01 X9.8925 Y-0.9625
G01 X9.8925 Y-1.5221
G01 X9.8932 Y-1.5359
G01 X9.8952 Y-1.5495
G01 X9.8980 Y-1.5611
G01 X9.9019 Y-1.5725
G01 X9.9067 Y-1.5836
G01 X9.9124 Y-1.5941
G01 X9.9190 Y-1.6042
G01 X9.9265 Y-1.6136
G01 X9.9347 Y-1.6224
G01 X9.9437 Y-1.6304
G01 X9.9533 Y-1.6376
G01 X9.9635 Y-1.6440
G01 X9.9742 Y-1.6494
G01 X9.9853 Y-1.6540
G01 X9.9968 Y-1.6575
G01 X10.0086 Y-1.6601
G01 X10.0205 Y-1.6616
G01 X10.0325 Y-1.6621
G01 X10.5578 Y-1.6618
G01 X10.5714 Y-1.6601
G01 X10.5848 Y-1.6571
G01 X10.5979 Y-1.6528
G01 X10.6089 Y-1.6480
G01 X10.6195 Y-1.6422
G01 X10.6309 Y-1.6346
G01 X10.6415 Y-1.6259
G01 X10.6501 Y-1.6174
G01 X10.6579 Y-1.6083
G01 X10.6649 Y-1.5985
G01 X10.6710 Y-1.5881
G01 X10.6762 Y-1.5773
G01 X10.6804 Y-1.5661
G01 X10.6837 Y-1.5545
G01 X10.6860 Y-1.5427
G01 X10.6872 Y-1.5307
G01 X10.6875 Y-0.9625
G01 X12.8075 Y-0.9625
G01 X12.8075 Y-3.4825
G01 X10.8586 Y-3.4825
G01 X10.8381 Y-3.4843
G01 X10.8197 Y-3.4885
G01 X10.8021 Y-3.4952
G01 X10.7840 Y-3.5051
G01 X10.7702 Y-3.5154
G01 X10.7590 Y-3.5260
G01 X10.7479 Y-3.5391
G01 X10.7394 Y-3.5520
G01 X10.7324 Y-3.5658
G01 X10.7269 Y-3.5802
G01 X10.7227 Y-3.5969
G01 X10.7207 Y-3.6122
G01 X10.7205 Y-4.0369
G01 X10.7227 Y-4.0556
G01 X10.7274 Y-4.0739
G01 X10.7345 Y-4.0914
G01 X10.7430 Y-4.1063
G01 X10.7521 Y-4.1188
G01 X10.7626 Y-4.1302
G01 X10.7729 Y-4.1393
G01 X10.7855 Y-4.1483
G01 X10.7989 Y-4.1558
G01 X10.8132 Y-4.1618
G01 X10.8263 Y-4.1658
G01 X10.8415 Y-4.1687
G01 X10.8604 Y-4.1700
G01 X11.2200 Y-4.1700
G00 Z2.0000
G00 X11.1500 Y-4.3406
G01 F70.00
G01 Z-0.0600
G01 F120.00
G01 X11.1414 Y-4.3243
G01 X11.1317 Y-4.3091
G01 X11.1207 Y-4.2948
G01 X11.1085 Y-4.2815
G01 X11.0952 Y-4.2693
G01 X11.0809 Y-4.2583
G01 X11.0657 Y-4.2486
G01 X11.0494 Y-4.2400
G01 X11.1500 Y-4.2400
G01 X11.1500 Y-4.3406
G00 Z2.0000
G00 X10.7709 Y-4.2200
G01 F70.00
G01 Z-0.0600
G01 F120.00
G01 X10.6701 Y-4.2200
G01 X10.6701 Y-4.1190
G01 X10.6789 Y-4.1357
G01 X10.6887 Y-4.1509
G01 X10.6997 Y-4.1652
G01 X10.7119 Y-4.1785
G01 X10.7251 Y-4.1907
G01 X10.7394 Y-4.2017
G01 X10.7546 Y-4.2114
G01 X10.7709 Y-4.2200
G00 Z2.0000
G00 X10.6702 Y-3.5335
G01 F70.00
G01 Z-0.0600
G01 F120.00
G01 X10.6702 Y-2.7327
G01 X10.7375 Y-2.7327
G01 X10.7375 Y-3.2225
G01 X10.7383 Y-3.2405
G01 X10.7406 Y-3.2584
G01 X10.7465 Y-3.2835
G01 X10.7555 Y-3.3076
G01 X10.7674 Y-3.3305
G01 X10.7804 Y-3.3497
G01 X10.7972 Y-3.3692
G01 X10.8163 Y-3.3865
G01 X10.8373 Y-3.4013
G01 X10.8581 Y-3.4125
G01 X10.8295 Y-3.4148
G01 X10.8143 Y-3.4176
G01 X10.7994 Y-3.4215
G01 X10.7729 Y-3.4316
G01 X10.7591 Y-3.4385
G01 X10.7458 Y-3.4465
G01 X10.7232 Y-3.4635
G01 X10.7119 Y-3.4740
G01 X10.7013 Y-3.4853
G01 X10.6843 Y-3.5080
G01 X10.6764 Y-3.5212
G01 X10.6702 Y-3.5335
G00 Z2.0000
G00 X9.5491 Y-3.4325
G01 F70.00
G01 Z-0.0600
G01 F120.00
G01 X9.6351 Y-3.4325
G01 X9.6498 Y-3.4318
G01 X9.6498 Y-3.5335
G01 X9.6411 Y-3.5168
G01 X9.6313 Y-3.5016
G01 X9.6203 Y-3.4873
G01 X9.6081 Y-3.4740
G01 X9.5949 Y-3.4618
G01 X9.5806 Y-3.4508
G01 X9.5654 Y-3.4411
G01 X9.5491 Y-3.4325
G00 Z2.0000
G00 X9.6498 Y-4.1190
G01 F70.00
G01 Z-0.0600
G01 F120.00
G01 X9.6498 Y-4.2200
G01 X9.5491 Y-4.2200
G01 X9.5654 Y-4.2114
G01 X9.5806 Y-4.2017
G01 X9.5949 Y-4.1907
G01 X9.6081 Y-4.1785
G01 X9.6203 Y-4.1652
G01 X9.6313 Y-4.1509
G01 X9.6411 Y-4.1357
G01 X9.6498 Y-4.1190
G00 Z2.0000
G00 X9.2706 Y-4.2400
G01 F70.00
G01 Z-0.0600
G01 F120.00
G01 X9.2543 Y-4.2486
G01 X9.2391 Y-4.2583
G01 X9.2248 Y-4.2693
G01 X9.2115 Y-4.2815
G01 X9.1993 Y-4.2948
G01 X9.1883 Y-4.3091
G01 X9.1786 Y-4.3243
G01 X9.1700 Y-4.3406
G01 X9.1700 Y-4.2400
G01 X9.2706 Y-4.2400
G00 Z2.0000
G00 X8.0325 Y-3.3625
G01 F70.00
G01 Z-0.0600
G01 F120.00
G01 X9.6342 Y-3.3625
G01 X9.6462 Y-3.3618
G01 X9.6581 Y-3.3601
G01 X9.6797 Y-3.3543
G01 X9.7000 Y-3.3451
G01 X9.7103 Y-3.3389
G01 X9.7198 Y-3.3319
G01 X9.7198 Y-4.2900
G01 X9.3583 Y-4.2900
G01 X9.3429 Y-4.2911
G01 X9.3277 Y-4.2938
G01 X9.3080 Y-4.3000
G01 X9.2895 Y-4.3090
G01 X9.2725 Y-4.3207
G01 X9.2574 Y-4.3347
G01 X9.2446 Y-4.3508
G01 X9.2342 Y-4.3686
G01 X9.2271 Y-4.3861
G01 X9.2221 Y-4.4061
G01 X9.2205 Y-4.4180
G01 X9.2200 Y-4.4300
G01 X9.2201 Y-5.7352
G01 X9.2213 Y-5.7488
G01 X9.2242 Y-5.7640
G01 X9.2288 Y-5.7788
G01 X9.2342 Y-5.7914
G01 X9.2408 Y-5.8034
G01 X9.2496 Y-5.8161
G01 X9.2598 Y-5.8278
G01 X9.2699 Y-5.8371
G01 X9.2794 Y-5.8445
G01 X9.2895 Y-5.8510
G01 X9.3001 Y-5.8566
G01 X9.3112 Y-5.8612
G01 X9.3227 Y-5.8649
G01 X9.3344 Y-5.8676
G01 X9.3463 Y-5.8693
G01 X9.3583 Y-5.8700
G01 X10.9617 Y-5.8700
G01 X10.9771 Y-5.8689
G01 X10.9923 Y-5.8662
G01 X11.0055 Y-5.8624
G01 X11.0199 Y-5.8566
G01 X11.0363 Y-5.8474
G01 X11.0514 Y-5.8360
G01 X11.0649 Y-5.8227
G01 X11.0764 Y-5.8078
G01 X11.0858 Y-5.7914
G01 X11.0929 Y-5.7739
G01 X11.0976 Y-5.7556
G01 X11.0998 Y-5.7369
G01 X11.1000 Y-4.4300
G01 X11.0987 Y-4.4112
G01 X11.0945 Y-4.3910
G01 X11.0873 Y-4.3717
G01 X11.0774 Y-4.3537
G01 X11.0637 Y-4.3360
G01 X11.0488 Y-4.3218
G01 X11.0320 Y-4.3099
G01 X11.0120 Y-4.3000
G01 X10.9923 Y-4.2938
G01 X10.9771 Y-4.2911
G01 X10.9617 Y-4.2900
G01 X10.6001 Y-4.2900
G01 X10.6002 Y-2.6626
G01 X10.8075 Y-2.6627
G01 X10.8075 Y-3.2225
G01 X10.8088 Y-3.2413
G01 X10.8130 Y-3.2615
G01 X10.8195 Y-3.2792
G01 X10.8283 Y-3.2959
G01 X10.8393 Y-3.3113
G01 X10.8522 Y-3.3251
G01 X10.8683 Y-3.3379
G01 X10.8861 Y-3.3483
G01 X10.9036 Y-3.3554
G01 X10.9253 Y-3.3607
G01 X10.9475 Y-3.3625
G01 X12.5492 Y-3.3625
G01 X12.5714 Y-3.3604
G01 X12.5914 Y-3.3554
G01 X12.6104 Y-3.3476
G01 X12.6295 Y-3.3360
G01 X12.6415 Y-3.3262
G01 X12.6535 Y-3.3139
G01 X12.6629 Y-3.3017
G01 X12.6718 Y-3.2870
G01 X12.6781 Y-3.2729
G01 X12.6833 Y-3.2565
G01 X12.6862 Y-3.2413
G01 X12.6875 Y-3.2259
G01 X12.6875 Y-1.2208
G01 X12.6866 Y-1.2071
G01 X12.6841 Y-1.1918
G01 X12.6799 Y-1.1770
G01 X12.6741 Y-1.1626
G01 X12.6649 Y-1.1462
G01 X12.6535 Y-1.1311
G01 X12.6402 Y-1.1176
G01 X12.6253 Y-1.1061
G01 X12.6089 Y-1.0967
G01 X12.5914 Y-1.0896
G01 X12.5731 Y-1.0849
G01 X12.5544 Y-1.0827
G01 X10.9475 Y-1.0825
G01 X10.9321 Y-1.0834
G01 X10.9185 Y-1.0855
G01 X10.8987 Y-1.0913
G01 X10.8800 Y-1.0999
G01 X10.8627 Y-1.1111
G01 X10.8461 Y-1.1260
G01 X10.8330 Y-1.1419
G01 X10.8224 Y-1.1596
G01 X10.8140 Y-1.1802
G01 X10.8093 Y-1.2003
G01 X10.8075 Y-1.2225
G01 X10.8075 Y-1.7824
G01 X9.7725 Y-1.7823
G01 X9.7725 Y-1.2225
G01 X9.7712 Y-1.2037
G01 X9.7674 Y-1.1852
G01 X9.7612 Y-1.1673
G01 X9.7526 Y-1.1505
G01 X9.7429 Y-1.1364
G01 X9.7303 Y-1.1223
G01 X9.7159 Y-1.1101
G01 X9.7000 Y-1.0999
G01 X9.6829 Y-1.0919
G01 X9.6715 Y-1.0880
G01 X9.6581 Y-1.0849
G01 X9.6445 Y-1.0830
G01 X9.6325 Y-1.0825
G01 X8.0325 Y-1.0825
G01 X8.0171 Y-1.0834
G01 X8.0018 Y-1.0859
G01 X7.9870 Y-1.0901
G01 X7.9726 Y-1.0959
G01 X7.9562 Y-1.1051
G01 X7.9411 Y-1.1165
G01 X7.9265 Y-1.1311
G01 X7.9151 Y-1.1462
G01 X7.9059 Y-1.1626
G01 X7.8990 Y-1.1802
G01 X7.8946 Y-1.1986
G01 X7.8926 Y-1.2173
G01 X7.8925 Y-3.2259
G01 X7.8936 Y-3.2396
G01 X7.8959 Y-3.2532
G01 X7.8990 Y-3.2648
G01 X7.9038 Y-3.2777
G01 X7.9099 Y-3.2900
G01 X7.9171 Y-3.3017
G01 X7.9254 Y-3.3126
G01 X7.9347 Y-3.3227
G01 X7.9450 Y-3.3318
G01 X7.9562 Y-3.3399
G01 X7.9665 Y-3.3460
G01 X7.9789 Y-3.3518
G01 X7.9919 Y-3.3565
G01 X8.0052 Y-3.3598
G01 X8.0188 Y-3.3618
G01 X8.0325 Y-3.3625
G00 Z2.0000
G00 X8.0325 Y-3.2925
G01 F70.00
G01 Z-0.0600
G01 F120.00
G01 X9.6325 Y-3.2925
G01 X9.6462 Y-3.2912
G01 X9.6585 Y-3.2875
G01 X9.6670 Y-3.2834
G01 X9.6756 Y-3.2777
G01 X9.6832 Y-3.2708
G01 X9.6892 Y-3.2635
G01 X9.6946 Y-3.2547
G01 X9.6984 Y-3.2461
G01 X9.7010 Y-3.2370
G01 X9.7024 Y-3.2268
G01 X9.7025 Y-2.5927
G01 X9.7899 Y-2.5927
G01 X9.7898 Y-4.3600
G01 X9.3531 Y-4.3603
G01 X9.3438 Y-4.3619
G01 X9.3340 Y-4.3650
G01 X9.3255 Y-4.3691
G01 X9.3169 Y-4.3748
G01 X9.3099 Y-4.3811
G01 X9.3033 Y-4.3890
G01 X9.2979 Y-4.3978
G01 X9.2941 Y-4.4064
G01 X9.2910 Y-4.4180
G01 X9.2900 Y-4.4300
G01 X9.2900 Y-5.7300
G01 X9.2912 Y-5.7428
G01 X9.2944 Y-5.7544
G01 X9.2987 Y-5.7638
G01 X9.3048 Y-5.7731
G01 X9.3117 Y-5.7807
G01 X9.3197 Y-5.7872
G01 X9.3285 Y-5.7925
G01 X9.3380 Y-5.7965
G01 X9.3480 Y-5.7990
G01 X9.3583 Y-5.8000
G01 X10.9600 Y-5.8000
G01 X10.9745 Y-5.7985
G01 X10.9891 Y-5.7936
G01 X10.9974 Y-5.7891
G01 X11.0057 Y-5.7830
G01 X11.0130 Y-5.7757
G01 X11.0187 Y-5.7682
G01 X11.0233 Y-5.7599
G01 X11.0267 Y-5.7511
G01 X11.0291 Y-5.7411
G01 X11.0300 Y-5.7317
G01 X11.0300 Y-4.4300
G01 X11.0291 Y-4.4189
G01 X11.0267 Y-4.4089
G01 X11.0229 Y-4.3993
G01 X11.0182 Y-4.3911
G01 X11.0119 Y-4.3830
G01 X11.0044 Y-4.3759
G01 X10.9960 Y-4.3700
G01 X10.9868 Y-4.3653
G01 X10.9770 Y-4.3621
G01 X10.9669 Y-4.3603
G01 X10.5301 Y-4.3600
G01 X10.5302 Y-2.5926
G01 X10.8775 Y-2.5927
G01 X10.8777 Y-3.2276
G01 X10.8792 Y-3.2378
G01 X10.8822 Y-3.2477
G01 X10.8866 Y-3.2570
G01 X10.8923 Y-3.2656
G01 X10.8992 Y-3.2732
G01 X10.9072 Y-3.2797
G01 X10.9160 Y-3.2850
G01 X10.9255 Y-3.2890
G01 X10.9364 Y-3.2916
G01 X10.9475 Y-3.2925
G01 X12.5475 Y-3.2925
G01 X12.5578 Y-3.2917
G01 X12.5678 Y-3.2895
G01 X12.5774 Y-3.2858
G01 X12.5864 Y-3.2807
G01 X12.5932 Y-3.2755
G01 X12.5994 Y-3.2695
G01 X12.6047 Y-3.2628
G01 X12.6092 Y-3.2555
G01 X12.6128 Y-3.2477
G01 X12.6154 Y-3.2395
G01 X12.6175 Y-3.2234
G01 X12.6175 Y-1.2225
G01 X12.6158 Y-1.2072
G01 X12.6111 Y-1.1934
G01 X12.6062 Y-1.1843
G01 X12.6005 Y-1.1768
G01 X12.5939 Y-1.1701
G01 X12.5857 Y-1.1638
G01 X12.5774 Y-1.1592
G01 X12.5686 Y-1.1558
G01 X12.5595 Y-1.1535
G01 X12.5492 Y-1.1525
G01 X10.9475 Y-1.1525
G01 X10.9322 Y-1.1542
G01 X10.9215 Y-1.1575
G01 X10.9115 Y-1.1625
G01 X10.9024 Y-1.1689
G01 X10.8945 Y-1.1768
G01 X10.8879 Y-1.1858
G01 X10.8828 Y-1.1957
G01 X10.8794 Y-1.2063
G01 X10.8777 Y-1.2174
G01 X10.8775 Y-1.8524
G01 X9.7025 Y-1.8523
G01 X9.7024 Y-1.2182
G01 X9.7012 Y-1.2088
G01 X9.6984 Y-1.1989
G01 X9.6946 Y-1.1903
G01 X9.6897 Y-1.1822
G01 X9.6838 Y-1.1749
G01 X9.6762 Y-1.1678
G01 X9.6677 Y-1.1620
G01 X9.6593 Y-1.1578
G01 X9.6462 Y-1.1538
G01 X9.6325 Y-1.1525
G01 X8.0325 Y-1.1525
G01 X8.0180 Y-1.1540
G01 X8.0034 Y-1.1589
G01 X7.9943 Y-1.1638
G01 X7.9868 Y-1.1695
G01 X7.9795 Y-1.1768
G01 X7.9738 Y-1.1843
G01 X7.9692 Y-1.1926
G01 X7.9655 Y-1.2022
G01 X7.9634 Y-1.2114
G01 X7.9625 Y-1.2208
G01 X7.9625 Y-3.2234
G01 X7.9640 Y-3.2370
G01 X7.9678 Y-3.2493
G01 X7.9743 Y-3.2614
G01 X7.9830 Y-3.2720
G01 X7.9936 Y-3.2807
G01 X8.0057 Y-3.2872
G01 X8.0188 Y-3.2912
G01 X8.0325 Y-3.2925
G00 Z2.0000
G00 X7.8425 Y-3.3119
G01 F70.00
G01 Z-0.0600
G01 F120.00
G01 X7.8511 Y-3.3282
G01 X7.8608 Y-3.3434
G01 X7.8718 Y-3.3577
G01 X7.8840 Y-3.3710
G01 X7.8973 Y-3.3832
G01 X7.9116 Y-3.3942
G01 X7.9268 Y-3.4039
G01 X7.9431 Y-3.4125
G01 X7.8425 Y-3.4125
G01 X7.8425 Y-3.3119
G00 Z2.0000
G00 X6.9219 Y-3.4125
G01 F70.00
G01 Z-0.0600
G01 F120.00
G01 X6.9382 Y-3.4039
G01 X6.9534 Y-3.3942
G01 X6.9677 Y-3.3832
G01 X6.9810 Y-3.3710
G01 X6.9932 Y-3.3577
G01 X7.0042 Y-3.3434
G01 X7.0139 Y-3.3282
G01 X7.0225 Y-3.3119
G01 X7.0225 Y-3.4125
G01 X6.9219 Y-3.4125
G00 Z2.0000
G00 X6.5415 Y-3.5333
G01 F70.00
G01 Z-0.0600
G01 F120.00
G01 X6.5416 Y-3.4325
G01 X6.6422 Y-3.4325
G01 X6.6259 Y-3.4410
G01 X6.6108 Y-3.4508
G01 X6.5965 Y-3.4618
G01 X6.5832 Y-3.4739
G01 X6.5710 Y-3.4872
G01 X6.5600 Y-3.5015
G01 X6.5503 Y-3.5167
G01 X6.5415 Y-3.5333
G00 Z2.0000
G00 X6.6418 Y-4.2225
G01 F70.00
G01 Z-0.0600
G01 F120.00
G01 X6.5409 Y-4.2225
G01 X6.5410 Y-4.1213
G01 X6.5498 Y-4.1381
G01 X6.5595 Y-4.1533
G01 X6.5705 Y-4.1676
G01 X6.5827 Y-4.1809
G01 X6.5960 Y-4.1931
G01 X6.6103 Y-4.2042
G01 X6.6255 Y-4.2139
G01 X6.6418 Y-4.2225
G00 Z2.0000
G00 X7.0200 Y-4.3431
G01 F70.00
G01 Z-0.0600
G01 F120.00
G01 X7.0114 Y-4.3268
G01 X7.0017 Y-4.3116
G01 X6.9907 Y-4.2973
G01 X6.9785 Y-4.2840
G01 X6.9652 Y-4.2718
G01 X6.9509 Y-4.2608
G01 X6.9357 Y-4.2511
G01 X6.9194 Y-4.2425
G01 X7.0200 Y-4.2425
G01 X7.0200 Y-4.3431
G00 Z2.0000
G00 X7.0900 Y-4.1725
G01 F70.00
G01 Z-0.0600
G01 F120.00
G01 X7.0900 Y-6.6258
G01 X6.9700 Y-6.6258
G01 X6.9700 Y-6.3291
G01 X6.9679 Y-6.3086
G01 X6.9635 Y-6.2902
G01 X6.9551 Y-6.2696
G01 X6.9435 Y-6.2505
G01 X6.9290 Y-6.2335
G01 X6.9120 Y-6.2190
G01 X6.8929 Y-6.2074
G01 X6.8723 Y-6.1990
G01 X6.8505 Y-6.1940
G01 X6.8300 Y-6.1925
G01 X5.2300 Y-6.1925
G01 X5.2146 Y-6.1934
G01 X5.1977 Y-6.1963
G01 X5.1796 Y-6.2019
G01 X5.1625 Y-6.2099
G01 X5.1466 Y-6.2201
G01 X5.1322 Y-6.2323
G01 X5.1196 Y-6.2464
G01 X5.1082 Y-6.2635
G01 X5.1000 Y-6.2805
G01 X5.0942 Y-6.2985
G01 X5.0911 Y-6.3154
G01 X5.0900 Y-6.3308
G01 X5.0900 Y-6.6258
G01 X4.9700 Y-6.6258
G01 X4.9700 Y-5.7802
G01 X4.9682 Y-5.7597
G01 X4.9640 Y-5.7413
G01 X4.9580 Y-5.7252
G01 X4.9510 Y-5.7114
G01 X4.9414 Y-5.6972
G01 X4.9302 Y-5.6842
G01 X4.9189 Y-5.6737
G01 X4.9050 Y-5.6636
G01 X4.8915 Y-5.6561
G01 X4.8756 Y-5.6495
G01 X4.8557 Y-5.6443
G01 X4.8353 Y-5.6420
G01 X4.6751 Y-5.6419
G01 X4.6597 Y-5.6433
G01 X4.6445 Y-5.6464
G01 X4.6298 Y-5.6511
G01 X4.6157 Y-5.6575
G01 X4.6024 Y-5.6653
G01 X4.5900 Y-5.6746
G01 X4.5788 Y-5.6852
G01 X4.5677 Y-5.6983
G01 X4.5592 Y-5.7113
G01 X4.5529 Y-5.7235
G01 X4.5410 Y-5.7535
G01 X4.5060 Y-5.8325
G01 X4.4671 Y-5.9096
G01 X4.4246 Y-5.9848
G01 X4.3784 Y-6.0578
G01 X4.3286 Y-6.1284
G01 X4.2755 Y-6.1965
G01 X4.2190 Y-6.2619
G01 X4.1595 Y-6.3245
G01 X4.0969 Y-6.3840
G01 X4.0315 Y-6.4405
G01 X3.9634 Y-6.4936
G01 X3.8928 Y-6.5434
G01 X3.8198 Y-6.5896
G01 X3.7446 Y-6.6321
G01 X3.6675 Y-6.6710
G01 X3.5885 Y-6.7060
G01 X3.5079 Y-6.7371
G01 X3.4259 Y-6.7642
G01 X3.3426 Y-6.7872
G01 X3.2584 Y-6.8061
G01 X3.1732 Y-6.8209
G01 X3.0875 Y-6.8315
G01 X3.0014 Y-6.8378
G01 X2.9150 Y-6.8400
G01 X2.8286 Y-6.8378
G01 X2.7425 Y-6.8315
G01 X2.6568 Y-6.8209
G01 X2.5716 Y-6.8061
G01 X2.4874 Y-6.7872
G01 X2.4041 Y-6.7642
G01 X2.3221 Y-6.7371
G01 X2.2415 Y-6.7060
G01 X2.1625 Y-6.6710
G01 X2.0854 Y-6.6321
G01 X2.0102 Y-6.5896
G01 X1.9372 Y-6.5434
G01 X1.8666 Y-6.4936
G01 X1.7985 Y-6.4405
G01 X1.7331 Y-6.3840
G01 X1.6705 Y-6.3245
G01 X1.6110 Y-6.2619
G01 X1.5545 Y-6.1965
G01 X1.5014 Y-6.1284
G01 X1.4516 Y-6.0578
G01 X1.4054 Y-5.9848
G01 X1.3629 Y-5.9096
G01 X1.3240 Y-5.8325
G01 X1.2890 Y-5.7535
G01 X1.2579 Y-5.6729
G01 X1.2308 Y-5.5909
G01 X1.2078 Y-5.5076
G01 X1.1889 Y-5.4234
G01 X1.1741 Y-5.3382
G01 X1.1635 Y-5.2525
G01 X1.1572 Y-5.1664
G01 X1.1550 Y-5.0800
G01 X1.1572 Y-4.9936
G01 X1.1635 Y-4.9075
G01 X1.1741 Y-4.8218
G01 X1.1889 Y-4.7366
G01 X1.2078 Y-4.6524
G01 X1.2308 Y-4.5691
G01 X1.2579 Y-4.4871
G01 X1.2890 Y-4.4065
G01 X1.3240 Y-4.3275
G01 X1.3629 Y-4.2504
G01 X1.4054 Y-4.1752
G01 X1.4516 Y-4.1022
G01 X1.5014 Y-4.0316
G01 X1.5545 Y-3.9635
G01 X1.6110 Y-3.8981
G01 X1.6705 Y-3.8355
G01 X1.7331 Y-3.7760
G01 X1.7985 Y-3.7195
G01 X1.8666 Y-3.6664
G01 X1.9372 Y-3.6166
G01 X2.0102 Y-3.5704
G01 X2.0854 Y-3.5279
G01 X2.1625 Y-3.4890
G01 X2.2415 Y-3.4540
G01 X2.3221 Y-3.4229
G01 X2.4041 Y-3.3958
G01 X2.4874 Y-3.3728
G01 X2.5716 Y-3.3539
G01 X2.6568 Y-3.3391
G01 X2.7425 Y-3.3285
G01 X2.8286 Y-3.3222
G01 X2.9150 Y-3.3200
G01 X3.0014 Y-3.3222
G01 X3.0875 Y-3.3285
G01 X3.1732 Y-3.3391
G01 X3.2584 Y-3.3539
G01 X3.3426 Y-3.3728
G01 X3.4259 Y-3.3958
G01 X3.5079 Y-3.4229
G01 X3.5885 Y-3.4540
G01 X3.6675 Y-3.4890
G01 X3.7446 Y-3.5279
G01 X3.8198 Y-3.5704
G01 X3.8928 Y-3.6166
G01 X3.9634 Y-3.6664
G01 X4.0315 Y-3.7195
G01 X4.0969 Y-3.7760
G01 X4.1595 Y-3.8355
G01 X4.2190 Y-3.8981
G01 X4.2755 Y-3.9635
G01 X4.3286 Y-4.0316
G01 X4.3784 Y-4.1022
G01 X4.4246 Y-4.1752
G01 X4.4671 Y-4.2504
G01 X4.5060 Y-4.3275
G01 X4.5410 Y-4.4065
G01 X4.5547 Y-4.4409
G01 X4.5603 Y-4.4515
G01 X4.5678 Y-4.4631
G01 X4.5763 Y-4.4738
G01 X4.5847 Y-4.4824
G01 X4.5937 Y-4.4903
G01 X4.6034 Y-4.4974
G01 X4.6152 Y-4.5045
G01 X4.6260 Y-4.5097
G01 X4.6372 Y-4.5140
G01 X4.6488 Y-4.5173
G01 X4.6640 Y-4.5200
G01 X4.6794 Y-4.5211
G01 X4.8316 Y-4.5212
G01 X4.8504 Y-4.5197
G01 X4.8623 Y-4.5174
G01 X4.8738 Y-4.5141
G01 X4.8944 Y-4.5055
G01 X4.9048 Y-4.4995
G01 X4.9147 Y-4.4926
G01 X4.9240 Y-4.4850
G01 X4.9325 Y-4.4765
G01 X4.9464 Y-4.4590
G01 X4.9573 Y-4.4395
G01 X4.9649 Y-4.4185
G01 X4.9689 Y-4.3983
G01 X4.9700 Y-4.3812
G01 X4.9700 Y-4.1725
G01 X5.3306 Y-4.1725
G01 X5.3460 Y-4.1716
G01 X5.3579 Y-4.1698
G01 X5.3712 Y-4.1665
G01 X5.3841 Y-4.1619
G01 X5.3965 Y-4.1560
G01 X5.4069 Y-4.1499
G01 X5.4180 Y-4.1418
G01 X5.4283 Y-4.1327
G01 X5.4376 Y-4.1227
G01 X5.4450 Y-4.1132
G01 X5.4515 Y-4.1031
G01 X5.4571 Y-4.0924
G01 X5.4618 Y-4.0814
G01 X5.4655 Y-4.0699
G01 X5.4682 Y-4.0582
G01 X5.4699 Y-4.0463
G01 X5.4706 Y-4.0343
G01 X5.4708 Y-3.6157
G01 X5.4683 Y-3.5953
G01 X5.4633 Y-3.5770
G01 X5.4552 Y-3.5581
G01 X5.4444 Y-3.5405
G01 X5.4358 Y-3.5298
G01 X5.4263 Y-3.5200
G01 X5.4157 Y-3.5111
G01 X5.4029 Y-3.5024
G01 X5.3908 Y-3.4960
G01 X5.3765 Y-3.4901
G01 X5.3633 Y-3.4863
G01 X5.3481 Y-3.4836
G01 X5.3309 Y-3.4825
G01 X4.9725 Y-3.4825
G01 X4.9725 Y-0.9625
G01 X7.0925 Y-0.9625
G01 X7.0925 Y-3.4825
G01 X6.7316 Y-3.4825
G01 X6.7179 Y-3.4832
G01 X6.7060 Y-3.4849
G01 X6.6927 Y-3.4880
G01 X6.6813 Y-3.4919
G01 X6.6687 Y-3.4974
G01 X6.6568 Y-3.5042
G01 X6.6469 Y-3.5111
G01 X6.6377 Y-3.5187
G01 X6.6279 Y-3.5284
G01 X6.6203 Y-3.5377
G01 X6.6134 Y-3.5475
G01 X6.6030 Y-3.5673
G01 X6.5958 Y-3.5884
G01 X6.5934 Y-3.6002
G01 X6.5920 Y-3.6121
G01 X6.5913 Y-4.0324
G01 X6.5930 Y-4.0546
G01 X6.5954 Y-4.0664
G01 X6.5989 Y-4.0780
G01 X6.6078 Y-4.0984
G01 X6.6198 Y-4.1172
G01 X6.6275 Y-4.1265
G01 X6.6359 Y-4.1350
G01 X6.6535 Y-4.1489
G01 X6.6729 Y-4.1598
G01 X6.6939 Y-4.1674
G01 X6.7124 Y-4.1712
G01 X6.7295 Y-4.1725
G01 X7.0900 Y-4.1725
G00 Z2.0000
G00 X7.1600 Y-4.1025
G01 F70.00
G01 Z-0.0600
G01 F120.00
G01 X7.1600 Y-6.6958
G01 X6.9000 Y-6.6958
G01 X6.9000 Y-6.3325
G01 X6.8991 Y-6.3214
G01 X6.8962 Y-6.3097
G01 X6.8909 Y-6.2980
G01 X6.8836 Y-6.2874
G01 X6.8751 Y-6.2789
G01 X6.8652 Y-6.2720
G01 X6.8544 Y-6.2669
G01 X6.8428 Y-6.2637
G01 X6.8300 Y-6.2625
G01 X5.2300 Y-6.2625
G01 X5.2147 Y-6.2642
G01 X5.2048 Y-6.2672
G01 X5.1948 Y-6.2720
G01 X5.1863 Y-6.2778
G01 X5.1781 Y-6.2855
G01 X5.1718 Y-6.2936
G01 X5.1664 Y-6.3034
G01 X5.1625 Y-6.3138
G01 X5.1605 Y-6.3239
G01 X5.1600 Y-6.3325
G01 X5.1600 Y-6.6958
G01 X4.9000 Y-6.6958
G01 X4.9000 Y-5.7819
G01 X4.8983 Y-5.7666
G01 X4.8956 Y-5.7575
G01 X4.8913 Y-5.7482
G01 X4.8862 Y-5.7402
G01 X4.8801 Y-5.7330
G01 X4.8731 Y-5.7267
G01 X4.8645 Y-5.7210
G01 X4.8560 Y-5.7169
G01 X4.8471 Y-5.7140
G01 X4.8309 Y-5.7119
G01 X4.6776 Y-5.7118
G01 X4.6615 Y-5.7143
G01 X4.6464 Y-5.7204
G01 X4.6331 Y-5.7299
G01 X4.6224 Y-5.7422
G01 X4.6161 Y-5.7534
G01 X4.6057 Y-5.7803
G01 X4.5693 Y-5.8624
G01 X4.5289 Y-5.9426
G01 X4.4846 Y-6.0208
G01 X4.4366 Y-6.0967
G01 X4.3849 Y-6.1701
G01 X4.3296 Y-6.2409
G01 X4.2709 Y-6.3089
G01 X4.2090 Y-6.3740
G01 X4.1439 Y-6.4359
G01 X4.0759 Y-6.4946
G01 X4.0051 Y-6.5499
G01 X3.9317 Y-6.6016
G01 X3.8558 Y-6.6496
G01 X3.7776 Y-6.6939
G01 X3.6974 Y-6.7343
G01 X3.6153 Y-6.7707
G01 X3.5315 Y-6.8030
G01 X3.4462 Y-6.8312
G01 X3.3596 Y-6.8551
G01 X3.2720 Y-6.8748
G01 X3.1835 Y-6.8902
G01 X3.0944 Y-6.9012
G01 X3.0048 Y-6.9078
G01 X2.9150 Y-6.9100
G01 X2.8252 Y-6.9078
G01 X2.7356 Y-6.9012
G01 X2.6465 Y-6.8902
G01 X2.5580 Y-6.8748
G01 X2.4704 Y-6.8551
G01 X2.3838 Y-6.8312
G01 X2.2985 Y-6.8030
G01 X2.2147 Y-6.7707
G01 X2.1326 Y-6.7343
G01 X2.0524 Y-6.6939
G01 X1.9742 Y-6.6496
G01 X1.8983 Y-6.6016
G01 X1.8249 Y-6.5499
G01 X1.7541 Y-6.4946
G01 X1.6861 Y-6.4359
G01 X1.6210 Y-6.3740
G01 X1.5591 Y-6.3089
G01 X1.5004 Y-6.2409
G01 X1.4451 Y-6.1701
G01 X1.3934 Y-6.0967
G01 X1.3454 Y-6.0208
G01 X1.3011 Y-5.9426
G01 X1.2607 Y-5.8624
G01 X1.2243 Y-5.7803
G01 X1.1920 Y-5.6965
G01 X1.1638 Y-5.6112
G01 X1.1399 Y-5.5246
G01 X1.1202 Y-5.4370
G01 X1.1048 Y-5.3485
G01 X1.0938 Y-5.2594
G01 X1.0872 Y-5.1698
G01 X1.0850 Y-5.0800
G01 X1.0872 Y-4.9902
G01 X1.0938 Y-4.9006
G01 X1.1048 Y-4.8115
G01 X1.1202 Y-4.7230
G01 X1.1399 Y-4.6354
G01 X1.1638 Y-4.5488
G01 X1.1920 Y-4.4635
G01 X1.2243 Y-4.3797
G01 X1.2607 Y-4.2976
G01 X1.3011 Y-4.2174
G01 X1.3454 Y-4.1392
G01 X1.3934 Y-4.0633
G01 X1.4451 Y-3.9899
G01 X1.5004 Y-3.9191
G01 X1.5591 Y-3.8511
G01 X1.6210 Y-3.7860
G01 X1.6861 Y-3.7241
G01 X1.7541 Y-3.6654
G01 X1.8249 Y-3.6101
G01 X1.8983 Y-3.5584
G01 X1.9742 Y-3.5104
G01 X2.0524 Y-3.4661
G01 X2.1326 Y-3.4257
G01 X2.2147 Y-3.3893
G01 X2.2985 Y-3.3570
G01 X2.3838 Y-3.3288
G01 X2.4704 Y-3.3049
G01 X2.5580 Y-3.2852
G01 X2.6465 Y-3.2698
G01 X2.7356 Y-3.2588
G01 X2.8252 Y-3.2522
G01 X2.9150 Y-3.2500
G01 X3.0048 Y-3.2522
G01 X3.0944 Y-3.2588
G01 X3.1835 Y-3.2698
G01 X3.2720 Y-3.2852
G01 X3.3596 Y-3.3049
G01 X3.4462 Y-3.3288
G01 X3.5315 Y-3.3570
G01 X3.6153 Y-3.3893
G01 X3.6974 Y-3.4257
G01 X3.7776 Y-3.4661
G01 X3.8558 Y-3.5104
G01 X3.9317 Y-3.5584
G01 X4.0051 Y-3.6101
G01 X4.0759 Y-3.6654
G01 X4.1439 Y-3.7241
G01 X4.2090 Y-3.7860
G01 X4.2709 Y-3.8511
G01 X4.3296 Y-3.9191
G01 X4.3849 Y-3.9899
G01 X4.4366 Y-4.0633
G01 X4.4846 Y-4.1392
G01 X4.5289 Y-4.2174
G01 X4.5693 Y-4.2976
G01 X4.6057 Y-4.3797
G01 X4.6166 Y-4.4079
G01 X4.6212 Y-4.4170
G01 X4.6294 Y-4.4281
G01 X4.6395 Y-4.4373
G01 X4.6513 Y-4.4443
G01 X4.6650 Y-4.4492
G01 X4.6803 Y-4.4511
G01 X4.8385 Y-4.4507
G01 X4.8527 Y-4.4474
G01 X4.8660 Y-4.4412
G01 X4.8776 Y-4.4325
G01 X4.8877 Y-4.4208
G01 X4.8929 Y-4.4119
G01 X4.8965 Y-4.4032
G01 X4.8990 Y-4.3932
G01 X4.9000 Y-4.3838
G01 X4.9000 Y-4.1025
G01 X5.3340 Y-4.1024
G01 X5.3484 Y-4.1002
G01 X5.3620 Y-4.0950
G01 X5.3743 Y-4.0872
G01 X5.3847 Y-4.0769
G01 X5.3910 Y-4.0678
G01 X5.3959 Y-4.0577
G01 X5.3990 Y-4.0470
G01 X5.4005 Y-4.0351
G01 X5.4009 Y-3.6226
G01 X5.3998 Y-3.6097
G01 X5.3963 Y-3.5974
G01 X5.3901 Y-3.5851
G01 X5.3822 Y-3.5749
G01 X5.3720 Y-3.5658
G01 X5.3601 Y-3.5589
G01 X5.3479 Y-3.5546
G01 X5.3344 Y-3.5526
G01 X4.9025 Y-3.5525
G01 X4.9025 Y-0.8925
G01 X7.1625 Y-0.8925
G01 X7.1625 Y-3.5525
G01 X6.7291 Y-3.5525
G01 X6.7163 Y-3.5542
G01 X6.7041 Y-3.5582
G01 X6.6928 Y-3.5643
G01 X6.6834 Y-3.5718
G01 X6.6744 Y-3.5822
G01 X6.6680 Y-3.5933
G01 X6.6637 Y-3.6054
G01 X6.6617 Y-3.6190
G01 X6.6613 Y-4.0324
G01 X6.6623 Y-4.0444
G01 X6.6656 Y-4.0568
G01 X6.6712 Y-4.0685
G01 X6.6782 Y-4.0782
G01 X6.6875 Y-4.0871
G01 X6.6983 Y-4.0942
G01 X6.7101 Y-4.0992
G01 X6.7218 Y-4.1019
G01 X6.7313 Y-4.1025
G01 X7.1600 Y-4.1025
G00 Z2.0000
G00 X5.5207 Y-4.1217
G01 F70.00
G01 Z-0.0600
G01 F120.00
G01 X5.5206 Y-4.2225
G01 X5.4200 Y-4.2225
G01 X5.4363 Y-4.2140
G01 X5.4514 Y-4.2042
G01 X5.4657 Y-4.1932
G01 X5.4790 Y-4.1811
G01 X5.4912 Y-4.1678
G01 X5.5022 Y-4.1535
G01 X5.5119 Y-4.1383
G01 X5.5207 Y-4.1217
G00 Z2.0000
G00 X5.1406 Y-4.2425
G01 F70.00
G01 Z-0.0600
G01 F120.00
G01 X5.1243 Y-4.2511
G01 X5.1091 Y-4.2608
G01 X5.0948 Y-4.2718
G01 X5.0815 Y-4.2840
G01 X5.0693 Y-4.2973
G01 X5.0583 Y-4.3116
G01 X5.0486 Y-4.3268
G01 X5.0400 Y-4.3431
G01 X5.0400 Y-4.2425
G01 X5.1406 Y-4.2425
G00 Z2.0000
G00 X5.0200 Y-4.4706
G01 F70.00
G01 Z-0.0600
G01 F120.00
G01 X5.0200 Y-4.5715
G01 X4.9189 Y-4.5715
G01 X4.9356 Y-4.5627
G01 X4.9508 Y-4.5529
G01 X4.9651 Y-4.5419
G01 X4.9784 Y-4.5297
G01 X4.9906 Y-4.5164
G01 X5.0017 Y-4.5022
G01 X5.0114 Y-4.4870
G01 X5.0200 Y-4.4706
G00 Z2.0000
G00 X4.5921 Y-4.5712
G01 F70.00
G01 Z-0.0600
G01 F120.00
G01 X4.5473 Y-4.5712
G01 X4.5340 Y-4.5308
G01 X4.5480 Y-4.5434
G01 X4.5624 Y-4.5542
G01 X4.5776 Y-4.5637
G01 X4.5921 Y-4.5712
G00 Z2.0000
G00 X4.4402 Y-5.4514
G01 F70.00
G01 Z-0.0600
G01 F120.00
G01 X5.1600 Y-5.4520
G01 X5.1600 Y-5.7325
G01 X5.1610 Y-5.7445
G01 X5.1638 Y-5.7553
G01 X5.1683 Y-5.7655
G01 X5.1743 Y-5.7749
G01 X5.1817 Y-5.7832
G01 X5.1904 Y-5.7902
G01 X5.2001 Y-5.7958
G01 X5.2105 Y-5.7997
G01 X5.2214 Y-5.8020
G01 X5.2300 Y-5.8025
G01 X6.8317 Y-5.8025
G01 X6.8403 Y-5.8017
G01 X6.8495 Y-5.7997
G01 X6.8584 Y-5.7965
G01 X6.8660 Y-5.7925
G01 X6.8737 Y-5.7872
G01 X6.8801 Y-5.7814
G01 X6.8857 Y-5.7749
G01 X6.8909 Y-5.7670
G01 X6.8947 Y-5.7593
G01 X6.8977 Y-5.7503
G01 X6.8995 Y-5.7411
G01 X6.9000 Y-5.7325
G01 X6.9000 Y-4.4325
G01 X6.8991 Y-4.4214
G01 X6.8962 Y-4.4097
G01 X6.8921 Y-4.4003
G01 X6.8872 Y-4.3922
G01 X6.8807 Y-4.3842
G01 X6.8737 Y-4.3778
G01 X6.8652 Y-4.3720
G01 X6.8560 Y-4.3675
G01 X6.8470 Y-4.3646
G01 X6.8369 Y-4.3628
G01 X6.4008 Y-4.3625
G01 X6.4017 Y-3.2925
G01 X6.8325 Y-3.2925
G01 X6.8411 Y-3.2920
G01 X6.8520 Y-3.2897
G01 X6.8632 Y-3.2854
G01 X6.8728 Y-3.2797
G01 X6.8814 Y-3.2726
G01 X6.8887 Y-3.2642
G01 X6.8946 Y-3.2547
G01 X6.8990 Y-3.2445
G01 X6.9017 Y-3.2328
G01 X6.9025 Y-3.2225
G01 X6.9025 Y-1.2216
G01 X6.9017 Y-1.2122
G01 X6.8997 Y-1.2030
G01 X6.8968 Y-1.1949
G01 X6.8925 Y-1.1865
G01 X6.8872 Y-1.1788
G01 X6.8814 Y-1.1724
G01 X6.8749 Y-1.1668
G01 X6.8670 Y-1.1616
G01 X6.8593 Y-1.1578
G01 X6.8503 Y-1.1548
G01 X6.8411 Y-1.1530
G01 X6.8325 Y-1.1525
G01 X5.2316 Y-1.1525
G01 X5.2214 Y-1.1534
G01 X5.2122 Y-1.1555
G01 X5.2034 Y-1.1589
G01 X5.1951 Y-1.1634
G01 X5.1874 Y-1.1689
G01 X5.1806 Y-1.1755
G01 X5.1748 Y-1.1829
G01 X5.1696 Y-1.1918
G01 X5.1642 Y-1.2072
G01 X5.1625 Y-1.2225
G01 X5.1625 Y-3.2225
G01 X5.1634 Y-3.2336
G01 X5.1663 Y-3.2453
G01 X5.1708 Y-3.2555
G01 X5.1768 Y-3.2649
G01 X5.1842 Y-3.2732
G01 X5.1929 Y-3.2802
G01 X5.2026 Y-3.2858
G01 X5.2130 Y-3.2897
G01 X5.2239 Y-3.2920
G01 X5.2325 Y-3.2925
G01 X5.6614 Y-3.2925
G01 X5.6605 Y-4.3625
G01 X5.2283 Y-4.3625
G01 X5.2180 Y-4.3635
G01 X5.2080 Y-4.3660
G01 X5.1985 Y-4.3700
G01 X5.1897 Y-4.3753
G01 X5.1787 Y-4.3849
G01 X5.1695 Y-4.3973
G01 X5.1633 Y-4.4114
G01 X5.1603 Y-4.4265
G01 X5.1600 Y-4.7117
G01 X4.4408 Y-4.7111
G01 X4.4375 Y-4.6969
G01 X4.4169 Y-4.6226
G01 X4.3932 Y-4.5511
G01 X4.3655 Y-4.4792
G01 X4.3343 Y-4.4087
G01 X4.3004 Y-4.3414
G01 X4.2607 Y-4.2714
G01 X4.2204 Y-4.2078
G01 X4.1760 Y-4.1448
G01 X4.1286 Y-4.0840
G01 X4.0794 Y-4.0269
G01 X4.0239 Y-3.9686
G01 X3.9693 Y-3.9167
G01 X3.9097 Y-3.8653
G01 X3.8502 Y-3.8190
G01 X3.7872 Y-3.7746
G01 X3.7221 Y-3.7334
G01 X3.6566 Y-3.6962
G01 X3.5847 Y-3.6600
G01 X3.5158 Y-3.6295
G01 X3.4439 Y-3.6018
G01 X3.3707 Y-3.5776
G01 X3.2965 Y-3.5571
G01 X3.2213 Y-3.5402
G01 X3.1471 Y-3.5273
G01 X3.0672 Y-3.5174
G01 X2.9920 Y-3.5119
G01 X2.9150 Y-3.5100
G01 X2.8380 Y-3.5119
G01 X2.7628 Y-3.5174
G01 X2.6829 Y-3.5273
G01 X2.6087 Y-3.5402
G01 X2.5335 Y-3.5571
G01 X2.4593 Y-3.5776
G01 X2.3861 Y-3.6018
G01 X2.3142 Y-3.6295
G01 X2.2453 Y-3.6600
G01 X2.1734 Y-3.6962
G01 X2.1079 Y-3.7334
G01 X2.0428 Y-3.7746
G01 X1.9798 Y-3.8190
G01 X1.9203 Y-3.8653
G01 X1.8594 Y-3.9179
G01 X1.8048 Y-3.9698
G01 X1.7517 Y-4.0257
G01 X1.7014 Y-4.0840
G01 X1.6550 Y-4.1434
G01 X1.6087 Y-4.2092
G01 X1.5684 Y-4.2729
G01 X1.5304 Y-4.3399
G01 X1.4957 Y-4.4087
G01 X1.4652 Y-4.4776
G01 X1.4362 Y-4.5527
G01 X1.4126 Y-4.6243
G01 X1.3921 Y-4.6985
G01 X1.3752 Y-4.7737
G01 X1.3620 Y-4.8496
G01 X1.3526 Y-4.9261
G01 X1.3469 Y-5.0030
G01 X1.3450 Y-5.0800
G01 X1.3469 Y-5.1570
G01 X1.3526 Y-5.2339
G01 X1.3620 Y-5.3104
G01 X1.3752 Y-5.3863
G01 X1.3921 Y-5.4615
G01 X1.4126 Y-5.5357
G01 X1.4368 Y-5.6089
G01 X1.4645 Y-5.6808
G01 X1.4957 Y-5.7513
G01 X1.5304 Y-5.8201
G01 X1.5684 Y-5.8871
G01 X1.6096 Y-5.9522
G01 X1.6540 Y-6.0152
G01 X1.7014 Y-6.0760
G01 X1.7517 Y-6.1343
G01 X1.8048 Y-6.1902
G01 X1.8607 Y-6.2433
G01 X1.9190 Y-6.2936
G01 X1.9798 Y-6.3410
G01 X2.0428 Y-6.3854
G01 X2.1079 Y-6.4266
G01 X2.1749 Y-6.4646
G01 X2.2437 Y-6.4993
G01 X2.3142 Y-6.5305
G01 X2.3861 Y-6.5582
G01 X2.4593 Y-6.5824
G01 X2.5335 Y-6.6029
G01 X2.6087 Y-6.6198
G01 X2.6846 Y-6.6330
G01 X2.7611 Y-6.6424
G01 X2.8380 Y-6.6481
G01 X2.9150 Y-6.6500
G01 X2.9920 Y-6.6481
G01 X3.0689 Y-6.6424
G01 X3.1454 Y-6.6330
G01 X3.2213 Y-6.6198
G01 X3.2965 Y-6.6029
G01 X3.3707 Y-6.5824
G01 X3.4439 Y-6.5582
G01 X3.5158 Y-6.5305
G01 X3.5863 Y-6.4993
G01 X3.6551 Y-6.4646
G01 X3.7221 Y-6.4266
G01 X3.7872 Y-6.3854
G01 X3.8502 Y-6.3410
G01 X3.9110 Y-6.2936
G01 X3.9693 Y-6.2433
G01 X4.0252 Y-6.1902
G01 X4.0783 Y-6.1343
G01 X4.1286 Y-6.0760
G01 X4.1760 Y-6.0152
G01 X4.2204 Y-5.9522
G01 X4.2616 Y-5.8871
G01 X4.2996 Y-5.8201
G01 X4.3343 Y-5.7513
G01 X4.3655 Y-5.6808
G01 X4.3932 Y-5.6089
G01 X4.4174 Y-5.5357
G01 X4.4402 Y-5.4514
G00 Z2.0000
G00 X4.4940 Y-5.5214
G01 F70.00
G01 Z-0.0600
G01 F120.00
G01 X5.0900 Y-5.5219
G01 X5.0901 Y-5.7377
G01 X5.0927 Y-5.7598
G01 X5.0982 Y-5.7797
G01 X5.1065 Y-5.7985
G01 X5.1165 Y-5.8145
G01 X5.1286 Y-5.8290
G01 X5.1439 Y-5.8429
G01 X5.1595 Y-5.8535
G01 X5.1780 Y-5.8625
G01 X5.1960 Y-5.8683
G01 X5.2146 Y-5.8716
G01 X5.2300 Y-5.8725
G01 X6.8352 Y-5.8724
G01 X6.8539 Y-5.8704
G01 X6.8706 Y-5.8665
G01 X6.8867 Y-5.8605
G01 X6.9034 Y-5.8517
G01 X6.9175 Y-5.8418
G01 X6.9314 Y-5.8290
G01 X6.9424 Y-5.8159
G01 X6.9526 Y-5.8000
G01 X6.9600 Y-5.7845
G01 X6.9654 Y-5.7682
G01 X6.9687 Y-5.7513
G01 X6.9700 Y-5.7342
G01 X6.9700 Y-4.4325
G01 X6.9682 Y-4.4103
G01 X6.9635 Y-4.3902
G01 X6.9566 Y-4.3726
G01 X6.9474 Y-4.3562
G01 X6.9360 Y-4.3411
G01 X6.9227 Y-4.3276
G01 X6.9092 Y-4.3171
G01 X6.8929 Y-4.3074
G01 X6.8755 Y-4.3001
G01 X6.8573 Y-4.2952
G01 X6.8437 Y-4.2932
G01 X6.8317 Y-4.2925
G01 X6.4708 Y-4.2925
G01 X6.4717 Y-3.3625
G01 X6.8342 Y-3.3625
G01 X6.8496 Y-3.3614
G01 X6.8648 Y-3.3587
G01 X6.8845 Y-3.3525
G01 X6.9030 Y-3.3435
G01 X6.9200 Y-3.3318
G01 X6.9362 Y-3.3165
G01 X6.9499 Y-3.2988
G01 X6.9598 Y-3.2808
G01 X6.9670 Y-3.2615
G01 X6.9712 Y-3.2413
G01 X6.9725 Y-3.2225
G01 X6.9724 Y-1.2173
G01 X6.9704 Y-1.1986
G01 X6.9665 Y-1.1819
G01 X6.9605 Y-1.1658
G01 X6.9517 Y-1.1491
G01 X6.9407 Y-1.1337
G01 X6.9290 Y-1.1211
G01 X6.9159 Y-1.1101
G01 X6.9000 Y-1.0999
G01 X6.8845 Y-1.0925
G01 X6.8682 Y-1.0871
G01 X6.8513 Y-1.0838
G01 X6.8342 Y-1.0825
G01 X5.2273 Y-1.0826
G01 X5.2086 Y-1.0846
G01 X5.1919 Y-1.0885
G01 X5.1742 Y-1.0952
G01 X5.1576 Y-1.1042
G01 X5.1424 Y-1.1154
G01 X5.1288 Y-1.1285
G01 X5.1171 Y-1.1433
G01 X5.1074 Y-1.1596
G01 X5.1013 Y-1.1737
G01 X5.0967 Y-1.1885
G01 X5.0936 Y-1.2054
G01 X5.0925 Y-1.2208
G01 X5.0925 Y-3.2225
G01 X5.0940 Y-3.2430
G01 X5.0985 Y-3.2631
G01 X5.1059 Y-3.2824
G01 X5.1161 Y-3.3003
G01 X5.1288 Y-3.3165
G01 X5.1450 Y-3.3318
G01 X5.1620 Y-3.3435
G01 X5.1805 Y-3.3525
G01 X5.2002 Y-3.3587
G01 X5.2154 Y-3.3614
G01 X5.2308 Y-3.3625
G01 X5.5914 Y-3.3625
G01 X5.5905 Y-4.2925
G01 X5.2214 Y-4.2928
G01 X5.2010 Y-4.2955
G01 X5.1828 Y-4.3007
G01 X5.1655 Y-4.3082
G01 X5.1494 Y-4.3180
G01 X5.1386 Y-4.3265
G01 X5.1286 Y-4.3360
G01 X5.1196 Y-4.3464
G01 X5.1126 Y-4.3562
G01 X5.1057 Y-4.3680
G01 X5.1000 Y-4.3805
G01 X5.0955 Y-4.3935
G01 X5.0924 Y-4.4069
G01 X5.0907 Y-4.4188
G01 X5.0900 Y-4.4308
G01 X5.0900 Y-4.6416
G01 X4.4947 Y-4.6411
G01 X4.4839 Y-4.6023
G01 X4.4585 Y-4.5259
G01 X4.4302 Y-4.4524
G01 X4.3983 Y-4.3804
G01 X4.3597 Y-4.3039
G01 X4.3217 Y-4.2369
G01 X4.2776 Y-4.1674
G01 X4.2323 Y-4.1031
G01 X4.1849 Y-4.0423
G01 X4.1278 Y-3.9761
G01 X4.0747 Y-3.9203
G01 X4.0164 Y-3.8648
G01 X3.9554 Y-3.8123
G01 X3.8933 Y-3.7638
G01 X3.8233 Y-3.7145
G01 X3.7581 Y-3.6733
G01 X3.6881 Y-3.6336
G01 X3.6162 Y-3.5975
G01 X3.5458 Y-3.5662
G01 X3.4643 Y-3.5348
G01 X3.3911 Y-3.5106
G01 X3.3135 Y-3.4891
G01 X3.2349 Y-3.4715
G01 X3.1590 Y-3.4583
G01 X3.0723 Y-3.4476
G01 X2.9955 Y-3.4420
G01 X2.9167 Y-3.4400
G01 X2.8311 Y-3.4422
G01 X2.7543 Y-3.4479
G01 X2.6744 Y-3.4578
G01 X2.5951 Y-3.4715
G01 X2.5199 Y-3.4884
G01 X2.4357 Y-3.5117
G01 X2.3625 Y-3.5359
G01 X2.2874 Y-3.5648
G01 X2.2138 Y-3.5975
G01 X2.1450 Y-3.6321
G01 X2.0689 Y-3.6751
G01 X2.0039 Y-3.7164
G01 X1.9381 Y-3.7627
G01 X1.8746 Y-3.8123
G01 X1.8162 Y-3.8626
G01 X1.7529 Y-3.9228
G01 X1.6998 Y-3.9786
G01 X1.6473 Y-4.0396
G01 X1.5977 Y-4.1031
G01 X1.5533 Y-4.1660
G01 X1.5066 Y-4.2398
G01 X1.4686 Y-4.3069
G01 X1.4325 Y-4.3788
G01 X1.3998 Y-4.4524
G01 X1.3721 Y-4.5243
G01 X1.3451 Y-4.6056
G01 X1.3241 Y-4.6815
G01 X1.3065 Y-4.7601
G01 X1.2928 Y-4.8394
G01 X1.2829 Y-4.9193
G01 X1.2770 Y-4.9995
G01 X1.2750 Y-5.0800
G01 X1.2770 Y-5.1605
G01 X1.2829 Y-5.2407
G01 X1.2928 Y-5.3206
G01 X1.3065 Y-5.3999
G01 X1.3241 Y-5.4785
G01 X1.3456 Y-5.5561
G01 X1.3709 Y-5.6325
G01 X1.3998 Y-5.7076
G01 X1.4325 Y-5.7812
G01 X1.4686 Y-5.8531
G01 X1.5083 Y-5.9231
G01 X1.5514 Y-5.9911
G01 X1.5977 Y-6.0569
G01 X1.6473 Y-6.1204
G01 X1.6998 Y-6.1814
G01 X1.7553 Y-6.2397
G01 X1.8136 Y-6.2952
G01 X1.8746 Y-6.3477
G01 X1.9381 Y-6.3973
G01 X2.0039 Y-6.4436
G01 X2.0719 Y-6.4867
G01 X2.1419 Y-6.5264
G01 X2.2138 Y-6.5625
G01 X2.2874 Y-6.5952
G01 X2.3625 Y-6.6241
G01 X2.4406 Y-6.6499
G01 X2.5165 Y-6.6709
G01 X2.5951 Y-6.6885
G01 X2.6744 Y-6.7022
G01 X2.7543 Y-6.7121
G01 X2.8345 Y-6.7180
G01 X2.9150 Y-6.7200
G01 X2.9955 Y-6.7180
G01 X3.0757 Y-6.7121
G01 X3.1556 Y-6.7022
G01 X3.2349 Y-6.6885
G01 X3.3135 Y-6.6709
G01 X3.3911 Y-6.6494
G01 X3.4675 Y-6.6241
G01 X3.5426 Y-6.5952
G01 X3.6162 Y-6.5625
G01 X3.6896 Y-6.5255
G01 X3.7581 Y-6.4867
G01 X3.8261 Y-6.4436
G01 X3.8919 Y-6.3973
G01 X3.9554 Y-6.3477
G01 X4.0164 Y-6.2952
G01 X4.0747 Y-6.2397
G01 X4.1302 Y-6.1814
G01 X4.1838 Y-6.1191
G01 X4.2323 Y-6.0569
G01 X4.2786 Y-5.9911
G01 X4.3217 Y-5.9231
G01 X4.3622 Y-5.8516
G01 X4.3975 Y-5.7812
G01 X4.4308 Y-5.7060
G01 X4.4597 Y-5.6309
G01 X4.4839 Y-5.5577
G01 X4.4940 Y-5.5214
G00 Z2.0000
G00 X4.5331 Y-5.6318
G01 F70.00
G01 Z-0.0600
G01 F120.00
G01 X4.5465 Y-5.5915
G01 X4.5913 Y-5.5915
G01 X4.5767 Y-5.5990
G01 X4.5614 Y-5.6086
G01 X4.5470 Y-5.6194
G01 X4.5331 Y-5.6318
G00 Z2.0000
G00 X4.9192 Y-5.5918
G01 F70.00
G01 Z-0.0600
G01 F120.00
G01 X5.0200 Y-5.5918
G01 X5.0200 Y-5.6924
G01 X5.0115 Y-5.6762
G01 X5.0017 Y-5.6610
G01 X4.9907 Y-5.6467
G01 X4.9786 Y-5.6335
G01 X4.9653 Y-5.6213
G01 X4.9510 Y-5.6103
G01 X4.9358 Y-5.6005
G01 X4.9192 Y-5.5918
G00 Z2.0000
G00 X5.1100 Y-6.0795
G01 F70.00
G01 Z-0.0600
G01 F120.00
G01 X5.1100 Y-5.9855
G01 X5.1389 Y-5.9973
G01 X5.1687 Y-6.0057
G01 X5.1991 Y-6.0108
G01 X5.2300 Y-6.0125
G01 X6.8334 Y-6.0125
G01 X6.8643 Y-6.0104
G01 X6.8947 Y-6.0049
G01 X6.9243 Y-5.9961
G01 X6.9500 Y-5.9855
G01 X6.9500 Y-6.0795
G01 X6.9243 Y-6.0689
G01 X6.8947 Y-6.0601
G01 X6.8643 Y-6.0546
G01 X6.8334 Y-6.0525
G01 X5.2300 Y-6.0525
G01 X5.1991 Y-6.0542
G01 X5.1687 Y-6.0593
G01 X5.1389 Y-6.0677
G01 X5.1100 Y-6.0795
G00 Z2.0000
G00 X5.0400 Y-6.2431
G01 F70.00
G01 Z-0.0600
G01 F120.00
G01 X5.0400 Y-5.8219
G01 X5.0540 Y-5.8470
G01 X5.0629 Y-5.8597
G01 X5.0727 Y-5.8716
G01 X5.0928 Y-5.8915
G01 X5.1049 Y-5.9012
G01 X5.1177 Y-5.9099
G01 X5.1425 Y-5.9234
G01 X5.1568 Y-5.9293
G01 X5.1715 Y-5.9342
G01 X5.1992 Y-5.9402
G01 X5.2146 Y-5.9419
G01 X5.2300 Y-5.9425
G01 X6.8429 Y-5.9421
G01 X6.8710 Y-5.9385
G01 X6.8983 Y-5.9311
G01 X6.9244 Y-5.9201
G01 X6.9488 Y-5.9057
G01 X6.9710 Y-5.8881
G01 X6.9907 Y-5.8677
G01 X7.0074 Y-5.8448
G01 X7.0200 Y-5.8219
G01 X7.0200 Y-6.2431
G01 X7.0074 Y-6.2202
G01 X6.9907 Y-6.1973
G01 X6.9710 Y-6.1769
G01 X6.9488 Y-6.1593
G01 X6.9244 Y-6.1449
G01 X6.8983 Y-6.1339
G01 X6.8710 Y-6.1265
G01 X6.8429 Y-6.1229
G01 X5.2300 Y-6.1225
G01 X5.2017 Y-6.1244
G01 X5.1865 Y-6.1271
G01 X5.1715 Y-6.1308
G01 X5.1568 Y-6.1357
G01 X5.1425 Y-6.1416
G01 X5.1177 Y-6.1551
G01 X5.0948 Y-6.1718
G01 X5.0833 Y-6.1822
G01 X5.0727 Y-6.1934
G01 X5.0629 Y-6.2053
G01 X5.0540 Y-6.2180
G01 X5.0400 Y-6.2431
G00 Z2.0000
G00 X4.9000 Y-7.2692
G01 F70.00
G01 Z-0.0600
G01 F120.00
G01 X5.1600 Y-7.2692
G01 X5.1603 Y-7.6385
G01 X5.1615 Y-7.6470
G01 X5.1641 Y-7.6561
G01 X5.1675 Y-7.6640
G01 X5.1718 Y-7.6714
G01 X5.1770 Y-7.6782
G01 X5.1836 Y-7.6849
G01 X5.1904 Y-7.6902
G01 X5.1978 Y-7.6946
G01 X5.2130 Y-7.7004
G01 X5.2291 Y-7.7025
G01 X5.7434 Y-7.7025
G01 X5.7434 Y-7.9625
G01 X4.9000 Y-7.9625
G01 X4.9000 Y-7.2692
G00 Z2.0000
G00 X4.9700 Y-7.3392
G01 F70.00
G01 Z-0.0600
G01 F120.00
G01 X5.0900 Y-7.3392
G01 X5.0900 Y-7.6325
G01 X5.0913 Y-7.6513
G01 X5.0938 Y-7.6648
G01 X5.0976 Y-7.6780
G01 X5.1027 Y-7.6908
G01 X5.1090 Y-7.7030
G01 X5.1165 Y-7.7145
G01 X5.1240 Y-7.7239
G01 X5.1335 Y-7.7339
G01 X5.1439 Y-7.7429
G01 X5.1610 Y-7.7543
G01 X5.1796 Y-7.7631
G01 X5.2010 Y-7.7695
G01 X5.2214 Y-7.7722
G01 X5.6734 Y-7.7725
G01 X5.6734 Y-7.8925
G01 X4.9700 Y-7.8925
G01 X4.9700 Y-7.3392
G00 Z2.0000
G00 X5.0400 Y-7.7219
G01 F70.00
G01 Z-0.0600
G01 F120.00
G01 X5.0486 Y-7.7382
G01 X5.0583 Y-7.7534
G01 X5.0693 Y-7.7677
G01 X5.0815 Y-7.7810
G01 X5.0948 Y-7.7932
G01 X5.1091 Y-7.8042
G01 X5.1243 Y-7.8139
G01 X5.1406 Y-7.8225
G01 X5.0400 Y-7.8225
G01 X5.0400 Y-7.7219
G00 Z2.0000
G00 X6.3166 Y-7.9625
G01 F70.00
G01 Z-0.0600
G01 F120.00
G01 X6.3166 Y-7.7025
G01 X6.8309 Y-7.7025
G01 X6.8470 Y-7.7004
G01 X6.8622 Y-7.6946
G01 X6.8696 Y-7.6902
G01 X6.8770 Y-7.6844
G01 X6.8830 Y-7.6782
G01 X6.8882 Y-7.6714
G01 X6.8925 Y-7.6640
G01 X6.8959 Y-7.6561
G01 X6.8985 Y-7.6470
G01 X6.8997 Y-7.6385
G01 X6.9000 Y-7.2692
G01 X7.1600 Y-7.2692
G01 X7.1600 Y-7.9625
G01 X6.3166 Y-7.9625
G00 Z2.0000
G00 X6.3866 Y-7.8925
G01 F70.00
G01 Z-0.0600
G01 F120.00
G01 X6.3866 Y-7.7725
G01 X6.8386 Y-7.7722
G01 X6.8590 Y-7.7695
G01 X6.8788 Y-7.7637
G01 X6.8990 Y-7.7543
G01 X6.9161 Y-7.7429
G01 X6.9253 Y-7.7351
G01 X6.9349 Y-7.7252
G01 X6.9435 Y-7.7145
G01 X6.9510 Y-7.7030
G01 X6.9573 Y-7.6908
G01 X6.9624 Y-7.6780
G01 X6.9662 Y-7.6648
G01 X6.9687 Y-7.6513
G01 X6.9700 Y-7.6325
G01 X6.9700 Y-7.3392
G01 X7.0900 Y-7.3392
G01 X7.0900 Y-7.8925
G01 X6.3866 Y-7.8925
G00 Z2.0000
G00 X6.9194 Y-7.8225
G01 F70.00
G01 Z-0.0600
G01 F120.00
G01 X6.9357 Y-7.8139
G01 X6.9509 Y-7.8042
G01 X6.9652 Y-7.7932
G01 X6.9785 Y-7.7810
G01 X6.9907 Y-7.7677
G01 X7.0017 Y-7.7534
G01 X7.0114 Y-7.7382
G01 X7.0200 Y-7.7219
G01 X7.0200 Y-7.8225
G01 X6.9194 Y-7.8225
G00 Z2.0000
G00 X9.0300 Y-7.2666
G01 F70.00
G01 Z-0.0600
G01 F120.00
G01 X9.2900 Y-7.2666
G01 X9.2903 Y-7.6360
G01 X9.2915 Y-7.6445
G01 X9.2938 Y-7.6528
G01 X9.2975 Y-7.6615
G01 X9.3018 Y-7.6689
G01 X9.3070 Y-7.6757
G01 X9.3136 Y-7.6824
G01 X9.3204 Y-7.6877
G01 X9.3278 Y-7.6921
G01 X9.3430 Y-7.6979
G01 X9.3591 Y-7.7000
G01 X9.8734 Y-7.7000
G01 X9.8734 Y-7.9600
G01 X9.0300 Y-7.9600
G01 X9.0300 Y-7.2666
G00 Z2.0000
G00 X9.1000 Y-7.3366
G01 F70.00
G01 Z-0.0600
G01 F120.00
G01 X9.2200 Y-7.3366
G01 X9.2200 Y-7.6300
G01 X9.2213 Y-7.6488
G01 X9.2238 Y-7.6623
G01 X9.2276 Y-7.6755
G01 X9.2327 Y-7.6883
G01 X9.2390 Y-7.7005
G01 X9.2465 Y-7.7120
G01 X9.2540 Y-7.7214
G01 X9.2635 Y-7.7314
G01 X9.2739 Y-7.7404
G01 X9.2910 Y-7.7518
G01 X9.3112 Y-7.7612
G01 X9.3310 Y-7.7670
G01 X9.3514 Y-7.7697
G01 X9.8034 Y-7.7700
G01 X9.8034 Y-7.8900
G01 X9.1000 Y-7.8900
G01 X9.1000 Y-7.3366
G00 Z2.0000
G00 X9.1700 Y-7.7194
G01 F70.00
G01 Z-0.0600
G01 F120.00
G01 X9.1786 Y-7.7357
G01 X9.1883 Y-7.7509
G01 X9.1993 Y-7.7652
G01 X9.2115 Y-7.7785
G01 X9.2248 Y-7.7907
G01 X9.2391 Y-7.8017
G01 X9.2543 Y-7.8114
G01 X9.2706 Y-7.8200
G01 X9.1700 Y-7.8200
G01 X9.1700 Y-7.7194
G00 Z2.0000
G00 X10.4466 Y-7.9600
G01 F70.00
G01 Z-0.0600
G01 F120.00
G01 X10.4466 Y-7.7000
G01 X10.9609 Y-7.7000
G01 X10.9770 Y-7.6979
G01 X10.9922 Y-7.6921
G01 X11.0003 Y-7.6872
G01 X11.0070 Y-7.6819
G01 X11.0130 Y-7.6757
G01 X11.0182 Y-7.6689
G01 X11.0225 Y-7.6615
G01 X11.0262 Y-7.6528
G01 X11.0285 Y-7.6445
G01 X11.0297 Y-7.6360
G01 X11.0300 Y-7.2666
G01 X11.2900 Y-7.2666
G01 X11.2900 Y-7.9600
G01 X10.4466 Y-7.9600
G00 Z2.0000
G00 X10.5166 Y-7.8900
G01 F70.00
G01 Z-0.0600
G01 F120.00
G01 X10.5166 Y-7.7700
G01 X10.9686 Y-7.7697
G01 X10.9890 Y-7.7670
G01 X11.0104 Y-7.7606
G01 X11.0290 Y-7.7518
G01 X11.0461 Y-7.7404
G01 X11.0565 Y-7.7314
G01 X11.0660 Y-7.7214
G01 X11.0745 Y-7.7106
G01 X11.0818 Y-7.6990
G01 X11.0880 Y-7.6867
G01 X11.0929 Y-7.6739
G01 X11.0966 Y-7.6607
G01 X11.0987 Y-7.6488
G01 X11.1000 Y-7.6300
G01 X11.1000 Y-7.3366
G01 X11.2200 Y-7.3366
G01 X11.2200 Y-7.8900
G01 X10.5166 Y-7.8900
G00 Z2.0000
G00 X11.0494 Y-7.8200
G01 F70.00
G01 Z-0.0600
G01 F120.00
G01 X11.0657 Y-7.8114
G01 X11.0809 Y-7.8017
G01 X11.0952 Y-7.7907
G01 X11.1085 Y-7.7785
G01 X11.1207 Y-7.7652
G01 X11.1317 Y-7.7509
G01 X11.1414 Y-7.7357
G01 X11.1500 Y-7.7194
G01 X11.1500 Y-7.8200
G01 X11.0494 Y-7.8200
G00 Z2.0000
G00 X9.1700 Y-6.2406
G01 F70.00
G01 Z-0.0600
G01 F120.00
G01 X9.1700 Y-5.8194
G01 X9.1840 Y-5.8445
G01 X9.1929 Y-5.8572
G01 X9.2027 Y-5.8691
G01 X9.2133 Y-5.8803
G01 X9.2248 Y-5.8907
G01 X9.2477 Y-5.9074
G01 X9.2610 Y-5.9152
G01 X9.2749 Y-5.9220
G01 X9.3015 Y-5.9317
G01 X9.3165 Y-5.9354
G01 X9.3317 Y-5.9381
G01 X9.3600 Y-5.9400
G01 X10.9729 Y-5.9396
G01 X11.0010 Y-5.9360
G01 X11.0283 Y-5.9286
G01 X11.0544 Y-5.9176
G01 X11.0788 Y-5.9032
G01 X11.1010 Y-5.8856
G01 X11.1207 Y-5.8652
G01 X11.1374 Y-5.8423
G01 X11.1500 Y-5.8194
G01 X11.1500 Y-6.2406
G01 X11.1374 Y-6.2177
G01 X11.1207 Y-6.1948
G01 X11.1010 Y-6.1744
G01 X11.0788 Y-6.1568
G01 X11.0544 Y-6.1424
G01 X11.0283 Y-6.1314
G01 X11.0010 Y-6.1240
G01 X10.9729 Y-6.1204
G01 X9.3600 Y-6.1200
G01 X9.3317 Y-6.1219
G01 X9.3165 Y-6.1246
G01 X9.3015 Y-6.1283
G01 X9.2749 Y-6.1380
G01 X9.2610 Y-6.1448
G01 X9.2477 Y-6.1526
G01 X9.2349 Y-6.1613
G01 X9.2228 Y-6.1710
G01 X9.2027 Y-6.1909
G01 X9.1929 Y-6.2028
G01 X9.1840 Y-6.2155
G01 X9.1700 Y-6.2406
G00 Z2.0000
G00 X9.2400 Y-6.0770
G01 F70.00
G01 Z-0.0600
G01 F120.00
G01 X9.2400 Y-5.9830
G01 X9.2689 Y-5.9948
G01 X9.2987 Y-6.0032
G01 X9.3291 Y-6.0083
G01 X9.3600 Y-6.0100
G01 X10.9634 Y-6.0100
G01 X10.9943 Y-6.0079
G01 X11.0247 Y-6.0024
G01 X11.0543 Y-5.9936
G01 X11.0800 Y-5.9830
G01 X11.0800 Y-6.0770
G01 X11.0543 Y-6.0664
G01 X11.0247 Y-6.0576
G01 X10.9943 Y-6.0521
G01 X10.9634 Y-6.0500
G01 X9.3600 Y-6.0500
G01 X9.3291 Y-6.0517
G01 X9.2987 Y-6.0568
G01 X9.2689 Y-6.0652
G01 X9.2400 Y-6.0770
G00 Z2.0000
G00 X5.4204 Y-3.4325
G01 F70.00
G01 Z-0.0600
G01 F120.00
G01 X5.5213 Y-3.4325
G01 X5.5212 Y-3.5337
G01 X5.5124 Y-3.5169
G01 X5.5027 Y-3.5017
G01 X5.4917 Y-3.4874
G01 X5.4795 Y-3.4741
G01 X5.4662 Y-3.4619
G01 X5.4519 Y-3.4508
G01 X5.4367 Y-3.4411
G01 X5.4204 Y-3.4325
G00 Z2.0000
G00 X5.0425 Y-3.3119
G01 F70.00
G01 Z-0.0600
G01 F120.00
G01 X5.0511 Y-3.3282
G01 X5.0608 Y-3.3434
G01 X5.0718 Y-3.3577
G01 X5.0840 Y-3.3710
G01 X5.0973 Y-3.3832
G01 X5.1116 Y-3.3942
G01 X5.1268 Y-3.4039
G01 X5.1431 Y-3.4125
G01 X5.0425 Y-3.4125
G01 X5.0425 Y-3.3119
G00 Z2.0000
G00 X14.8850 Y-6.2406
G01 F70.00
G01 Z-0.0600
G01 F120.00
G01 X14.8850 Y-5.8194
G01 X14.8990 Y-5.8445
G01 X14.9079 Y-5.8572
G01 X14.9177 Y-5.8691
G01 X14.9283 Y-5.8803
G01 X14.9398 Y-5.8907
G01 X14.9627 Y-5.9074
G01 X14.9760 Y-5.9152
G01 X14.9899 Y-5.9220
G01 X15.0165 Y-5.9317
G01 X15.0315 Y-5.9354
G01 X15.0467 Y-5.9381
G01 X15.0750 Y-5.9400
G01 X16.6879 Y-5.9396
G01 X16.7160 Y-5.9360
G01 X16.7433 Y-5.9286
G01 X16.7694 Y-5.9176
G01 X16.7938 Y-5.9032
G01 X16.8160 Y-5.8856
G01 X16.8357 Y-5.8652
G01 X16.8524 Y-5.8423
G01 X16.8650 Y-5.8194
G01 X16.8650 Y-6.2406
G01 X16.8524 Y-6.2177
G01 X16.8357 Y-6.1948
G01 X16.8160 Y-6.1744
G01 X16.7938 Y-6.1568
G01 X16.7694 Y-6.1424
G01 X16.7433 Y-6.1314
G01 X16.7160 Y-6.1240
G01 X16.6879 Y-6.1204
G01 X15.0750 Y-6.1200
G01 X15.0467 Y-6.1219
G01 X15.0315 Y-6.1246
G01 X15.0165 Y-6.1283
G01 X14.9899 Y-6.1380
G01 X14.9760 Y-6.1448
G01 X14.9627 Y-6.1526
G01 X14.9499 Y-6.1613
G01 X14.9378 Y-6.1710
G01 X14.9177 Y-6.1909
G01 X14.9079 Y-6.2028
G01 X14.8990 Y-6.2155
G01 X14.8850 Y-6.2406
G00 Z2.0000
G00 X14.9550 Y-6.0770
G01 F70.00
G01 Z-0.0600
G01 F120.00
G01 X14.9550 Y-5.9830
G01 X14.9839 Y-5.9948
G01 X15.0137 Y-6.0032
G01 X15.0441 Y-6.0083
G01 X15.0750 Y-6.0100
G01 X16.6784 Y-6.0100
G01 X16.7093 Y-6.0079
G01 X16.7397 Y-6.0024
G01 X16.7693 Y-5.9936
G01 X16.7950 Y-5.9830
G01 X16.7950 Y-6.0770
G01 X16.7693 Y-6.0664
G01 X16.7397 Y-6.0576
G01 X16.7093 Y-6.0521
G01 X16.6784 Y-6.0500
G01 X15.0750 Y-6.0500
G01 X15.0441 Y-6.0517
G01 X15.0137 Y-6.0568
G01 X14.9839 Y-6.0652
G01 X14.9550 Y-6.0770
G00 Z2.0000
G00 X14.7450 Y-7.2666
G01 F70.00
G01 Z-0.0600
G01 F120.00
G01 X15.0050 Y-7.2666
G01 X15.0053 Y-7.6360
G01 X15.0065 Y-7.6445
G01 X15.0088 Y-7.6528
G01 X15.0125 Y-7.6615
G01 X15.0168 Y-7.6689
G01 X15.0220 Y-7.6757
G01 X15.0286 Y-7.6824
G01 X15.0354 Y-7.6877
G01 X15.0428 Y-7.6921
G01 X15.0580 Y-7.6979
G01 X15.0741 Y-7.7000
G01 X15.5884 Y-7.7000
G01 X15.5884 Y-7.9600
G01 X14.7450 Y-7.9600
G01 X14.7450 Y-7.2666
G00 Z2.0000
G00 X14.8150 Y-7.3366
G01 F70.00
G01 Z-0.0600
G01 F120.00
G01 X14.9350 Y-7.3366
G01 X14.9350 Y-7.6300
G01 X14.9363 Y-7.6488
G01 X14.9388 Y-7.6623
G01 X14.9426 Y-7.6755
G01 X14.9477 Y-7.6883
G01 X14.9540 Y-7.7005
G01 X14.9615 Y-7.7120
G01 X14.9690 Y-7.7214
G01 X14.9785 Y-7.7314
G01 X14.9889 Y-7.7404
G01 X15.0060 Y-7.7518
G01 X15.0262 Y-7.7612
