(G-CODE GENERATED BY FLATCAM v8.993 - www.flatcam.org - Version Date: 2020/06/05)

(Name: PA6144.drl_cnc)
(Type: G-code from Excellon)
(Units: MM)

(Created on Wednesday, 06 January 2021 at 09:14)

(This preprocessor is the default preprocessor used by FlatCAM.)
(It is made to work with MACH3 compatible motion controllers.)


(TOOLS DIAMETER: )
(Tool: 1 -> Dia: 0.6)
(Tool: 2 -> Dia: 0.8)
(Tool: 3 -> Dia: 1.0)
(Tool: 4 -> Dia: 6.0)

(FEEDRATE Z: )
(Tool: 1 -> Feedrate: 70.0)
(Tool: 2 -> Feedrate: 70.0)
(Tool: 3 -> Feedrate: 70.0)
(Tool: 4 -> Feedrate: 70.0)

(FEEDRATE RAPIDS: )
(Tool: 1 -> Feedrate Rapids: 1500)
(Tool: 2 -> Feedrate Rapids: 1500)
(Tool: 3 -> Feedrate Rapids: 1500)
(Tool: 4 -> Feedrate Rapids: 1500)

(Z_CUT: )
(Tool: 1 -> Z_Cut: -1.8)
(Tool: 2 -> Z_Cut: -1.8)
(Tool: 3 -> Z_Cut: -1.8)
(Tool: 4 -> Z_Cut: -1.8)

(Tools Offset: )
(Tool: 1 -> Offset Z: -0.0)
(Tool: 2 -> Offset Z: -0.0)
(Tool: 3 -> Offset Z: -0.0)

(Z_MOVE: )
(Tool: 1 -> Z_Move: 2)
(Tool: 2 -> Z_Move: 2)
(Tool: 3 -> Z_Move: 2)
(Tool: 4 -> Z_Move: 2)

(Z Toolchange: 5.0 mm)
(X,Y Toolchange: 0.00, 0.00 mm)
(Z Start: None mm)
(Z End: 2.0 mm)
(Steps per circle: 128)
(Preprocessor Excellon: default)

(X range:  -81.6000 ...   -1.6000  mm)
(Y range:  -24.8600 ...   -1.5300  mm)

(Spindle Speed: 10000.0 RPM)
G21
G90
G94



G01 F70.00

M5
G00 Z5.0000
T1
G00 X0.0000 Y0.0000                
M6
(MSG, Change to Tool Dia = 0.60 ||| Total drills for tool T1 = 22)
M0
G00 Z5.0000

M03 S10000
G00 X-2.4600 Y-15.9500
G01 Z-1.8000
G01 Z0
G00 Z2.0000
G00 X-11.4300 Y-8.1800
G01 Z-1.8000
G01 Z0
G00 Z2.0000
G00 X-12.0700 Y-3.7300
G01 Z-1.8000
G01 Z0
G00 Z2.0000
G00 X-43.1000 Y-8.3300
G01 Z-1.8000
G01 Z0
G00 Z2.0000
G00 X-51.3600 Y-1.8300
G01 Z-1.8000
G01 Z0
G00 Z2.0000
G00 X-54.2900 Y-13.3400
G01 Z-1.8000
G01 Z0
G00 Z2.0000
G00 X-59.3700 Y-13.3400
G01 Z-1.8000
G01 Z0
G00 Z2.0000
G00 X-70.7100 Y-13.4400
G01 Z-1.8000
G01 Z0
G00 Z2.0000
G00 X-75.7900 Y-13.4400
G01 Z-1.8000
G01 Z0
G00 Z2.0000
G00 X-75.7900 Y-18.5200
G01 Z-1.8000
G01 Z0
G00 Z2.0000
G00 X-70.7100 Y-18.5200
G01 Z-1.8000
G01 Z0
G00 Z2.0000
G00 X-59.3700 Y-18.4200
G01 Z-1.8000
G01 Z0
G00 Z2.0000
G00 X-54.2900 Y-18.4200
G01 Z-1.8000
G01 Z0
G00 Z2.0000
G00 X-40.1100 Y-14.7000
G01 Z-1.8000
G01 Z0
G00 Z2.0000
G00 X-40.1100 Y-19.7800
G01 Z-1.8000
G01 Z0
G00 Z2.0000
G00 X-35.0300 Y-19.7800
G01 Z-1.8000
G01 Z0
G00 Z2.0000
G00 X-35.0300 Y-14.7000
G01 Z-1.8000
G01 Z0
G00 Z2.0000
G00 X-32.3100 Y-16.5900
G01 Z-1.8000
G01 Z0
G00 Z2.0000
G00 X-20.0800 Y-14.2900
G01 Z-1.8000
G01 Z0
G00 Z2.0000
G00 X-20.0800 Y-19.3700
G01 Z-1.8000
G01 Z0
G00 Z2.0000
G00 X-15.0000 Y-19.3700
G01 Z-1.8000
G01 Z0
G00 Z2.0000
G00 X-15.0000 Y-14.2900
G01 Z-1.8000
G01 Z0
G00 Z2.0000
G01 F70.00

M5
G00 Z5.0000
T2
G00 X0.0000 Y0.0000                
M6
(MSG, Change to Tool Dia = 0.80 ||| Total drills for tool T2 = 12)
M0
G00 Z5.0000

M03 S10000
G00 X-2.0000 Y-22.5300
G01 Z-1.8000
G01 Z0
G00 Z2.0000
G00 X-4.5400 Y-22.5300
G01 Z-1.8000
G01 Z0
G00 Z2.0000
G00 X-20.5200 Y-22.6500
G01 Z-1.8000
G01 Z0
G00 Z2.0000
G00 X-43.1800 Y-21.9600
G01 Z-1.8000
G01 Z0
G00 Z2.0000
G00 X-81.2000 Y-13.4900
G01 Z-1.8000
G01 Z0
G00 Z2.0000
G00 X-73.1800 Y-3.9700
G01 Z-1.8000
G01 Z0
G00 Z2.0000
G00 X-59.2600 Y-5.8700
G01 Z-1.8000
G01 Z0
G00 Z2.0000
G00 X-57.7700 Y-5.8700
G01 Z-1.8000
G01 Z0
G00 Z2.0000
G00 X-56.7500 Y-5.8700
G01 Z-1.8000
G01 Z0
G00 Z2.0000
G00 X-54.2600 Y-5.8700
G01 Z-1.8000
G01 Z0
G00 Z2.0000
G00 X-43.1800 Y-14.2100
G01 Z-1.8000
G01 Z0
G00 Z2.0000
G00 X-26.0000 Y-17.1700
G01 Z-1.8000
G01 Z0
G00 Z2.0000
G01 F70.00

M5
G00 Z5.0000
T3
G00 X0.0000 Y0.0000                
M6
(MSG, Change to Tool Dia = 1.00 ||| Total drills for tool T3 = 9)
M0
G00 Z5.0000

M03 S10000
G00 X-39.0800 Y-9.1400
G01 Z-1.8000
G01 Z0
G00 Z2.0000
G00 X-39.0800 Y-6.6000
G01 Z-1.8000
G01 Z0
G00 Z2.0000
G00 X-39.0800 Y-4.0600
G01 Z-1.8000
G01 Z0
G00 Z2.0000
G00 X-49.0400 Y-7.7100
G01 Z-1.8000
G01 Z0
G00 Z2.0000
G00 X-49.0400 Y-10.2500
G01 Z-1.8000
G01 Z0
G00 Z2.0000
G00 X-49.0400 Y-12.7900
G01 Z-1.8000
G01 Z0
G00 Z2.0000
G00 X-49.0400 Y-19.2200
G01 Z-1.8000
G01 Z0
G00 Z2.0000
G00 X-49.0400 Y-21.7600
G01 Z-1.8000
G01 Z0
G00 Z2.0000
G00 X-49.0400 Y-24.3000
G01 Z-1.8000
G01 Z0
G00 Z2.0000
M05
G00 Z2.00

