(G-CODE GENERATED BY FLATCAM v8.993 - www.flatcam.org - Version Date: 2020/06/05)

(Name: PA6144_Ф2_низ.gbr_iso_combined_cnc)
(Type: G-code from Geometry)
(Units: MM)

(Created on Tuesday, 05 January 2021 at 04:27)

(This preprocessor is the default preprocessor used by FlatCAM.)
(It is made to work with MACH3 compatible motion controllers.)

(TOOL DIAMETER: 0.14 mm)
(Feedrate_XY: 120.0 mm/min)
(Feedrate_Z: 70.0 mm/min)
(Feedrate rapids 1500.0 mm/min)

(Z_Cut: -0.06 mm)
(Z_Move: 2.0 mm)
(Z Start: None mm)
(Z End: 25.0 mm)
(Steps per circle: 128)
(Preprocessor Geometry: default)

(X range:  -85.2800 ...    0.2800  mm)
(Y range:  -27.2800 ...    0.2800  mm)

(Spindle Speed: 10000 RPM)
G21
G90
G94



G01 F120.00
G00 Z2.0000

M03 S10000
G00 X0.0700 Y0.0000
G01 F70.00
G01 Z-0.0600
G01 F120.00
G01 X0.0687 Y0.0137
G01 X0.0647 Y0.0268
G01 X0.0582 Y0.0389
G01 X0.0495 Y0.0495
G01 X0.0389 Y0.0582
G01 X0.0268 Y0.0647
G01 X0.0137 Y0.0687
G01 X0.0000 Y0.0700
G01 X-85.0000 Y0.0700
G01 X-85.0111 Y0.0691
G01 X-85.0211 Y0.0667
G01 X-85.0315 Y0.0625
G01 X-85.0410 Y0.0567
G01 X-85.0495 Y0.0495
G01 X-85.0567 Y0.0410
G01 X-85.0621 Y0.0322
G01 X-85.0665 Y0.0220
G01 X-85.0691 Y0.0111
G01 X-85.0700 Y0.0000
G01 X-85.0700 Y-27.0000
G01 X-85.0691 Y-27.0111
G01 X-85.0667 Y-27.0211
G01 X-85.0625 Y-27.0315
G01 X-85.0567 Y-27.0410
G01 X-85.0501 Y-27.0489
G01 X-85.0417 Y-27.0562
G01 X-85.0322 Y-27.0621
G01 X-85.0220 Y-27.0665
G01 X-85.0111 Y-27.0691
G01 X-85.0000 Y-27.0700
G01 X0.0000 Y-27.0700
G01 X0.0103 Y-27.0692
G01 X0.0211 Y-27.0667
G01 X0.0315 Y-27.0625
G01 X0.0403 Y-27.0572
G01 X0.0489 Y-27.0501
G01 X0.0562 Y-27.0417
G01 X0.0621 Y-27.0322
G01 X0.0665 Y-27.0220
G01 X0.0691 Y-27.0111
G01 X0.0700 Y-27.0000
G01 X0.0700 Y0.0000
G00 Z2.0000
G00 X0.1400 Y0.0000
G01 F70.00
G01 Z-0.0600
G01 F120.00
G01 X0.1393 Y0.0137
G01 X0.1373 Y0.0273
G01 X0.1340 Y0.0406
G01 X0.1293 Y0.0536
G01 X0.1235 Y0.0660
G01 X0.1164 Y0.0778
G01 X0.1082 Y0.0888
G01 X0.0990 Y0.0990
G01 X0.0888 Y0.1082
G01 X0.0778 Y0.1164
G01 X0.0660 Y0.1235
G01 X0.0536 Y0.1293
G01 X0.0406 Y0.1340
G01 X0.0273 Y0.1373
G01 X0.0137 Y0.1393
G01 X0.0000 Y0.1400
G01 X-85.0000 Y0.1400
G01 X-85.0222 Y0.1382
G01 X-85.0423 Y0.1335
G01 X-85.0629 Y0.1251
G01 X-85.0820 Y0.1135
G01 X-85.0990 Y0.0990
G01 X-85.1135 Y0.0820
G01 X-85.1251 Y0.0629
G01 X-85.1335 Y0.0423
G01 X-85.1385 Y0.0205
G01 X-85.1400 Y0.0000
G01 X-85.1400 Y-27.0000
G01 X-85.1385 Y-27.0205
G01 X-85.1335 Y-27.0423
G01 X-85.1251 Y-27.0629
G01 X-85.1135 Y-27.0820
G01 X-85.0990 Y-27.0990
G01 X-85.0820 Y-27.1135
G01 X-85.0629 Y-27.1251
G01 X-85.0423 Y-27.1335
G01 X-85.0222 Y-27.1382
G01 X-85.0000 Y-27.1400
G01 X0.0000 Y-27.1400
G01 X0.0205 Y-27.1385
G01 X0.0423 Y-27.1335
G01 X0.0614 Y-27.1258
G01 X0.0806 Y-27.1145
G01 X0.0978 Y-27.1002
G01 X0.1124 Y-27.0834
G01 X0.1243 Y-27.0645
G01 X0.1329 Y-27.0439
G01 X0.1382 Y-27.0222
G01 X0.1400 Y-27.0000
G01 X0.1400 Y0.0000
G00 Z2.0000
G00 X0.2100 Y0.0000
G01 F70.00
G01 Z-0.0600
G01 F120.00
G01 X0.2090 Y0.0206
G01 X0.2060 Y0.0410
G01 X0.2010 Y0.0610
G01 X0.1940 Y0.0804
G01 X0.1852 Y0.0990
G01 X0.1746 Y0.1167
G01 X0.1623 Y0.1332
G01 X0.1485 Y0.1485
G01 X0.1332 Y0.1623
G01 X0.1167 Y0.1746
G01 X0.0990 Y0.1852
G01 X0.0804 Y0.1940
G01 X0.0610 Y0.2010
G01 X0.0410 Y0.2060
G01 X0.0206 Y0.2090
G01 X0.0000 Y0.2100
G01 X-85.0000 Y0.2100
G01 X-85.0154 Y0.2094
G01 X-85.0308 Y0.2077
G01 X-85.0460 Y0.2049
G01 X-85.0634 Y0.2002
G01 X-85.0804 Y0.1940
G01 X-85.0944 Y0.1876
G01 X-85.1102 Y0.1788
G01 X-85.1230 Y0.1702
G01 X-85.1372 Y0.1590
G01 X-85.1485 Y0.1485
G01 X-85.1590 Y0.1372
G01 X-85.1702 Y0.1230
G01 X-85.1788 Y0.1102
G01 X-85.1876 Y0.0944
G01 X-85.1950 Y0.0780
G01 X-85.2002 Y0.0634
G01 X-85.2049 Y0.0460
G01 X-85.2077 Y0.0308
G01 X-85.2094 Y0.0154
G01 X-85.2100 Y0.0000
G01 X-85.2100 Y-27.0000
G01 X-85.2094 Y-27.0154
G01 X-85.2077 Y-27.0308
G01 X-85.2049 Y-27.0460
G01 X-85.2002 Y-27.0634
G01 X-85.1950 Y-27.0780
G01 X-85.1876 Y-27.0944
G01 X-85.1801 Y-27.1080
G01 X-85.1702 Y-27.1230
G01 X-85.1590 Y-27.1372
G01 X-85.1485 Y-27.1485
G01 X-85.1372 Y-27.1590
G01 X-85.1251 Y-27.1687
G01 X-85.1102 Y-27.1788
G01 X-85.0967 Y-27.1864
G01 X-85.0827 Y-27.1930
G01 X-85.0659 Y-27.1994
G01 X-85.0485 Y-27.2043
G01 X-85.0334 Y-27.2073
G01 X-85.0154 Y-27.2094
G01 X-85.0000 Y-27.2100
G01 X0.0000 Y-27.2100
G01 X0.0154 Y-27.2094
G01 X0.0334 Y-27.2073
G01 X0.0485 Y-27.2043
G01 X0.0634 Y-27.2002
G01 X0.0780 Y-27.1950
G01 X0.0944 Y-27.1876
G01 X0.1102 Y-27.1788
G01 X0.1230 Y-27.1702
G01 X0.1372 Y-27.1590
G01 X0.1485 Y-27.1485
G01 X0.1607 Y-27.1352
G01 X0.1702 Y-27.1230
G01 X0.1801 Y-27.1080
G01 X0.1876 Y-27.0944
G01 X0.1950 Y-27.0780
G01 X0.2002 Y-27.0634
G01 X0.2043 Y-27.0485
G01 X0.2073 Y-27.0334
G01 X0.2094 Y-27.0154
G01 X0.2100 Y-27.0000
G01 X0.2100 Y0.0000
G00 Z2.0000
G00 X0.2800 Y0.0000
G01 F70.00
G01 Z-0.0600
G01 F120.00
G01 X0.2787 Y0.0274
G01 X0.2746 Y0.0546
G01 X0.2679 Y0.0813
G01 X0.2587 Y0.1072
G01 X0.2469 Y0.1320
G01 X0.2328 Y0.1556
G01 X0.2164 Y0.1776
G01 X0.1980 Y0.1980
G01 X0.1776 Y0.2164
G01 X0.1556 Y0.2328
G01 X0.1320 Y0.2469
G01 X0.1072 Y0.2587
G01 X0.0813 Y0.2679
G01 X0.0546 Y0.2746
G01 X0.0274 Y0.2787
G01 X0.0000 Y0.2800
G01 X-85.0000 Y0.2800
G01 X-85.0240 Y0.2790
G01 X-85.0445 Y0.2764
G01 X-85.0647 Y0.2724
G01 X-85.0846 Y0.2669
G01 X-85.1040 Y0.2600
G01 X-85.1259 Y0.2501
G01 X-85.1469 Y0.2384
G01 X-85.1640 Y0.2269
G01 X-85.1803 Y0.2142
G01 X-85.1980 Y0.1980
G01 X-85.2120 Y0.1829
G01 X-85.2249 Y0.1668
G01 X-85.2384 Y0.1469
G01 X-85.2485 Y0.1290
G01 X-85.2587 Y0.1072
G01 X-85.2659 Y0.0878
G01 X-85.2716 Y0.0680
G01 X-85.2759 Y0.0479
G01 X-85.2787 Y0.0274
G01 X-85.2800 Y0.0034
G01 X-85.2800 Y-27.0000
G01 X-85.2790 Y-27.0240
G01 X-85.2764 Y-27.0445
G01 X-85.2724 Y-27.0647
G01 X-85.2669 Y-27.0846
G01 X-85.2587 Y-27.1072
G01 X-85.2501 Y-27.1259
G01 X-85.2384 Y-27.1469
G01 X-85.2269 Y-27.1640
G01 X-85.2142 Y-27.1803
G01 X-85.1980 Y-27.1980
G01 X-85.1803 Y-27.2142
G01 X-85.1640 Y-27.2269
G01 X-85.1469 Y-27.2384
G01 X-85.1259 Y-27.2501
G01 X-85.1040 Y-27.2600
G01 X-85.0846 Y-27.2669
G01 X-85.0647 Y-27.2724
G01 X-85.0411 Y-27.2770
G01 X-85.0206 Y-27.2792
G01 X-85.0000 Y-27.2800
G01 X0.0000 Y-27.2800
G01 X0.0206 Y-27.2792
G01 X0.0411 Y-27.2770
G01 X0.0647 Y-27.2724
G01 X0.0846 Y-27.2669
G01 X0.1072 Y-27.2587
G01 X0.1259 Y-27.2501
G01 X0.1439 Y-27.2402
G01 X0.1640 Y-27.2269
G01 X0.1803 Y-27.2142
G01 X0.1980 Y-27.1980
G01 X0.2120 Y-27.1829
G01 X0.2249 Y-27.1668
G01 X0.2366 Y-27.1498
G01 X0.2485 Y-27.1290
G01 X0.2574 Y-27.1103
G01 X0.2648 Y-27.0911
G01 X0.2716 Y-27.0680
G01 X0.2759 Y-27.0479
G01 X0.2790 Y-27.0240
G01 X0.2800 Y-27.0034
G01 X0.2800 Y0.0000
G00 Z2.0000
G00 X-12.0850 Y-3.7306
G01 F70.00
G01 Z-0.0600
G01 F120.00
G01 X-12.0835 Y-3.7382
G01 X-12.0792 Y-3.7447
G01 X-12.0727 Y-3.7490
G01 X-12.0651 Y-3.7505
G01 X-12.0575 Y-3.7490
G01 X-12.0510 Y-3.7447
G01 X-12.0467 Y-3.7382
G01 X-12.0452 Y-3.7306
G01 X-12.0467 Y-3.7230
G01 X-12.0510 Y-3.7165
G01 X-12.0575 Y-3.7122
G01 X-12.0651 Y-3.7107
G01 X-12.0727 Y-3.7122
G01 X-12.0792 Y-3.7165
G01 X-12.0835 Y-3.7230
G01 X-12.0850 Y-3.7306
G00 Z2.0000
G00 X-12.1550 Y-3.7306
G01 F70.00
G01 Z-0.0600
G01 F120.00
G01 X-12.1533 Y-3.7481
G01 X-12.1482 Y-3.7650
G01 X-12.1399 Y-3.7806
G01 X-12.1287 Y-3.7942
G01 X-12.1151 Y-3.8054
G01 X-12.0995 Y-3.8137
G01 X-12.0826 Y-3.8188
G01 X-12.0651 Y-3.8205
G01 X-12.0476 Y-3.8188
G01 X-12.0307 Y-3.8137
G01 X-12.0151 Y-3.8054
G01 X-12.0015 Y-3.7942
G01 X-11.9903 Y-3.7806
G01 X-11.9820 Y-3.7650
G01 X-11.9769 Y-3.7481
G01 X-11.9752 Y-3.7306
G01 X-11.9769 Y-3.7131
G01 X-11.9820 Y-3.6962
G01 X-11.9903 Y-3.6806
G01 X-12.0015 Y-3.6670
G01 X-12.0151 Y-3.6558
G01 X-12.0307 Y-3.6475
G01 X-12.0476 Y-3.6424
G01 X-12.0651 Y-3.6407
G01 X-12.0826 Y-3.6424
G01 X-12.0995 Y-3.6475
G01 X-12.1151 Y-3.6558
G01 X-12.1287 Y-3.6670
G01 X-12.1399 Y-3.6806
G01 X-12.1482 Y-3.6962
G01 X-12.1533 Y-3.7131
G01 X-12.1550 Y-3.7306
G00 Z2.0000
G00 X-12.2251 Y-3.7306
G01 F70.00
G01 Z-0.0600
G01 F120.00
G01 X-12.2243 Y-3.7463
G01 X-12.2220 Y-3.7618
G01 X-12.2182 Y-3.7770
G01 X-12.2129 Y-3.7918
G01 X-12.2062 Y-3.8060
G01 X-12.1981 Y-3.8195
G01 X-12.1887 Y-3.8321
G01 X-12.1782 Y-3.8437
G01 X-12.1666 Y-3.8542
G01 X-12.1540 Y-3.8636
G01 X-12.1405 Y-3.8717
G01 X-12.1263 Y-3.8784
G01 X-12.1115 Y-3.8837
G01 X-12.0963 Y-3.8875
G01 X-12.0808 Y-3.8898
G01 X-12.0651 Y-3.8906
G01 X-12.0494 Y-3.8898
G01 X-12.0339 Y-3.8875
G01 X-12.0187 Y-3.8837
G01 X-12.0039 Y-3.8784
G01 X-11.9897 Y-3.8717
G01 X-11.9762 Y-3.8636
G01 X-11.9636 Y-3.8542
G01 X-11.9520 Y-3.8437
G01 X-11.9415 Y-3.8321
G01 X-11.9321 Y-3.8195
G01 X-11.9240 Y-3.8060
G01 X-11.9173 Y-3.7918
G01 X-11.9120 Y-3.7770
G01 X-11.9082 Y-3.7618
G01 X-11.9059 Y-3.7463
G01 X-11.9051 Y-3.7306
G01 X-11.9059 Y-3.7149
G01 X-11.9082 Y-3.6994
G01 X-11.9120 Y-3.6842
G01 X-11.9173 Y-3.6694
G01 X-11.9240 Y-3.6552
G01 X-11.9321 Y-3.6417
G01 X-11.9415 Y-3.6291
G01 X-11.9520 Y-3.6175
G01 X-11.9636 Y-3.6070
G01 X-11.9762 Y-3.5976
G01 X-11.9897 Y-3.5895
G01 X-12.0039 Y-3.5828
G01 X-12.0187 Y-3.5775
G01 X-12.0339 Y-3.5737
G01 X-12.0494 Y-3.5714
G01 X-12.0651 Y-3.5706
G01 X-12.0808 Y-3.5714
G01 X-12.0963 Y-3.5737
G01 X-12.1115 Y-3.5775
G01 X-12.1263 Y-3.5828
G01 X-12.1405 Y-3.5895
G01 X-12.1540 Y-3.5976
G01 X-12.1666 Y-3.6070
G01 X-12.1782 Y-3.6175
G01 X-12.1887 Y-3.6291
G01 X-12.1981 Y-3.6417
G01 X-12.2062 Y-3.6552
G01 X-12.2129 Y-3.6694
G01 X-12.2182 Y-3.6842
G01 X-12.2220 Y-3.6994
G01 X-12.2243 Y-3.7149
G01 X-12.2251 Y-3.7306
G00 Z2.0000
G00 X-12.2951 Y-3.7306
G01 F70.00
G01 Z-0.0600
G01 F120.00
G01 X-12.2940 Y-3.7531
G01 X-12.2907 Y-3.7755
G01 X-12.2852 Y-3.7974
G01 X-12.2776 Y-3.8186
G01 X-12.2679 Y-3.8390
G01 X-12.2563 Y-3.8584
G01 X-12.2429 Y-3.8765
G01 X-12.2277 Y-3.8932
G01 X-12.2110 Y-3.9084
G01 X-12.1929 Y-3.9218
G01 X-12.1735 Y-3.9334
G01 X-12.1531 Y-3.9431
G01 X-12.1319 Y-3.9507
G01 X-12.1100 Y-3.9562
G01 X-12.0876 Y-3.9595
G01 X-12.0651 Y-3.9606
G01 X-12.0426 Y-3.9595
G01 X-12.0202 Y-3.9562
G01 X-11.9983 Y-3.9507
G01 X-11.9771 Y-3.9431
G01 X-11.9567 Y-3.9334
G01 X-11.9373 Y-3.9218
G01 X-11.9192 Y-3.9084
G01 X-11.9025 Y-3.8932
G01 X-11.8873 Y-3.8765
G01 X-11.8739 Y-3.8584
G01 X-11.8623 Y-3.8390
G01 X-11.8526 Y-3.8186
G01 X-11.8450 Y-3.7974
G01 X-11.8395 Y-3.7755
G01 X-11.8362 Y-3.7531
G01 X-11.8351 Y-3.7306
G01 X-11.8362 Y-3.7081
G01 X-11.8395 Y-3.6857
G01 X-11.8450 Y-3.6638
G01 X-11.8526 Y-3.6426
G01 X-11.8623 Y-3.6222
G01 X-11.8739 Y-3.6028
G01 X-11.8873 Y-3.5847
G01 X-11.9025 Y-3.5680
G01 X-11.9192 Y-3.5528
G01 X-11.9373 Y-3.5394
G01 X-11.9567 Y-3.5278
G01 X-11.9771 Y-3.5181
G01 X-11.9983 Y-3.5105
G01 X-12.0202 Y-3.5050
G01 X-12.0426 Y-3.5017
G01 X-12.0651 Y-3.5006
G01 X-12.0876 Y-3.5017
G01 X-12.1100 Y-3.5050
G01 X-12.1319 Y-3.5105
G01 X-12.1531 Y-3.5181
G01 X-12.1735 Y-3.5278
G01 X-12.1929 Y-3.5394
G01 X-12.2110 Y-3.5528
G01 X-12.2277 Y-3.5680
G01 X-12.2429 Y-3.5847
G01 X-12.2563 Y-3.6028
G01 X-12.2679 Y-3.6222
G01 X-12.2776 Y-3.6426
G01 X-12.2852 Y-3.6638
G01 X-12.2907 Y-3.6857
G01 X-12.2940 Y-3.7081
G01 X-12.2951 Y-3.7306
G00 Z2.0000
G00 X-11.6601 Y-8.1756
G01 F70.00
G01 Z-0.0600
G01 F120.00
G01 X-11.6590 Y-8.1981
G01 X-11.6557 Y-8.2205
G01 X-11.6502 Y-8.2424
G01 X-11.6426 Y-8.2636
G01 X-11.6329 Y-8.2840
G01 X-11.6213 Y-8.3034
G01 X-11.6079 Y-8.3215
G01 X-11.5927 Y-8.3382
G01 X-11.5760 Y-8.3534
G01 X-11.5579 Y-8.3668
G01 X-11.5385 Y-8.3784
G01 X-11.5181 Y-8.3881
G01 X-11.4969 Y-8.3957
G01 X-11.4750 Y-8.4012
G01 X-11.4526 Y-8.4045
G01 X-11.4301 Y-8.4056
G01 X-11.4076 Y-8.4045
G01 X-11.3852 Y-8.4012
G01 X-11.3633 Y-8.3957
G01 X-11.3421 Y-8.3881
G01 X-11.3217 Y-8.3784
G01 X-11.3023 Y-8.3668
G01 X-11.2842 Y-8.3534
G01 X-11.2675 Y-8.3382
G01 X-11.2523 Y-8.3215
G01 X-11.2389 Y-8.3034
G01 X-11.2273 Y-8.2840
G01 X-11.2176 Y-8.2636
G01 X-11.2100 Y-8.2424
G01 X-11.2045 Y-8.2205
G01 X-11.2012 Y-8.1981
G01 X-11.2001 Y-8.1756
G01 X-11.2012 Y-8.1531
G01 X-11.2045 Y-8.1307
G01 X-11.2100 Y-8.1088
G01 X-11.2176 Y-8.0876
G01 X-11.2273 Y-8.0672
G01 X-11.2389 Y-8.0478
G01 X-11.2523 Y-8.0297
G01 X-11.2675 Y-8.0130
G01 X-11.2842 Y-7.9978
G01 X-11.3023 Y-7.9844
G01 X-11.3217 Y-7.9728
G01 X-11.3421 Y-7.9631
G01 X-11.3633 Y-7.9555
G01 X-11.3852 Y-7.9500
G01 X-11.4076 Y-7.9467
G01 X-11.4301 Y-7.9456
G01 X-11.4526 Y-7.9467
G01 X-11.4750 Y-7.9500
G01 X-11.4969 Y-7.9555
G01 X-11.5181 Y-7.9631
G01 X-11.5385 Y-7.9728
G01 X-11.5579 Y-7.9844
G01 X-11.5760 Y-7.9978
G01 X-11.5927 Y-8.0130
G01 X-11.6079 Y-8.0297
G01 X-11.6213 Y-8.0478
G01 X-11.6329 Y-8.0672
G01 X-11.6426 Y-8.0876
G01 X-11.6502 Y-8.1088
G01 X-11.6557 Y-8.1307
G01 X-11.6590 Y-8.1531
G01 X-11.6601 Y-8.1756
G00 Z2.0000
G00 X-11.5901 Y-8.1756
G01 F70.00
G01 Z-0.0600
G01 F120.00
G01 X-11.5893 Y-8.1913
G01 X-11.5870 Y-8.2068
G01 X-11.5832 Y-8.2220
G01 X-11.5779 Y-8.2368
G01 X-11.5712 Y-8.2510
G01 X-11.5631 Y-8.2645
G01 X-11.5537 Y-8.2771
G01 X-11.5432 Y-8.2887
G01 X-11.5316 Y-8.2992
G01 X-11.5190 Y-8.3086
G01 X-11.5055 Y-8.3167
G01 X-11.4913 Y-8.3234
G01 X-11.4765 Y-8.3287
G01 X-11.4613 Y-8.3325
G01 X-11.4458 Y-8.3348
G01 X-11.4301 Y-8.3356
G01 X-11.4144 Y-8.3348
G01 X-11.3989 Y-8.3325
G01 X-11.3837 Y-8.3287
G01 X-11.3689 Y-8.3234
G01 X-11.3547 Y-8.3167
G01 X-11.3412 Y-8.3086
G01 X-11.3286 Y-8.2992
G01 X-11.3170 Y-8.2887
G01 X-11.3065 Y-8.2771
G01 X-11.2971 Y-8.2645
G01 X-11.2890 Y-8.2510
G01 X-11.2823 Y-8.2368
G01 X-11.2770 Y-8.2220
G01 X-11.2732 Y-8.2068
G01 X-11.2709 Y-8.1913
G01 X-11.2701 Y-8.1756
G01 X-11.2709 Y-8.1599
G01 X-11.2732 Y-8.1444
G01 X-11.2770 Y-8.1292
G01 X-11.2823 Y-8.1144
G01 X-11.2890 Y-8.1002
G01 X-11.2971 Y-8.0867
G01 X-11.3065 Y-8.0741
G01 X-11.3170 Y-8.0625
G01 X-11.3286 Y-8.0520
G01 X-11.3412 Y-8.0426
G01 X-11.3547 Y-8.0345
G01 X-11.3689 Y-8.0278
G01 X-11.3837 Y-8.0225
G01 X-11.3989 Y-8.0187
G01 X-11.4144 Y-8.0164
G01 X-11.4301 Y-8.0156
G01 X-11.4458 Y-8.0164
G01 X-11.4613 Y-8.0187
G01 X-11.4765 Y-8.0225
G01 X-11.4913 Y-8.0278
G01 X-11.5055 Y-8.0345
G01 X-11.5190 Y-8.0426
G01 X-11.5316 Y-8.0520
G01 X-11.5432 Y-8.0625
G01 X-11.5537 Y-8.0741
G01 X-11.5631 Y-8.0867
G01 X-11.5712 Y-8.1002
G01 X-11.5779 Y-8.1144
G01 X-11.5832 Y-8.1292
G01 X-11.5870 Y-8.1444
G01 X-11.5893 Y-8.1599
G01 X-11.5901 Y-8.1756
G00 Z2.0000
G00 X-11.5200 Y-8.1756
G01 F70.00
G01 Z-0.0600
G01 F120.00
G01 X-11.5183 Y-8.1931
G01 X-11.5132 Y-8.2100
G01 X-11.5049 Y-8.2256
G01 X-11.4937 Y-8.2392
G01 X-11.4801 Y-8.2504
G01 X-11.4645 Y-8.2587
G01 X-11.4476 Y-8.2638
G01 X-11.4301 Y-8.2655
G01 X-11.4126 Y-8.2638
G01 X-11.3957 Y-8.2587
G01 X-11.3801 Y-8.2504
G01 X-11.3665 Y-8.2392
G01 X-11.3553 Y-8.2256
G01 X-11.3470 Y-8.2100
G01 X-11.3419 Y-8.1931
G01 X-11.3402 Y-8.1756
G01 X-11.3419 Y-8.1581
G01 X-11.3470 Y-8.1412
G01 X-11.3553 Y-8.1256
G01 X-11.3665 Y-8.1120
G01 X-11.3801 Y-8.1008
G01 X-11.3957 Y-8.0925
G01 X-11.4126 Y-8.0874
G01 X-11.4301 Y-8.0857
G01 X-11.4476 Y-8.0874
G01 X-11.4645 Y-8.0925
G01 X-11.4801 Y-8.1008
G01 X-11.4937 Y-8.1120
G01 X-11.5049 Y-8.1256
G01 X-11.5132 Y-8.1412
G01 X-11.5183 Y-8.1581
G01 X-11.5200 Y-8.1756
G00 Z2.0000
G00 X-11.4500 Y-8.1756
G01 F70.00
G01 Z-0.0600
G01 F120.00
G01 X-11.4485 Y-8.1832
G01 X-11.4442 Y-8.1897
G01 X-11.4377 Y-8.1940
G01 X-11.4301 Y-8.1955
G01 X-11.4225 Y-8.1940
G01 X-11.4160 Y-8.1897
G01 X-11.4117 Y-8.1832
G01 X-11.4102 Y-8.1756
G01 X-11.4117 Y-8.1680
G01 X-11.4160 Y-8.1615
G01 X-11.4225 Y-8.1572
G01 X-11.4301 Y-8.1557
G01 X-11.4377 Y-8.1572
G01 X-11.4442 Y-8.1615
G01 X-11.4485 Y-8.1680
G01 X-11.4500 Y-8.1756
G00 Z2.0000
G00 X-15.0218 Y-14.2875
G01 F70.00
G01 Z-0.0600
G01 F120.00
G01 X-15.0203 Y-14.2951
G01 X-15.0160 Y-14.3016
G01 X-15.0095 Y-14.3059
G01 X-15.0019 Y-14.3074
G01 X-14.9943 Y-14.3059
G01 X-14.9878 Y-14.3016
G01 X-14.9835 Y-14.2951
G01 X-14.9820 Y-14.2875
G01 X-14.9835 Y-14.2799
G01 X-14.9878 Y-14.2734
G01 X-14.9943 Y-14.2691
G01 X-15.0019 Y-14.2676
G01 X-15.0095 Y-14.2691
G01 X-15.0160 Y-14.2734
G01 X-15.0203 Y-14.2799
G01 X-15.0218 Y-14.2875
G00 Z2.0000
G00 X-15.0918 Y-14.2875
G01 F70.00
G01 Z-0.0600
G01 F120.00
G01 X-15.0901 Y-14.3050
G01 X-15.0850 Y-14.3219
G01 X-15.0767 Y-14.3375
G01 X-15.0655 Y-14.3511
G01 X-15.0519 Y-14.3623
G01 X-15.0363 Y-14.3706
G01 X-15.0194 Y-14.3757
G01 X-15.0019 Y-14.3774
G01 X-14.9844 Y-14.3757
G01 X-14.9675 Y-14.3706
G01 X-14.9519 Y-14.3623
G01 X-14.9383 Y-14.3511
G01 X-14.9271 Y-14.3375
G01 X-14.9188 Y-14.3219
G01 X-14.9137 Y-14.3050
G01 X-14.9120 Y-14.2875
G01 X-14.9137 Y-14.2700
G01 X-14.9188 Y-14.2531
G01 X-14.9271 Y-14.2375
G01 X-14.9383 Y-14.2239
G01 X-14.9519 Y-14.2127
G01 X-14.9675 Y-14.2044
G01 X-14.9844 Y-14.1993
G01 X-15.0019 Y-14.1976
G01 X-15.0194 Y-14.1993
G01 X-15.0363 Y-14.2044
G01 X-15.0519 Y-14.2127
G01 X-15.0655 Y-14.2239
G01 X-15.0767 Y-14.2375
G01 X-15.0850 Y-14.2531
G01 X-15.0901 Y-14.2700
G01 X-15.0918 Y-14.2875
G00 Z2.0000
G00 X-15.1619 Y-14.2875
G01 F70.00
G01 Z-0.0600
G01 F120.00
G01 X-15.1611 Y-14.3032
G01 X-15.1588 Y-14.3187
G01 X-15.1550 Y-14.3339
G01 X-15.1497 Y-14.3487
G01 X-15.1430 Y-14.3629
G01 X-15.1349 Y-14.3764
G01 X-15.1255 Y-14.3890
G01 X-15.1150 Y-14.4006
G01 X-15.1034 Y-14.4111
G01 X-15.0908 Y-14.4205
G01 X-15.0773 Y-14.4286
G01 X-15.0631 Y-14.4353
G01 X-15.0483 Y-14.4406
G01 X-15.0331 Y-14.4444
G01 X-15.0176 Y-14.4467
G01 X-15.0019 Y-14.4475
G01 X-14.9862 Y-14.4467
G01 X-14.9707 Y-14.4444
G01 X-14.9555 Y-14.4406
G01 X-14.9407 Y-14.4353
G01 X-14.9265 Y-14.4286
G01 X-14.9130 Y-14.4205
G01 X-14.9004 Y-14.4111
G01 X-14.8888 Y-14.4006
G01 X-14.8783 Y-14.3890
G01 X-14.8689 Y-14.3764
G01 X-14.8608 Y-14.3629
G01 X-14.8541 Y-14.3487
G01 X-14.8488 Y-14.3339
G01 X-14.8450 Y-14.3187
G01 X-14.8427 Y-14.3032
G01 X-14.8419 Y-14.2875
G01 X-14.8427 Y-14.2718
G01 X-14.8450 Y-14.2563
G01 X-14.8488 Y-14.2411
G01 X-14.8541 Y-14.2263
G01 X-14.8608 Y-14.2121
G01 X-14.8689 Y-14.1986
G01 X-14.8783 Y-14.1860
G01 X-14.8888 Y-14.1744
G01 X-14.9004 Y-14.1639
G01 X-14.9130 Y-14.1545
G01 X-14.9265 Y-14.1464
G01 X-14.9407 Y-14.1397
G01 X-14.9555 Y-14.1344
G01 X-14.9707 Y-14.1306
G01 X-14.9862 Y-14.1283
G01 X-15.0019 Y-14.1275
G01 X-15.0176 Y-14.1283
G01 X-15.0331 Y-14.1306
G01 X-15.0483 Y-14.1344
G01 X-15.0631 Y-14.1397
G01 X-15.0773 Y-14.1464
G01 X-15.0908 Y-14.1545
G01 X-15.1034 Y-14.1639
G01 X-15.1150 Y-14.1744
G01 X-15.1255 Y-14.1860
G01 X-15.1349 Y-14.1986
G01 X-15.1430 Y-14.2121
G01 X-15.1497 Y-14.2263
G01 X-15.1550 Y-14.2411
G01 X-15.1588 Y-14.2563
G01 X-15.1611 Y-14.2718
G01 X-15.1619 Y-14.2875
G00 Z2.0000
G00 X-15.2319 Y-14.2875
G01 F70.00
G01 Z-0.0600
G01 F120.00
G01 X-15.2308 Y-14.3100
G01 X-15.2275 Y-14.3324
G01 X-15.2220 Y-14.3543
G01 X-15.2144 Y-14.3755
G01 X-15.2047 Y-14.3959
G01 X-15.1931 Y-14.4153
G01 X-15.1797 Y-14.4334
G01 X-15.1645 Y-14.4501
G01 X-15.1478 Y-14.4653
G01 X-15.1297 Y-14.4787
G01 X-15.1103 Y-14.4903
G01 X-15.0899 Y-14.5000
G01 X-15.0687 Y-14.5076
G01 X-15.0468 Y-14.5131
G01 X-15.0244 Y-14.5164
G01 X-15.0019 Y-14.5175
G01 X-14.9794 Y-14.5164
G01 X-14.9570 Y-14.5131
G01 X-14.9351 Y-14.5076
G01 X-14.9139 Y-14.5000
G01 X-14.8935 Y-14.4903
G01 X-14.8741 Y-14.4787
G01 X-14.8560 Y-14.4653
G01 X-14.8393 Y-14.4501
G01 X-14.8241 Y-14.4334
G01 X-14.8107 Y-14.4153
G01 X-14.7991 Y-14.3959
G01 X-14.7894 Y-14.3755
G01 X-14.7818 Y-14.3543
G01 X-14.7763 Y-14.3324
G01 X-14.7730 Y-14.3100
G01 X-14.7719 Y-14.2875
G01 X-14.7730 Y-14.2650
G01 X-14.7763 Y-14.2426
G01 X-14.7818 Y-14.2207
G01 X-14.7894 Y-14.1995
G01 X-14.7991 Y-14.1791
G01 X-14.8107 Y-14.1597
G01 X-14.8241 Y-14.1416
G01 X-14.8393 Y-14.1249
G01 X-14.8560 Y-14.1097
G01 X-14.8741 Y-14.0963
G01 X-14.8935 Y-14.0847
G01 X-14.9139 Y-14.0750
G01 X-14.9351 Y-14.0674
G01 X-14.9570 Y-14.0619
G01 X-14.9794 Y-14.0586
G01 X-15.0019 Y-14.0575
G01 X-15.0244 Y-14.0586
G01 X-15.0468 Y-14.0619
G01 X-15.0687 Y-14.0674
G01 X-15.0899 Y-14.0750
G01 X-15.1103 Y-14.0847
G01 X-15.1297 Y-14.0963
G01 X-15.1478 Y-14.1097
G01 X-15.1645 Y-14.1249
G01 X-15.1797 Y-14.1416
G01 X-15.1931 Y-14.1597
G01 X-15.2047 Y-14.1791
G01 X-15.2144 Y-14.1995
G01 X-15.2220 Y-14.2207
G01 X-15.2275 Y-14.2426
G01 X-15.2308 Y-14.2650
G01 X-15.2319 Y-14.2875
G00 Z2.0000
G00 X-16.5719 Y-14.2875
G01 F70.00
G01 Z-0.0600
G01 F120.00
G01 X-16.5700 Y-14.3645
G01 X-16.5643 Y-14.4414
G01 X-16.5549 Y-14.5179
G01 X-16.5417 Y-14.5938
G01 X-16.5248 Y-14.6690
G01 X-16.5043 Y-14.7432
G01 X-16.4801 Y-14.8164
G01 X-16.4524 Y-14.8883
G01 X-16.4212 Y-14.9588
G01 X-16.3865 Y-15.0276
G01 X-16.3485 Y-15.0946
G01 X-16.3073 Y-15.1597
G01 X-16.2629 Y-15.2227
G01 X-16.2155 Y-15.2835
G01 X-16.1652 Y-15.3418
G01 X-16.1121 Y-15.3977
G01 X-16.0562 Y-15.4508
G01 X-15.9979 Y-15.5011
G01 X-15.9371 Y-15.5485
G01 X-15.8741 Y-15.5929
G01 X-15.8090 Y-15.6341
G01 X-15.7420 Y-15.6721
G01 X-15.6732 Y-15.7068
G01 X-15.6027 Y-15.7380
G01 X-15.5308 Y-15.7657
G01 X-15.4576 Y-15.7899
G01 X-15.3834 Y-15.8104
G01 X-15.3082 Y-15.8273
G01 X-15.2323 Y-15.8405
G01 X-15.1558 Y-15.8499
G01 X-15.0789 Y-15.8556
G01 X-15.0019 Y-15.8575
G01 X-14.9249 Y-15.8556
G01 X-14.8480 Y-15.8499
G01 X-14.7715 Y-15.8405
G01 X-14.6956 Y-15.8273
G01 X-14.6204 Y-15.8104
G01 X-14.5462 Y-15.7899
G01 X-14.4730 Y-15.7657
G01 X-14.4011 Y-15.7380
G01 X-14.3306 Y-15.7068
G01 X-14.2618 Y-15.6721
G01 X-14.1948 Y-15.6341
G01 X-14.1297 Y-15.5929
G01 X-14.0667 Y-15.5485
G01 X-14.0059 Y-15.5011
G01 X-13.9476 Y-15.4508
G01 X-13.8917 Y-15.3977
G01 X-13.8386 Y-15.3418
G01 X-13.7883 Y-15.2835
G01 X-13.7409 Y-15.2227
G01 X-13.6965 Y-15.1597
G01 X-13.6553 Y-15.0946
G01 X-13.6173 Y-15.0276
G01 X-13.5826 Y-14.9588
G01 X-13.5514 Y-14.8883
G01 X-13.5237 Y-14.8164
G01 X-13.4995 Y-14.7432
G01 X-13.4790 Y-14.6690
G01 X-13.4621 Y-14.5938
G01 X-13.4489 Y-14.5179
G01 X-13.4395 Y-14.4414
G01 X-13.4338 Y-14.3645
G01 X-13.4319 Y-14.2875
G01 X-13.4338 Y-14.2105
G01 X-13.4395 Y-14.1336
G01 X-13.4489 Y-14.0571
G01 X-13.4621 Y-13.9812
G01 X-13.4790 Y-13.9060
G01 X-13.4995 Y-13.8318
G01 X-13.5237 Y-13.7586
G01 X-13.5514 Y-13.6867
G01 X-13.5826 Y-13.6162
G01 X-13.6173 Y-13.5474
G01 X-13.6553 Y-13.4804
G01 X-13.6965 Y-13.4153
G01 X-13.7409 Y-13.3523
G01 X-13.7883 Y-13.2915
G01 X-13.8386 Y-13.2332
G01 X-13.8917 Y-13.1773
G01 X-13.9476 Y-13.1242
G01 X-14.0059 Y-13.0739
G01 X-14.0667 Y-13.0265
G01 X-14.1297 Y-12.9821
G01 X-14.1948 Y-12.9409
G01 X-14.2618 Y-12.9029
G01 X-14.3306 Y-12.8682
G01 X-14.4011 Y-12.8370
G01 X-14.4730 Y-12.8093
G01 X-14.5462 Y-12.7851
G01 X-14.6204 Y-12.7646
G01 X-14.6956 Y-12.7477
G01 X-14.7715 Y-12.7345
G01 X-14.8480 Y-12.7251
G01 X-14.9249 Y-12.7194
G01 X-15.0019 Y-12.7175
G01 X-15.0789 Y-12.7194
G01 X-15.1558 Y-12.7251
G01 X-15.2323 Y-12.7345
G01 X-15.3082 Y-12.7477
G01 X-15.3834 Y-12.7646
G01 X-15.4576 Y-12.7851
G01 X-15.5308 Y-12.8093
G01 X-15.6027 Y-12.8370
G01 X-15.6732 Y-12.8682
G01 X-15.7420 Y-12.9029
G01 X-15.8090 Y-12.9409
G01 X-15.8741 Y-12.9821
G01 X-15.9371 Y-13.0265
G01 X-15.9979 Y-13.0739
G01 X-16.0562 Y-13.1242
G01 X-16.1121 Y-13.1773
G01 X-16.1652 Y-13.2332
G01 X-16.2155 Y-13.2915
G01 X-16.2629 Y-13.3523
G01 X-16.3073 Y-13.4153
G01 X-16.3485 Y-13.4804
G01 X-16.3865 Y-13.5474
G01 X-16.4212 Y-13.6162
G01 X-16.4524 Y-13.6867
G01 X-16.4801 Y-13.7586
G01 X-16.5043 Y-13.8318
G01 X-16.5248 Y-13.9060
G01 X-16.5417 Y-13.9812
G01 X-16.5549 Y-14.0571
G01 X-16.5643 Y-14.1336
G01 X-16.5700 Y-14.2105
G01 X-16.5719 Y-14.2875
G00 Z2.0000
G00 X-16.6419 Y-14.2875
G01 F70.00
G01 Z-0.0600
G01 F120.00
G01 X-16.6399 Y-14.3680
G01 X-16.6340 Y-14.4482
G01 X-16.6241 Y-14.5281
G01 X-16.6104 Y-14.6074
G01 X-16.5928 Y-14.6860
G01 X-16.5713 Y-14.7636
G01 X-16.5460 Y-14.8400
G01 X-16.5171 Y-14.9151
G01 X-16.4844 Y-14.9887
G01 X-16.4483 Y-15.0606
G01 X-16.4086 Y-15.1306
G01 X-16.3655 Y-15.1986
G01 X-16.3192 Y-15.2644
G01 X-16.2696 Y-15.3279
G01 X-16.2171 Y-15.3889
G01 X-16.1616 Y-15.4472
G01 X-16.1033 Y-15.5027
G01 X-16.0423 Y-15.5552
G01 X-15.9788 Y-15.6048
G01 X-15.9130 Y-15.6511
G01 X-15.8450 Y-15.6942
G01 X-15.7750 Y-15.7339
G01 X-15.7031 Y-15.7700
G01 X-15.6295 Y-15.8027
G01 X-15.5544 Y-15.8316
G01 X-15.4780 Y-15.8569
G01 X-15.4004 Y-15.8784
G01 X-15.3218 Y-15.8960
G01 X-15.2425 Y-15.9097
G01 X-15.1626 Y-15.9196
G01 X-15.0824 Y-15.9255
G01 X-15.0019 Y-15.9275
G01 X-14.9214 Y-15.9255
G01 X-14.8412 Y-15.9196
G01 X-14.7613 Y-15.9097
G01 X-14.6820 Y-15.8960
G01 X-14.6034 Y-15.8784
G01 X-14.5258 Y-15.8569
G01 X-14.4494 Y-15.8316
G01 X-14.3743 Y-15.8027
G01 X-14.3007 Y-15.7700
G01 X-14.2288 Y-15.7339
G01 X-14.1588 Y-15.6942
G01 X-14.0908 Y-15.6511
G01 X-14.0250 Y-15.6048
G01 X-13.9615 Y-15.5552
G01 X-13.9005 Y-15.5027
G01 X-13.8422 Y-15.4472
G01 X-13.7867 Y-15.3889
G01 X-13.7342 Y-15.3279
G01 X-13.6846 Y-15.2644
G01 X-13.6383 Y-15.1986
G01 X-13.5952 Y-15.1306
G01 X-13.5555 Y-15.0606
G01 X-13.5194 Y-14.9887
G01 X-13.4867 Y-14.9151
G01 X-13.4578 Y-14.8400
G01 X-13.4325 Y-14.7636
G01 X-13.4110 Y-14.6860
G01 X-13.3934 Y-14.6074
G01 X-13.3797 Y-14.5281
G01 X-13.3698 Y-14.4482
G01 X-13.3639 Y-14.3680
G01 X-13.3619 Y-14.2875
G01 X-13.3639 Y-14.2070
G01 X-13.3698 Y-14.1268
G01 X-13.3797 Y-14.0469
G01 X-13.3934 Y-13.9676
G01 X-13.4110 Y-13.8890
G01 X-13.4325 Y-13.8114
G01 X-13.4578 Y-13.7350
G01 X-13.4867 Y-13.6599
G01 X-13.5194 Y-13.5863
G01 X-13.5555 Y-13.5144
G01 X-13.5952 Y-13.4444
G01 X-13.6383 Y-13.3764
G01 X-13.6846 Y-13.3106
G01 X-13.7342 Y-13.2471
G01 X-13.7867 Y-13.1861
G01 X-13.8422 Y-13.1278
G01 X-13.9005 Y-13.0723
G01 X-13.9615 Y-13.0198
G01 X-14.0250 Y-12.9702
G01 X-14.0908 Y-12.9239
G01 X-14.1588 Y-12.8808
G01 X-14.2288 Y-12.8411
G01 X-14.3007 Y-12.8050
G01 X-14.3743 Y-12.7723
G01 X-14.4494 Y-12.7434
G01 X-14.5258 Y-12.7181
G01 X-14.6034 Y-12.6966
G01 X-14.6820 Y-12.6790
G01 X-14.7613 Y-12.6653
G01 X-14.8412 Y-12.6554
G01 X-14.9214 Y-12.6495
G01 X-15.0019 Y-12.6475
G01 X-15.0824 Y-12.6495
G01 X-15.1626 Y-12.6554
G01 X-15.2425 Y-12.6653
G01 X-15.3218 Y-12.6790
G01 X-15.4004 Y-12.6966
G01 X-15.4780 Y-12.7181
G01 X-15.5544 Y-12.7434
G01 X-15.6295 Y-12.7723
G01 X-15.7031 Y-12.8050
G01 X-15.7750 Y-12.8411
G01 X-15.8450 Y-12.8808
G01 X-15.9130 Y-12.9239
G01 X-15.9788 Y-12.9702
G01 X-16.0423 Y-13.0198
G01 X-16.1033 Y-13.0723
G01 X-16.1616 Y-13.1278
G01 X-16.2171 Y-13.1861
G01 X-16.2696 Y-13.2471
G01 X-16.3192 Y-13.3106
G01 X-16.3655 Y-13.3764
G01 X-16.4086 Y-13.4444
G01 X-16.4483 Y-13.5144
G01 X-16.4844 Y-13.5863
G01 X-16.5171 Y-13.6599
G01 X-16.5460 Y-13.7350
G01 X-16.5713 Y-13.8114
G01 X-16.5928 Y-13.8890
G01 X-16.6104 Y-13.9676
G01 X-16.6241 Y-14.0469
G01 X-16.6340 Y-14.1268
G01 X-16.6399 Y-14.2070
G01 X-16.6419 Y-14.2875
G00 Z2.0000
G00 X-16.7619 Y-14.2875
G01 F70.00
G01 Z-0.0600
G01 F120.00
G01 X-16.7597 Y-14.3739
G01 X-16.7534 Y-14.4600
G01 X-16.7428 Y-14.5457
G01 X-16.7280 Y-14.6309
G01 X-16.7091 Y-14.7151
G01 X-16.6861 Y-14.7984
G01 X-16.6590 Y-14.8804
G01 X-16.6279 Y-14.9610
G01 X-16.5929 Y-15.0400
G01 X-16.5540 Y-15.1171
G01 X-16.5115 Y-15.1923
G01 X-16.4653 Y-15.2653
G01 X-16.4155 Y-15.3359
G01 X-16.3624 Y-15.4040
G01 X-16.3059 Y-15.4694
G01 X-16.2464 Y-15.5320
G01 X-16.1838 Y-15.5915
G01 X-16.1184 Y-15.6480
G01 X-16.0503 Y-15.7011
G01 X-15.9797 Y-15.7509
G01 X-15.9067 Y-15.7971
G01 X-15.8315 Y-15.8396
G01 X-15.7544 Y-15.8785
G01 X-15.6754 Y-15.9135
G01 X-15.5948 Y-15.9446
G01 X-15.5128 Y-15.9717
G01 X-15.4295 Y-15.9947
G01 X-15.3453 Y-16.0136
G01 X-15.2601 Y-16.0284
G01 X-15.1744 Y-16.0390
G01 X-15.0883 Y-16.0453
G01 X-15.0019 Y-16.0475
G01 X-14.9155 Y-16.0453
G01 X-14.8294 Y-16.0390
G01 X-14.7437 Y-16.0284
G01 X-14.6585 Y-16.0136
G01 X-14.5743 Y-15.9947
G01 X-14.4910 Y-15.9717
G01 X-14.4090 Y-15.9446
G01 X-14.3284 Y-15.9135
G01 X-14.2494 Y-15.8785
G01 X-14.1723 Y-15.8396
G01 X-14.0971 Y-15.7971
G01 X-14.0241 Y-15.7509
G01 X-13.9535 Y-15.7011
G01 X-13.8854 Y-15.6480
G01 X-13.8200 Y-15.5915
G01 X-13.7574 Y-15.5320
G01 X-13.6979 Y-15.4694
G01 X-13.6414 Y-15.4040
G01 X-13.5883 Y-15.3359
G01 X-13.5385 Y-15.2653
G01 X-13.4923 Y-15.1923
G01 X-13.4498 Y-15.1171
G01 X-13.4109 Y-15.0400
G01 X-13.3759 Y-14.9610
G01 X-13.3448 Y-14.8804
G01 X-13.3177 Y-14.7984
G01 X-13.2947 Y-14.7151
G01 X-13.2758 Y-14.6309
G01 X-13.2610 Y-14.5457
G01 X-13.2504 Y-14.4600
G01 X-13.2441 Y-14.3739
G01 X-13.2419 Y-14.2875
G01 X-13.2441 Y-14.2011
G01 X-13.2504 Y-14.1150
G01 X-13.2610 Y-14.0293
G01 X-13.2758 Y-13.9441
G01 X-13.2947 Y-13.8599
G01 X-13.3177 Y-13.7766
G01 X-13.3448 Y-13.6946
G01 X-13.3759 Y-13.6140
G01 X-13.4109 Y-13.5350
G01 X-13.4498 Y-13.4579
G01 X-13.4923 Y-13.3827
G01 X-13.5385 Y-13.3097
G01 X-13.5883 Y-13.2391
G01 X-13.6414 Y-13.1710
G01 X-13.6979 Y-13.1056
G01 X-13.7574 Y-13.0430
G01 X-13.8200 Y-12.9835
G01 X-13.8854 Y-12.9270
G01 X-13.9535 Y-12.8739
G01 X-14.0241 Y-12.8241
G01 X-14.0971 Y-12.7779
G01 X-14.1723 Y-12.7354
G01 X-14.2494 Y-12.6965
G01 X-14.3284 Y-12.6615
G01 X-14.4090 Y-12.6304
G01 X-14.4910 Y-12.6033
G01 X-14.5743 Y-12.5803
G01 X-14.6585 Y-12.5614
G01 X-14.7437 Y-12.5466
G01 X-14.8294 Y-12.5360
G01 X-14.9155 Y-12.5297
G01 X-15.0019 Y-12.5275
G01 X-15.0883 Y-12.5297
G01 X-15.1744 Y-12.5360
G01 X-15.2601 Y-12.5466
G01 X-15.3453 Y-12.5614
G01 X-15.4295 Y-12.5803
G01 X-15.5128 Y-12.6033
G01 X-15.5948 Y-12.6304
G01 X-15.6754 Y-12.6615
G01 X-15.7544 Y-12.6965
G01 X-15.8315 Y-12.7354
G01 X-15.9067 Y-12.7779
G01 X-15.9797 Y-12.8241
G01 X-16.0503 Y-12.8739
G01 X-16.1184 Y-12.9270
G01 X-16.1838 Y-12.9835
G01 X-16.2464 Y-13.0430
G01 X-16.3059 Y-13.1056
G01 X-16.3624 Y-13.1710
G01 X-16.4155 Y-13.2391
G01 X-16.4653 Y-13.3097
G01 X-16.5115 Y-13.3827
G01 X-16.5540 Y-13.4579
G01 X-16.5929 Y-13.5350
G01 X-16.6279 Y-13.6140
G01 X-16.6590 Y-13.6946
G01 X-16.6861 Y-13.7766
G01 X-16.7091 Y-13.8599
G01 X-16.7280 Y-13.9441
G01 X-16.7428 Y-14.0293
G01 X-16.7534 Y-14.1150
G01 X-16.7597 Y-14.2011
G01 X-16.7619 Y-14.2875
G00 Z2.0000
G00 X-16.8319 Y-14.2875
G01 F70.00
G01 Z-0.0600
G01 F120.00
G01 X-16.8297 Y-14.3773
G01 X-16.8231 Y-14.4669
G01 X-16.8121 Y-14.5560
G01 X-16.7967 Y-14.6445
G01 X-16.7770 Y-14.7321
G01 X-16.7531 Y-14.8187
G01 X-16.7249 Y-14.9040
G01 X-16.6926 Y-14.9878
G01 X-16.6562 Y-15.0699
G01 X-16.6158 Y-15.1501
G01 X-16.5715 Y-15.2283
G01 X-16.5235 Y-15.3042
G01 X-16.4718 Y-15.3776
G01 X-16.4165 Y-15.4484
G01 X-16.3578 Y-15.5164
G01 X-16.2959 Y-15.5815
G01 X-16.2308 Y-15.6434
G01 X-16.1628 Y-15.7021
G01 X-16.0920 Y-15.7574
G01 X-16.0186 Y-15.8091
G01 X-15.9427 Y-15.8571
G01 X-15.8645 Y-15.9014
G01 X-15.7843 Y-15.9418
G01 X-15.7022 Y-15.9782
G01 X-15.6184 Y-16.0105
G01 X-15.5331 Y-16.0387
G01 X-15.4465 Y-16.0626
G01 X-15.3589 Y-16.0823
G01 X-15.2704 Y-16.0977
G01 X-15.1813 Y-16.1087
G01 X-15.0917 Y-16.1153
G01 X-15.0019 Y-16.1175
G01 X-14.9121 Y-16.1153
G01 X-14.8225 Y-16.1087
G01 X-14.7334 Y-16.0977
G01 X-14.6449 Y-16.0823
G01 X-14.5573 Y-16.0626
G01 X-14.4707 Y-16.0387
G01 X-14.3854 Y-16.0105
G01 X-14.3016 Y-15.9782
G01 X-14.2195 Y-15.9418
G01 X-14.1393 Y-15.9014
G01 X-14.0611 Y-15.8571
G01 X-13.9852 Y-15.8091
G01 X-13.9118 Y-15.7574
G01 X-13.8410 Y-15.7021
G01 X-13.7730 Y-15.6434
G01 X-13.7079 Y-15.5815
G01 X-13.6460 Y-15.5164
G01 X-13.5873 Y-15.4484
G01 X-13.5320 Y-15.3776
G01 X-13.4803 Y-15.3042
G01 X-13.4323 Y-15.2283
G01 X-13.3880 Y-15.1501
G01 X-13.3476 Y-15.0699
G01 X-13.3112 Y-14.9878
G01 X-13.2789 Y-14.9040
G01 X-13.2507 Y-14.8187
G01 X-13.2268 Y-14.7321
G01 X-13.2071 Y-14.6445
G01 X-13.1917 Y-14.5560
G01 X-13.1807 Y-14.4669
G01 X-13.1741 Y-14.3773
G01 X-13.1719 Y-14.2875
G01 X-13.1741 Y-14.1977
G01 X-13.1807 Y-14.1081
G01 X-13.1917 Y-14.0190
G01 X-13.2071 Y-13.9305
G01 X-13.2268 Y-13.8429
G01 X-13.2507 Y-13.7563
G01 X-13.2789 Y-13.6710
G01 X-13.3112 Y-13.5872
G01 X-13.3476 Y-13.5051
G01 X-13.3880 Y-13.4249
G01 X-13.4323 Y-13.3467
G01 X-13.4803 Y-13.2708
G01 X-13.5320 Y-13.1974
G01 X-13.5873 Y-13.1266
G01 X-13.6460 Y-13.0586
G01 X-13.7079 Y-12.9935
G01 X-13.7730 Y-12.9316
G01 X-13.8410 Y-12.8729
G01 X-13.9118 Y-12.8176
G01 X-13.9852 Y-12.7659
G01 X-14.0611 Y-12.7179
G01 X-14.1393 Y-12.6736
G01 X-14.2195 Y-12.6332
G01 X-14.3016 Y-12.5968
G01 X-14.3854 Y-12.5645
G01 X-14.4707 Y-12.5363
G01 X-14.5573 Y-12.5124
G01 X-14.6449 Y-12.4927
G01 X-14.7334 Y-12.4773
G01 X-14.8225 Y-12.4663
G01 X-14.9121 Y-12.4597
G01 X-15.0019 Y-12.4575
G01 X-15.0917 Y-12.4597
G01 X-15.1813 Y-12.4663
G01 X-15.2704 Y-12.4773
G01 X-15.3589 Y-12.4927
G01 X-15.4465 Y-12.5124
G01 X-15.5331 Y-12.5363
G01 X-15.6184 Y-12.5645
G01 X-15.7022 Y-12.5968
G01 X-15.7843 Y-12.6332
G01 X-15.8645 Y-12.6736
G01 X-15.9427 Y-12.7179
G01 X-16.0186 Y-12.7659
G01 X-16.0920 Y-12.8176
G01 X-16.1628 Y-12.8729
G01 X-16.2308 Y-12.9316
G01 X-16.2959 Y-12.9935
G01 X-16.3578 Y-13.0586
G01 X-16.4165 Y-13.1266
G01 X-16.4718 Y-13.1974
G01 X-16.5235 Y-13.2708
G01 X-16.5715 Y-13.3467
G01 X-16.6158 Y-13.4249
G01 X-16.6562 Y-13.5051
G01 X-16.6926 Y-13.5872
G01 X-16.7249 Y-13.6710
G01 X-16.7531 Y-13.7563
G01 X-16.7770 Y-13.8429
G01 X-16.7967 Y-13.9305
G01 X-16.8121 Y-14.0190
G01 X-16.8231 Y-14.1081
G01 X-16.8297 Y-14.1977
G01 X-16.8319 Y-14.2875
G00 Z2.0000
G00 X-20.1018 Y-14.2875
G01 F70.00
G01 Z-0.0600
G01 F120.00
G01 X-20.1003 Y-14.2951
G01 X-20.0960 Y-14.3016
G01 X-20.0895 Y-14.3059
G01 X-20.0819 Y-14.3074
G01 X-20.0743 Y-14.3059
G01 X-20.0678 Y-14.3016
G01 X-20.0635 Y-14.2951
G01 X-20.0620 Y-14.2875
G01 X-20.0635 Y-14.2799
G01 X-20.0678 Y-14.2734
G01 X-20.0743 Y-14.2691
G01 X-20.0819 Y-14.2676
G01 X-20.0895 Y-14.2691
G01 X-20.0960 Y-14.2734
G01 X-20.1003 Y-14.2799
G01 X-20.1018 Y-14.2875
G00 Z2.0000
G00 X-20.1718 Y-14.2875
G01 F70.00
G01 Z-0.0600
G01 F120.00
G01 X-20.1701 Y-14.3050
G01 X-20.1650 Y-14.3219
G01 X-20.1567 Y-14.3375
G01 X-20.1455 Y-14.3511
G01 X-20.1319 Y-14.3623
G01 X-20.1163 Y-14.3706
G01 X-20.0994 Y-14.3757
G01 X-20.0819 Y-14.3774
G01 X-20.0644 Y-14.3757
G01 X-20.0475 Y-14.3706
G01 X-20.0319 Y-14.3623
G01 X-20.0183 Y-14.3511
G01 X-20.0071 Y-14.3375
G01 X-19.9988 Y-14.3219
G01 X-19.9937 Y-14.3050
G01 X-19.9920 Y-14.2875
G01 X-19.9937 Y-14.2700
G01 X-19.9988 Y-14.2531
G01 X-20.0071 Y-14.2375
G01 X-20.0183 Y-14.2239
G01 X-20.0319 Y-14.2127
G01 X-20.0475 Y-14.2044
G01 X-20.0644 Y-14.1993
G01 X-20.0819 Y-14.1976
G01 X-20.0994 Y-14.1993
G01 X-20.1163 Y-14.2044
G01 X-20.1319 Y-14.2127
G01 X-20.1455 Y-14.2239
G01 X-20.1567 Y-14.2375
G01 X-20.1650 Y-14.2531
G01 X-20.1701 Y-14.2700
G01 X-20.1718 Y-14.2875
G00 Z2.0000
G00 X-20.2419 Y-14.2875
G01 F70.00
G01 Z-0.0600
G01 F120.00
G01 X-20.2411 Y-14.3032
G01 X-20.2388 Y-14.3187
G01 X-20.2350 Y-14.3339
G01 X-20.2297 Y-14.3487
G01 X-20.2230 Y-14.3629
G01 X-20.2149 Y-14.3764
G01 X-20.2055 Y-14.3890
G01 X-20.1950 Y-14.4006
G01 X-20.1834 Y-14.4111
G01 X-20.1708 Y-14.4205
G01 X-20.1573 Y-14.4286
G01 X-20.1431 Y-14.4353
G01 X-20.1283 Y-14.4406
G01 X-20.1131 Y-14.4444
G01 X-20.0976 Y-14.4467
G01 X-20.0819 Y-14.4475
G01 X-20.0662 Y-14.4467
G01 X-20.0507 Y-14.4444
G01 X-20.0355 Y-14.4406
G01 X-20.0207 Y-14.4353
G01 X-20.0065 Y-14.4286
G01 X-19.9930 Y-14.4205
G01 X-19.9804 Y-14.4111
G01 X-19.9688 Y-14.4006
G01 X-19.9583 Y-14.3890
G01 X-19.9489 Y-14.3764
G01 X-19.9408 Y-14.3629
G01 X-19.9341 Y-14.3487
G01 X-19.9288 Y-14.3339
G01 X-19.9250 Y-14.3187
G01 X-19.9227 Y-14.3032
G01 X-19.9219 Y-14.2875
G01 X-19.9227 Y-14.2718
G01 X-19.9250 Y-14.2563
G01 X-19.9288 Y-14.2411
G01 X-19.9341 Y-14.2263
G01 X-19.9408 Y-14.2121
G01 X-19.9489 Y-14.1986
G01 X-19.9583 Y-14.1860
G01 X-19.9688 Y-14.1744
G01 X-19.9804 Y-14.1639
G01 X-19.9930 Y-14.1545
G01 X-20.0065 Y-14.1464
G01 X-20.0207 Y-14.1397
G01 X-20.0355 Y-14.1344
G01 X-20.0507 Y-14.1306
G01 X-20.0662 Y-14.1283
G01 X-20.0819 Y-14.1275
G01 X-20.0976 Y-14.1283
G01 X-20.1131 Y-14.1306
G01 X-20.1283 Y-14.1344
G01 X-20.1431 Y-14.1397
G01 X-20.1573 Y-14.1464
G01 X-20.1708 Y-14.1545
G01 X-20.1834 Y-14.1639
G01 X-20.1950 Y-14.1744
G01 X-20.2055 Y-14.1860
G01 X-20.2149 Y-14.1986
G01 X-20.2230 Y-14.2121
G01 X-20.2297 Y-14.2263
G01 X-20.2350 Y-14.2411
G01 X-20.2388 Y-14.2563
G01 X-20.2411 Y-14.2718
G01 X-20.2419 Y-14.2875
G00 Z2.0000
G00 X-20.3119 Y-14.2875
G01 F70.00
G01 Z-0.0600
G01 F120.00
G01 X-20.3108 Y-14.3100
G01 X-20.3075 Y-14.3324
G01 X-20.3020 Y-14.3543
G01 X-20.2944 Y-14.3755
G01 X-20.2847 Y-14.3959
G01 X-20.2731 Y-14.4153
G01 X-20.2597 Y-14.4334
G01 X-20.2445 Y-14.4501
G01 X-20.2278 Y-14.4653
G01 X-20.2097 Y-14.4787
G01 X-20.1903 Y-14.4903
G01 X-20.1699 Y-14.5000
G01 X-20.1487 Y-14.5076
G01 X-20.1268 Y-14.5131
G01 X-20.1044 Y-14.5164
G01 X-20.0819 Y-14.5175
G01 X-20.0594 Y-14.5164
G01 X-20.0370 Y-14.5131
G01 X-20.0151 Y-14.5076
G01 X-19.9939 Y-14.5000
G01 X-19.9735 Y-14.4903
G01 X-19.9541 Y-14.4787
G01 X-19.9360 Y-14.4653
G01 X-19.9193 Y-14.4501
G01 X-19.9041 Y-14.4334
G01 X-19.8907 Y-14.4153
G01 X-19.8791 Y-14.3959
G01 X-19.8694 Y-14.3755
G01 X-19.8618 Y-14.3543
G01 X-19.8563 Y-14.3324
G01 X-19.8530 Y-14.3100
G01 X-19.8519 Y-14.2875
G01 X-19.8530 Y-14.2650
G01 X-19.8563 Y-14.2426
G01 X-19.8618 Y-14.2207
G01 X-19.8694 Y-14.1995
G01 X-19.8791 Y-14.1791
G01 X-19.8907 Y-14.1597
G01 X-19.9041 Y-14.1416
G01 X-19.9193 Y-14.1249
G01 X-19.9360 Y-14.1097
G01 X-19.9541 Y-14.0963
G01 X-19.9735 Y-14.0847
G01 X-19.9939 Y-14.0750
G01 X-20.0151 Y-14.0674
G01 X-20.0370 Y-14.0619
G01 X-20.0594 Y-14.0586
G01 X-20.0819 Y-14.0575
G01 X-20.1044 Y-14.0586
G01 X-20.1268 Y-14.0619
G01 X-20.1487 Y-14.0674
G01 X-20.1699 Y-14.0750
G01 X-20.1903 Y-14.0847
G01 X-20.2097 Y-14.0963
G01 X-20.2278 Y-14.1097
G01 X-20.2445 Y-14.1249
G01 X-20.2597 Y-14.1416
G01 X-20.2731 Y-14.1597
G01 X-20.2847 Y-14.1791
G01 X-20.2944 Y-14.1995
G01 X-20.3020 Y-14.2207
G01 X-20.3075 Y-14.2426
G01 X-20.3108 Y-14.2650
G01 X-20.3119 Y-14.2875
G00 Z2.0000
G00 X-21.6519 Y-14.2875
G01 F70.00
G01 Z-0.0600
G01 F120.00
G01 X-21.6500 Y-14.3645
G01 X-21.6443 Y-14.4414
G01 X-21.6349 Y-14.5179
G01 X-21.6217 Y-14.5938
G01 X-21.6048 Y-14.6690
G01 X-21.5843 Y-14.7432
G01 X-21.5601 Y-14.8164
G01 X-21.5324 Y-14.8883
G01 X-21.5012 Y-14.9588
G01 X-21.4665 Y-15.0276
G01 X-21.4285 Y-15.0946
G01 X-21.3873 Y-15.1597
G01 X-21.3429 Y-15.2227
G01 X-21.2955 Y-15.2835
G01 X-21.2452 Y-15.3418
G01 X-21.1921 Y-15.3977
G01 X-21.1362 Y-15.4508
G01 X-21.0779 Y-15.5011
G01 X-21.0171 Y-15.5485
G01 X-20.9541 Y-15.5929
G01 X-20.8890 Y-15.6341
G01 X-20.8220 Y-15.6721
G01 X-20.7532 Y-15.7068
G01 X-20.6827 Y-15.7380
G01 X-20.6108 Y-15.7657
G01 X-20.5376 Y-15.7899
G01 X-20.4634 Y-15.8104
G01 X-20.3882 Y-15.8273
G01 X-20.3123 Y-15.8405
G01 X-20.2358 Y-15.8499
G01 X-20.1589 Y-15.8556
G01 X-20.0819 Y-15.8575
G01 X-20.0049 Y-15.8556
G01 X-19.9280 Y-15.8499
G01 X-19.8515 Y-15.8405
G01 X-19.7756 Y-15.8273
G01 X-19.7004 Y-15.8104
G01 X-19.6262 Y-15.7899
G01 X-19.5530 Y-15.7657
G01 X-19.4811 Y-15.7380
G01 X-19.4106 Y-15.7068
G01 X-19.3418 Y-15.6721
G01 X-19.2748 Y-15.6341
G01 X-19.2097 Y-15.5929
G01 X-19.1467 Y-15.5485
G01 X-19.0859 Y-15.5011
G01 X-19.0276 Y-15.4508
G01 X-18.9717 Y-15.3977
G01 X-18.9186 Y-15.3418
G01 X-18.8683 Y-15.2835
G01 X-18.8209 Y-15.2227
G01 X-18.7765 Y-15.1597
G01 X-18.7353 Y-15.0946
G01 X-18.6973 Y-15.0276
G01 X-18.6626 Y-14.9588
G01 X-18.6314 Y-14.8883
G01 X-18.6037 Y-14.8164
G01 X-18.5795 Y-14.7432
G01 X-18.5590 Y-14.6690
G01 X-18.5421 Y-14.5938
G01 X-18.5289 Y-14.5179
G01 X-18.5195 Y-14.4414
G01 X-18.5138 Y-14.3645
G01 X-18.5119 Y-14.2875
G01 X-18.5138 Y-14.2105
G01 X-18.5195 Y-14.1336
G01 X-18.5289 Y-14.0571
G01 X-18.5421 Y-13.9812
G01 X-18.5590 Y-13.9060
G01 X-18.5795 Y-13.8318
G01 X-18.6037 Y-13.7586
G01 X-18.6314 Y-13.6867
G01 X-18.6626 Y-13.6162
G01 X-18.6973 Y-13.5474
G01 X-18.7353 Y-13.4804
G01 X-18.7765 Y-13.4153
G01 X-18.8209 Y-13.3523
G01 X-18.8683 Y-13.2915
G01 X-18.9186 Y-13.2332
G01 X-18.9717 Y-13.1773
G01 X-19.0276 Y-13.1242
G01 X-19.0859 Y-13.0739
G01 X-19.1467 Y-13.0265
G01 X-19.2097 Y-12.9821
G01 X-19.2748 Y-12.9409
G01 X-19.3418 Y-12.9029
G01 X-19.4106 Y-12.8682
G01 X-19.4811 Y-12.8370
G01 X-19.5530 Y-12.8093
G01 X-19.6262 Y-12.7851
G01 X-19.7004 Y-12.7646
G01 X-19.7756 Y-12.7477
G01 X-19.8515 Y-12.7345
G01 X-19.9280 Y-12.7251
G01 X-20.0049 Y-12.7194
G01 X-20.0819 Y-12.7175
G01 X-20.1589 Y-12.7194
G01 X-20.2358 Y-12.7251
G01 X-20.3123 Y-12.7345
G01 X-20.3882 Y-12.7477
G01 X-20.4634 Y-12.7646
G01 X-20.5376 Y-12.7851
G01 X-20.6108 Y-12.8093
G01 X-20.6827 Y-12.8370
G01 X-20.7532 Y-12.8682
G01 X-20.8220 Y-12.9029
G01 X-20.8890 Y-12.9409
G01 X-20.9541 Y-12.9821
G01 X-21.0171 Y-13.0265
G01 X-21.0779 Y-13.0739
G01 X-21.1362 Y-13.1242
G01 X-21.1921 Y-13.1773
G01 X-21.2452 Y-13.2332
G01 X-21.2955 Y-13.2915
G01 X-21.3429 Y-13.3523
G01 X-21.3873 Y-13.4153
G01 X-21.4285 Y-13.4804
G01 X-21.4665 Y-13.5474
G01 X-21.5012 Y-13.6162
G01 X-21.5324 Y-13.6867
G01 X-21.5601 Y-13.7586
G01 X-21.5843 Y-13.8318
G01 X-21.6048 Y-13.9060
G01 X-21.6217 Y-13.9812
G01 X-21.6349 Y-14.0571
G01 X-21.6443 Y-14.1336
G01 X-21.6500 Y-14.2105
G01 X-21.6519 Y-14.2875
G00 Z2.0000
G00 X-21.7219 Y-14.2875
G01 F70.00
G01 Z-0.0600
G01 F120.00
G01 X-21.7199 Y-14.3680
G01 X-21.7140 Y-14.4482
G01 X-21.7041 Y-14.5281
G01 X-21.6904 Y-14.6074
G01 X-21.6728 Y-14.6860
G01 X-21.6513 Y-14.7636
G01 X-21.6260 Y-14.8400
G01 X-21.5971 Y-14.9151
G01 X-21.5644 Y-14.9887
G01 X-21.5283 Y-15.0606
G01 X-21.4886 Y-15.1306
G01 X-21.4455 Y-15.1986
G01 X-21.3992 Y-15.2644
G01 X-21.3496 Y-15.3279
G01 X-21.2971 Y-15.3889
G01 X-21.2416 Y-15.4472
G01 X-21.1833 Y-15.5027
G01 X-21.1223 Y-15.5552
G01 X-21.0588 Y-15.6048
G01 X-20.9930 Y-15.6511
G01 X-20.9250 Y-15.6942
G01 X-20.8550 Y-15.7339
G01 X-20.7831 Y-15.7700
G01 X-20.7095 Y-15.8027
G01 X-20.6344 Y-15.8316
G01 X-20.5580 Y-15.8569
G01 X-20.4804 Y-15.8784
G01 X-20.4018 Y-15.8960
G01 X-20.3225 Y-15.9097
G01 X-20.2426 Y-15.9196
G01 X-20.1624 Y-15.9255
G01 X-20.0819 Y-15.9275
G01 X-20.0014 Y-15.9255
G01 X-19.9212 Y-15.9196
G01 X-19.8413 Y-15.9097
G01 X-19.7620 Y-15.8960
G01 X-19.6834 Y-15.8784
G01 X-19.6058 Y-15.8569
G01 X-19.5294 Y-15.8316
G01 X-19.4543 Y-15.8027
G01 X-19.3807 Y-15.7700
G01 X-19.3088 Y-15.7339
G01 X-19.2388 Y-15.6942
G01 X-19.1708 Y-15.6511
G01 X-19.1050 Y-15.6048
G01 X-19.0415 Y-15.5552
G01 X-18.9805 Y-15.5027
G01 X-18.9222 Y-15.4472
G01 X-18.8667 Y-15.3889
G01 X-18.8142 Y-15.3279
G01 X-18.7646 Y-15.2644
G01 X-18.7183 Y-15.1986
G01 X-18.6752 Y-15.1306
G01 X-18.6355 Y-15.0606
G01 X-18.5994 Y-14.9887
G01 X-18.5667 Y-14.9151
G01 X-18.5378 Y-14.8400
G01 X-18.5125 Y-14.7636
G01 X-18.4910 Y-14.6860
G01 X-18.4734 Y-14.6074
G01 X-18.4597 Y-14.5281
G01 X-18.4498 Y-14.4482
G01 X-18.4439 Y-14.3680
G01 X-18.4419 Y-14.2875
G01 X-18.4439 Y-14.2070
G01 X-18.4498 Y-14.1268
G01 X-18.4597 Y-14.0469
G01 X-18.4734 Y-13.9676
G01 X-18.4910 Y-13.8890
G01 X-18.5125 Y-13.8114
G01 X-18.5378 Y-13.7350
G01 X-18.5667 Y-13.6599
G01 X-18.5994 Y-13.5863
G01 X-18.6355 Y-13.5144
G01 X-18.6752 Y-13.4444
G01 X-18.7183 Y-13.3764
G01 X-18.7646 Y-13.3106
G01 X-18.8142 Y-13.2471
G01 X-18.8667 Y-13.1861
G01 X-18.9222 Y-13.1278
G01 X-18.9805 Y-13.0723
G01 X-19.0415 Y-13.0198
G01 X-19.1050 Y-12.9702
G01 X-19.1708 Y-12.9239
G01 X-19.2388 Y-12.8808
G01 X-19.3088 Y-12.8411
G01 X-19.3807 Y-12.8050
G01 X-19.4543 Y-12.7723
G01 X-19.5294 Y-12.7434
G01 X-19.6058 Y-12.7181
G01 X-19.6834 Y-12.6966
G01 X-19.7620 Y-12.6790
G01 X-19.8413 Y-12.6653
G01 X-19.9212 Y-12.6554
G01 X-20.0014 Y-12.6495
G01 X-20.0819 Y-12.6475
G01 X-20.1624 Y-12.6495
G01 X-20.2426 Y-12.6554
G01 X-20.3225 Y-12.6653
G01 X-20.4018 Y-12.6790
G01 X-20.4804 Y-12.6966
G01 X-20.5580 Y-12.7181
G01 X-20.6344 Y-12.7434
G01 X-20.7095 Y-12.7723
G01 X-20.7831 Y-12.8050
G01 X-20.8550 Y-12.8411
G01 X-20.9250 Y-12.8808
G01 X-20.9930 Y-12.9239
G01 X-21.0588 Y-12.9702
G01 X-21.1223 Y-13.0198
G01 X-21.1833 Y-13.0723
G01 X-21.2416 Y-13.1278
G01 X-21.2971 Y-13.1861
G01 X-21.3496 Y-13.2471
G01 X-21.3992 Y-13.3106
G01 X-21.4455 Y-13.3764
G01 X-21.4886 Y-13.4444
G01 X-21.5283 Y-13.5144
G01 X-21.5644 Y-13.5863
G01 X-21.5971 Y-13.6599
G01 X-21.6260 Y-13.7350
G01 X-21.6513 Y-13.8114
G01 X-21.6728 Y-13.8890
G01 X-21.6904 Y-13.9676
G01 X-21.7041 Y-14.0469
G01 X-21.7140 Y-14.1268
G01 X-21.7199 Y-14.2070
G01 X-21.7219 Y-14.2875
G00 Z2.0000
G00 X-21.8419 Y-14.2875
G01 F70.00
G01 Z-0.0600
G01 F120.00
G01 X-21.8397 Y-14.3739
G01 X-21.8334 Y-14.4600
G01 X-21.8228 Y-14.5457
G01 X-21.8080 Y-14.6309
G01 X-21.7891 Y-14.7151
G01 X-21.7661 Y-14.7984
G01 X-21.7390 Y-14.8804
G01 X-21.7079 Y-14.9610
G01 X-21.6729 Y-15.0400
G01 X-21.6340 Y-15.1171
G01 X-21.5915 Y-15.1923
G01 X-21.5453 Y-15.2653
G01 X-21.4955 Y-15.3359
G01 X-21.4424 Y-15.4040
G01 X-21.3859 Y-15.4694
G01 X-21.3264 Y-15.5320
G01 X-21.2638 Y-15.5915
G01 X-21.1984 Y-15.6480
G01 X-21.1303 Y-15.7011
G01 X-21.0597 Y-15.7509
G01 X-20.9867 Y-15.7971
G01 X-20.9115 Y-15.8396
G01 X-20.8344 Y-15.8785
G01 X-20.7554 Y-15.9135
G01 X-20.6748 Y-15.9446
G01 X-20.5928 Y-15.9717
G01 X-20.5095 Y-15.9947
G01 X-20.4253 Y-16.0136
G01 X-20.3401 Y-16.0284
G01 X-20.2544 Y-16.0390
G01 X-20.1683 Y-16.0453
G01 X-20.0819 Y-16.0475
G01 X-19.9955 Y-16.0453
G01 X-19.9094 Y-16.0390
G01 X-19.8237 Y-16.0284
G01 X-19.7385 Y-16.0136
G01 X-19.6543 Y-15.9947
G01 X-19.5710 Y-15.9717
G01 X-19.4890 Y-15.9446
G01 X-19.4084 Y-15.9135
G01 X-19.3294 Y-15.8785
G01 X-19.2523 Y-15.8396
G01 X-19.1771 Y-15.7971
G01 X-19.1041 Y-15.7509
G01 X-19.0335 Y-15.7011
G01 X-18.9654 Y-15.6480
G01 X-18.9000 Y-15.5915
G01 X-18.8374 Y-15.5320
G01 X-18.7779 Y-15.4694
G01 X-18.7214 Y-15.4040
G01 X-18.6683 Y-15.3359
G01 X-18.6185 Y-15.2653
G01 X-18.5723 Y-15.1923
G01 X-18.5298 Y-15.1171
G01 X-18.4909 Y-15.0400
G01 X-18.4559 Y-14.9610
G01 X-18.4248 Y-14.8804
G01 X-18.3977 Y-14.7984
G01 X-18.3747 Y-14.7151
G01 X-18.3558 Y-14.6309
G01 X-18.3410 Y-14.5457
G01 X-18.3304 Y-14.4600
G01 X-18.3241 Y-14.3739
G01 X-18.3219 Y-14.2875
G01 X-18.3241 Y-14.2011
G01 X-18.3304 Y-14.1150
G01 X-18.3410 Y-14.0293
G01 X-18.3558 Y-13.9441
G01 X-18.3747 Y-13.8599
G01 X-18.3977 Y-13.7766
G01 X-18.4248 Y-13.6946
G01 X-18.4559 Y-13.6140
G01 X-18.4909 Y-13.5350
G01 X-18.5298 Y-13.4579
G01 X-18.5723 Y-13.3827
G01 X-18.6185 Y-13.3097
G01 X-18.6683 Y-13.2391
G01 X-18.7214 Y-13.1710
G01 X-18.7779 Y-13.1056
G01 X-18.8374 Y-13.0430
G01 X-18.9000 Y-12.9835
G01 X-18.9654 Y-12.9270
G01 X-19.0335 Y-12.8739
G01 X-19.1041 Y-12.8241
G01 X-19.1771 Y-12.7779
G01 X-19.2523 Y-12.7354
G01 X-19.3294 Y-12.6965
G01 X-19.4084 Y-12.6615
G01 X-19.4890 Y-12.6304
G01 X-19.5710 Y-12.6033
G01 X-19.6543 Y-12.5803
G01 X-19.7385 Y-12.5614
G01 X-19.8237 Y-12.5466
G01 X-19.9094 Y-12.5360
G01 X-19.9955 Y-12.5297
G01 X-20.0819 Y-12.5275
G01 X-20.1683 Y-12.5297
G01 X-20.2544 Y-12.5360
G01 X-20.3401 Y-12.5466
G01 X-20.4253 Y-12.5614
G01 X-20.5095 Y-12.5803
G01 X-20.5928 Y-12.6033
G01 X-20.6748 Y-12.6304
G01 X-20.7554 Y-12.6615
G01 X-20.8344 Y-12.6965
G01 X-20.9115 Y-12.7354
G01 X-20.9867 Y-12.7779
G01 X-21.0597 Y-12.8241
G01 X-21.1303 Y-12.8739
G01 X-21.1984 Y-12.9270
G01 X-21.2638 Y-12.9835
G01 X-21.3264 Y-13.0430
G01 X-21.3859 Y-13.1056
G01 X-21.4424 Y-13.1710
G01 X-21.4955 Y-13.2391
G01 X-21.5453 Y-13.3097
G01 X-21.5915 Y-13.3827
G01 X-21.6340 Y-13.4579
G01 X-21.6729 Y-13.5350
G01 X-21.7079 Y-13.6140
G01 X-21.7390 Y-13.6946
G01 X-21.7661 Y-13.7766
G01 X-21.7891 Y-13.8599
G01 X-21.8080 Y-13.9441
G01 X-21.8228 Y-14.0293
G01 X-21.8334 Y-14.1150
G01 X-21.8397 Y-14.2011
G01 X-21.8419 Y-14.2875
G00 Z2.0000
G00 X-21.9119 Y-14.2875
G01 F70.00
G01 Z-0.0600
G01 F120.00
G01 X-21.9097 Y-14.3773
G01 X-21.9031 Y-14.4669
G01 X-21.8921 Y-14.5560
G01 X-21.8767 Y-14.6445
G01 X-21.8570 Y-14.7321
G01 X-21.8331 Y-14.8187
G01 X-21.8049 Y-14.9040
G01 X-21.7726 Y-14.9878
G01 X-21.7362 Y-15.0699
G01 X-21.6958 Y-15.1501
G01 X-21.6515 Y-15.2283
G01 X-21.6035 Y-15.3042
G01 X-21.5518 Y-15.3776
G01 X-21.4965 Y-15.4484
G01 X-21.4378 Y-15.5164
G01 X-21.3759 Y-15.5815
G01 X-21.3108 Y-15.6434
G01 X-21.2428 Y-15.7021
G01 X-21.1720 Y-15.7574
G01 X-21.0986 Y-15.8091
G01 X-21.0227 Y-15.8571
G01 X-20.9445 Y-15.9014
G01 X-20.8643 Y-15.9418
G01 X-20.7822 Y-15.9782
G01 X-20.6984 Y-16.0105
G01 X-20.6131 Y-16.0387
G01 X-20.5265 Y-16.0626
G01 X-20.4389 Y-16.0823
G01 X-20.3504 Y-16.0977
G01 X-20.2613 Y-16.1087
G01 X-20.1717 Y-16.1153
G01 X-20.0819 Y-16.1175
G01 X-19.9921 Y-16.1153
G01 X-19.9025 Y-16.1087
G01 X-19.8134 Y-16.0977
G01 X-19.7249 Y-16.0823
G01 X-19.6373 Y-16.0626
G01 X-19.5507 Y-16.0387
G01 X-19.4654 Y-16.0105
G01 X-19.3816 Y-15.9782
G01 X-19.2995 Y-15.9418
G01 X-19.2193 Y-15.9014
G01 X-19.1411 Y-15.8571
G01 X-19.0652 Y-15.8091
G01 X-18.9918 Y-15.7574
G01 X-18.9210 Y-15.7021
G01 X-18.8530 Y-15.6434
G01 X-18.7879 Y-15.5815
G01 X-18.7260 Y-15.5164
G01 X-18.6673 Y-15.4484
G01 X-18.6120 Y-15.3776
G01 X-18.5603 Y-15.3042
G01 X-18.5123 Y-15.2283
G01 X-18.4680 Y-15.1501
G01 X-18.4276 Y-15.0699
G01 X-18.3912 Y-14.9878
G01 X-18.3589 Y-14.9040
G01 X-18.3307 Y-14.8187
G01 X-18.3068 Y-14.7321
G01 X-18.2871 Y-14.6445
G01 X-18.2717 Y-14.5560
G01 X-18.2607 Y-14.4669
G01 X-18.2541 Y-14.3773
G01 X-18.2519 Y-14.2875
G01 X-18.2541 Y-14.1977
G01 X-18.2607 Y-14.1081
G01 X-18.2717 Y-14.0190
G01 X-18.2871 Y-13.9305
G01 X-18.3068 Y-13.8429
G01 X-18.3307 Y-13.7563
G01 X-18.3589 Y-13.6710
G01 X-18.3912 Y-13.5872
G01 X-18.4276 Y-13.5051
G01 X-18.4680 Y-13.4249
G01 X-18.5123 Y-13.3467
G01 X-18.5603 Y-13.2708
G01 X-18.6120 Y-13.1974
G01 X-18.6673 Y-13.1266
G01 X-18.7260 Y-13.0586
G01 X-18.7879 Y-12.9935
G01 X-18.8530 Y-12.9316
G01 X-18.9210 Y-12.8729
G01 X-18.9918 Y-12.8176
G01 X-19.0652 Y-12.7659
G01 X-19.1411 Y-12.7179
G01 X-19.2193 Y-12.6736
G01 X-19.2995 Y-12.6332
G01 X-19.3816 Y-12.5968
G01 X-19.4654 Y-12.5645
G01 X-19.5507 Y-12.5363
G01 X-19.6373 Y-12.5124
G01 X-19.7249 Y-12.4927
G01 X-19.8134 Y-12.4773
G01 X-19.9025 Y-12.4663
G01 X-19.9921 Y-12.4597
G01 X-20.0819 Y-12.4575
G01 X-20.1717 Y-12.4597
G01 X-20.2613 Y-12.4663
G01 X-20.3504 Y-12.4773
G01 X-20.4389 Y-12.4927
G01 X-20.5265 Y-12.5124
G01 X-20.6131 Y-12.5363
G01 X-20.6984 Y-12.5645
G01 X-20.7822 Y-12.5968
G01 X-20.8643 Y-12.6332
G01 X-20.9445 Y-12.6736
G01 X-21.0227 Y-12.7179
G01 X-21.0986 Y-12.7659
G01 X-21.1720 Y-12.8176
G01 X-21.2428 Y-12.8729
G01 X-21.3108 Y-12.9316
G01 X-21.3759 Y-12.9935
G01 X-21.4378 Y-13.0586
G01 X-21.4965 Y-13.1266
G01 X-21.5518 Y-13.1974
G01 X-21.6035 Y-13.2708
G01 X-21.6515 Y-13.3467
G01 X-21.6958 Y-13.4249
G01 X-21.7362 Y-13.5051
G01 X-21.7726 Y-13.5872
G01 X-21.8049 Y-13.6710
G01 X-21.8331 Y-13.7563
G01 X-21.8570 Y-13.8429
G01 X-21.8767 Y-13.9305
G01 X-21.8921 Y-14.0190
G01 X-21.9031 Y-14.1081
G01 X-21.9097 Y-14.1977
G01 X-21.9119 Y-14.2875
G00 Z2.0000
G00 X-21.9119 Y-19.3675
G01 F70.00
G01 Z-0.0600
G01 F120.00
G01 X-21.9097 Y-19.4573
G01 X-21.9031 Y-19.5469
G01 X-21.8921 Y-19.6360
G01 X-21.8767 Y-19.7245
G01 X-21.8570 Y-19.8121
G01 X-21.8331 Y-19.8987
G01 X-21.8049 Y-19.9840
G01 X-21.7726 Y-20.0678
G01 X-21.7362 Y-20.1499
G01 X-21.6958 Y-20.2301
G01 X-21.6515 Y-20.3083
G01 X-21.6035 Y-20.3842
G01 X-21.5518 Y-20.4576
G01 X-21.4965 Y-20.5284
G01 X-21.4378 Y-20.5964
G01 X-21.3759 Y-20.6615
G01 X-21.3108 Y-20.7234
G01 X-21.2428 Y-20.7821
G01 X-21.1720 Y-20.8374
G01 X-21.0986 Y-20.8891
G01 X-21.0227 Y-20.9371
G01 X-20.9445 Y-20.9814
G01 X-20.8643 Y-21.0218
G01 X-20.7822 Y-21.0582
G01 X-20.6984 Y-21.0905
G01 X-20.6131 Y-21.1187
G01 X-20.5265 Y-21.1426
G01 X-20.4389 Y-21.1623
G01 X-20.3504 Y-21.1777
G01 X-20.2613 Y-21.1887
G01 X-20.1717 Y-21.1953
G01 X-20.0819 Y-21.1975
G01 X-19.9921 Y-21.1953
G01 X-19.9025 Y-21.1887
G01 X-19.8134 Y-21.1777
G01 X-19.7249 Y-21.1623
G01 X-19.6373 Y-21.1426
G01 X-19.5507 Y-21.1187
G01 X-19.4654 Y-21.0905
G01 X-19.3816 Y-21.0582
G01 X-19.2995 Y-21.0218
G01 X-19.2193 Y-20.9814
G01 X-19.1411 Y-20.9371
G01 X-19.0652 Y-20.8891
G01 X-18.9918 Y-20.8374
G01 X-18.9210 Y-20.7821
G01 X-18.8530 Y-20.7234
G01 X-18.7879 Y-20.6615
G01 X-18.7260 Y-20.5964
G01 X-18.6673 Y-20.5284
G01 X-18.6120 Y-20.4576
G01 X-18.5603 Y-20.3842
G01 X-18.5123 Y-20.3083
G01 X-18.4680 Y-20.2301
G01 X-18.4276 Y-20.1499
G01 X-18.3912 Y-20.0678
G01 X-18.3589 Y-19.9840
G01 X-18.3307 Y-19.8987
G01 X-18.3068 Y-19.8121
G01 X-18.2871 Y-19.7245
G01 X-18.2717 Y-19.6360
G01 X-18.2607 Y-19.5469
G01 X-18.2541 Y-19.4573
G01 X-18.2519 Y-19.3675
G01 X-18.2541 Y-19.2777
G01 X-18.2607 Y-19.1881
G01 X-18.2717 Y-19.0990
G01 X-18.2871 Y-19.0105
G01 X-18.3068 Y-18.9229
G01 X-18.3307 Y-18.8363
G01 X-18.3589 Y-18.7510
G01 X-18.3912 Y-18.6672
G01 X-18.4276 Y-18.5851
G01 X-18.4680 Y-18.5049
G01 X-18.5123 Y-18.4267
G01 X-18.5603 Y-18.3508
G01 X-18.6120 Y-18.2774
G01 X-18.6673 Y-18.2066
G01 X-18.7260 Y-18.1386
G01 X-18.7879 Y-18.0735
G01 X-18.8530 Y-18.0116
G01 X-18.9210 Y-17.9529
G01 X-18.9918 Y-17.8976
G01 X-19.0652 Y-17.8459
G01 X-19.1411 Y-17.7979
G01 X-19.2193 Y-17.7536
G01 X-19.2995 Y-17.7132
G01 X-19.3816 Y-17.6768
G01 X-19.4654 Y-17.6445
G01 X-19.5507 Y-17.6163
G01 X-19.6373 Y-17.5924
G01 X-19.7249 Y-17.5727
G01 X-19.8134 Y-17.5573
G01 X-19.9025 Y-17.5463
G01 X-19.9921 Y-17.5397
G01 X-20.0819 Y-17.5375
G01 X-20.1717 Y-17.5397
G01 X-20.2613 Y-17.5463
G01 X-20.3504 Y-17.5573
G01 X-20.4389 Y-17.5727
G01 X-20.5265 Y-17.5924
G01 X-20.6131 Y-17.6163
G01 X-20.6984 Y-17.6445
G01 X-20.7822 Y-17.6768
G01 X-20.8643 Y-17.7132
G01 X-20.9445 Y-17.7536
G01 X-21.0227 Y-17.7979
G01 X-21.0986 Y-17.8459
G01 X-21.1720 Y-17.8976
G01 X-21.2428 Y-17.9529
G01 X-21.3108 Y-18.0116
G01 X-21.3759 Y-18.0735
G01 X-21.4378 Y-18.1386
G01 X-21.4965 Y-18.2066
G01 X-21.5518 Y-18.2774
G01 X-21.6035 Y-18.3508
G01 X-21.6515 Y-18.4267
G01 X-21.6958 Y-18.5049
G01 X-21.7362 Y-18.5851
G01 X-21.7726 Y-18.6672
G01 X-21.8049 Y-18.7510
G01 X-21.8331 Y-18.8363
G01 X-21.8570 Y-18.9229
G01 X-21.8767 Y-19.0105
G01 X-21.8921 Y-19.0990
G01 X-21.9031 Y-19.1881
G01 X-21.9097 Y-19.2777
G01 X-21.9119 Y-19.3675
G00 Z2.0000
G00 X-21.8419 Y-19.3675
G01 F70.00
G01 Z-0.0600
G01 F120.00
G01 X-21.8397 Y-19.4539
G01 X-21.8334 Y-19.5400
G01 X-21.8228 Y-19.6257
G01 X-21.8080 Y-19.7109
G01 X-21.7891 Y-19.7951
G01 X-21.7661 Y-19.8784
G01 X-21.7390 Y-19.9604
G01 X-21.7079 Y-20.0410
G01 X-21.6729 Y-20.1200
G01 X-21.6340 Y-20.1971
G01 X-21.5915 Y-20.2723
G01 X-21.5453 Y-20.3453
G01 X-21.4955 Y-20.4159
G01 X-21.4424 Y-20.4840
G01 X-21.3859 Y-20.5494
G01 X-21.3264 Y-20.6120
G01 X-21.2638 Y-20.6715
G01 X-21.1984 Y-20.7280
G01 X-21.1303 Y-20.7811
G01 X-21.0597 Y-20.8309
G01 X-20.9867 Y-20.8771
G01 X-20.9115 Y-20.9196
G01 X-20.8344 Y-20.9585
G01 X-20.7554 Y-20.9935
G01 X-20.6748 Y-21.0246
G01 X-20.5928 Y-21.0517
G01 X-20.5095 Y-21.0747
G01 X-20.4253 Y-21.0936
G01 X-20.3401 Y-21.1084
G01 X-20.2544 Y-21.1190
G01 X-20.1683 Y-21.1253
G01 X-20.0819 Y-21.1275
G01 X-19.9955 Y-21.1253
G01 X-19.9094 Y-21.1190
G01 X-19.8237 Y-21.1084
G01 X-19.7385 Y-21.0936
G01 X-19.6543 Y-21.0747
G01 X-19.5710 Y-21.0517
G01 X-19.4890 Y-21.0246
G01 X-19.4084 Y-20.9935
G01 X-19.3294 Y-20.9585
G01 X-19.2523 Y-20.9196
G01 X-19.1771 Y-20.8771
G01 X-19.1041 Y-20.8309
G01 X-19.0335 Y-20.7811
G01 X-18.9654 Y-20.7280
G01 X-18.9000 Y-20.6715
G01 X-18.8374 Y-20.6120
G01 X-18.7779 Y-20.5494
G01 X-18.7214 Y-20.4840
G01 X-18.6683 Y-20.4159
G01 X-18.6185 Y-20.3453
G01 X-18.5723 Y-20.2723
G01 X-18.5298 Y-20.1971
G01 X-18.4909 Y-20.1200
G01 X-18.4559 Y-20.0410
G01 X-18.4248 Y-19.9604
G01 X-18.3977 Y-19.8784
G01 X-18.3747 Y-19.7951
G01 X-18.3558 Y-19.7109
G01 X-18.3410 Y-19.6257
G01 X-18.3304 Y-19.5400
G01 X-18.3241 Y-19.4539
G01 X-18.3219 Y-19.3675
G01 X-18.3241 Y-19.2811
G01 X-18.3304 Y-19.1950
G01 X-18.3410 Y-19.1093
G01 X-18.3558 Y-19.0241
G01 X-18.3747 Y-18.9399
G01 X-18.3977 Y-18.8566
G01 X-18.4248 Y-18.7746
G01 X-18.4559 Y-18.6940
G01 X-18.4909 Y-18.6150
G01 X-18.5298 Y-18.5379
G01 X-18.5723 Y-18.4627
G01 X-18.6185 Y-18.3897
G01 X-18.6683 Y-18.3191
G01 X-18.7214 Y-18.2510
G01 X-18.7779 Y-18.1856
G01 X-18.8374 Y-18.1230
G01 X-18.9000 Y-18.0635
G01 X-18.9654 Y-18.0070
G01 X-19.0335 Y-17.9539
G01 X-19.1041 Y-17.9041
G01 X-19.1771 Y-17.8579
G01 X-19.2523 Y-17.8154
G01 X-19.3294 Y-17.7765
G01 X-19.4084 Y-17.7415
G01 X-19.4890 Y-17.7104
G01 X-19.5710 Y-17.6833
G01 X-19.6543 Y-17.6603
G01 X-19.7385 Y-17.6414
G01 X-19.8237 Y-17.6266
G01 X-19.9094 Y-17.6160
G01 X-19.9955 Y-17.6097
G01 X-20.0819 Y-17.6075
G01 X-20.1683 Y-17.6097
G01 X-20.2544 Y-17.6160
G01 X-20.3401 Y-17.6266
G01 X-20.4253 Y-17.6414
G01 X-20.5095 Y-17.6603
G01 X-20.5928 Y-17.6833
G01 X-20.6748 Y-17.7104
G01 X-20.7554 Y-17.7415
G01 X-20.8344 Y-17.7765
G01 X-20.9115 Y-17.8154
G01 X-20.9867 Y-17.8579
G01 X-21.0597 Y-17.9041
G01 X-21.1303 Y-17.9539
G01 X-21.1984 Y-18.0070
G01 X-21.2638 Y-18.0635
G01 X-21.3264 Y-18.1230
G01 X-21.3859 Y-18.1856
G01 X-21.4424 Y-18.2510
G01 X-21.4955 Y-18.3191
G01 X-21.5453 Y-18.3897
G01 X-21.5915 Y-18.4627
G01 X-21.6340 Y-18.5379
G01 X-21.6729 Y-18.6150
G01 X-21.7079 Y-18.6940
G01 X-21.7390 Y-18.7746
G01 X-21.7661 Y-18.8566
G01 X-21.7891 Y-18.9399
G01 X-21.8080 Y-19.0241
G01 X-21.8228 Y-19.1093
G01 X-21.8334 Y-19.1950
G01 X-21.8397 Y-19.2811
G01 X-21.8419 Y-19.3675
G00 Z2.0000
G00 X-21.7219 Y-19.3675
G01 F70.00
G01 Z-0.0600
G01 F120.00
G01 X-21.7199 Y-19.4480
G01 X-21.7140 Y-19.5282
G01 X-21.7041 Y-19.6081
G01 X-21.6904 Y-19.6874
G01 X-21.6728 Y-19.7660
G01 X-21.6513 Y-19.8436
G01 X-21.6260 Y-19.9200
G01 X-21.5971 Y-19.9951
G01 X-21.5644 Y-20.0687
G01 X-21.5283 Y-20.1406
G01 X-21.4886 Y-20.2106
G01 X-21.4455 Y-20.2786
G01 X-21.3992 Y-20.3444
G01 X-21.3496 Y-20.4079
G01 X-21.2971 Y-20.4689
G01 X-21.2416 Y-20.5272
G01 X-21.1833 Y-20.5827
G01 X-21.1223 Y-20.6352
G01 X-21.0588 Y-20.6848
G01 X-20.9930 Y-20.7311
G01 X-20.9250 Y-20.7742
G01 X-20.8550 Y-20.8139
G01 X-20.7831 Y-20.8500
G01 X-20.7095 Y-20.8827
G01 X-20.6344 Y-20.9116
G01 X-20.5580 Y-20.9369
G01 X-20.4804 Y-20.9584
G01 X-20.4018 Y-20.9760
G01 X-20.3225 Y-20.9897
G01 X-20.2426 Y-20.9996
G01 X-20.1624 Y-21.0055
G01 X-20.0819 Y-21.0075
G01 X-20.0014 Y-21.0055
G01 X-19.9212 Y-20.9996
G01 X-19.8413 Y-20.9897
G01 X-19.7620 Y-20.9760
G01 X-19.6834 Y-20.9584
G01 X-19.6058 Y-20.9369
G01 X-19.5294 Y-20.9116
G01 X-19.4543 Y-20.8827
G01 X-19.3807 Y-20.8500
G01 X-19.3088 Y-20.8139
G01 X-19.2388 Y-20.7742
G01 X-19.1708 Y-20.7311
G01 X-19.1050 Y-20.6848
G01 X-19.0415 Y-20.6352
G01 X-18.9805 Y-20.5827
G01 X-18.9222 Y-20.5272
G01 X-18.8667 Y-20.4689
G01 X-18.8142 Y-20.4079
G01 X-18.7646 Y-20.3444
G01 X-18.7183 Y-20.2786
G01 X-18.6752 Y-20.2106
G01 X-18.6355 Y-20.1406
G01 X-18.5994 Y-20.0687
G01 X-18.5667 Y-19.9951
G01 X-18.5378 Y-19.9200
G01 X-18.5125 Y-19.8436
G01 X-18.4910 Y-19.7660
G01 X-18.4734 Y-19.6874
G01 X-18.4597 Y-19.6081
G01 X-18.4498 Y-19.5282
G01 X-18.4439 Y-19.4480
G01 X-18.4419 Y-19.3675
G01 X-18.4439 Y-19.2870
G01 X-18.4498 Y-19.2068
G01 X-18.4597 Y-19.1269
G01 X-18.4734 Y-19.0476
G01 X-18.4910 Y-18.9690
G01 X-18.5125 Y-18.8914
G01 X-18.5378 Y-18.8150
G01 X-18.5667 Y-18.7399
G01 X-18.5994 Y-18.6663
G01 X-18.6355 Y-18.5944
G01 X-18.6752 Y-18.5244
G01 X-18.7183 Y-18.4564
G01 X-18.7646 Y-18.3906
G01 X-18.8142 Y-18.3271
G01 X-18.8667 Y-18.2661
G01 X-18.9222 Y-18.2078
G01 X-18.9805 Y-18.1523
G01 X-19.0415 Y-18.0998
G01 X-19.1050 Y-18.0502
G01 X-19.1708 Y-18.0039
G01 X-19.2388 Y-17.9608
G01 X-19.3088 Y-17.9211
G01 X-19.3807 Y-17.8850
G01 X-19.4543 Y-17.8523
G01 X-19.5294 Y-17.8234
G01 X-19.6058 Y-17.7981
G01 X-19.6834 Y-17.7766
G01 X-19.7620 Y-17.7590
G01 X-19.8413 Y-17.7453
G01 X-19.9212 Y-17.7354
G01 X-20.0014 Y-17.7295
G01 X-20.0819 Y-17.7275
G01 X-20.1624 Y-17.7295
G01 X-20.2426 Y-17.7354
G01 X-20.3225 Y-17.7453
G01 X-20.4018 Y-17.7590
G01 X-20.4804 Y-17.7766
G01 X-20.5580 Y-17.7981
G01 X-20.6344 Y-17.8234
G01 X-20.7095 Y-17.8523
G01 X-20.7831 Y-17.8850
G01 X-20.8550 Y-17.9211
G01 X-20.9250 Y-17.9608
G01 X-20.9930 Y-18.0039
G01 X-21.0588 Y-18.0502
G01 X-21.1223 Y-18.0998
G01 X-21.1833 Y-18.1523
G01 X-21.2416 Y-18.2078
G01 X-21.2971 Y-18.2661
G01 X-21.3496 Y-18.3271
G01 X-21.3992 Y-18.3906
G01 X-21.4455 Y-18.4564
G01 X-21.4886 Y-18.5244
G01 X-21.5283 Y-18.5944
G01 X-21.5644 Y-18.6663
G01 X-21.5971 Y-18.7399
G01 X-21.6260 Y-18.8150
G01 X-21.6513 Y-18.8914
G01 X-21.6728 Y-18.9690
G01 X-21.6904 Y-19.0476
G01 X-21.7041 Y-19.1269
G01 X-21.7140 Y-19.2068
G01 X-21.7199 Y-19.2870
G01 X-21.7219 Y-19.3675
G00 Z2.0000
G00 X-21.6519 Y-19.3675
G01 F70.00
G01 Z-0.0600
G01 F120.00
G01 X-21.6500 Y-19.4445
G01 X-21.6443 Y-19.5214
G01 X-21.6349 Y-19.5979
G01 X-21.6217 Y-19.6738
G01 X-21.6048 Y-19.7490
G01 X-21.5843 Y-19.8232
G01 X-21.5601 Y-19.8964
G01 X-21.5324 Y-19.9683
G01 X-21.5012 Y-20.0388
G01 X-21.4665 Y-20.1076
G01 X-21.4285 Y-20.1746
G01 X-21.3873 Y-20.2397
G01 X-21.3429 Y-20.3027
G01 X-21.2955 Y-20.3635
G01 X-21.2452 Y-20.4218
G01 X-21.1921 Y-20.4777
G01 X-21.1362 Y-20.5308
G01 X-21.0779 Y-20.5811
G01 X-21.0171 Y-20.6285
G01 X-20.9541 Y-20.6729
G01 X-20.8890 Y-20.7141
G01 X-20.8220 Y-20.7521
G01 X-20.7532 Y-20.7868
G01 X-20.6827 Y-20.8180
G01 X-20.6108 Y-20.8457
G01 X-20.5376 Y-20.8699
G01 X-20.4634 Y-20.8904
G01 X-20.3882 Y-20.9073
G01 X-20.3123 Y-20.9205
G01 X-20.2358 Y-20.9299
G01 X-20.1589 Y-20.9356
G01 X-20.0819 Y-20.9375
G01 X-20.0049 Y-20.9356
G01 X-19.9280 Y-20.9299
G01 X-19.8515 Y-20.9205
G01 X-19.7756 Y-20.9073
G01 X-19.7004 Y-20.8904
G01 X-19.6262 Y-20.8699
G01 X-19.5530 Y-20.8457
G01 X-19.4811 Y-20.8180
G01 X-19.4106 Y-20.7868
G01 X-19.3418 Y-20.7521
G01 X-19.2748 Y-20.7141
G01 X-19.2097 Y-20.6729
G01 X-19.1467 Y-20.6285
G01 X-19.0859 Y-20.5811
G01 X-19.0276 Y-20.5308
G01 X-18.9717 Y-20.4777
G01 X-18.9186 Y-20.4218
G01 X-18.8683 Y-20.3635
G01 X-18.8209 Y-20.3027
G01 X-18.7765 Y-20.2397
G01 X-18.7353 Y-20.1746
G01 X-18.6973 Y-20.1076
G01 X-18.6626 Y-20.0388
G01 X-18.6314 Y-19.9683
G01 X-18.6037 Y-19.8964
G01 X-18.5795 Y-19.8232
G01 X-18.5590 Y-19.7490
G01 X-18.5421 Y-19.6738
G01 X-18.5289 Y-19.5979
G01 X-18.5195 Y-19.5214
G01 X-18.5138 Y-19.4445
G01 X-18.5119 Y-19.3675
G01 X-18.5138 Y-19.2905
G01 X-18.5195 Y-19.2136
G01 X-18.5289 Y-19.1371
G01 X-18.5421 Y-19.0612
G01 X-18.5590 Y-18.9860
G01 X-18.5795 Y-18.9118
G01 X-18.6037 Y-18.8386
G01 X-18.6314 Y-18.7667
G01 X-18.6626 Y-18.6962
G01 X-18.6973 Y-18.6274
G01 X-18.7353 Y-18.5604
G01 X-18.7765 Y-18.4953
G01 X-18.8209 Y-18.4323
G01 X-18.8683 Y-18.3715
G01 X-18.9186 Y-18.3132
G01 X-18.9717 Y-18.2573
G01 X-19.0276 Y-18.2042
G01 X-19.0859 Y-18.1539
G01 X-19.1467 Y-18.1065
G01 X-19.2097 Y-18.0621
G01 X-19.2748 Y-18.0209
G01 X-19.3418 Y-17.9829
G01 X-19.4106 Y-17.9482
G01 X-19.4811 Y-17.9170
G01 X-19.5530 Y-17.8893
G01 X-19.6262 Y-17.8651
G01 X-19.7004 Y-17.8446
G01 X-19.7756 Y-17.8277
G01 X-19.8515 Y-17.8145
G01 X-19.9280 Y-17.8051
G01 X-20.0049 Y-17.7994
G01 X-20.0819 Y-17.7975
G01 X-20.1589 Y-17.7994
G01 X-20.2358 Y-17.8051
G01 X-20.3123 Y-17.8145
G01 X-20.3882 Y-17.8277
G01 X-20.4634 Y-17.8446
G01 X-20.5376 Y-17.8651
G01 X-20.6108 Y-17.8893
G01 X-20.6827 Y-17.9170
G01 X-20.7532 Y-17.9482
G01 X-20.8220 Y-17.9829
G01 X-20.8890 Y-18.0209
G01 X-20.9541 Y-18.0621
G01 X-21.0171 Y-18.1065
G01 X-21.0779 Y-18.1539
G01 X-21.1362 Y-18.2042
G01 X-21.1921 Y-18.2573
G01 X-21.2452 Y-18.3132
G01 X-21.2955 Y-18.3715
G01 X-21.3429 Y-18.4323
G01 X-21.3873 Y-18.4953
G01 X-21.4285 Y-18.5604
G01 X-21.4665 Y-18.6274
G01 X-21.5012 Y-18.6962
G01 X-21.5324 Y-18.7667
G01 X-21.5601 Y-18.8386
G01 X-21.5843 Y-18.9118
G01 X-21.6048 Y-18.9860
G01 X-21.6217 Y-19.0612
G01 X-21.6349 Y-19.1371
G01 X-21.6443 Y-19.2136
G01 X-21.6500 Y-19.2905
G01 X-21.6519 Y-19.3675
G00 Z2.0000
G00 X-20.3119 Y-19.3675
G01 F70.00
G01 Z-0.0600
G01 F120.00
G01 X-20.3108 Y-19.3900
G01 X-20.3075 Y-19.4124
G01 X-20.3020 Y-19.4343
G01 X-20.2944 Y-19.4555
G01 X-20.2847 Y-19.4759
G01 X-20.2731 Y-19.4953
G01 X-20.2597 Y-19.5134
G01 X-20.2445 Y-19.5301
G01 X-20.2278 Y-19.5453
G01 X-20.2097 Y-19.5587
G01 X-20.1903 Y-19.5703
G01 X-20.1699 Y-19.5800
G01 X-20.1487 Y-19.5876
G01 X-20.1268 Y-19.5931
G01 X-20.1044 Y-19.5964
G01 X-20.0819 Y-19.5975
G01 X-20.0594 Y-19.5964
G01 X-20.0370 Y-19.5931
G01 X-20.0151 Y-19.5876
G01 X-19.9939 Y-19.5800
G01 X-19.9735 Y-19.5703
G01 X-19.9541 Y-19.5587
G01 X-19.9360 Y-19.5453
G01 X-19.9193 Y-19.5301
G01 X-19.9041 Y-19.5134
G01 X-19.8907 Y-19.4953
G01 X-19.8791 Y-19.4759
G01 X-19.8694 Y-19.4555
G01 X-19.8618 Y-19.4343
G01 X-19.8563 Y-19.4124
G01 X-19.8530 Y-19.3900
G01 X-19.8519 Y-19.3675
G01 X-19.8530 Y-19.3450
G01 X-19.8563 Y-19.3226
G01 X-19.8618 Y-19.3007
G01 X-19.8694 Y-19.2795
G01 X-19.8791 Y-19.2591
G01 X-19.8907 Y-19.2397
G01 X-19.9041 Y-19.2216
G01 X-19.9193 Y-19.2049
G01 X-19.9360 Y-19.1897
G01 X-19.9541 Y-19.1763
G01 X-19.9735 Y-19.1647
G01 X-19.9939 Y-19.1550
G01 X-20.0151 Y-19.1474
G01 X-20.0370 Y-19.1419
G01 X-20.0594 Y-19.1386
G01 X-20.0819 Y-19.1375
G01 X-20.1044 Y-19.1386
G01 X-20.1268 Y-19.1419
G01 X-20.1487 Y-19.1474
G01 X-20.1699 Y-19.1550
G01 X-20.1903 Y-19.1647
G01 X-20.2097 Y-19.1763
G01 X-20.2278 Y-19.1897
G01 X-20.2445 Y-19.2049
G01 X-20.2597 Y-19.2216
G01 X-20.2731 Y-19.2397
G01 X-20.2847 Y-19.2591
G01 X-20.2944 Y-19.2795
G01 X-20.3020 Y-19.3007
G01 X-20.3075 Y-19.3226
G01 X-20.3108 Y-19.3450
G01 X-20.3119 Y-19.3675
G00 Z2.0000
G00 X-20.2419 Y-19.3675
G01 F70.00
G01 Z-0.0600
G01 F120.00
G01 X-20.2411 Y-19.3832
G01 X-20.2388 Y-19.3987
G01 X-20.2350 Y-19.4139
G01 X-20.2297 Y-19.4287
G01 X-20.2230 Y-19.4429
G01 X-20.2149 Y-19.4564
G01 X-20.2055 Y-19.4690
G01 X-20.1950 Y-19.4806
G01 X-20.1834 Y-19.4911
G01 X-20.1708 Y-19.5005
G01 X-20.1573 Y-19.5086
G01 X-20.1431 Y-19.5153
G01 X-20.1283 Y-19.5206
G01 X-20.1131 Y-19.5244
G01 X-20.0976 Y-19.5267
G01 X-20.0819 Y-19.5275
G01 X-20.0662 Y-19.5267
G01 X-20.0507 Y-19.5244
G01 X-20.0355 Y-19.5206
G01 X-20.0207 Y-19.5153
G01 X-20.0065 Y-19.5086
G01 X-19.9930 Y-19.5005
G01 X-19.9804 Y-19.4911
G01 X-19.9688 Y-19.4806
G01 X-19.9583 Y-19.4690
G01 X-19.9489 Y-19.4564
G01 X-19.9408 Y-19.4429
G01 X-19.9341 Y-19.4287
G01 X-19.9288 Y-19.4139
G01 X-19.9250 Y-19.3987
G01 X-19.9227 Y-19.3832
G01 X-19.9219 Y-19.3675
G01 X-19.9227 Y-19.3518
G01 X-19.9250 Y-19.3363
G01 X-19.9288 Y-19.3211
G01 X-19.9341 Y-19.3063
G01 X-19.9408 Y-19.2921
G01 X-19.9489 Y-19.2786
G01 X-19.9583 Y-19.2660
G01 X-19.9688 Y-19.2544
G01 X-19.9804 Y-19.2439
G01 X-19.9930 Y-19.2345
G01 X-20.0065 Y-19.2264
G01 X-20.0207 Y-19.2197
G01 X-20.0355 Y-19.2144
G01 X-20.0507 Y-19.2106
G01 X-20.0662 Y-19.2083
G01 X-20.0819 Y-19.2075
G01 X-20.0976 Y-19.2083
G01 X-20.1131 Y-19.2106
G01 X-20.1283 Y-19.2144
G01 X-20.1431 Y-19.2197
G01 X-20.1573 Y-19.2264
G01 X-20.1708 Y-19.2345
G01 X-20.1834 Y-19.2439
G01 X-20.1950 Y-19.2544
G01 X-20.2055 Y-19.2660
G01 X-20.2149 Y-19.2786
G01 X-20.2230 Y-19.2921
G01 X-20.2297 Y-19.3063
G01 X-20.2350 Y-19.3211
G01 X-20.2388 Y-19.3363
G01 X-20.2411 Y-19.3518
G01 X-20.2419 Y-19.3675
G00 Z2.0000
G00 X-20.1718 Y-19.3675
G01 F70.00
G01 Z-0.0600
G01 F120.00
G01 X-20.1701 Y-19.3850
G01 X-20.1650 Y-19.4019
G01 X-20.1567 Y-19.4175
G01 X-20.1455 Y-19.4311
G01 X-20.1319 Y-19.4423
G01 X-20.1163 Y-19.4506
G01 X-20.0994 Y-19.4557
G01 X-20.0819 Y-19.4574
G01 X-20.0644 Y-19.4557
G01 X-20.0475 Y-19.4506
G01 X-20.0319 Y-19.4423
G01 X-20.0183 Y-19.4311
G01 X-20.0071 Y-19.4175
G01 X-19.9988 Y-19.4019
G01 X-19.9937 Y-19.3850
G01 X-19.9920 Y-19.3675
G01 X-19.9937 Y-19.3500
G01 X-19.9988 Y-19.3331
G01 X-20.0071 Y-19.3175
G01 X-20.0183 Y-19.3039
G01 X-20.0319 Y-19.2927
G01 X-20.0475 Y-19.2844
G01 X-20.0644 Y-19.2793
G01 X-20.0819 Y-19.2776
G01 X-20.0994 Y-19.2793
G01 X-20.1163 Y-19.2844
G01 X-20.1319 Y-19.2927
G01 X-20.1455 Y-19.3039
G01 X-20.1567 Y-19.3175
G01 X-20.1650 Y-19.3331
G01 X-20.1701 Y-19.3500
G01 X-20.1718 Y-19.3675
G00 Z2.0000
G00 X-20.1018 Y-19.3675
G01 F70.00
G01 Z-0.0600
G01 F120.00
G01 X-20.1003 Y-19.3751
G01 X-20.0960 Y-19.3816
G01 X-20.0895 Y-19.3859
G01 X-20.0819 Y-19.3874
G01 X-20.0743 Y-19.3859
G01 X-20.0678 Y-19.3816
G01 X-20.0635 Y-19.3751
G01 X-20.0620 Y-19.3675
G01 X-20.0635 Y-19.3599
G01 X-20.0678 Y-19.3534
G01 X-20.0743 Y-19.3491
G01 X-20.0819 Y-19.3476
G01 X-20.0895 Y-19.3491
G01 X-20.0960 Y-19.3534
G01 X-20.1003 Y-19.3599
G01 X-20.1018 Y-19.3675
G00 Z2.0000
G00 X-21.0076 Y-21.4886
G01 F70.00
G01 Z-0.0600
G01 F120.00
G01 X-20.9152 Y-21.5810
G01 X-20.8991 Y-21.5749
G01 X-20.8460 Y-21.5574
G01 X-20.7937 Y-21.5430
G01 X-20.7374 Y-21.5304
G01 X-20.6840 Y-21.5211
G01 X-20.6284 Y-21.5143
G01 X-20.5726 Y-21.5102
G01 X-20.5167 Y-21.5088
G01 X-20.4608 Y-21.5102
G01 X-20.4050 Y-21.5143
G01 X-20.3494 Y-21.5211
G01 X-20.2960 Y-21.5304
G01 X-20.2397 Y-21.5430
G01 X-20.1874 Y-21.5574
G01 X-20.1343 Y-21.5749
G01 X-20.1182 Y-21.5810
G01 X-20.0259 Y-21.4886
G01 X-20.0922 Y-21.4625
G01 X-20.1510 Y-21.4431
G01 X-20.2106 Y-21.4266
G01 X-20.2709 Y-21.4131
G01 X-20.3318 Y-21.4025
G01 X-20.3932 Y-21.3949
G01 X-20.4549 Y-21.3904
G01 X-20.5167 Y-21.3888
G01 X-20.5785 Y-21.3904
G01 X-20.6402 Y-21.3949
G01 X-20.7016 Y-21.4025
G01 X-20.7625 Y-21.4131
G01 X-20.8228 Y-21.4266
G01 X-20.8824 Y-21.4431
G01 X-20.9412 Y-21.4625
G01 X-21.0076 Y-21.4886
G00 Z2.0000
G00 X-21.1275 Y-21.4677
G01 F70.00
G01 Z-0.0600
G01 F120.00
G01 X-20.9323 Y-21.6629
G01 X-20.8772 Y-21.6413
G01 X-20.8273 Y-21.6249
G01 X-20.7767 Y-21.6109
G01 X-20.7254 Y-21.5994
G01 X-20.6737 Y-21.5904
G01 X-20.6216 Y-21.5840
G01 X-20.5692 Y-21.5801
G01 X-20.5167 Y-21.5788
G01 X-20.4642 Y-21.5801
G01 X-20.4118 Y-21.5840
G01 X-20.3597 Y-21.5904
G01 X-20.3080 Y-21.5994
G01 X-20.2567 Y-21.6109
G01 X-20.2061 Y-21.6249
G01 X-20.1562 Y-21.6413
G01 X-20.1012 Y-21.6629
G01 X-19.9060 Y-21.4677
G01 X-19.9481 Y-21.4465
G01 X-20.0077 Y-21.4201
G01 X-20.0686 Y-21.3966
G01 X-20.1306 Y-21.3761
G01 X-20.1935 Y-21.3587
G01 X-20.2572 Y-21.3444
G01 X-20.3216 Y-21.3332
G01 X-20.3863 Y-21.3252
G01 X-20.4514 Y-21.3204
G01 X-20.5167 Y-21.3188
G01 X-20.5820 Y-21.3204
G01 X-20.6471 Y-21.3252
G01 X-20.7118 Y-21.3332
G01 X-20.7762 Y-21.3444
G01 X-20.8399 Y-21.3587
G01 X-20.9028 Y-21.3761
G01 X-20.9648 Y-21.3966
G01 X-21.0257 Y-21.4201
G01 X-21.0853 Y-21.4465
G01 X-21.1275 Y-21.4677
G00 Z2.0000
G00 X-20.8467 Y-22.6488
G01 F70.00
G01 Z-0.0600
G01 F120.00
G01 X-20.8451 Y-22.6811
G01 X-20.8403 Y-22.7132
G01 X-20.8325 Y-22.7446
G01 X-20.8216 Y-22.7751
G01 X-20.8077 Y-22.8044
G01 X-20.7911 Y-22.8321
G01 X-20.7718 Y-22.8581
G01 X-20.7500 Y-22.8821
G01 X-20.7260 Y-22.9039
G01 X-20.7000 Y-22.9232
G01 X-20.6723 Y-22.9398
G01 X-20.6430 Y-22.9537
G01 X-20.6125 Y-22.9646
G01 X-20.5811 Y-22.9724
G01 X-20.5490 Y-22.9772
G01 X-20.5167 Y-22.9788
G01 X-20.4844 Y-22.9772
G01 X-20.4523 Y-22.9724
G01 X-20.4209 Y-22.9646
G01 X-20.3904 Y-22.9537
G01 X-20.3611 Y-22.9398
G01 X-20.3334 Y-22.9232
G01 X-20.3074 Y-22.9039
G01 X-20.2834 Y-22.8821
G01 X-20.2616 Y-22.8581
G01 X-20.2423 Y-22.8321
G01 X-20.2257 Y-22.8044
G01 X-20.2118 Y-22.7751
G01 X-20.2009 Y-22.7446
G01 X-20.1931 Y-22.7132
G01 X-20.1883 Y-22.6811
G01 X-20.1867 Y-22.6488
G01 X-20.1883 Y-22.6165
G01 X-20.1931 Y-22.5844
G01 X-20.2009 Y-22.5530
G01 X-20.2118 Y-22.5225
G01 X-20.2257 Y-22.4932
G01 X-20.2423 Y-22.4655
G01 X-20.2616 Y-22.4395
G01 X-20.2834 Y-22.4155
G01 X-20.3074 Y-22.3937
G01 X-20.3334 Y-22.3744
G01 X-20.3611 Y-22.3578
G01 X-20.3904 Y-22.3439
G01 X-20.4209 Y-22.3330
G01 X-20.4523 Y-22.3252
G01 X-20.4844 Y-22.3204
G01 X-20.5167 Y-22.3188
G01 X-20.5490 Y-22.3204
G01 X-20.5811 Y-22.3252
G01 X-20.6125 Y-22.3330
G01 X-20.6430 Y-22.3439
G01 X-20.6723 Y-22.3578
G01 X-20.7000 Y-22.3744
G01 X-20.7260 Y-22.3937
G01 X-20.7500 Y-22.4155
G01 X-20.7718 Y-22.4395
G01 X-20.7911 Y-22.4655
G01 X-20.8077 Y-22.4932
G01 X-20.8216 Y-22.5225
G01 X-20.8325 Y-22.5530
G01 X-20.8403 Y-22.5844
G01 X-20.8451 Y-22.6165
G01 X-20.8467 Y-22.6488
G00 Z2.0000
G00 X-20.7767 Y-22.6488
G01 F70.00
G01 Z-0.0600
G01 F120.00
G01 X-20.7754 Y-22.6743
G01 X-20.7717 Y-22.6995
G01 X-20.7655 Y-22.7243
G01 X-20.7569 Y-22.7483
G01 X-20.7460 Y-22.7713
G01 X-20.7328 Y-22.7932
G01 X-20.7177 Y-22.8137
G01 X-20.7005 Y-22.8326
G01 X-20.6816 Y-22.8498
G01 X-20.6611 Y-22.8649
G01 X-20.6392 Y-22.8781
G01 X-20.6162 Y-22.8890
G01 X-20.5922 Y-22.8976
G01 X-20.5674 Y-22.9038
G01 X-20.5422 Y-22.9075
G01 X-20.5167 Y-22.9088
G01 X-20.4912 Y-22.9075
G01 X-20.4660 Y-22.9038
G01 X-20.4412 Y-22.8976
G01 X-20.4172 Y-22.8890
G01 X-20.3942 Y-22.8781
G01 X-20.3723 Y-22.8649
G01 X-20.3518 Y-22.8498
G01 X-20.3329 Y-22.8326
G01 X-20.3157 Y-22.8137
G01 X-20.3006 Y-22.7932
G01 X-20.2874 Y-22.7713
G01 X-20.2765 Y-22.7483
G01 X-20.2679 Y-22.7243
G01 X-20.2617 Y-22.6995
G01 X-20.2580 Y-22.6743
G01 X-20.2567 Y-22.6488
G01 X-20.2580 Y-22.6233
G01 X-20.2617 Y-22.5981
G01 X-20.2679 Y-22.5733
G01 X-20.2765 Y-22.5493
G01 X-20.2874 Y-22.5263
G01 X-20.3006 Y-22.5044
G01 X-20.3157 Y-22.4839
G01 X-20.3329 Y-22.4650
G01 X-20.3518 Y-22.4478
G01 X-20.3723 Y-22.4327
G01 X-20.3942 Y-22.4195
G01 X-20.4172 Y-22.4086
G01 X-20.4412 Y-22.4000
G01 X-20.4660 Y-22.3938
G01 X-20.4912 Y-22.3901
G01 X-20.5167 Y-22.3888
G01 X-20.5422 Y-22.3901
G01 X-20.5674 Y-22.3938
G01 X-20.5922 Y-22.4000
G01 X-20.6162 Y-22.4086
G01 X-20.6392 Y-22.4195
G01 X-20.6611 Y-22.4327
G01 X-20.6816 Y-22.4478
G01 X-20.7005 Y-22.4650
G01 X-20.7177 Y-22.4839
G01 X-20.7328 Y-22.5044
G01 X-20.7460 Y-22.5263
G01 X-20.7569 Y-22.5493
G01 X-20.7655 Y-22.5733
G01 X-20.7717 Y-22.5981
G01 X-20.7754 Y-22.6233
G01 X-20.7767 Y-22.6488
G00 Z2.0000
G00 X-20.7066 Y-22.6488
G01 F70.00
G01 Z-0.0600
G01 F120.00
G01 X-20.7057 Y-22.6674
G01 X-20.7030 Y-22.6859
G01 X-20.6985 Y-22.7039
G01 X-20.6922 Y-22.7215
G01 X-20.6842 Y-22.7383
G01 X-20.6746 Y-22.7543
G01 X-20.6635 Y-22.7693
G01 X-20.6510 Y-22.7831
G01 X-20.6372 Y-22.7956
G01 X-20.6222 Y-22.8067
G01 X-20.6062 Y-22.8163
G01 X-20.5894 Y-22.8243
G01 X-20.5718 Y-22.8306
G01 X-20.5538 Y-22.8351
G01 X-20.5353 Y-22.8378
G01 X-20.5167 Y-22.8387
G01 X-20.4981 Y-22.8378
G01 X-20.4796 Y-22.8351
G01 X-20.4616 Y-22.8306
G01 X-20.4440 Y-22.8243
G01 X-20.4272 Y-22.8163
G01 X-20.4112 Y-22.8067
G01 X-20.3962 Y-22.7956
G01 X-20.3824 Y-22.7831
G01 X-20.3699 Y-22.7693
G01 X-20.3588 Y-22.7543
G01 X-20.3492 Y-22.7383
G01 X-20.3412 Y-22.7215
G01 X-20.3349 Y-22.7039
G01 X-20.3304 Y-22.6859
G01 X-20.3277 Y-22.6674
G01 X-20.3268 Y-22.6488
G01 X-20.3277 Y-22.6302
G01 X-20.3304 Y-22.6117
G01 X-20.3349 Y-22.5937
G01 X-20.3412 Y-22.5761
G01 X-20.3492 Y-22.5593
G01 X-20.3588 Y-22.5433
G01 X-20.3699 Y-22.5283
G01 X-20.3824 Y-22.5145
G01 X-20.3962 Y-22.5020
G01 X-20.4112 Y-22.4909
G01 X-20.4272 Y-22.4813
G01 X-20.4440 Y-22.4733
G01 X-20.4616 Y-22.4670
G01 X-20.4796 Y-22.4625
G01 X-20.4981 Y-22.4598
G01 X-20.5167 Y-22.4589
G01 X-20.5353 Y-22.4598
G01 X-20.5538 Y-22.4625
G01 X-20.5718 Y-22.4670
G01 X-20.5894 Y-22.4733
G01 X-20.6062 Y-22.4813
G01 X-20.6222 Y-22.4909
G01 X-20.6372 Y-22.5020
G01 X-20.6510 Y-22.5145
G01 X-20.6635 Y-22.5283
G01 X-20.6746 Y-22.5433
G01 X-20.6842 Y-22.5593
G01 X-20.6922 Y-22.5761
G01 X-20.6985 Y-22.5937
G01 X-20.7030 Y-22.6117
G01 X-20.7057 Y-22.6302
G01 X-20.7066 Y-22.6488
G00 Z2.0000
G00 X-20.6366 Y-22.6488
G01 F70.00
G01 Z-0.0600
G01 F120.00
G01 X-20.6360 Y-22.6606
G01 X-20.6343 Y-22.6722
G01 X-20.6315 Y-22.6836
G01 X-20.6275 Y-22.6947
G01 X-20.6225 Y-22.7053
G01 X-20.6164 Y-22.7154
G01 X-20.6094 Y-22.7249
G01 X-20.6015 Y-22.7336
G01 X-20.5928 Y-22.7415
G01 X-20.5833 Y-22.7485
G01 X-20.5732 Y-22.7546
G01 X-20.5626 Y-22.7596
G01 X-20.5515 Y-22.7636
G01 X-20.5401 Y-22.7664
G01 X-20.5285 Y-22.7681
G01 X-20.5167 Y-22.7687
G01 X-20.5049 Y-22.7681
G01 X-20.4933 Y-22.7664
G01 X-20.4819 Y-22.7636
G01 X-20.4708 Y-22.7596
G01 X-20.4602 Y-22.7546
G01 X-20.4501 Y-22.7485
G01 X-20.4406 Y-22.7415
G01 X-20.4319 Y-22.7336
G01 X-20.4240 Y-22.7249
G01 X-20.4170 Y-22.7154
G01 X-20.4109 Y-22.7053
G01 X-20.4059 Y-22.6947
G01 X-20.4019 Y-22.6836
G01 X-20.3991 Y-22.6722
G01 X-20.3974 Y-22.6606
G01 X-20.3968 Y-22.6488
G01 X-20.3974 Y-22.6370
G01 X-20.3991 Y-22.6254
G01 X-20.4019 Y-22.6140
G01 X-20.4059 Y-22.6029
G01 X-20.4109 Y-22.5923
G01 X-20.4170 Y-22.5822
G01 X-20.4240 Y-22.5727
G01 X-20.4319 Y-22.5640
G01 X-20.4406 Y-22.5561
G01 X-20.4501 Y-22.5491
G01 X-20.4602 Y-22.5430
G01 X-20.4708 Y-22.5380
G01 X-20.4819 Y-22.5340
G01 X-20.4933 Y-22.5312
G01 X-20.5049 Y-22.5295
G01 X-20.5167 Y-22.5289
G01 X-20.5285 Y-22.5295
G01 X-20.5401 Y-22.5312
G01 X-20.5515 Y-22.5340
G01 X-20.5626 Y-22.5380
G01 X-20.5732 Y-22.5430
G01 X-20.5833 Y-22.5491
G01 X-20.5928 Y-22.5561
G01 X-20.6015 Y-22.5640
G01 X-20.6094 Y-22.5727
G01 X-20.6164 Y-22.5822
G01 X-20.6225 Y-22.5923
G01 X-20.6275 Y-22.6029
G01 X-20.6315 Y-22.6140
G01 X-20.6343 Y-22.6254
G01 X-20.6360 Y-22.6370
G01 X-20.6366 Y-22.6488
G00 Z2.0000
G00 X-21.7767 Y-22.6488
G01 F70.00
G01 Z-0.0600
G01 F120.00
G01 X-21.7751 Y-22.7106
G01 X-21.7706 Y-22.7723
G01 X-21.7630 Y-22.8337
G01 X-21.7524 Y-22.8946
G01 X-21.7389 Y-22.9549
G01 X-21.7224 Y-23.0145
G01 X-21.7030 Y-23.0733
G01 X-21.6769 Y-23.1396
G01 X-21.5846 Y-23.0472
G01 X-21.5906 Y-23.0312
G01 X-21.6081 Y-22.9781
G01 X-21.6225 Y-22.9258
G01 X-21.6351 Y-22.8695
G01 X-21.6444 Y-22.8161
G01 X-21.6512 Y-22.7605
G01 X-21.6553 Y-22.7047
G01 X-21.6567 Y-22.6488
G01 X-21.6553 Y-22.5929
G01 X-21.6512 Y-22.5371
G01 X-21.6444 Y-22.4815
G01 X-21.6351 Y-22.4281
G01 X-21.6225 Y-22.3718
G01 X-21.6081 Y-22.3195
G01 X-21.5906 Y-22.2664
G01 X-21.5846 Y-22.2504
G01 X-21.6769 Y-22.1580
G01 X-21.7030 Y-22.2243
G01 X-21.7224 Y-22.2831
G01 X-21.7389 Y-22.3427
G01 X-21.7524 Y-22.4030
G01 X-21.7630 Y-22.4639
G01 X-21.7706 Y-22.5253
G01 X-21.7751 Y-22.5870
G01 X-21.7767 Y-22.6488
G00 Z2.0000
G00 X-21.8467 Y-22.6488
G01 F70.00
G01 Z-0.0600
G01 F120.00
G01 X-21.8451 Y-22.7141
G01 X-21.8403 Y-22.7792
G01 X-21.8323 Y-22.8439
G01 X-21.8211 Y-22.9083
G01 X-21.8068 Y-22.9720
G01 X-21.7894 Y-23.0349
G01 X-21.7689 Y-23.0969
G01 X-21.7454 Y-23.1578
G01 X-21.7190 Y-23.2174
G01 X-21.6978 Y-23.2595
G01 X-21.5026 Y-23.0643
G01 X-21.5242 Y-23.0093
G01 X-21.5406 Y-22.9594
G01 X-21.5546 Y-22.9088
G01 X-21.5661 Y-22.8575
G01 X-21.5751 Y-22.8058
G01 X-21.5815 Y-22.7537
G01 X-21.5854 Y-22.7013
G01 X-21.5867 Y-22.6488
G01 X-21.5854 Y-22.5963
G01 X-21.5815 Y-22.5439
G01 X-21.5751 Y-22.4918
G01 X-21.5661 Y-22.4401
G01 X-21.5546 Y-22.3888
G01 X-21.5406 Y-22.3382
G01 X-21.5242 Y-22.2883
G01 X-21.5026 Y-22.2333
G01 X-21.6978 Y-22.0381
G01 X-21.7190 Y-22.0802
G01 X-21.7454 Y-22.1398
G01 X-21.7689 Y-22.2007
G01 X-21.7894 Y-22.2627
G01 X-21.8068 Y-22.3256
G01 X-21.8211 Y-22.3893
G01 X-21.8323 Y-22.4537
G01 X-21.8403 Y-22.5184
G01 X-21.8451 Y-22.5835
G01 X-21.8467 Y-22.6488
G00 Z2.0000
G00 X-21.1275 Y-23.8299
G01 F70.00
G01 Z-0.0600
G01 F120.00
G01 X-21.0853 Y-23.8511
G01 X-21.0257 Y-23.8775
G01 X-20.9648 Y-23.9010
G01 X-20.9028 Y-23.9215
G01 X-20.8399 Y-23.9389
G01 X-20.7762 Y-23.9532
G01 X-20.7118 Y-23.9644
G01 X-20.6471 Y-23.9724
G01 X-20.5820 Y-23.9772
G01 X-20.5167 Y-23.9788
G01 X-20.4514 Y-23.9772
G01 X-20.3863 Y-23.9724
G01 X-20.3216 Y-23.9644
G01 X-20.2572 Y-23.9532
G01 X-20.1935 Y-23.9389
G01 X-20.1306 Y-23.9215
G01 X-20.0686 Y-23.9010
G01 X-20.0077 Y-23.8775
G01 X-19.9481 Y-23.8511
G01 X-19.9060 Y-23.8299
G01 X-20.1012 Y-23.6347
G01 X-20.1562 Y-23.6563
G01 X-20.2061 Y-23.6727
G01 X-20.2567 Y-23.6867
G01 X-20.3080 Y-23.6982
G01 X-20.3597 Y-23.7072
G01 X-20.4118 Y-23.7136
G01 X-20.4642 Y-23.7175
G01 X-20.5167 Y-23.7188
G01 X-20.5692 Y-23.7175
G01 X-20.6216 Y-23.7136
G01 X-20.6737 Y-23.7072
G01 X-20.7254 Y-23.6982
G01 X-20.7767 Y-23.6867
G01 X-20.8273 Y-23.6727
G01 X-20.8772 Y-23.6563
G01 X-20.9323 Y-23.6347
G01 X-21.1275 Y-23.8299
G00 Z2.0000
G00 X-21.0076 Y-23.8090
G01 F70.00
G01 Z-0.0600
G01 F120.00
G01 X-20.9412 Y-23.8351
G01 X-20.8824 Y-23.8545
G01 X-20.8228 Y-23.8710
G01 X-20.7625 Y-23.8845
G01 X-20.7016 Y-23.8951
G01 X-20.6402 Y-23.9027
G01 X-20.5785 Y-23.9072
G01 X-20.5167 Y-23.9088
G01 X-20.4549 Y-23.9072
G01 X-20.3932 Y-23.9027
G01 X-20.3318 Y-23.8951
G01 X-20.2709 Y-23.8845
G01 X-20.2106 Y-23.8710
G01 X-20.1510 Y-23.8545
G01 X-20.0922 Y-23.8351
G01 X-20.0259 Y-23.8090
G01 X-20.1182 Y-23.7166
G01 X-20.1343 Y-23.7227
G01 X-20.1874 Y-23.7402
G01 X-20.2397 Y-23.7546
G01 X-20.2960 Y-23.7672
G01 X-20.3494 Y-23.7765
G01 X-20.4050 Y-23.7833
G01 X-20.4608 Y-23.7874
G01 X-20.5167 Y-23.7888
G01 X-20.5726 Y-23.7874
G01 X-20.6284 Y-23.7833
G01 X-20.6840 Y-23.7765
G01 X-20.7374 Y-23.7672
G01 X-20.7937 Y-23.7546
G01 X-20.8460 Y-23.7402
G01 X-20.8991 Y-23.7227
G01 X-20.9152 Y-23.7166
G01 X-21.0076 Y-23.8090
G00 Z2.0000
G00 X-19.5308 Y-23.0643
G01 F70.00
G01 Z-0.0600
G01 F120.00
G01 X-19.3356 Y-23.2595
G01 X-19.3144 Y-23.2174
G01 X-19.2880 Y-23.1578
G01 X-19.2645 Y-23.0969
G01 X-19.2440 Y-23.0349
G01 X-19.2266 Y-22.9720
G01 X-19.2123 Y-22.9083
G01 X-19.2011 Y-22.8439
G01 X-19.1931 Y-22.7792
G01 X-19.1883 Y-22.7141
G01 X-19.1867 Y-22.6488
G01 X-19.1883 Y-22.5835
G01 X-19.1931 Y-22.5184
G01 X-19.2011 Y-22.4537
G01 X-19.2123 Y-22.3893
G01 X-19.2266 Y-22.3256
G01 X-19.2440 Y-22.2627
G01 X-19.2645 Y-22.2007
G01 X-19.2880 Y-22.1398
G01 X-19.3144 Y-22.0802
G01 X-19.3356 Y-22.0381
G01 X-19.5308 Y-22.2333
G01 X-19.5092 Y-22.2883
G01 X-19.4928 Y-22.3382
G01 X-19.4788 Y-22.3888
G01 X-19.4673 Y-22.4401
G01 X-19.4583 Y-22.4918
G01 X-19.4519 Y-22.5439
G01 X-19.4480 Y-22.5963
G01 X-19.4467 Y-22.6488
G01 X-19.4480 Y-22.7013
G01 X-19.4519 Y-22.7537
G01 X-19.4583 Y-22.8058
G01 X-19.4673 Y-22.8575
G01 X-19.4788 Y-22.9088
G01 X-19.4928 Y-22.9594
G01 X-19.5092 Y-23.0093
G01 X-19.5308 Y-23.0643
G00 Z2.0000
G00 X-19.4489 Y-23.0473
G01 F70.00
G01 Z-0.0600
G01 F120.00
G01 X-19.3565 Y-23.1396
G01 X-19.3304 Y-23.0733
G01 X-19.3110 Y-23.0145
G01 X-19.2945 Y-22.9549
G01 X-19.2810 Y-22.8946
G01 X-19.2704 Y-22.8337
G01 X-19.2628 Y-22.7723
G01 X-19.2583 Y-22.7106
G01 X-19.2567 Y-22.6488
G01 X-19.2583 Y-22.5870
G01 X-19.2628 Y-22.5253
G01 X-19.2704 Y-22.4639
G01 X-19.2810 Y-22.4030
G01 X-19.2945 Y-22.3427
G01 X-19.3110 Y-22.2831
G01 X-19.3304 Y-22.2243
G01 X-19.3565 Y-22.1580
G01 X-19.4489 Y-22.2503
G01 X-19.4428 Y-22.2664
G01 X-19.4253 Y-22.3195
G01 X-19.4109 Y-22.3718
G01 X-19.3983 Y-22.4281
G01 X-19.3890 Y-22.4815
G01 X-19.3822 Y-22.5371
G01 X-19.3781 Y-22.5929
G01 X-19.3767 Y-22.6488
G01 X-19.3781 Y-22.7047
G01 X-19.3822 Y-22.7605
G01 X-19.3890 Y-22.8161
G01 X-19.3983 Y-22.8695
G01 X-19.4109 Y-22.9258
G01 X-19.4253 Y-22.9781
G01 X-19.4428 Y-23.0312
G01 X-19.4489 Y-23.0473
G00 Z2.0000
G00 X-16.8318 Y-19.3675
G01 F70.00
G01 Z-0.0600
G01 F120.00
G01 X-16.8296 Y-19.4573
G01 X-16.8230 Y-19.5469
G01 X-16.8120 Y-19.6360
G01 X-16.7966 Y-19.7245
G01 X-16.7769 Y-19.8121
G01 X-16.7530 Y-19.8987
G01 X-16.7248 Y-19.9840
G01 X-16.6925 Y-20.0678
G01 X-16.6561 Y-20.1499
G01 X-16.6157 Y-20.2301
G01 X-16.5714 Y-20.3083
G01 X-16.5234 Y-20.3842
G01 X-16.4717 Y-20.4576
G01 X-16.4164 Y-20.5284
G01 X-16.3577 Y-20.5964
G01 X-16.2958 Y-20.6615
G01 X-16.2307 Y-20.7234
G01 X-16.1627 Y-20.7821
G01 X-16.0919 Y-20.8374
G01 X-16.0185 Y-20.8891
G01 X-15.9426 Y-20.9371
G01 X-15.8644 Y-20.9814
G01 X-15.7842 Y-21.0218
G01 X-15.7021 Y-21.0582
G01 X-15.6183 Y-21.0905
G01 X-15.5330 Y-21.1187
G01 X-15.4464 Y-21.1426
G01 X-15.3588 Y-21.1623
G01 X-15.2703 Y-21.1777
G01 X-15.1812 Y-21.1887
G01 X-15.0916 Y-21.1953
G01 X-15.0018 Y-21.1975
G01 X-14.9120 Y-21.1953
G01 X-14.8224 Y-21.1887
G01 X-14.7333 Y-21.1777
G01 X-14.6448 Y-21.1623
G01 X-14.5572 Y-21.1426
G01 X-14.4706 Y-21.1187
G01 X-14.3853 Y-21.0905
G01 X-14.3015 Y-21.0582
G01 X-14.2194 Y-21.0218
G01 X-14.1392 Y-20.9814
G01 X-14.0610 Y-20.9371
G01 X-13.9851 Y-20.8891
G01 X-13.9117 Y-20.8374
G01 X-13.8409 Y-20.7821
G01 X-13.7729 Y-20.7234
G01 X-13.7078 Y-20.6615
G01 X-13.6459 Y-20.5964
G01 X-13.5872 Y-20.5284
G01 X-13.5319 Y-20.4576
G01 X-13.4802 Y-20.3842
G01 X-13.4322 Y-20.3083
G01 X-13.3879 Y-20.2301
G01 X-13.3475 Y-20.1499
G01 X-13.3111 Y-20.0678
G01 X-13.2788 Y-19.9840
G01 X-13.2506 Y-19.8987
G01 X-13.2267 Y-19.8121
G01 X-13.2070 Y-19.7245
G01 X-13.1916 Y-19.6360
G01 X-13.1806 Y-19.5469
G01 X-13.1740 Y-19.4573
G01 X-13.1718 Y-19.3675
G01 X-13.1740 Y-19.2777
G01 X-13.1806 Y-19.1881
G01 X-13.1916 Y-19.0990
G01 X-13.2070 Y-19.0105
G01 X-13.2267 Y-18.9229
G01 X-13.2506 Y-18.8363
G01 X-13.2788 Y-18.7510
G01 X-13.3111 Y-18.6672
G01 X-13.3475 Y-18.5851
G01 X-13.3879 Y-18.5049
G01 X-13.4322 Y-18.4267
G01 X-13.4802 Y-18.3508
G01 X-13.5319 Y-18.2774
G01 X-13.5872 Y-18.2066
G01 X-13.6459 Y-18.1386
G01 X-13.7078 Y-18.0735
G01 X-13.7729 Y-18.0116
G01 X-13.8409 Y-17.9529
G01 X-13.9117 Y-17.8976
G01 X-13.9851 Y-17.8459
G01 X-14.0610 Y-17.7979
G01 X-14.1392 Y-17.7536
G01 X-14.2194 Y-17.7132
G01 X-14.3015 Y-17.6768
G01 X-14.3853 Y-17.6445
G01 X-14.4706 Y-17.6163
G01 X-14.5572 Y-17.5924
G01 X-14.6448 Y-17.5727
G01 X-14.7333 Y-17.5573
G01 X-14.8224 Y-17.5463
G01 X-14.9120 Y-17.5397
G01 X-15.0018 Y-17.5375
G01 X-15.0916 Y-17.5397
G01 X-15.1812 Y-17.5463
G01 X-15.2703 Y-17.5573
G01 X-15.3588 Y-17.5727
G01 X-15.4464 Y-17.5924
G01 X-15.5330 Y-17.6163
G01 X-15.6183 Y-17.6445
G01 X-15.7021 Y-17.6768
G01 X-15.7842 Y-17.7132
G01 X-15.8644 Y-17.7536
G01 X-15.9426 Y-17.7979
G01 X-16.0185 Y-17.8459
G01 X-16.0919 Y-17.8976
G01 X-16.1627 Y-17.9529
G01 X-16.2307 Y-18.0116
G01 X-16.2958 Y-18.0735
G01 X-16.3577 Y-18.1386
G01 X-16.4164 Y-18.2066
G01 X-16.4717 Y-18.2774
G01 X-16.5234 Y-18.3508
G01 X-16.5714 Y-18.4267
G01 X-16.6157 Y-18.5049
G01 X-16.6561 Y-18.5851
G01 X-16.6925 Y-18.6672
G01 X-16.7248 Y-18.7510
G01 X-16.7530 Y-18.8363
G01 X-16.7769 Y-18.9229
G01 X-16.7966 Y-19.0105
G01 X-16.8120 Y-19.0990
G01 X-16.8230 Y-19.1881
G01 X-16.8296 Y-19.2777
G01 X-16.8318 Y-19.3675
G00 Z2.0000
G00 X-16.7618 Y-19.3675
G01 F70.00
G01 Z-0.0600
G01 F120.00
G01 X-16.7596 Y-19.4539
G01 X-16.7533 Y-19.5400
G01 X-16.7427 Y-19.6257
G01 X-16.7279 Y-19.7109
G01 X-16.7090 Y-19.7951
G01 X-16.6860 Y-19.8784
G01 X-16.6589 Y-19.9604
G01 X-16.6278 Y-20.0410
G01 X-16.5928 Y-20.1200
G01 X-16.5539 Y-20.1971
G01 X-16.5114 Y-20.2723
G01 X-16.4652 Y-20.3453
G01 X-16.4154 Y-20.4159
G01 X-16.3623 Y-20.4840
G01 X-16.3058 Y-20.5494
G01 X-16.2463 Y-20.6120
G01 X-16.1837 Y-20.6715
G01 X-16.1183 Y-20.7280
G01 X-16.0502 Y-20.7811
G01 X-15.9796 Y-20.8309
G01 X-15.9066 Y-20.8771
G01 X-15.8314 Y-20.9196
G01 X-15.7543 Y-20.9585
G01 X-15.6753 Y-20.9935
G01 X-15.5947 Y-21.0246
G01 X-15.5127 Y-21.0517
G01 X-15.4294 Y-21.0747
G01 X-15.3452 Y-21.0936
G01 X-15.2600 Y-21.1084
G01 X-15.1743 Y-21.1190
G01 X-15.0882 Y-21.1253
G01 X-15.0018 Y-21.1275
G01 X-14.9154 Y-21.1253
G01 X-14.8293 Y-21.1190
G01 X-14.7436 Y-21.1084
G01 X-14.6584 Y-21.0936
G01 X-14.5742 Y-21.0747
G01 X-14.4909 Y-21.0517
G01 X-14.4089 Y-21.0246
G01 X-14.3283 Y-20.9935
G01 X-14.2493 Y-20.9585
G01 X-14.1722 Y-20.9196
G01 X-14.0970 Y-20.8771
G01 X-14.0240 Y-20.8309
G01 X-13.9534 Y-20.7811
G01 X-13.8853 Y-20.7280
G01 X-13.8199 Y-20.6715
G01 X-13.7573 Y-20.6120
G01 X-13.6978 Y-20.5494
G01 X-13.6413 Y-20.4840
G01 X-13.5882 Y-20.4159
G01 X-13.5384 Y-20.3453
G01 X-13.4922 Y-20.2723
G01 X-13.4497 Y-20.1971
G01 X-13.4108 Y-20.1200
G01 X-13.3758 Y-20.0410
G01 X-13.3447 Y-19.9604
G01 X-13.3176 Y-19.8784
G01 X-13.2946 Y-19.7951
G01 X-13.2757 Y-19.7109
G01 X-13.2609 Y-19.6257
G01 X-13.2503 Y-19.5400
G01 X-13.2440 Y-19.4539
G01 X-13.2418 Y-19.3675
G01 X-13.2440 Y-19.2811
G01 X-13.2503 Y-19.1950
G01 X-13.2609 Y-19.1093
G01 X-13.2757 Y-19.0241
G01 X-13.2946 Y-18.9399
G01 X-13.3176 Y-18.8566
G01 X-13.3447 Y-18.7746
G01 X-13.3758 Y-18.6940
G01 X-13.4108 Y-18.6150
G01 X-13.4497 Y-18.5379
G01 X-13.4922 Y-18.4627
G01 X-13.5384 Y-18.3897
G01 X-13.5882 Y-18.3191
G01 X-13.6413 Y-18.2510
G01 X-13.6978 Y-18.1856
G01 X-13.7573 Y-18.1230
G01 X-13.8199 Y-18.0635
G01 X-13.8853 Y-18.0070
G01 X-13.9534 Y-17.9539
G01 X-14.0240 Y-17.9041
G01 X-14.0970 Y-17.8579
G01 X-14.1722 Y-17.8154
G01 X-14.2493 Y-17.7765
G01 X-14.3283 Y-17.7415
G01 X-14.4089 Y-17.7104
G01 X-14.4909 Y-17.6833
G01 X-14.5742 Y-17.6603
G01 X-14.6584 Y-17.6414
G01 X-14.7436 Y-17.6266
G01 X-14.8293 Y-17.6160
G01 X-14.9154 Y-17.6097
G01 X-15.0018 Y-17.6075
G01 X-15.0882 Y-17.6097
G01 X-15.1743 Y-17.6160
G01 X-15.2600 Y-17.6266
G01 X-15.3452 Y-17.6414
G01 X-15.4294 Y-17.6603
G01 X-15.5127 Y-17.6833
G01 X-15.5947 Y-17.7104
G01 X-15.6753 Y-17.7415
G01 X-15.7543 Y-17.7765
G01 X-15.8314 Y-17.8154
G01 X-15.9066 Y-17.8579
G01 X-15.9796 Y-17.9041
G01 X-16.0502 Y-17.9539
G01 X-16.1183 Y-18.0070
G01 X-16.1837 Y-18.0635
G01 X-16.2463 Y-18.1230
G01 X-16.3058 Y-18.1856
G01 X-16.3623 Y-18.2510
G01 X-16.4154 Y-18.3191
G01 X-16.4652 Y-18.3897
G01 X-16.5114 Y-18.4627
G01 X-16.5539 Y-18.5379
G01 X-16.5928 Y-18.6150
G01 X-16.6278 Y-18.6940
G01 X-16.6589 Y-18.7746
G01 X-16.6860 Y-18.8566
G01 X-16.7090 Y-18.9399
G01 X-16.7279 Y-19.0241
G01 X-16.7427 Y-19.1093
G01 X-16.7533 Y-19.1950
G01 X-16.7596 Y-19.2811
G01 X-16.7618 Y-19.3675
G00 Z2.0000
G00 X-16.6418 Y-19.3675
G01 F70.00
G01 Z-0.0600
G01 F120.00
G01 X-16.6398 Y-19.4480
G01 X-16.6339 Y-19.5282
G01 X-16.6240 Y-19.6081
G01 X-16.6103 Y-19.6874
G01 X-16.5927 Y-19.7660
G01 X-16.5712 Y-19.8436
G01 X-16.5459 Y-19.9200
G01 X-16.5170 Y-19.9951
G01 X-16.4843 Y-20.0687
G01 X-16.4482 Y-20.1406
G01 X-16.4085 Y-20.2106
G01 X-16.3654 Y-20.2786
G01 X-16.3191 Y-20.3444
G01 X-16.2695 Y-20.4079
G01 X-16.2170 Y-20.4689
G01 X-16.1615 Y-20.5272
G01 X-16.1032 Y-20.5827
G01 X-16.0422 Y-20.6352
G01 X-15.9787 Y-20.6848
G01 X-15.9129 Y-20.7311
G01 X-15.8449 Y-20.7742
G01 X-15.7749 Y-20.8139
G01 X-15.7030 Y-20.8500
G01 X-15.6294 Y-20.8827
G01 X-15.5543 Y-20.9116
G01 X-15.4779 Y-20.9369
G01 X-15.4003 Y-20.9584
G01 X-15.3217 Y-20.9760
G01 X-15.2424 Y-20.9897
G01 X-15.1625 Y-20.9996
G01 X-15.0823 Y-21.0055
G01 X-15.0018 Y-21.0075
G01 X-14.9213 Y-21.0055
G01 X-14.8411 Y-20.9996
G01 X-14.7612 Y-20.9897
G01 X-14.6819 Y-20.9760
G01 X-14.6033 Y-20.9584
G01 X-14.5257 Y-20.9369
G01 X-14.4493 Y-20.9116
G01 X-14.3742 Y-20.8827
G01 X-14.3006 Y-20.8500
G01 X-14.2287 Y-20.8139
G01 X-14.1587 Y-20.7742
G01 X-14.0907 Y-20.7311
G01 X-14.0249 Y-20.6848
G01 X-13.9614 Y-20.6352
G01 X-13.9004 Y-20.5827
G01 X-13.8421 Y-20.5272
G01 X-13.7866 Y-20.4689
G01 X-13.7341 Y-20.4079
G01 X-13.6845 Y-20.3444
G01 X-13.6382 Y-20.2786
G01 X-13.5951 Y-20.2106
G01 X-13.5554 Y-20.1406
G01 X-13.5193 Y-20.0687
G01 X-13.4866 Y-19.9951
G01 X-13.4577 Y-19.9200
G01 X-13.4324 Y-19.8436
G01 X-13.4109 Y-19.7660
G01 X-13.3933 Y-19.6874
G01 X-13.3796 Y-19.6081
G01 X-13.3697 Y-19.5282
G01 X-13.3638 Y-19.4480
G01 X-13.3618 Y-19.3675
G01 X-13.3638 Y-19.2870
G01 X-13.3697 Y-19.2068
G01 X-13.3796 Y-19.1269
G01 X-13.3933 Y-19.0476
G01 X-13.4109 Y-18.9690
G01 X-13.4324 Y-18.8914
G01 X-13.4577 Y-18.8150
G01 X-13.4866 Y-18.7399
G01 X-13.5193 Y-18.6663
G01 X-13.5554 Y-18.5944
G01 X-13.5951 Y-18.5244
G01 X-13.6382 Y-18.4564
G01 X-13.6845 Y-18.3906
G01 X-13.7341 Y-18.3271
G01 X-13.7866 Y-18.2661
G01 X-13.8421 Y-18.2078
G01 X-13.9004 Y-18.1523
G01 X-13.9614 Y-18.0998
G01 X-14.0249 Y-18.0502
G01 X-14.0907 Y-18.0039
G01 X-14.1587 Y-17.9608
G01 X-14.2287 Y-17.9211
G01 X-14.3006 Y-17.8850
G01 X-14.3742 Y-17.8523
G01 X-14.4493 Y-17.8234
G01 X-14.5257 Y-17.7981
G01 X-14.6033 Y-17.7766
G01 X-14.6819 Y-17.7590
G01 X-14.7612 Y-17.7453
G01 X-14.8411 Y-17.7354
G01 X-14.9213 Y-17.7295
G01 X-15.0018 Y-17.7275
G01 X-15.0823 Y-17.7295
G01 X-15.1625 Y-17.7354
G01 X-15.2424 Y-17.7453
G01 X-15.3217 Y-17.7590
G01 X-15.4003 Y-17.7766
G01 X-15.4779 Y-17.7981
G01 X-15.5543 Y-17.8234
G01 X-15.6294 Y-17.8523
G01 X-15.7030 Y-17.8850
G01 X-15.7749 Y-17.9211
G01 X-15.8449 Y-17.9608
G01 X-15.9129 Y-18.0039
G01 X-15.9787 Y-18.0502
G01 X-16.0422 Y-18.0998
G01 X-16.1032 Y-18.1523
G01 X-16.1615 Y-18.2078
G01 X-16.2170 Y-18.2661
G01 X-16.2695 Y-18.3271
G01 X-16.3191 Y-18.3906
G01 X-16.3654 Y-18.4564
G01 X-16.4085 Y-18.5244
G01 X-16.4482 Y-18.5944
G01 X-16.4843 Y-18.6663
G01 X-16.5170 Y-18.7399
G01 X-16.5459 Y-18.8150
G01 X-16.5712 Y-18.8914
G01 X-16.5927 Y-18.9690
G01 X-16.6103 Y-19.0476
G01 X-16.6240 Y-19.1269
G01 X-16.6339 Y-19.2068
G01 X-16.6398 Y-19.2870
G01 X-16.6418 Y-19.3675
G00 Z2.0000
G00 X-16.5718 Y-19.3675
G01 F70.00
G01 Z-0.0600
G01 F120.00
G01 X-16.5699 Y-19.4445
G01 X-16.5642 Y-19.5214
G01 X-16.5548 Y-19.5979
G01 X-16.5416 Y-19.6738
G01 X-16.5247 Y-19.7490
G01 X-16.5042 Y-19.8232
G01 X-16.4800 Y-19.8964
G01 X-16.4523 Y-19.9683
G01 X-16.4211 Y-20.0388
G01 X-16.3864 Y-20.1076
G01 X-16.3484 Y-20.1746
G01 X-16.3072 Y-20.2397
G01 X-16.2628 Y-20.3027
G01 X-16.2154 Y-20.3635
G01 X-16.1651 Y-20.4218
G01 X-16.1120 Y-20.4777
G01 X-16.0561 Y-20.5308
G01 X-15.9978 Y-20.5811
G01 X-15.9370 Y-20.6285
G01 X-15.8740 Y-20.6729
G01 X-15.8089 Y-20.7141
G01 X-15.7419 Y-20.7521
G01 X-15.6731 Y-20.7868
G01 X-15.6026 Y-20.8180
G01 X-15.5307 Y-20.8457
G01 X-15.4575 Y-20.8699
G01 X-15.3833 Y-20.8904
G01 X-15.3081 Y-20.9073
G01 X-15.2322 Y-20.9205
G01 X-15.1557 Y-20.9299
G01 X-15.0788 Y-20.9356
G01 X-15.0018 Y-20.9375
G01 X-14.9248 Y-20.9356
G01 X-14.8479 Y-20.9299
G01 X-14.7714 Y-20.9205
G01 X-14.6955 Y-20.9073
G01 X-14.6203 Y-20.8904
G01 X-14.5461 Y-20.8699
G01 X-14.4729 Y-20.8457
G01 X-14.4010 Y-20.8180
G01 X-14.3305 Y-20.7868
G01 X-14.2617 Y-20.7521
G01 X-14.1947 Y-20.7141
G01 X-14.1296 Y-20.6729
G01 X-14.0666 Y-20.6285
G01 X-14.0058 Y-20.5811
G01 X-13.9475 Y-20.5308
G01 X-13.8916 Y-20.4777
G01 X-13.8385 Y-20.4218
G01 X-13.7882 Y-20.3635
G01 X-13.7408 Y-20.3027
G01 X-13.6964 Y-20.2397
G01 X-13.6552 Y-20.1746
G01 X-13.6172 Y-20.1076
G01 X-13.5825 Y-20.0388
G01 X-13.5513 Y-19.9683
G01 X-13.5236 Y-19.8964
G01 X-13.4994 Y-19.8232
G01 X-13.4789 Y-19.7490
G01 X-13.4620 Y-19.6738
G01 X-13.4488 Y-19.5979
G01 X-13.4394 Y-19.5214
G01 X-13.4337 Y-19.4445
G01 X-13.4318 Y-19.3675
G01 X-13.4337 Y-19.2905
G01 X-13.4394 Y-19.2136
G01 X-13.4488 Y-19.1371
G01 X-13.4620 Y-19.0612
G01 X-13.4789 Y-18.9860
G01 X-13.4994 Y-18.9118
G01 X-13.5236 Y-18.8386
G01 X-13.5513 Y-18.7667
G01 X-13.5825 Y-18.6962
G01 X-13.6172 Y-18.6274
G01 X-13.6552 Y-18.5604
G01 X-13.6964 Y-18.4953
G01 X-13.7408 Y-18.4323
G01 X-13.7882 Y-18.3715
G01 X-13.8385 Y-18.3132
G01 X-13.8916 Y-18.2573
G01 X-13.9475 Y-18.2042
G01 X-14.0058 Y-18.1539
G01 X-14.0666 Y-18.1065
G01 X-14.1296 Y-18.0621
G01 X-14.1947 Y-18.0209
G01 X-14.2617 Y-17.9829
G01 X-14.3305 Y-17.9482
G01 X-14.4010 Y-17.9170
G01 X-14.4729 Y-17.8893
G01 X-14.5461 Y-17.8651
G01 X-14.6203 Y-17.8446
G01 X-14.6955 Y-17.8277
G01 X-14.7714 Y-17.8145
G01 X-14.8479 Y-17.8051
G01 X-14.9248 Y-17.7994
G01 X-15.0018 Y-17.7975
G01 X-15.0788 Y-17.7994
G01 X-15.1557 Y-17.8051
G01 X-15.2322 Y-17.8145
G01 X-15.3081 Y-17.8277
G01 X-15.3833 Y-17.8446
G01 X-15.4575 Y-17.8651
G01 X-15.5307 Y-17.8893
G01 X-15.6026 Y-17.9170
G01 X-15.6731 Y-17.9482
G01 X-15.7419 Y-17.9829
G01 X-15.8089 Y-18.0209
G01 X-15.8740 Y-18.0621
G01 X-15.9370 Y-18.1065
G01 X-15.9978 Y-18.1539
G01 X-16.0561 Y-18.2042
G01 X-16.1120 Y-18.2573
G01 X-16.1651 Y-18.3132
G01 X-16.2154 Y-18.3715
G01 X-16.2628 Y-18.4323
G01 X-16.3072 Y-18.4953
G01 X-16.3484 Y-18.5604
G01 X-16.3864 Y-18.6274
G01 X-16.4211 Y-18.6962
G01 X-16.4523 Y-18.7667
G01 X-16.4800 Y-18.8386
G01 X-16.5042 Y-18.9118
G01 X-16.5247 Y-18.9860
G01 X-16.5416 Y-19.0612
G01 X-16.5548 Y-19.1371
G01 X-16.5642 Y-19.2136
G01 X-16.5699 Y-19.2905
G01 X-16.5718 Y-19.3675
G00 Z2.0000
G00 X-15.2318 Y-19.3675
G01 F70.00
G01 Z-0.0600
G01 F120.00
G01 X-15.2307 Y-19.3900
G01 X-15.2274 Y-19.4124
G01 X-15.2219 Y-19.4343
G01 X-15.2143 Y-19.4555
G01 X-15.2046 Y-19.4759
G01 X-15.1930 Y-19.4953
G01 X-15.1796 Y-19.5134
G01 X-15.1644 Y-19.5301
G01 X-15.1477 Y-19.5453
G01 X-15.1296 Y-19.5587
G01 X-15.1102 Y-19.5703
G01 X-15.0898 Y-19.5800
G01 X-15.0686 Y-19.5876
G01 X-15.0467 Y-19.5931
G01 X-15.0243 Y-19.5964
G01 X-15.0018 Y-19.5975
G01 X-14.9793 Y-19.5964
G01 X-14.9569 Y-19.5931
G01 X-14.9350 Y-19.5876
G01 X-14.9138 Y-19.5800
G01 X-14.8934 Y-19.5703
G01 X-14.8740 Y-19.5587
G01 X-14.8559 Y-19.5453
G01 X-14.8392 Y-19.5301
G01 X-14.8240 Y-19.5134
G01 X-14.8106 Y-19.4953
G01 X-14.7990 Y-19.4759
G01 X-14.7893 Y-19.4555
G01 X-14.7817 Y-19.4343
G01 X-14.7762 Y-19.4124
G01 X-14.7729 Y-19.3900
G01 X-14.7718 Y-19.3675
G01 X-14.7729 Y-19.3450
G01 X-14.7762 Y-19.3226
G01 X-14.7817 Y-19.3007
G01 X-14.7893 Y-19.2795
G01 X-14.7990 Y-19.2591
G01 X-14.8106 Y-19.2397
G01 X-14.8240 Y-19.2216
G01 X-14.8392 Y-19.2049
G01 X-14.8559 Y-19.1897
G01 X-14.8740 Y-19.1763
G01 X-14.8934 Y-19.1647
G01 X-14.9138 Y-19.1550
G01 X-14.9350 Y-19.1474
G01 X-14.9569 Y-19.1419
G01 X-14.9793 Y-19.1386
G01 X-15.0018 Y-19.1375
G01 X-15.0243 Y-19.1386
G01 X-15.0467 Y-19.1419
G01 X-15.0686 Y-19.1474
G01 X-15.0898 Y-19.1550
G01 X-15.1102 Y-19.1647
G01 X-15.1296 Y-19.1763
G01 X-15.1477 Y-19.1897
G01 X-15.1644 Y-19.2049
G01 X-15.1796 Y-19.2216
G01 X-15.1930 Y-19.2397
G01 X-15.2046 Y-19.2591
G01 X-15.2143 Y-19.2795
G01 X-15.2219 Y-19.3007
G01 X-15.2274 Y-19.3226
G01 X-15.2307 Y-19.3450
G01 X-15.2318 Y-19.3675
G00 Z2.0000
G00 X-15.1618 Y-19.3675
G01 F70.00
G01 Z-0.0600
G01 F120.00
G01 X-15.1610 Y-19.3832
G01 X-15.1587 Y-19.3987
G01 X-15.1549 Y-19.4139
G01 X-15.1496 Y-19.4287
G01 X-15.1429 Y-19.4429
G01 X-15.1348 Y-19.4564
G01 X-15.1254 Y-19.4690
G01 X-15.1149 Y-19.4806
G01 X-15.1033 Y-19.4911
G01 X-15.0907 Y-19.5005
G01 X-15.0772 Y-19.5086
G01 X-15.0630 Y-19.5153
G01 X-15.0482 Y-19.5206
G01 X-15.0330 Y-19.5244
G01 X-15.0175 Y-19.5267
G01 X-15.0018 Y-19.5275
G01 X-14.9861 Y-19.5267
G01 X-14.9706 Y-19.5244
G01 X-14.9554 Y-19.5206
G01 X-14.9406 Y-19.5153
G01 X-14.9264 Y-19.5086
G01 X-14.9129 Y-19.5005
G01 X-14.9003 Y-19.4911
G01 X-14.8887 Y-19.4806
G01 X-14.8782 Y-19.4690
G01 X-14.8688 Y-19.4564
G01 X-14.8607 Y-19.4429
G01 X-14.8540 Y-19.4287
G01 X-14.8487 Y-19.4139
G01 X-14.8449 Y-19.3987
G01 X-14.8426 Y-19.3832
G01 X-14.8418 Y-19.3675
G01 X-14.8426 Y-19.3518
G01 X-14.8449 Y-19.3363
G01 X-14.8487 Y-19.3211
G01 X-14.8540 Y-19.3063
G01 X-14.8607 Y-19.2921
G01 X-14.8688 Y-19.2786
G01 X-14.8782 Y-19.2660
G01 X-14.8887 Y-19.2544
G01 X-14.9003 Y-19.2439
G01 X-14.9129 Y-19.2345
G01 X-14.9264 Y-19.2264
G01 X-14.9406 Y-19.2197
G01 X-14.9554 Y-19.2144
G01 X-14.9706 Y-19.2106
G01 X-14.9861 Y-19.2083
G01 X-15.0018 Y-19.2075
G01 X-15.0175 Y-19.2083
G01 X-15.0330 Y-19.2106
G01 X-15.0482 Y-19.2144
G01 X-15.0630 Y-19.2197
G01 X-15.0772 Y-19.2264
G01 X-15.0907 Y-19.2345
G01 X-15.1033 Y-19.2439
G01 X-15.1149 Y-19.2544
G01 X-15.1254 Y-19.2660
G01 X-15.1348 Y-19.2786
G01 X-15.1429 Y-19.2921
G01 X-15.1496 Y-19.3063
G01 X-15.1549 Y-19.3211
G01 X-15.1587 Y-19.3363
G01 X-15.1610 Y-19.3518
G01 X-15.1618 Y-19.3675
G00 Z2.0000
G00 X-15.0917 Y-19.3675
G01 F70.00
G01 Z-0.0600
G01 F120.00
G01 X-15.0900 Y-19.3850
G01 X-15.0849 Y-19.4019
G01 X-15.0766 Y-19.4175
G01 X-15.0654 Y-19.4311
G01 X-15.0518 Y-19.4423
G01 X-15.0362 Y-19.4506
G01 X-15.0193 Y-19.4557
G01 X-15.0018 Y-19.4574
G01 X-14.9843 Y-19.4557
G01 X-14.9674 Y-19.4506
G01 X-14.9518 Y-19.4423
G01 X-14.9382 Y-19.4311
G01 X-14.9270 Y-19.4175
G01 X-14.9187 Y-19.4019
G01 X-14.9136 Y-19.3850
G01 X-14.9119 Y-19.3675
G01 X-14.9136 Y-19.3500
G01 X-14.9187 Y-19.3331
G01 X-14.9270 Y-19.3175
G01 X-14.9382 Y-19.3039
G01 X-14.9518 Y-19.2927
G01 X-14.9674 Y-19.2844
G01 X-14.9843 Y-19.2793
G01 X-15.0018 Y-19.2776
G01 X-15.0193 Y-19.2793
G01 X-15.0362 Y-19.2844
G01 X-15.0518 Y-19.2927
G01 X-15.0654 Y-19.3039
G01 X-15.0766 Y-19.3175
G01 X-15.0849 Y-19.3331
G01 X-15.0900 Y-19.3500
G01 X-15.0917 Y-19.3675
G00 Z2.0000
G00 X-15.0217 Y-19.3675
G01 F70.00
G01 Z-0.0600
G01 F120.00
G01 X-15.0202 Y-19.3751
G01 X-15.0159 Y-19.3816
G01 X-15.0094 Y-19.3859
G01 X-15.0018 Y-19.3874
G01 X-14.9942 Y-19.3859
G01 X-14.9877 Y-19.3816
G01 X-14.9834 Y-19.3751
G01 X-14.9819 Y-19.3675
G01 X-14.9834 Y-19.3599
G01 X-14.9877 Y-19.3534
G01 X-14.9942 Y-19.3491
G01 X-15.0018 Y-19.3476
G01 X-15.0094 Y-19.3491
G01 X-15.0159 Y-19.3534
G01 X-15.0202 Y-19.3599
G01 X-15.0217 Y-19.3675
G00 Z2.0000
G00 X-5.7794 Y-22.5322
G01 F70.00
G01 Z-0.0600
G01 F120.00
G01 X-5.7779 Y-22.5930
G01 X-5.7734 Y-22.6537
G01 X-5.7660 Y-22.7141
G01 X-5.7556 Y-22.7741
G01 X-5.7422 Y-22.8335
G01 X-5.7260 Y-22.8922
G01 X-5.7069 Y-22.9499
G01 X-5.6850 Y-23.0067
G01 X-5.6603 Y-23.0624
G01 X-5.6330 Y-23.1167
G01 X-5.6030 Y-23.1697
G01 X-5.5704 Y-23.2211
G01 X-5.5354 Y-23.2709
G01 X-5.4979 Y-23.3188
G01 X-5.4582 Y-23.3649
G01 X-5.4162 Y-23.4090
G01 X-5.3721 Y-23.4510
G01 X-5.3260 Y-23.4907
G01 X-5.2781 Y-23.5282
G01 X-5.2283 Y-23.5632
G01 X-5.1769 Y-23.5958
G01 X-5.1239 Y-23.6258
G01 X-5.0696 Y-23.6531
G01 X-5.0139 Y-23.6778
G01 X-4.9571 Y-23.6997
G01 X-4.8994 Y-23.7188
G01 X-4.8407 Y-23.7350
G01 X-4.7813 Y-23.7484
G01 X-4.7213 Y-23.7588
G01 X-4.6609 Y-23.7662
G01 X-4.6002 Y-23.7707
G01 X-4.5394 Y-23.7722
G01 X-4.4786 Y-23.7707
G01 X-4.4179 Y-23.7662
G01 X-4.3575 Y-23.7588
G01 X-4.2975 Y-23.7484
G01 X-4.2381 Y-23.7350
G01 X-4.1794 Y-23.7188
G01 X-4.1217 Y-23.6997
G01 X-4.0649 Y-23.6778
G01 X-4.0092 Y-23.6531
G01 X-3.9549 Y-23.6258
G01 X-3.9019 Y-23.5958
G01 X-3.8505 Y-23.5632
G01 X-3.8007 Y-23.5282
G01 X-3.7528 Y-23.4907
G01 X-3.7067 Y-23.4510
G01 X-3.6626 Y-23.4090
G01 X-3.6206 Y-23.3649
G01 X-3.5809 Y-23.3188
G01 X-3.5434 Y-23.2709
G01 X-3.5084 Y-23.2211
G01 X-3.4758 Y-23.1697
G01 X-3.4458 Y-23.1167
G01 X-3.4185 Y-23.0624
G01 X-3.3938 Y-23.0067
G01 X-3.3719 Y-22.9499
G01 X-3.3528 Y-22.8922
G01 X-3.3366 Y-22.8335
G01 X-3.3232 Y-22.7741
G01 X-3.3128 Y-22.7141
G01 X-3.3054 Y-22.6537
G01 X-3.3009 Y-22.5930
G01 X-3.2994 Y-22.5322
G01 X-3.3009 Y-22.4714
G01 X-3.3054 Y-22.4107
G01 X-3.3128 Y-22.3503
G01 X-3.3232 Y-22.2903
G01 X-3.3366 Y-22.2309
G01 X-3.3528 Y-22.1722
G01 X-3.3719 Y-22.1145
G01 X-3.3938 Y-22.0577
G01 X-3.4185 Y-22.0020
G01 X-3.4458 Y-21.9477
G01 X-3.4758 Y-21.8947
G01 X-3.5084 Y-21.8433
G01 X-3.5434 Y-21.7935
G01 X-3.5809 Y-21.7456
G01 X-3.6206 Y-21.6995
G01 X-3.6626 Y-21.6554
G01 X-3.7067 Y-21.6134
G01 X-3.7528 Y-21.5737
G01 X-3.8007 Y-21.5362
G01 X-3.8505 Y-21.5012
G01 X-3.9019 Y-21.4686
G01 X-3.9549 Y-21.4386
G01 X-4.0092 Y-21.4113
G01 X-4.0649 Y-21.3866
G01 X-4.1217 Y-21.3647
G01 X-4.1794 Y-21.3456
G01 X-4.2381 Y-21.3294
G01 X-4.2975 Y-21.3160
G01 X-4.3575 Y-21.3056
G01 X-4.4179 Y-21.2982
G01 X-4.4786 Y-21.2937
G01 X-4.5394 Y-21.2922
G01 X-4.6002 Y-21.2937
G01 X-4.6609 Y-21.2982
G01 X-4.7213 Y-21.3056
G01 X-4.7813 Y-21.3160
G01 X-4.8407 Y-21.3294
G01 X-4.8994 Y-21.3456
G01 X-4.9571 Y-21.3647
G01 X-5.0139 Y-21.3866
G01 X-5.0696 Y-21.4113
G01 X-5.1239 Y-21.4386
