(G-CODE GENERATED BY FLATCAM v8.993 - www.flatcam.org - Version Date: 2020/06/05)

(Name: PA6144_Ф2_низ.gbr_iso_combined2_cnc)
(Type: G-code from Geometry)
(Units: MM)

(Created on Wednesday, 06 January 2021 at 09:40)

(This preprocessor is the default preprocessor used by FlatCAM.)
(It is made to work with MACH3 compatible motion controllers.)

(TOOL DIAMETER: 2.0 mm)
(Feedrate_XY: 120.0 mm/min)
(Feedrate_Z: 70.0 mm/min)
(Feedrate rapids 1500.0 mm/min)

(Z_Cut: -1.8 mm)
(DepthPerCut: 0.1 mm <=>18 passes)
(Z_Move: 2.0 mm)
(Z Start: None mm)
(Z End: 25.0 mm)
(Steps per circle: 128)
(Preprocessor Geometry: default)

(X range:  -86.0000 ...    1.0000  mm)
(Y range:  -28.0000 ...    1.0000  mm)

(Spindle Speed: 10000 RPM)
G21
G90
G94



G01 F120.00
G00 Z2.0000

M03 S10000
G00 X1.0000 Y0.0000
G01 F70.00
G01 Z-0.1000
G01 F120.00
G01 X0.9993 Y0.0368
G01 X0.9963 Y0.0858
G01 X0.9909 Y0.1346
G01 X0.9831 Y0.1830
G01 X0.9729 Y0.2311
G01 X0.9604 Y0.2785
G01 X0.9456 Y0.3253
G01 X0.9285 Y0.3713
G01 X0.9092 Y0.4164
G01 X0.8876 Y0.4605
G01 X0.8640 Y0.5035
G01 X0.8382 Y0.5453
G01 X0.8105 Y0.5858
G01 X0.7807 Y0.6249
G01 X0.7491 Y0.6624
G01 X0.7157 Y0.6984
G01 X0.6806 Y0.7327
G01 X0.6438 Y0.7652
G01 X0.6055 Y0.7958
G01 X0.5657 Y0.8246
G01 X0.5246 Y0.8514
G01 X0.4822 Y0.8761
G01 X0.4386 Y0.8987
G01 X0.3940 Y0.9191
G01 X0.3484 Y0.9373
G01 X0.3020 Y0.9533
G01 X0.2549 Y0.9670
G01 X0.2071 Y0.9783
G01 X0.1589 Y0.9873
G01 X0.1102 Y0.9939
G01 X0.0613 Y0.9981
G01 X0.0123 Y0.9999
G01 X-85.0000 Y1.0000
G01 X-85.0368 Y0.9993
G01 X-85.0736 Y0.9973
G01 X-85.1102 Y0.9939
G01 X-85.1467 Y0.9892
G01 X-85.1830 Y0.9831
G01 X-85.2191 Y0.9757
G01 X-85.2549 Y0.9670
G01 X-85.3020 Y0.9533
G01 X-85.3369 Y0.9415
G01 X-85.3713 Y0.9285
G01 X-85.4052 Y0.9142
G01 X-85.4496 Y0.8932
G01 X-85.4822 Y0.8761
G01 X-85.5141 Y0.8577
G01 X-85.5453 Y0.8382
G01 X-85.5758 Y0.8176
G01 X-85.6152 Y0.7883
G01 X-85.6438 Y0.7652
G01 X-85.6716 Y0.7410
G01 X-85.6984 Y0.7157
G01 X-85.7242 Y0.6895
G01 X-85.7491 Y0.6624
G01 X-85.7730 Y0.6344
G01 X-85.8032 Y0.5957
G01 X-85.8246 Y0.5657
G01 X-85.8449 Y0.5350
G01 X-85.8640 Y0.5035
G01 X-85.8819 Y0.4714
G01 X-85.8987 Y0.4386
G01 X-85.9191 Y0.3940
G01 X-85.9330 Y0.3599
G01 X-85.9456 Y0.3253
G01 X-85.9569 Y0.2903
G01 X-85.9670 Y0.2549
G01 X-85.9757 Y0.2191
G01 X-85.9853 Y0.1710
G01 X-85.9909 Y0.1346
G01 X-85.9952 Y0.0980
G01 X-85.9981 Y0.0613
G01 X-85.9997 Y0.0245
G01 X-86.0000 Y-27.0000
G01 X-85.9993 Y-27.0368
G01 X-85.9973 Y-27.0736
G01 X-85.9939 Y-27.1102
G01 X-85.9892 Y-27.1467
G01 X-85.9808 Y-27.1951
G01 X-85.9729 Y-27.2311
G01 X-85.9638 Y-27.2667
G01 X-85.9533 Y-27.3020
G01 X-85.9415 Y-27.3369
G01 X-85.9285 Y-27.3713
G01 X-85.9142 Y-27.4052
G01 X-85.8987 Y-27.4386
G01 X-85.8819 Y-27.4714
G01 X-85.8577 Y-27.5141
G01 X-85.8382 Y-27.5453
G01 X-85.8176 Y-27.5758
G01 X-85.7958 Y-27.6055
G01 X-85.7730 Y-27.6344
G01 X-85.7410 Y-27.6716
G01 X-85.7157 Y-27.6984
G01 X-85.6895 Y-27.7242
G01 X-85.6624 Y-27.7491
G01 X-85.6249 Y-27.7807
G01 X-85.5957 Y-27.8032
G01 X-85.5657 Y-27.8246
G01 X-85.5350 Y-27.8449
G01 X-85.5035 Y-27.8640
G01 X-85.4605 Y-27.8876
G01 X-85.4276 Y-27.9040
G01 X-85.3940 Y-27.9191
G01 X-85.3599 Y-27.9330
G01 X-85.3253 Y-27.9456
G01 X-85.2903 Y-27.9569
G01 X-85.2549 Y-27.9670
G01 X-85.2071 Y-27.9783
G01 X-85.1710 Y-27.9853
G01 X-85.1346 Y-27.9909
G01 X-85.0858 Y-27.9963
G01 X-85.0491 Y-27.9988
G01 X-85.0123 Y-27.9999
G01 X0.0000 Y-28.0000
G01 X0.0368 Y-27.9993
G01 X0.0736 Y-27.9973
G01 X0.1102 Y-27.9939
G01 X0.1467 Y-27.9892
G01 X0.1951 Y-27.9808
G01 X0.2311 Y-27.9729
G01 X0.2667 Y-27.9638
G01 X0.3020 Y-27.9533
G01 X0.3369 Y-27.9415
G01 X0.3713 Y-27.9285
G01 X0.4164 Y-27.9092
G01 X0.4496 Y-27.8932
G01 X0.4822 Y-27.8761
G01 X0.5141 Y-27.8577
G01 X0.5453 Y-27.8382
G01 X0.5758 Y-27.8176
G01 X0.6055 Y-27.7958
G01 X0.6344 Y-27.7730
G01 X0.6624 Y-27.7491
G01 X0.6895 Y-27.7242
G01 X0.7157 Y-27.6984
G01 X0.7410 Y-27.6716
G01 X0.7730 Y-27.6344
G01 X0.7958 Y-27.6055
G01 X0.8176 Y-27.5758
G01 X0.8449 Y-27.5350
G01 X0.8640 Y-27.5035
G01 X0.8819 Y-27.4714
G01 X0.8987 Y-27.4386
G01 X0.9191 Y-27.3940
G01 X0.9330 Y-27.3599
G01 X0.9456 Y-27.3253
G01 X0.9604 Y-27.2785
G01 X0.9700 Y-27.2430
G01 X0.9783 Y-27.2071
G01 X0.9853 Y-27.1710
G01 X0.9909 Y-27.1346
G01 X0.9952 Y-27.0980
G01 X0.9981 Y-27.0613
G01 X0.9997 Y-27.0245
G01 X1.0000 Y0.0000
G00 X1.0000 Y0.0000
G01 F70.00
G01 Z-0.2000
G01 F120.00
G01 X0.9993 Y0.0368
G01 X0.9963 Y0.0858
G01 X0.9909 Y0.1346
G01 X0.9831 Y0.1830
G01 X0.9729 Y0.2311
G01 X0.9604 Y0.2785
G01 X0.9456 Y0.3253
G01 X0.9285 Y0.3713
G01 X0.9092 Y0.4164
G01 X0.8876 Y0.4605
G01 X0.8640 Y0.5035
G01 X0.8382 Y0.5453
G01 X0.8105 Y0.5858
G01 X0.7807 Y0.6249
G01 X0.7491 Y0.6624
G01 X0.7157 Y0.6984
G01 X0.6806 Y0.7327
G01 X0.6438 Y0.7652
G01 X0.6055 Y0.7958
G01 X0.5657 Y0.8246
G01 X0.5246 Y0.8514
G01 X0.4822 Y0.8761
G01 X0.4386 Y0.8987
G01 X0.3940 Y0.9191
G01 X0.3484 Y0.9373
G01 X0.3020 Y0.9533
G01 X0.2549 Y0.9670
G01 X0.2071 Y0.9783
G01 X0.1589 Y0.9873
G01 X0.1102 Y0.9939
G01 X0.0613 Y0.9981
G01 X0.0123 Y0.9999
G01 X-85.0000 Y1.0000
G01 X-85.0368 Y0.9993
G01 X-85.0736 Y0.9973
G01 X-85.1102 Y0.9939
G01 X-85.1467 Y0.9892
G01 X-85.1830 Y0.9831
G01 X-85.2191 Y0.9757
G01 X-85.2549 Y0.9670
G01 X-85.3020 Y0.9533
G01 X-85.3369 Y0.9415
G01 X-85.3713 Y0.9285
G01 X-85.4052 Y0.9142
G01 X-85.4496 Y0.8932
G01 X-85.4822 Y0.8761
G01 X-85.5141 Y0.8577
G01 X-85.5453 Y0.8382
G01 X-85.5758 Y0.8176
G01 X-85.6152 Y0.7883
G01 X-85.6438 Y0.7652
G01 X-85.6716 Y0.7410
G01 X-85.6984 Y0.7157
G01 X-85.7242 Y0.6895
G01 X-85.7491 Y0.6624
G01 X-85.7730 Y0.6344
G01 X-85.8032 Y0.5957
G01 X-85.8246 Y0.5657
G01 X-85.8449 Y0.5350
G01 X-85.8640 Y0.5035
G01 X-85.8819 Y0.4714
G01 X-85.8987 Y0.4386
G01 X-85.9191 Y0.3940
G01 X-85.9330 Y0.3599
G01 X-85.9456 Y0.3253
G01 X-85.9569 Y0.2903
G01 X-85.9670 Y0.2549
G01 X-85.9757 Y0.2191
G01 X-85.9853 Y0.1710
G01 X-85.9909 Y0.1346
G01 X-85.9952 Y0.0980
G01 X-85.9981 Y0.0613
G01 X-85.9997 Y0.0245
G01 X-86.0000 Y-27.0000
G01 X-85.9993 Y-27.0368
G01 X-85.9973 Y-27.0736
G01 X-85.9939 Y-27.1102
G01 X-85.9892 Y-27.1467
G01 X-85.9808 Y-27.1951
G01 X-85.9729 Y-27.2311
G01 X-85.9638 Y-27.2667
G01 X-85.9533 Y-27.3020
G01 X-85.9415 Y-27.3369
G01 X-85.9285 Y-27.3713
G01 X-85.9142 Y-27.4052
G01 X-85.8987 Y-27.4386
G01 X-85.8819 Y-27.4714
G01 X-85.8577 Y-27.5141
G01 X-85.8382 Y-27.5453
G01 X-85.8176 Y-27.5758
G01 X-85.7958 Y-27.6055
G01 X-85.7730 Y-27.6344
G01 X-85.7410 Y-27.6716
G01 X-85.7157 Y-27.6984
G01 X-85.6895 Y-27.7242
G01 X-85.6624 Y-27.7491
G01 X-85.6249 Y-27.7807
G01 X-85.5957 Y-27.8032
G01 X-85.5657 Y-27.8246
G01 X-85.5350 Y-27.8449
G01 X-85.5035 Y-27.8640
G01 X-85.4605 Y-27.8876
G01 X-85.4276 Y-27.9040
G01 X-85.3940 Y-27.9191
G01 X-85.3599 Y-27.9330
G01 X-85.3253 Y-27.9456
G01 X-85.2903 Y-27.9569
G01 X-85.2549 Y-27.9670
G01 X-85.2071 Y-27.9783
G01 X-85.1710 Y-27.9853
G01 X-85.1346 Y-27.9909
G01 X-85.0858 Y-27.9963
G01 X-85.0491 Y-27.9988
G01 X-85.0123 Y-27.9999
G01 X0.0000 Y-28.0000
G01 X0.0368 Y-27.9993
G01 X0.0736 Y-27.9973
G01 X0.1102 Y-27.9939
G01 X0.1467 Y-27.9892
G01 X0.1951 Y-27.9808
G01 X0.2311 Y-27.9729
G01 X0.2667 Y-27.9638
G01 X0.3020 Y-27.9533
G01 X0.3369 Y-27.9415
G01 X0.3713 Y-27.9285
G01 X0.4164 Y-27.9092
G01 X0.4496 Y-27.8932
G01 X0.4822 Y-27.8761
G01 X0.5141 Y-27.8577
G01 X0.5453 Y-27.8382
G01 X0.5758 Y-27.8176
G01 X0.6055 Y-27.7958
G01 X0.6344 Y-27.7730
G01 X0.6624 Y-27.7491
G01 X0.6895 Y-27.7242
G01 X0.7157 Y-27.6984
G01 X0.7410 Y-27.6716
G01 X0.7730 Y-27.6344
G01 X0.7958 Y-27.6055
G01 X0.8176 Y-27.5758
G01 X0.8449 Y-27.5350
G01 X0.8640 Y-27.5035
G01 X0.8819 Y-27.4714
G01 X0.8987 Y-27.4386
G01 X0.9191 Y-27.3940
G01 X0.9330 Y-27.3599
G01 X0.9456 Y-27.3253
G01 X0.9604 Y-27.2785
G01 X0.9700 Y-27.2430
G01 X0.9783 Y-27.2071
G01 X0.9853 Y-27.1710
G01 X0.9909 Y-27.1346
G01 X0.9952 Y-27.0980
G01 X0.9981 Y-27.0613
G01 X0.9997 Y-27.0245
G01 X1.0000 Y0.0000
G00 X1.0000 Y0.0000
G01 F70.00
G01 Z-0.3000
G01 F120.00
G01 X0.9993 Y0.0368
G01 X0.9963 Y0.0858
G01 X0.9909 Y0.1346
G01 X0.9831 Y0.1830
G01 X0.9729 Y0.2311
G01 X0.9604 Y0.2785
G01 X0.9456 Y0.3253
G01 X0.9285 Y0.3713
G01 X0.9092 Y0.4164
G01 X0.8876 Y0.4605
G01 X0.8640 Y0.5035
G01 X0.8382 Y0.5453
G01 X0.8105 Y0.5858
G01 X0.7807 Y0.6249
G01 X0.7491 Y0.6624
G01 X0.7157 Y0.6984
G01 X0.6806 Y0.7327
G01 X0.6438 Y0.7652
G01 X0.6055 Y0.7958
G01 X0.5657 Y0.8246
G01 X0.5246 Y0.8514
G01 X0.4822 Y0.8761
G01 X0.4386 Y0.8987
G01 X0.3940 Y0.9191
G01 X0.3484 Y0.9373
G01 X0.3020 Y0.9533
G01 X0.2549 Y0.9670
G01 X0.2071 Y0.9783
G01 X0.1589 Y0.9873
G01 X0.1102 Y0.9939
G01 X0.0613 Y0.9981
G01 X0.0123 Y0.9999
G01 X-85.0000 Y1.0000
G01 X-85.0368 Y0.9993
G01 X-85.0736 Y0.9973
G01 X-85.1102 Y0.9939
G01 X-85.1467 Y0.9892
G01 X-85.1830 Y0.9831
G01 X-85.2191 Y0.9757
G01 X-85.2549 Y0.9670
G01 X-85.3020 Y0.9533
G01 X-85.3369 Y0.9415
G01 X-85.3713 Y0.9285
G01 X-85.4052 Y0.9142
G01 X-85.4496 Y0.8932
G01 X-85.4822 Y0.8761
G01 X-85.5141 Y0.8577
G01 X-85.5453 Y0.8382
G01 X-85.5758 Y0.8176
G01 X-85.6152 Y0.7883
G01 X-85.6438 Y0.7652
G01 X-85.6716 Y0.7410
G01 X-85.6984 Y0.7157
G01 X-85.7242 Y0.6895
G01 X-85.7491 Y0.6624
G01 X-85.7730 Y0.6344
G01 X-85.8032 Y0.5957
G01 X-85.8246 Y0.5657
G01 X-85.8449 Y0.5350
G01 X-85.8640 Y0.5035
G01 X-85.8819 Y0.4714
G01 X-85.8987 Y0.4386
G01 X-85.9191 Y0.3940
G01 X-85.9330 Y0.3599
G01 X-85.9456 Y0.3253
G01 X-85.9569 Y0.2903
G01 X-85.9670 Y0.2549
G01 X-85.9757 Y0.2191
G01 X-85.9853 Y0.1710
G01 X-85.9909 Y0.1346
G01 X-85.9952 Y0.0980
G01 X-85.9981 Y0.0613
G01 X-85.9997 Y0.0245
G01 X-86.0000 Y-27.0000
G01 X-85.9993 Y-27.0368
G01 X-85.9973 Y-27.0736
G01 X-85.9939 Y-27.1102
G01 X-85.9892 Y-27.1467
G01 X-85.9808 Y-27.1951
G01 X-85.9729 Y-27.2311
G01 X-85.9638 Y-27.2667
G01 X-85.9533 Y-27.3020
G01 X-85.9415 Y-27.3369
G01 X-85.9285 Y-27.3713
G01 X-85.9142 Y-27.4052
G01 X-85.8987 Y-27.4386
G01 X-85.8819 Y-27.4714
G01 X-85.8577 Y-27.5141
G01 X-85.8382 Y-27.5453
G01 X-85.8176 Y-27.5758
G01 X-85.7958 Y-27.6055
G01 X-85.7730 Y-27.6344
G01 X-85.7410 Y-27.6716
G01 X-85.7157 Y-27.6984
G01 X-85.6895 Y-27.7242
G01 X-85.6624 Y-27.7491
G01 X-85.6249 Y-27.7807
G01 X-85.5957 Y-27.8032
G01 X-85.5657 Y-27.8246
G01 X-85.5350 Y-27.8449
G01 X-85.5035 Y-27.8640
G01 X-85.4605 Y-27.8876
G01 X-85.4276 Y-27.9040
G01 X-85.3940 Y-27.9191
G01 X-85.3599 Y-27.9330
G01 X-85.3253 Y-27.9456
G01 X-85.2903 Y-27.9569
G01 X-85.2549 Y-27.9670
G01 X-85.2071 Y-27.9783
G01 X-85.1710 Y-27.9853
G01 X-85.1346 Y-27.9909
G01 X-85.0858 Y-27.9963
G01 X-85.0491 Y-27.9988
G01 X-85.0123 Y-27.9999
G01 X0.0000 Y-28.0000
G01 X0.0368 Y-27.9993
G01 X0.0736 Y-27.9973
G01 X0.1102 Y-27.9939
G01 X0.1467 Y-27.9892
G01 X0.1951 Y-27.9808
G01 X0.2311 Y-27.9729
G01 X0.2667 Y-27.9638
G01 X0.3020 Y-27.9533
G01 X0.3369 Y-27.9415
G01 X0.3713 Y-27.9285
G01 X0.4164 Y-27.9092
G01 X0.4496 Y-27.8932
G01 X0.4822 Y-27.8761
G01 X0.5141 Y-27.8577
G01 X0.5453 Y-27.8382
G01 X0.5758 Y-27.8176
G01 X0.6055 Y-27.7958
G01 X0.6344 Y-27.7730
G01 X0.6624 Y-27.7491
G01 X0.6895 Y-27.7242
G01 X0.7157 Y-27.6984
G01 X0.7410 Y-27.6716
G01 X0.7730 Y-27.6344
G01 X0.7958 Y-27.6055
G01 X0.8176 Y-27.5758
G01 X0.8449 Y-27.5350
G01 X0.8640 Y-27.5035
G01 X0.8819 Y-27.4714
G01 X0.8987 Y-27.4386
G01 X0.9191 Y-27.3940
G01 X0.9330 Y-27.3599
G01 X0.9456 Y-27.3253
G01 X0.9604 Y-27.2785
G01 X0.9700 Y-27.2430
G01 X0.9783 Y-27.2071
G01 X0.9853 Y-27.1710
G01 X0.9909 Y-27.1346
G01 X0.9952 Y-27.0980
G01 X0.9981 Y-27.0613
G01 X0.9997 Y-27.0245
G01 X1.0000 Y0.0000
G00 X1.0000 Y0.0000
G01 F70.00
G01 Z-0.4000
G01 F120.00
G01 X0.9993 Y0.0368
G01 X0.9963 Y0.0858
G01 X0.9909 Y0.1346
G01 X0.9831 Y0.1830
G01 X0.9729 Y0.2311
G01 X0.9604 Y0.2785
G01 X0.9456 Y0.3253
G01 X0.9285 Y0.3713
G01 X0.9092 Y0.4164
G01 X0.8876 Y0.4605
G01 X0.8640 Y0.5035
G01 X0.8382 Y0.5453
G01 X0.8105 Y0.5858
G01 X0.7807 Y0.6249
G01 X0.7491 Y0.6624
G01 X0.7157 Y0.6984
G01 X0.6806 Y0.7327
G01 X0.6438 Y0.7652
G01 X0.6055 Y0.7958
G01 X0.5657 Y0.8246
G01 X0.5246 Y0.8514
G01 X0.4822 Y0.8761
G01 X0.4386 Y0.8987
G01 X0.3940 Y0.9191
G01 X0.3484 Y0.9373
G01 X0.3020 Y0.9533
G01 X0.2549 Y0.9670
G01 X0.2071 Y0.9783
G01 X0.1589 Y0.9873
G01 X0.1102 Y0.9939
G01 X0.0613 Y0.9981
G01 X0.0123 Y0.9999
G01 X-85.0000 Y1.0000
G01 X-85.0368 Y0.9993
G01 X-85.0736 Y0.9973
G01 X-85.1102 Y0.9939
G01 X-85.1467 Y0.9892
G01 X-85.1830 Y0.9831
G01 X-85.2191 Y0.9757
G01 X-85.2549 Y0.9670
G01 X-85.3020 Y0.9533
G01 X-85.3369 Y0.9415
G01 X-85.3713 Y0.9285
G01 X-85.4052 Y0.9142
G01 X-85.4496 Y0.8932
G01 X-85.4822 Y0.8761
G01 X-85.5141 Y0.8577
G01 X-85.5453 Y0.8382
G01 X-85.5758 Y0.8176
G01 X-85.6152 Y0.7883
G01 X-85.6438 Y0.7652
G01 X-85.6716 Y0.7410
G01 X-85.6984 Y0.7157
G01 X-85.7242 Y0.6895
G01 X-85.7491 Y0.6624
G01 X-85.7730 Y0.6344
G01 X-85.8032 Y0.5957
G01 X-85.8246 Y0.5657
G01 X-85.8449 Y0.5350
G01 X-85.8640 Y0.5035
G01 X-85.8819 Y0.4714
G01 X-85.8987 Y0.4386
G01 X-85.9191 Y0.3940
G01 X-85.9330 Y0.3599
G01 X-85.9456 Y0.3253
G01 X-85.9569 Y0.2903
G01 X-85.9670 Y0.2549
G01 X-85.9757 Y0.2191
G01 X-85.9853 Y0.1710
G01 X-85.9909 Y0.1346
G01 X-85.9952 Y0.0980
G01 X-85.9981 Y0.0613
G01 X-85.9997 Y0.0245
G01 X-86.0000 Y-27.0000
G01 X-85.9993 Y-27.0368
G01 X-85.9973 Y-27.0736
G01 X-85.9939 Y-27.1102
G01 X-85.9892 Y-27.1467
G01 X-85.9808 Y-27.1951
G01 X-85.9729 Y-27.2311
G01 X-85.9638 Y-27.2667
G01 X-85.9533 Y-27.3020
G01 X-85.9415 Y-27.3369
G01 X-85.9285 Y-27.3713
G01 X-85.9142 Y-27.4052
G01 X-85.8987 Y-27.4386
G01 X-85.8819 Y-27.4714
G01 X-85.8577 Y-27.5141
G01 X-85.8382 Y-27.5453
G01 X-85.8176 Y-27.5758
G01 X-85.7958 Y-27.6055
G01 X-85.7730 Y-27.6344
G01 X-85.7410 Y-27.6716
G01 X-85.7157 Y-27.6984
G01 X-85.6895 Y-27.7242
G01 X-85.6624 Y-27.7491
G01 X-85.6249 Y-27.7807
G01 X-85.5957 Y-27.8032
G01 X-85.5657 Y-27.8246
G01 X-85.5350 Y-27.8449
G01 X-85.5035 Y-27.8640
G01 X-85.4605 Y-27.8876
G01 X-85.4276 Y-27.9040
G01 X-85.3940 Y-27.9191
G01 X-85.3599 Y-27.9330
G01 X-85.3253 Y-27.9456
G01 X-85.2903 Y-27.9569
G01 X-85.2549 Y-27.9670
G01 X-85.2071 Y-27.9783
G01 X-85.1710 Y-27.9853
G01 X-85.1346 Y-27.9909
G01 X-85.0858 Y-27.9963
G01 X-85.0491 Y-27.9988
G01 X-85.0123 Y-27.9999
G01 X0.0000 Y-28.0000
G01 X0.0368 Y-27.9993
G01 X0.0736 Y-27.9973
G01 X0.1102 Y-27.9939
G01 X0.1467 Y-27.9892
G01 X0.1951 Y-27.9808
G01 X0.2311 Y-27.9729
G01 X0.2667 Y-27.9638
G01 X0.3020 Y-27.9533
G01 X0.3369 Y-27.9415
G01 X0.3713 Y-27.9285
G01 X0.4164 Y-27.9092
G01 X0.4496 Y-27.8932
G01 X0.4822 Y-27.8761
G01 X0.5141 Y-27.8577
G01 X0.5453 Y-27.8382
G01 X0.5758 Y-27.8176
G01 X0.6055 Y-27.7958
G01 X0.6344 Y-27.7730
G01 X0.6624 Y-27.7491
G01 X0.6895 Y-27.7242
G01 X0.7157 Y-27.6984
G01 X0.7410 Y-27.6716
G01 X0.7730 Y-27.6344
G01 X0.7958 Y-27.6055
G01 X0.8176 Y-27.5758
G01 X0.8449 Y-27.5350
G01 X0.8640 Y-27.5035
G01 X0.8819 Y-27.4714
G01 X0.8987 Y-27.4386
G01 X0.9191 Y-27.3940
G01 X0.9330 Y-27.3599
G01 X0.9456 Y-27.3253
G01 X0.9604 Y-27.2785
G01 X0.9700 Y-27.2430
G01 X0.9783 Y-27.2071
G01 X0.9853 Y-27.1710
G01 X0.9909 Y-27.1346
G01 X0.9952 Y-27.0980
G01 X0.9981 Y-27.0613
G01 X0.9997 Y-27.0245
G01 X1.0000 Y0.0000
G00 X1.0000 Y0.0000
G01 F70.00
G01 Z-0.5000
G01 F120.00
G01 X0.9993 Y0.0368
G01 X0.9963 Y0.0858
G01 X0.9909 Y0.1346
G01 X0.9831 Y0.1830
G01 X0.9729 Y0.2311
G01 X0.9604 Y0.2785
G01 X0.9456 Y0.3253
G01 X0.9285 Y0.3713
G01 X0.9092 Y0.4164
G01 X0.8876 Y0.4605
G01 X0.8640 Y0.5035
G01 X0.8382 Y0.5453
G01 X0.8105 Y0.5858
G01 X0.7807 Y0.6249
G01 X0.7491 Y0.6624
G01 X0.7157 Y0.6984
G01 X0.6806 Y0.7327
G01 X0.6438 Y0.7652
G01 X0.6055 Y0.7958
G01 X0.5657 Y0.8246
G01 X0.5246 Y0.8514
G01 X0.4822 Y0.8761
G01 X0.4386 Y0.8987
G01 X0.3940 Y0.9191
G01 X0.3484 Y0.9373
G01 X0.3020 Y0.9533
G01 X0.2549 Y0.9670
G01 X0.2071 Y0.9783
G01 X0.1589 Y0.9873
G01 X0.1102 Y0.9939
G01 X0.0613 Y0.9981
G01 X0.0123 Y0.9999
G01 X-85.0000 Y1.0000
G01 X-85.0368 Y0.9993
G01 X-85.0736 Y0.9973
G01 X-85.1102 Y0.9939
G01 X-85.1467 Y0.9892
G01 X-85.1830 Y0.9831
G01 X-85.2191 Y0.9757
G01 X-85.2549 Y0.9670
G01 X-85.3020 Y0.9533
G01 X-85.3369 Y0.9415
G01 X-85.3713 Y0.9285
G01 X-85.4052 Y0.9142
G01 X-85.4496 Y0.8932
G01 X-85.4822 Y0.8761
G01 X-85.5141 Y0.8577
G01 X-85.5453 Y0.8382
G01 X-85.5758 Y0.8176
G01 X-85.6152 Y0.7883
G01 X-85.6438 Y0.7652
G01 X-85.6716 Y0.7410
G01 X-85.6984 Y0.7157
G01 X-85.7242 Y0.6895
G01 X-85.7491 Y0.6624
G01 X-85.7730 Y0.6344
G01 X-85.8032 Y0.5957
G01 X-85.8246 Y0.5657
G01 X-85.8449 Y0.5350
G01 X-85.8640 Y0.5035
G01 X-85.8819 Y0.4714
G01 X-85.8987 Y0.4386
G01 X-85.9191 Y0.3940
G01 X-85.9330 Y0.3599
G01 X-85.9456 Y0.3253
G01 X-85.9569 Y0.2903
G01 X-85.9670 Y0.2549
G01 X-85.9757 Y0.2191
G01 X-85.9853 Y0.1710
G01 X-85.9909 Y0.1346
G01 X-85.9952 Y0.0980
G01 X-85.9981 Y0.0613
G01 X-85.9997 Y0.0245
G01 X-86.0000 Y-27.0000
G01 X-85.9993 Y-27.0368
G01 X-85.9973 Y-27.0736
G01 X-85.9939 Y-27.1102
G01 X-85.9892 Y-27.1467
G01 X-85.9808 Y-27.1951
G01 X-85.9729 Y-27.2311
G01 X-85.9638 Y-27.2667
G01 X-85.9533 Y-27.3020
G01 X-85.9415 Y-27.3369
G01 X-85.9285 Y-27.3713
G01 X-85.9142 Y-27.4052
G01 X-85.8987 Y-27.4386
G01 X-85.8819 Y-27.4714
G01 X-85.8577 Y-27.5141
G01 X-85.8382 Y-27.5453
G01 X-85.8176 Y-27.5758
G01 X-85.7958 Y-27.6055
G01 X-85.7730 Y-27.6344
G01 X-85.7410 Y-27.6716
G01 X-85.7157 Y-27.6984
G01 X-85.6895 Y-27.7242
G01 X-85.6624 Y-27.7491
G01 X-85.6249 Y-27.7807
G01 X-85.5957 Y-27.8032
G01 X-85.5657 Y-27.8246
G01 X-85.5350 Y-27.8449
G01 X-85.5035 Y-27.8640
G01 X-85.4605 Y-27.8876
G01 X-85.4276 Y-27.9040
G01 X-85.3940 Y-27.9191
G01 X-85.3599 Y-27.9330
G01 X-85.3253 Y-27.9456
G01 X-85.2903 Y-27.9569
G01 X-85.2549 Y-27.9670
G01 X-85.2071 Y-27.9783
G01 X-85.1710 Y-27.9853
G01 X-85.1346 Y-27.9909
G01 X-85.0858 Y-27.9963
G01 X-85.0491 Y-27.9988
G01 X-85.0123 Y-27.9999
G01 X0.0000 Y-28.0000
G01 X0.0368 Y-27.9993
G01 X0.0736 Y-27.9973
G01 X0.1102 Y-27.9939
G01 X0.1467 Y-27.9892
G01 X0.1951 Y-27.9808
G01 X0.2311 Y-27.9729
G01 X0.2667 Y-27.9638
G01 X0.3020 Y-27.9533
G01 X0.3369 Y-27.9415
G01 X0.3713 Y-27.9285
G01 X0.4164 Y-27.9092
G01 X0.4496 Y-27.8932
G01 X0.4822 Y-27.8761
G01 X0.5141 Y-27.8577
G01 X0.5453 Y-27.8382
G01 X0.5758 Y-27.8176
G01 X0.6055 Y-27.7958
G01 X0.6344 Y-27.7730
G01 X0.6624 Y-27.7491
G01 X0.6895 Y-27.7242
G01 X0.7157 Y-27.6984
G01 X0.7410 Y-27.6716
G01 X0.7730 Y-27.6344
G01 X0.7958 Y-27.6055
G01 X0.8176 Y-27.5758
G01 X0.8449 Y-27.5350
G01 X0.8640 Y-27.5035
G01 X0.8819 Y-27.4714
G01 X0.8987 Y-27.4386
G01 X0.9191 Y-27.3940
G01 X0.9330 Y-27.3599
G01 X0.9456 Y-27.3253
G01 X0.9604 Y-27.2785
G01 X0.9700 Y-27.2430
G01 X0.9783 Y-27.2071
G01 X0.9853 Y-27.1710
G01 X0.9909 Y-27.1346
G01 X0.9952 Y-27.0980
G01 X0.9981 Y-27.0613
G01 X0.9997 Y-27.0245
G01 X1.0000 Y0.0000
G00 X1.0000 Y0.0000
G01 F70.00
G01 Z-0.6000
G01 F120.00
G01 X0.9993 Y0.0368
G01 X0.9963 Y0.0858
G01 X0.9909 Y0.1346
G01 X0.9831 Y0.1830
G01 X0.9729 Y0.2311
G01 X0.9604 Y0.2785
G01 X0.9456 Y0.3253
G01 X0.9285 Y0.3713
G01 X0.9092 Y0.4164
G01 X0.8876 Y0.4605
G01 X0.8640 Y0.5035
G01 X0.8382 Y0.5453
G01 X0.8105 Y0.5858
G01 X0.7807 Y0.6249
G01 X0.7491 Y0.6624
G01 X0.7157 Y0.6984
G01 X0.6806 Y0.7327
G01 X0.6438 Y0.7652
G01 X0.6055 Y0.7958
G01 X0.5657 Y0.8246
G01 X0.5246 Y0.8514
G01 X0.4822 Y0.8761
G01 X0.4386 Y0.8987
G01 X0.3940 Y0.9191
G01 X0.3484 Y0.9373
G01 X0.3020 Y0.9533
G01 X0.2549 Y0.9670
G01 X0.2071 Y0.9783
G01 X0.1589 Y0.9873
G01 X0.1102 Y0.9939
G01 X0.0613 Y0.9981
G01 X0.0123 Y0.9999
G01 X-85.0000 Y1.0000
G01 X-85.0368 Y0.9993
G01 X-85.0736 Y0.9973
G01 X-85.1102 Y0.9939
G01 X-85.1467 Y0.9892
G01 X-85.1830 Y0.9831
G01 X-85.2191 Y0.9757
G01 X-85.2549 Y0.9670
G01 X-85.3020 Y0.9533
G01 X-85.3369 Y0.9415
G01 X-85.3713 Y0.9285
G01 X-85.4052 Y0.9142
G01 X-85.4496 Y0.8932
G01 X-85.4822 Y0.8761
G01 X-85.5141 Y0.8577
G01 X-85.5453 Y0.8382
G01 X-85.5758 Y0.8176
G01 X-85.6152 Y0.7883
G01 X-85.6438 Y0.7652
G01 X-85.6716 Y0.7410
G01 X-85.6984 Y0.7157
G01 X-85.7242 Y0.6895
G01 X-85.7491 Y0.6624
G01 X-85.7730 Y0.6344
G01 X-85.8032 Y0.5957
G01 X-85.8246 Y0.5657
G01 X-85.8449 Y0.5350
G01 X-85.8640 Y0.5035
G01 X-85.8819 Y0.4714
G01 X-85.8987 Y0.4386
G01 X-85.9191 Y0.3940
G01 X-85.9330 Y0.3599
G01 X-85.9456 Y0.3253
G01 X-85.9569 Y0.2903
G01 X-85.9670 Y0.2549
G01 X-85.9757 Y0.2191
G01 X-85.9853 Y0.1710
G01 X-85.9909 Y0.1346
G01 X-85.9952 Y0.0980
G01 X-85.9981 Y0.0613
G01 X-85.9997 Y0.0245
G01 X-86.0000 Y-27.0000
G01 X-85.9993 Y-27.0368
G01 X-85.9973 Y-27.0736
G01 X-85.9939 Y-27.1102
G01 X-85.9892 Y-27.1467
G01 X-85.9808 Y-27.1951
G01 X-85.9729 Y-27.2311
G01 X-85.9638 Y-27.2667
G01 X-85.9533 Y-27.3020
G01 X-85.9415 Y-27.3369
G01 X-85.9285 Y-27.3713
G01 X-85.9142 Y-27.4052
G01 X-85.8987 Y-27.4386
G01 X-85.8819 Y-27.4714
G01 X-85.8577 Y-27.5141
G01 X-85.8382 Y-27.5453
G01 X-85.8176 Y-27.5758
G01 X-85.7958 Y-27.6055
G01 X-85.7730 Y-27.6344
G01 X-85.7410 Y-27.6716
G01 X-85.7157 Y-27.6984
G01 X-85.6895 Y-27.7242
G01 X-85.6624 Y-27.7491
G01 X-85.6249 Y-27.7807
G01 X-85.5957 Y-27.8032
G01 X-85.5657 Y-27.8246
G01 X-85.5350 Y-27.8449
G01 X-85.5035 Y-27.8640
G01 X-85.4605 Y-27.8876
G01 X-85.4276 Y-27.9040
G01 X-85.3940 Y-27.9191
G01 X-85.3599 Y-27.9330
G01 X-85.3253 Y-27.9456
G01 X-85.2903 Y-27.9569
G01 X-85.2549 Y-27.9670
G01 X-85.2071 Y-27.9783
G01 X-85.1710 Y-27.9853
G01 X-85.1346 Y-27.9909
G01 X-85.0858 Y-27.9963
G01 X-85.0491 Y-27.9988
G01 X-85.0123 Y-27.9999
G01 X0.0000 Y-28.0000
G01 X0.0368 Y-27.9993
G01 X0.0736 Y-27.9973
G01 X0.1102 Y-27.9939
G01 X0.1467 Y-27.9892
G01 X0.1951 Y-27.9808
G01 X0.2311 Y-27.9729
G01 X0.2667 Y-27.9638
G01 X0.3020 Y-27.9533
G01 X0.3369 Y-27.9415
G01 X0.3713 Y-27.9285
G01 X0.4164 Y-27.9092
G01 X0.4496 Y-27.8932
G01 X0.4822 Y-27.8761
G01 X0.5141 Y-27.8577
G01 X0.5453 Y-27.8382
G01 X0.5758 Y-27.8176
G01 X0.6055 Y-27.7958
G01 X0.6344 Y-27.7730
G01 X0.6624 Y-27.7491
G01 X0.6895 Y-27.7242
G01 X0.7157 Y-27.6984
G01 X0.7410 Y-27.6716
G01 X0.7730 Y-27.6344
G01 X0.7958 Y-27.6055
G01 X0.8176 Y-27.5758
G01 X0.8449 Y-27.5350
G01 X0.8640 Y-27.5035
G01 X0.8819 Y-27.4714
G01 X0.8987 Y-27.4386
G01 X0.9191 Y-27.3940
G01 X0.9330 Y-27.3599
G01 X0.9456 Y-27.3253
G01 X0.9604 Y-27.2785
G01 X0.9700 Y-27.2430
G01 X0.9783 Y-27.2071
G01 X0.9853 Y-27.1710
G01 X0.9909 Y-27.1346
G01 X0.9952 Y-27.0980
G01 X0.9981 Y-27.0613
G01 X0.9997 Y-27.0245
G01 X1.0000 Y0.0000
G00 X1.0000 Y0.0000
G01 F70.00
G01 Z-0.7000
G01 F120.00
G01 X0.9993 Y0.0368
G01 X0.9963 Y0.0858
G01 X0.9909 Y0.1346
G01 X0.9831 Y0.1830
G01 X0.9729 Y0.2311
G01 X0.9604 Y0.2785
G01 X0.9456 Y0.3253
G01 X0.9285 Y0.3713
G01 X0.9092 Y0.4164
G01 X0.8876 Y0.4605
G01 X0.8640 Y0.5035
G01 X0.8382 Y0.5453
G01 X0.8105 Y0.5858
G01 X0.7807 Y0.6249
G01 X0.7491 Y0.6624
G01 X0.7157 Y0.6984
G01 X0.6806 Y0.7327
G01 X0.6438 Y0.7652
G01 X0.6055 Y0.7958
G01 X0.5657 Y0.8246
G01 X0.5246 Y0.8514
G01 X0.4822 Y0.8761
G01 X0.4386 Y0.8987
G01 X0.3940 Y0.9191
G01 X0.3484 Y0.9373
G01 X0.3020 Y0.9533
G01 X0.2549 Y0.9670
G01 X0.2071 Y0.9783
G01 X0.1589 Y0.9873
G01 X0.1102 Y0.9939
G01 X0.0613 Y0.9981
G01 X0.0123 Y0.9999
G01 X-85.0000 Y1.0000
G01 X-85.0368 Y0.9993
G01 X-85.0736 Y0.9973
G01 X-85.1102 Y0.9939
G01 X-85.1467 Y0.9892
G01 X-85.1830 Y0.9831
G01 X-85.2191 Y0.9757
G01 X-85.2549 Y0.9670
G01 X-85.3020 Y0.9533
G01 X-85.3369 Y0.9415
G01 X-85.3713 Y0.9285
G01 X-85.4052 Y0.9142
G01 X-85.4496 Y0.8932
G01 X-85.4822 Y0.8761
G01 X-85.5141 Y0.8577
G01 X-85.5453 Y0.8382
G01 X-85.5758 Y0.8176
G01 X-85.6152 Y0.7883
G01 X-85.6438 Y0.7652
G01 X-85.6716 Y0.7410
G01 X-85.6984 Y0.7157
G01 X-85.7242 Y0.6895
G01 X-85.7491 Y0.6624
G01 X-85.7730 Y0.6344
G01 X-85.8032 Y0.5957
G01 X-85.8246 Y0.5657
G01 X-85.8449 Y0.5350
G01 X-85.8640 Y0.5035
G01 X-85.8819 Y0.4714
G01 X-85.8987 Y0.4386
G01 X-85.9191 Y0.3940
G01 X-85.9330 Y0.3599
G01 X-85.9456 Y0.3253
G01 X-85.9569 Y0.2903
G01 X-85.9670 Y0.2549
G01 X-85.9757 Y0.2191
G01 X-85.9853 Y0.1710
G01 X-85.9909 Y0.1346
G01 X-85.9952 Y0.0980
G01 X-85.9981 Y0.0613
G01 X-85.9997 Y0.0245
G01 X-86.0000 Y-27.0000
G01 X-85.9993 Y-27.0368
G01 X-85.9973 Y-27.0736
G01 X-85.9939 Y-27.1102
G01 X-85.9892 Y-27.1467
G01 X-85.9808 Y-27.1951
G01 X-85.9729 Y-27.2311
G01 X-85.9638 Y-27.2667
G01 X-85.9533 Y-27.3020
G01 X-85.9415 Y-27.3369
G01 X-85.9285 Y-27.3713
G01 X-85.9142 Y-27.4052
G01 X-85.8987 Y-27.4386
G01 X-85.8819 Y-27.4714
G01 X-85.8577 Y-27.5141
G01 X-85.8382 Y-27.5453
G01 X-85.8176 Y-27.5758
G01 X-85.7958 Y-27.6055
G01 X-85.7730 Y-27.6344
G01 X-85.7410 Y-27.6716
G01 X-85.7157 Y-27.6984
G01 X-85.6895 Y-27.7242
G01 X-85.6624 Y-27.7491
G01 X-85.6249 Y-27.7807
G01 X-85.5957 Y-27.8032
G01 X-85.5657 Y-27.8246
G01 X-85.5350 Y-27.8449
G01 X-85.5035 Y-27.8640
G01 X-85.4605 Y-27.8876
G01 X-85.4276 Y-27.9040
G01 X-85.3940 Y-27.9191
G01 X-85.3599 Y-27.9330
G01 X-85.3253 Y-27.9456
G01 X-85.2903 Y-27.9569
G01 X-85.2549 Y-27.9670
G01 X-85.2071 Y-27.9783
G01 X-85.1710 Y-27.9853
G01 X-85.1346 Y-27.9909
G01 X-85.0858 Y-27.9963
G01 X-85.0491 Y-27.9988
G01 X-85.0123 Y-27.9999
G01 X0.0000 Y-28.0000
G01 X0.0368 Y-27.9993
G01 X0.0736 Y-27.9973
G01 X0.1102 Y-27.9939
G01 X0.1467 Y-27.9892
G01 X0.1951 Y-27.9808
G01 X0.2311 Y-27.9729
G01 X0.2667 Y-27.9638
G01 X0.3020 Y-27.9533
G01 X0.3369 Y-27.9415
G01 X0.3713 Y-27.9285
G01 X0.4164 Y-27.9092
G01 X0.4496 Y-27.8932
G01 X0.4822 Y-27.8761
G01 X0.5141 Y-27.8577
G01 X0.5453 Y-27.8382
G01 X0.5758 Y-27.8176
G01 X0.6055 Y-27.7958
G01 X0.6344 Y-27.7730
G01 X0.6624 Y-27.7491
G01 X0.6895 Y-27.7242
G01 X0.7157 Y-27.6984
G01 X0.7410 Y-27.6716
G01 X0.7730 Y-27.6344
G01 X0.7958 Y-27.6055
G01 X0.8176 Y-27.5758
G01 X0.8449 Y-27.5350
G01 X0.8640 Y-27.5035
G01 X0.8819 Y-27.4714
G01 X0.8987 Y-27.4386
G01 X0.9191 Y-27.3940
G01 X0.9330 Y-27.3599
G01 X0.9456 Y-27.3253
G01 X0.9604 Y-27.2785
G01 X0.9700 Y-27.2430
G01 X0.9783 Y-27.2071
G01 X0.9853 Y-27.1710
G01 X0.9909 Y-27.1346
G01 X0.9952 Y-27.0980
G01 X0.9981 Y-27.0613
G01 X0.9997 Y-27.0245
G01 X1.0000 Y0.0000
G00 X1.0000 Y0.0000
G01 F70.00
G01 Z-0.8000
G01 F120.00
G01 X0.9993 Y0.0368
G01 X0.9963 Y0.0858
G01 X0.9909 Y0.1346
G01 X0.9831 Y0.1830
G01 X0.9729 Y0.2311
G01 X0.9604 Y0.2785
G01 X0.9456 Y0.3253
G01 X0.9285 Y0.3713
G01 X0.9092 Y0.4164
G01 X0.8876 Y0.4605
G01 X0.8640 Y0.5035
G01 X0.8382 Y0.5453
G01 X0.8105 Y0.5858
G01 X0.7807 Y0.6249
G01 X0.7491 Y0.6624
G01 X0.7157 Y0.6984
G01 X0.6806 Y0.7327
G01 X0.6438 Y0.7652
G01 X0.6055 Y0.7958
G01 X0.5657 Y0.8246
G01 X0.5246 Y0.8514
G01 X0.4822 Y0.8761
G01 X0.4386 Y0.8987
G01 X0.3940 Y0.9191
G01 X0.3484 Y0.9373
G01 X0.3020 Y0.9533
G01 X0.2549 Y0.9670
G01 X0.2071 Y0.9783
G01 X0.1589 Y0.9873
G01 X0.1102 Y0.9939
G01 X0.0613 Y0.9981
G01 X0.0123 Y0.9999
G01 X-85.0000 Y1.0000
G01 X-85.0368 Y0.9993
G01 X-85.0736 Y0.9973
G01 X-85.1102 Y0.9939
G01 X-85.1467 Y0.9892
G01 X-85.1830 Y0.9831
G01 X-85.2191 Y0.9757
G01 X-85.2549 Y0.9670
G01 X-85.3020 Y0.9533
G01 X-85.3369 Y0.9415
G01 X-85.3713 Y0.9285
G01 X-85.4052 Y0.9142
G01 X-85.4496 Y0.8932
G01 X-85.4822 Y0.8761
G01 X-85.5141 Y0.8577
G01 X-85.5453 Y0.8382
G01 X-85.5758 Y0.8176
G01 X-85.6152 Y0.7883
G01 X-85.6438 Y0.7652
G01 X-85.6716 Y0.7410
G01 X-85.6984 Y0.7157
G01 X-85.7242 Y0.6895
G01 X-85.7491 Y0.6624
G01 X-85.7730 Y0.6344
G01 X-85.8032 Y0.5957
G01 X-85.8246 Y0.5657
G01 X-85.8449 Y0.5350
G01 X-85.8640 Y0.5035
G01 X-85.8819 Y0.4714
G01 X-85.8987 Y0.4386
G01 X-85.9191 Y0.3940
G01 X-85.9330 Y0.3599
G01 X-85.9456 Y0.3253
G01 X-85.9569 Y0.2903
G01 X-85.9670 Y0.2549
G01 X-85.9757 Y0.2191
G01 X-85.9853 Y0.1710
G01 X-85.9909 Y0.1346
G01 X-85.9952 Y0.0980
G01 X-85.9981 Y0.0613
G01 X-85.9997 Y0.0245
G01 X-86.0000 Y-27.0000
G01 X-85.9993 Y-27.0368
G01 X-85.9973 Y-27.0736
G01 X-85.9939 Y-27.1102
G01 X-85.9892 Y-27.1467
G01 X-85.9808 Y-27.1951
G01 X-85.9729 Y-27.2311
G01 X-85.9638 Y-27.2667
G01 X-85.9533 Y-27.3020
G01 X-85.9415 Y-27.3369
G01 X-85.9285 Y-27.3713
G01 X-85.9142 Y-27.4052
G01 X-85.8987 Y-27.4386
G01 X-85.8819 Y-27.4714
G01 X-85.8577 Y-27.5141
G01 X-85.8382 Y-27.5453
G01 X-85.8176 Y-27.5758
G01 X-85.7958 Y-27.6055
G01 X-85.7730 Y-27.6344
G01 X-85.7410 Y-27.6716
G01 X-85.7157 Y-27.6984
G01 X-85.6895 Y-27.7242
G01 X-85.6624 Y-27.7491
G01 X-85.6249 Y-27.7807
G01 X-85.5957 Y-27.8032
G01 X-85.5657 Y-27.8246
G01 X-85.5350 Y-27.8449
G01 X-85.5035 Y-27.8640
G01 X-85.4605 Y-27.8876
G01 X-85.4276 Y-27.9040
G01 X-85.3940 Y-27.9191
G01 X-85.3599 Y-27.9330
G01 X-85.3253 Y-27.9456
G01 X-85.2903 Y-27.9569
G01 X-85.2549 Y-27.9670
G01 X-85.2071 Y-27.9783
G01 X-85.1710 Y-27.9853
G01 X-85.1346 Y-27.9909
G01 X-85.0858 Y-27.9963
G01 X-85.0491 Y-27.9988
G01 X-85.0123 Y-27.9999
G01 X0.0000 Y-28.0000
G01 X0.0368 Y-27.9993
G01 X0.0736 Y-27.9973
G01 X0.1102 Y-27.9939
G01 X0.1467 Y-27.9892
G01 X0.1951 Y-27.9808
G01 X0.2311 Y-27.9729
G01 X0.2667 Y-27.9638
G01 X0.3020 Y-27.9533
G01 X0.3369 Y-27.9415
G01 X0.3713 Y-27.9285
G01 X0.4164 Y-27.9092
G01 X0.4496 Y-27.8932
G01 X0.4822 Y-27.8761
G01 X0.5141 Y-27.8577
G01 X0.5453 Y-27.8382
G01 X0.5758 Y-27.8176
G01 X0.6055 Y-27.7958
G01 X0.6344 Y-27.7730
G01 X0.6624 Y-27.7491
G01 X0.6895 Y-27.7242
G01 X0.7157 Y-27.6984
G01 X0.7410 Y-27.6716
G01 X0.7730 Y-27.6344
G01 X0.7958 Y-27.6055
G01 X0.8176 Y-27.5758
G01 X0.8449 Y-27.5350
G01 X0.8640 Y-27.5035
G01 X0.8819 Y-27.4714
G01 X0.8987 Y-27.4386
G01 X0.9191 Y-27.3940
G01 X0.9330 Y-27.3599
G01 X0.9456 Y-27.3253
G01 X0.9604 Y-27.2785
G01 X0.9700 Y-27.2430
G01 X0.9783 Y-27.2071
G01 X0.9853 Y-27.1710
G01 X0.9909 Y-27.1346
G01 X0.9952 Y-27.0980
G01 X0.9981 Y-27.0613
G01 X0.9997 Y-27.0245
G01 X1.0000 Y0.0000
G00 X1.0000 Y0.0000
G01 F70.00
G01 Z-0.9000
G01 F120.00
G01 X0.9993 Y0.0368
G01 X0.9963 Y0.0858
G01 X0.9909 Y0.1346
G01 X0.9831 Y0.1830
G01 X0.9729 Y0.2311
G01 X0.9604 Y0.2785
G01 X0.9456 Y0.3253
G01 X0.9285 Y0.3713
G01 X0.9092 Y0.4164
G01 X0.8876 Y0.4605
G01 X0.8640 Y0.5035
G01 X0.8382 Y0.5453
G01 X0.8105 Y0.5858
G01 X0.7807 Y0.6249
G01 X0.7491 Y0.6624
G01 X0.7157 Y0.6984
G01 X0.6806 Y0.7327
G01 X0.6438 Y0.7652
G01 X0.6055 Y0.7958
G01 X0.5657 Y0.8246
G01 X0.5246 Y0.8514
G01 X0.4822 Y0.8761
G01 X0.4386 Y0.8987
G01 X0.3940 Y0.9191
G01 X0.3484 Y0.9373
G01 X0.3020 Y0.9533
G01 X0.2549 Y0.9670
G01 X0.2071 Y0.9783
G01 X0.1589 Y0.9873
G01 X0.1102 Y0.9939
G01 X0.0613 Y0.9981
G01 X0.0123 Y0.9999
G01 X-85.0000 Y1.0000
G01 X-85.0368 Y0.9993
G01 X-85.0736 Y0.9973
G01 X-85.1102 Y0.9939
G01 X-85.1467 Y0.9892
G01 X-85.1830 Y0.9831
G01 X-85.2191 Y0.9757
G01 X-85.2549 Y0.9670
G01 X-85.3020 Y0.9533
G01 X-85.3369 Y0.9415
G01 X-85.3713 Y0.9285
G01 X-85.4052 Y0.9142
G01 X-85.4496 Y0.8932
G01 X-85.4822 Y0.8761
G01 X-85.5141 Y0.8577
G01 X-85.5453 Y0.8382
G01 X-85.5758 Y0.8176
G01 X-85.6152 Y0.7883
G01 X-85.6438 Y0.7652
G01 X-85.6716 Y0.7410
G01 X-85.6984 Y0.7157
G01 X-85.7242 Y0.6895
G01 X-85.7491 Y0.6624
G01 X-85.7730 Y0.6344
G01 X-85.8032 Y0.5957
G01 X-85.8246 Y0.5657
G01 X-85.8449 Y0.5350
G01 X-85.8640 Y0.5035
G01 X-85.8819 Y0.4714
G01 X-85.8987 Y0.4386
G01 X-85.9191 Y0.3940
G01 X-85.9330 Y0.3599
G01 X-85.9456 Y0.3253
G01 X-85.9569 Y0.2903
G01 X-85.9670 Y0.2549
G01 X-85.9757 Y0.2191
G01 X-85.9853 Y0.1710
G01 X-85.9909 Y0.1346
G01 X-85.9952 Y0.0980
G01 X-85.9981 Y0.0613
G01 X-85.9997 Y0.0245
G01 X-86.0000 Y-27.0000
G01 X-85.9993 Y-27.0368
G01 X-85.9973 Y-27.0736
G01 X-85.9939 Y-27.1102
G01 X-85.9892 Y-27.1467
G01 X-85.9808 Y-27.1951
G01 X-85.9729 Y-27.2311
G01 X-85.9638 Y-27.2667
G01 X-85.9533 Y-27.3020
G01 X-85.9415 Y-27.3369
G01 X-85.9285 Y-27.3713
G01 X-85.9142 Y-27.4052
G01 X-85.8987 Y-27.4386
G01 X-85.8819 Y-27.4714
G01 X-85.8577 Y-27.5141
G01 X-85.8382 Y-27.5453
G01 X-85.8176 Y-27.5758
G01 X-85.7958 Y-27.6055
G01 X-85.7730 Y-27.6344
G01 X-85.7410 Y-27.6716
G01 X-85.7157 Y-27.6984
G01 X-85.6895 Y-27.7242
G01 X-85.6624 Y-27.7491
G01 X-85.6249 Y-27.7807
G01 X-85.5957 Y-27.8032
G01 X-85.5657 Y-27.8246
G01 X-85.5350 Y-27.8449
G01 X-85.5035 Y-27.8640
G01 X-85.4605 Y-27.8876
G01 X-85.4276 Y-27.9040
G01 X-85.3940 Y-27.9191
G01 X-85.3599 Y-27.9330
G01 X-85.3253 Y-27.9456
G01 X-85.2903 Y-27.9569
G01 X-85.2549 Y-27.9670
G01 X-85.2071 Y-27.9783
G01 X-85.1710 Y-27.9853
G01 X-85.1346 Y-27.9909
G01 X-85.0858 Y-27.9963
G01 X-85.0491 Y-27.9988
G01 X-85.0123 Y-27.9999
G01 X0.0000 Y-28.0000
G01 X0.0368 Y-27.9993
G01 X0.0736 Y-27.9973
G01 X0.1102 Y-27.9939
G01 X0.1467 Y-27.9892
G01 X0.1951 Y-27.9808
G01 X0.2311 Y-27.9729
G01 X0.2667 Y-27.9638
G01 X0.3020 Y-27.9533
G01 X0.3369 Y-27.9415
G01 X0.3713 Y-27.9285
G01 X0.4164 Y-27.9092
G01 X0.4496 Y-27.8932
G01 X0.4822 Y-27.8761
G01 X0.5141 Y-27.8577
G01 X0.5453 Y-27.8382
G01 X0.5758 Y-27.8176
G01 X0.6055 Y-27.7958
G01 X0.6344 Y-27.7730
G01 X0.6624 Y-27.7491
G01 X0.6895 Y-27.7242
G01 X0.7157 Y-27.6984
G01 X0.7410 Y-27.6716
G01 X0.7730 Y-27.6344
G01 X0.7958 Y-27.6055
G01 X0.8176 Y-27.5758
G01 X0.8449 Y-27.5350
G01 X0.8640 Y-27.5035
G01 X0.8819 Y-27.4714
G01 X0.8987 Y-27.4386
G01 X0.9191 Y-27.3940
G01 X0.9330 Y-27.3599
G01 X0.9456 Y-27.3253
G01 X0.9604 Y-27.2785
G01 X0.9700 Y-27.2430
G01 X0.9783 Y-27.2071
G01 X0.9853 Y-27.1710
G01 X0.9909 Y-27.1346
G01 X0.9952 Y-27.0980
G01 X0.9981 Y-27.0613
G01 X0.9997 Y-27.0245
G01 X1.0000 Y0.0000
G00 X1.0000 Y0.0000
G01 F70.00
G01 Z-1.0000
G01 F120.00
G01 X0.9993 Y0.0368
G01 X0.9963 Y0.0858
G01 X0.9909 Y0.1346
G01 X0.9831 Y0.1830
G01 X0.9729 Y0.2311
G01 X0.9604 Y0.2785
G01 X0.9456 Y0.3253
G01 X0.9285 Y0.3713
G01 X0.9092 Y0.4164
G01 X0.8876 Y0.4605
G01 X0.8640 Y0.5035
G01 X0.8382 Y0.5453
G01 X0.8105 Y0.5858
G01 X0.7807 Y0.6249
G01 X0.7491 Y0.6624
G01 X0.7157 Y0.6984
G01 X0.6806 Y0.7327
G01 X0.6438 Y0.7652
G01 X0.6055 Y0.7958
G01 X0.5657 Y0.8246
G01 X0.5246 Y0.8514
G01 X0.4822 Y0.8761
G01 X0.4386 Y0.8987
G01 X0.3940 Y0.9191
G01 X0.3484 Y0.9373
G01 X0.3020 Y0.9533
G01 X0.2549 Y0.9670
G01 X0.2071 Y0.9783
G01 X0.1589 Y0.9873
G01 X0.1102 Y0.9939
G01 X0.0613 Y0.9981
G01 X0.0123 Y0.9999
G01 X-85.0000 Y1.0000
G01 X-85.0368 Y0.9993
G01 X-85.0736 Y0.9973
G01 X-85.1102 Y0.9939
G01 X-85.1467 Y0.9892
G01 X-85.1830 Y0.9831
G01 X-85.2191 Y0.9757
G01 X-85.2549 Y0.9670
G01 X-85.3020 Y0.9533
G01 X-85.3369 Y0.9415
G01 X-85.3713 Y0.9285
G01 X-85.4052 Y0.9142
G01 X-85.4496 Y0.8932
G01 X-85.4822 Y0.8761
G01 X-85.5141 Y0.8577
G01 X-85.5453 Y0.8382
G01 X-85.5758 Y0.8176
G01 X-85.6152 Y0.7883
G01 X-85.6438 Y0.7652
G01 X-85.6716 Y0.7410
G01 X-85.6984 Y0.7157
G01 X-85.7242 Y0.6895
G01 X-85.7491 Y0.6624
G01 X-85.7730 Y0.6344
G01 X-85.8032 Y0.5957
G01 X-85.8246 Y0.5657
G01 X-85.8449 Y0.5350
G01 X-85.8640 Y0.5035
G01 X-85.8819 Y0.4714
G01 X-85.8987 Y0.4386
G01 X-85.9191 Y0.3940
G01 X-85.9330 Y0.3599
G01 X-85.9456 Y0.3253
G01 X-85.9569 Y0.2903
G01 X-85.9670 Y0.2549
G01 X-85.9757 Y0.2191
G01 X-85.9853 Y0.1710
G01 X-85.9909 Y0.1346
G01 X-85.9952 Y0.0980
G01 X-85.9981 Y0.0613
G01 X-85.9997 Y0.0245
G01 X-86.0000 Y-27.0000
G01 X-85.9993 Y-27.0368
G01 X-85.9973 Y-27.0736
G01 X-85.9939 Y-27.1102
G01 X-85.9892 Y-27.1467
G01 X-85.9808 Y-27.1951
G01 X-85.9729 Y-27.2311
G01 X-85.9638 Y-27.2667
G01 X-85.9533 Y-27.3020
G01 X-85.9415 Y-27.3369
G01 X-85.9285 Y-27.3713
G01 X-85.9142 Y-27.4052
G01 X-85.8987 Y-27.4386
G01 X-85.8819 Y-27.4714
G01 X-85.8577 Y-27.5141
G01 X-85.8382 Y-27.5453
G01 X-85.8176 Y-27.5758
G01 X-85.7958 Y-27.6055
G01 X-85.7730 Y-27.6344
G01 X-85.7410 Y-27.6716
G01 X-85.7157 Y-27.6984
G01 X-85.6895 Y-27.7242
G01 X-85.6624 Y-27.7491
G01 X-85.6249 Y-27.7807
G01 X-85.5957 Y-27.8032
G01 X-85.5657 Y-27.8246
G01 X-85.5350 Y-27.8449
G01 X-85.5035 Y-27.8640
G01 X-85.4605 Y-27.8876
G01 X-85.4276 Y-27.9040
G01 X-85.3940 Y-27.9191
G01 X-85.3599 Y-27.9330
G01 X-85.3253 Y-27.9456
G01 X-85.2903 Y-27.9569
G01 X-85.2549 Y-27.9670
G01 X-85.2071 Y-27.9783
G01 X-85.1710 Y-27.9853
G01 X-85.1346 Y-27.9909
G01 X-85.0858 Y-27.9963
G01 X-85.0491 Y-27.9988
G01 X-85.0123 Y-27.9999
G01 X0.0000 Y-28.0000
G01 X0.0368 Y-27.9993
G01 X0.0736 Y-27.9973
G01 X0.1102 Y-27.9939
G01 X0.1467 Y-27.9892
G01 X0.1951 Y-27.9808
G01 X0.2311 Y-27.9729
G01 X0.2667 Y-27.9638
G01 X0.3020 Y-27.9533
G01 X0.3369 Y-27.9415
G01 X0.3713 Y-27.9285
G01 X0.4164 Y-27.9092
G01 X0.4496 Y-27.8932
G01 X0.4822 Y-27.8761
G01 X0.5141 Y-27.8577
G01 X0.5453 Y-27.8382
G01 X0.5758 Y-27.8176
G01 X0.6055 Y-27.7958
G01 X0.6344 Y-27.7730
G01 X0.6624 Y-27.7491
G01 X0.6895 Y-27.7242
G01 X0.7157 Y-27.6984
G01 X0.7410 Y-27.6716
G01 X0.7730 Y-27.6344
G01 X0.7958 Y-27.6055
G01 X0.8176 Y-27.5758
G01 X0.8449 Y-27.5350
G01 X0.8640 Y-27.5035
G01 X0.8819 Y-27.4714
G01 X0.8987 Y-27.4386
G01 X0.9191 Y-27.3940
G01 X0.9330 Y-27.3599
G01 X0.9456 Y-27.3253
G01 X0.9604 Y-27.2785
G01 X0.9700 Y-27.2430
G01 X0.9783 Y-27.2071
G01 X0.9853 Y-27.1710
G01 X0.9909 Y-27.1346
G01 X0.9952 Y-27.0980
G01 X0.9981 Y-27.0613
G01 X0.9997 Y-27.0245
G01 X1.0000 Y0.0000
G00 X1.0000 Y0.0000
G01 F70.00
G01 Z-1.1000
G01 F120.00
G01 X0.9993 Y0.0368
G01 X0.9963 Y0.0858
G01 X0.9909 Y0.1346
G01 X0.9831 Y0.1830
G01 X0.9729 Y0.2311
G01 X0.9604 Y0.2785
G01 X0.9456 Y0.3253
G01 X0.9285 Y0.3713
G01 X0.9092 Y0.4164
G01 X0.8876 Y0.4605
G01 X0.8640 Y0.5035
G01 X0.8382 Y0.5453
G01 X0.8105 Y0.5858
G01 X0.7807 Y0.6249
G01 X0.7491 Y0.6624
G01 X0.7157 Y0.6984
G01 X0.6806 Y0.7327
G01 X0.6438 Y0.7652
G01 X0.6055 Y0.7958
G01 X0.5657 Y0.8246
G01 X0.5246 Y0.8514
G01 X0.4822 Y0.8761
G01 X0.4386 Y0.8987
G01 X0.3940 Y0.9191
G01 X0.3484 Y0.9373
G01 X0.3020 Y0.9533
G01 X0.2549 Y0.9670
G01 X0.2071 Y0.9783
G01 X0.1589 Y0.9873
G01 X0.1102 Y0.9939
G01 X0.0613 Y0.9981
G01 X0.0123 Y0.9999
G01 X-85.0000 Y1.0000
G01 X-85.0368 Y0.9993
G01 X-85.0736 Y0.9973
G01 X-85.1102 Y0.9939
G01 X-85.1467 Y0.9892
G01 X-85.1830 Y0.9831
G01 X-85.2191 Y0.9757
G01 X-85.2549 Y0.9670
G01 X-85.3020 Y0.9533
G01 X-85.3369 Y0.9415
G01 X-85.3713 Y0.9285
G01 X-85.4052 Y0.9142
G01 X-85.4496 Y0.8932
G01 X-85.4822 Y0.8761
G01 X-85.5141 Y0.8577
G01 X-85.5453 Y0.8382
G01 X-85.5758 Y0.8176
G01 X-85.6152 Y0.7883
G01 X-85.6438 Y0.7652
G01 X-85.6716 Y0.7410
G01 X-85.6984 Y0.7157
G01 X-85.7242 Y0.6895
G01 X-85.7491 Y0.6624
G01 X-85.7730 Y0.6344
G01 X-85.8032 Y0.5957
G01 X-85.8246 Y0.5657
G01 X-85.8449 Y0.5350
G01 X-85.8640 Y0.5035
G01 X-85.8819 Y0.4714
G01 X-85.8987 Y0.4386
G01 X-85.9191 Y0.3940
G01 X-85.9330 Y0.3599
G01 X-85.9456 Y0.3253
G01 X-85.9569 Y0.2903
G01 X-85.9670 Y0.2549
G01 X-85.9757 Y0.2191
G01 X-85.9853 Y0.1710
G01 X-85.9909 Y0.1346
G01 X-85.9952 Y0.0980
G01 X-85.9981 Y0.0613
G01 X-85.9997 Y0.0245
G01 X-86.0000 Y-27.0000
G01 X-85.9993 Y-27.0368
G01 X-85.9973 Y-27.0736
G01 X-85.9939 Y-27.1102
G01 X-85.9892 Y-27.1467
G01 X-85.9808 Y-27.1951
G01 X-85.9729 Y-27.2311
G01 X-85.9638 Y-27.2667
G01 X-85.9533 Y-27.3020
G01 X-85.9415 Y-27.3369
G01 X-85.9285 Y-27.3713
G01 X-85.9142 Y-27.4052
G01 X-85.8987 Y-27.4386
G01 X-85.8819 Y-27.4714
G01 X-85.8577 Y-27.5141
G01 X-85.8382 Y-27.5453
G01 X-85.8176 Y-27.5758
G01 X-85.7958 Y-27.6055
G01 X-85.7730 Y-27.6344
G01 X-85.7410 Y-27.6716
G01 X-85.7157 Y-27.6984
G01 X-85.6895 Y-27.7242
G01 X-85.6624 Y-27.7491
G01 X-85.6249 Y-27.7807
G01 X-85.5957 Y-27.8032
G01 X-85.5657 Y-27.8246
G01 X-85.5350 Y-27.8449
G01 X-85.5035 Y-27.8640
G01 X-85.4605 Y-27.8876
G01 X-85.4276 Y-27.9040
G01 X-85.3940 Y-27.9191
G01 X-85.3599 Y-27.9330
G01 X-85.3253 Y-27.9456
G01 X-85.2903 Y-27.9569
G01 X-85.2549 Y-27.9670
G01 X-85.2071 Y-27.9783
G01 X-85.1710 Y-27.9853
G01 X-85.1346 Y-27.9909
G01 X-85.0858 Y-27.9963
G01 X-85.0491 Y-27.9988
G01 X-85.0123 Y-27.9999
G01 X0.0000 Y-28.0000
G01 X0.0368 Y-27.9993
G01 X0.0736 Y-27.9973
G01 X0.1102 Y-27.9939
G01 X0.1467 Y-27.9892
G01 X0.1951 Y-27.9808
G01 X0.2311 Y-27.9729
G01 X0.2667 Y-27.9638
G01 X0.3020 Y-27.9533
G01 X0.3369 Y-27.9415
G01 X0.3713 Y-27.9285
G01 X0.4164 Y-27.9092
G01 X0.4496 Y-27.8932
G01 X0.4822 Y-27.8761
G01 X0.5141 Y-27.8577
G01 X0.5453 Y-27.8382
G01 X0.5758 Y-27.8176
G01 X0.6055 Y-27.7958
G01 X0.6344 Y-27.7730
G01 X0.6624 Y-27.7491
G01 X0.6895 Y-27.7242
G01 X0.7157 Y-27.6984
G01 X0.7410 Y-27.6716
G01 X0.7730 Y-27.6344
G01 X0.7958 Y-27.6055
G01 X0.8176 Y-27.5758
G01 X0.8449 Y-27.5350
G01 X0.8640 Y-27.5035
G01 X0.8819 Y-27.4714
G01 X0.8987 Y-27.4386
G01 X0.9191 Y-27.3940
G01 X0.9330 Y-27.3599
G01 X0.9456 Y-27.3253
G01 X0.9604 Y-27.2785
G01 X0.9700 Y-27.2430
G01 X0.9783 Y-27.2071
G01 X0.9853 Y-27.1710
G01 X0.9909 Y-27.1346
G01 X0.9952 Y-27.0980
G01 X0.9981 Y-27.0613
G01 X0.9997 Y-27.0245
G01 X1.0000 Y0.0000
G00 X1.0000 Y0.0000
G01 F70.00
G01 Z-1.2000
G01 F120.00
G01 X0.9993 Y0.0368
G01 X0.9963 Y0.0858
G01 X0.9909 Y0.1346
G01 X0.9831 Y0.1830
G01 X0.9729 Y0.2311
G01 X0.9604 Y0.2785
G01 X0.9456 Y0.3253
G01 X0.9285 Y0.3713
G01 X0.9092 Y0.4164
G01 X0.8876 Y0.4605
G01 X0.8640 Y0.5035
G01 X0.8382 Y0.5453
G01 X0.8105 Y0.5858
G01 X0.7807 Y0.6249
G01 X0.7491 Y0.6624
G01 X0.7157 Y0.6984
G01 X0.6806 Y0.7327
G01 X0.6438 Y0.7652
G01 X0.6055 Y0.7958
G01 X0.5657 Y0.8246
G01 X0.5246 Y0.8514
G01 X0.4822 Y0.8761
G01 X0.4386 Y0.8987
G01 X0.3940 Y0.9191
G01 X0.3484 Y0.9373
G01 X0.3020 Y0.9533
G01 X0.2549 Y0.9670
G01 X0.2071 Y0.9783
G01 X0.1589 Y0.9873
G01 X0.1102 Y0.9939
G01 X0.0613 Y0.9981
G01 X0.0123 Y0.9999
G01 X-85.0000 Y1.0000
G01 X-85.0368 Y0.9993
G01 X-85.0736 Y0.9973
G01 X-85.1102 Y0.9939
G01 X-85.1467 Y0.9892
G01 X-85.1830 Y0.9831
G01 X-85.2191 Y0.9757
G01 X-85.2549 Y0.9670
G01 X-85.3020 Y0.9533
G01 X-85.3369 Y0.9415
G01 X-85.3713 Y0.9285
G01 X-85.4052 Y0.9142
G01 X-85.4496 Y0.8932
G01 X-85.4822 Y0.8761
G01 X-85.5141 Y0.8577
G01 X-85.5453 Y0.8382
G01 X-85.5758 Y0.8176
G01 X-85.6152 Y0.7883
G01 X-85.6438 Y0.7652
G01 X-85.6716 Y0.7410
G01 X-85.6984 Y0.7157
G01 X-85.7242 Y0.6895
G01 X-85.7491 Y0.6624
G01 X-85.7730 Y0.6344
G01 X-85.8032 Y0.5957
G01 X-85.8246 Y0.5657
G01 X-85.8449 Y0.5350
G01 X-85.8640 Y0.5035
G01 X-85.8819 Y0.4714
G01 X-85.8987 Y0.4386
G01 X-85.9191 Y0.3940
G01 X-85.9330 Y0.3599
G01 X-85.9456 Y0.3253
G01 X-85.9569 Y0.2903
G01 X-85.9670 Y0.2549
G01 X-85.9757 Y0.2191
G01 X-85.9853 Y0.1710
G01 X-85.9909 Y0.1346
G01 X-85.9952 Y0.0980
G01 X-85.9981 Y0.0613
G01 X-85.9997 Y0.0245
G01 X-86.0000 Y-27.0000
G01 X-85.9993 Y-27.0368
G01 X-85.9973 Y-27.0736
G01 X-85.9939 Y-27.1102
G01 X-85.9892 Y-27.1467
G01 X-85.9808 Y-27.1951
G01 X-85.9729 Y-27.2311
G01 X-85.9638 Y-27.2667
G01 X-85.9533 Y-27.3020
G01 X-85.9415 Y-27.3369
G01 X-85.9285 Y-27.3713
G01 X-85.9142 Y-27.4052
G01 X-85.8987 Y-27.4386
G01 X-85.8819 Y-27.4714
G01 X-85.8577 Y-27.5141
G01 X-85.8382 Y-27.5453
G01 X-85.8176 Y-27.5758
G01 X-85.7958 Y-27.6055
G01 X-85.7730 Y-27.6344
G01 X-85.7410 Y-27.6716
G01 X-85.7157 Y-27.6984
G01 X-85.6895 Y-27.7242
G01 X-85.6624 Y-27.7491
G01 X-85.6249 Y-27.7807
G01 X-85.5957 Y-27.8032
G01 X-85.5657 Y-27.8246
G01 X-85.5350 Y-27.8449
G01 X-85.5035 Y-27.8640
G01 X-85.4605 Y-27.8876
G01 X-85.4276 Y-27.9040
G01 X-85.3940 Y-27.9191
G01 X-85.3599 Y-27.9330
G01 X-85.3253 Y-27.9456
G01 X-85.2903 Y-27.9569
G01 X-85.2549 Y-27.9670
G01 X-85.2071 Y-27.9783
G01 X-85.1710 Y-27.9853
G01 X-85.1346 Y-27.9909
G01 X-85.0858 Y-27.9963
G01 X-85.0491 Y-27.9988
G01 X-85.0123 Y-27.9999
G01 X0.0000 Y-28.0000
G01 X0.0368 Y-27.9993
G01 X0.0736 Y-27.9973
G01 X0.1102 Y-27.9939
G01 X0.1467 Y-27.9892
G01 X0.1951 Y-27.9808
G01 X0.2311 Y-27.9729
G01 X0.2667 Y-27.9638
G01 X0.3020 Y-27.9533
G01 X0.3369 Y-27.9415
G01 X0.3713 Y-27.9285
G01 X0.4164 Y-27.9092
G01 X0.4496 Y-27.8932
G01 X0.4822 Y-27.8761
G01 X0.5141 Y-27.8577
G01 X0.5453 Y-27.8382
G01 X0.5758 Y-27.8176
G01 X0.6055 Y-27.7958
G01 X0.6344 Y-27.7730
G01 X0.6624 Y-27.7491
G01 X0.6895 Y-27.7242
G01 X0.7157 Y-27.6984
G01 X0.7410 Y-27.6716
G01 X0.7730 Y-27.6344
G01 X0.7958 Y-27.6055
G01 X0.8176 Y-27.5758
G01 X0.8449 Y-27.5350
G01 X0.8640 Y-27.5035
G01 X0.8819 Y-27.4714
G01 X0.8987 Y-27.4386
G01 X0.9191 Y-27.3940
G01 X0.9330 Y-27.3599
G01 X0.9456 Y-27.3253
G01 X0.9604 Y-27.2785
G01 X0.9700 Y-27.2430
G01 X0.9783 Y-27.2071
G01 X0.9853 Y-27.1710
G01 X0.9909 Y-27.1346
G01 X0.9952 Y-27.0980
G01 X0.9981 Y-27.0613
G01 X0.9997 Y-27.0245
G01 X1.0000 Y0.0000
G00 X1.0000 Y0.0000
G01 F70.00
G01 Z-1.3000
G01 F120.00
G01 X0.9993 Y0.0368
G01 X0.9963 Y0.0858
G01 X0.9909 Y0.1346
G01 X0.9831 Y0.1830
G01 X0.9729 Y0.2311
G01 X0.9604 Y0.2785
G01 X0.9456 Y0.3253
G01 X0.9285 Y0.3713
G01 X0.9092 Y0.4164
G01 X0.8876 Y0.4605
G01 X0.8640 Y0.5035
G01 X0.8382 Y0.5453
G01 X0.8105 Y0.5858
G01 X0.7807 Y0.6249
G01 X0.7491 Y0.6624
G01 X0.7157 Y0.6984
G01 X0.6806 Y0.7327
G01 X0.6438 Y0.7652
G01 X0.6055 Y0.7958
G01 X0.5657 Y0.8246
G01 X0.5246 Y0.8514
G01 X0.4822 Y0.8761
G01 X0.4386 Y0.8987
G01 X0.3940 Y0.9191
G01 X0.3484 Y0.9373
G01 X0.3020 Y0.9533
G01 X0.2549 Y0.9670
G01 X0.2071 Y0.9783
G01 X0.1589 Y0.9873
G01 X0.1102 Y0.9939
G01 X0.0613 Y0.9981
G01 X0.0123 Y0.9999
G01 X-85.0000 Y1.0000
G01 X-85.0368 Y0.9993
G01 X-85.0736 Y0.9973
G01 X-85.1102 Y0.9939
G01 X-85.1467 Y0.9892
G01 X-85.1830 Y0.9831
G01 X-85.2191 Y0.9757
G01 X-85.2549 Y0.9670
G01 X-85.3020 Y0.9533
G01 X-85.3369 Y0.9415
G01 X-85.3713 Y0.9285
G01 X-85.4052 Y0.9142
G01 X-85.4496 Y0.8932
G01 X-85.4822 Y0.8761
G01 X-85.5141 Y0.8577
G01 X-85.5453 Y0.8382
G01 X-85.5758 Y0.8176
G01 X-85.6152 Y0.7883
G01 X-85.6438 Y0.7652
G01 X-85.6716 Y0.7410
G01 X-85.6984 Y0.7157
G01 X-85.7242 Y0.6895
G01 X-85.7491 Y0.6624
G01 X-85.7730 Y0.6344
G01 X-85.8032 Y0.5957
G01 X-85.8246 Y0.5657
G01 X-85.8449 Y0.5350
G01 X-85.8640 Y0.5035
G01 X-85.8819 Y0.4714
G01 X-85.8987 Y0.4386
G01 X-85.9191 Y0.3940
G01 X-85.9330 Y0.3599
G01 X-85.9456 Y0.3253
G01 X-85.9569 Y0.2903
G01 X-85.9670 Y0.2549
G01 X-85.9757 Y0.2191
G01 X-85.9853 Y0.1710
G01 X-85.9909 Y0.1346
G01 X-85.9952 Y0.0980
G01 X-85.9981 Y0.0613
G01 X-85.9997 Y0.0245
G01 X-86.0000 Y-27.0000
G01 X-85.9993 Y-27.0368
G01 X-85.9973 Y-27.0736
G01 X-85.9939 Y-27.1102
G01 X-85.9892 Y-27.1467
G01 X-85.9808 Y-27.1951
G01 X-85.9729 Y-27.2311
G01 X-85.9638 Y-27.2667
G01 X-85.9533 Y-27.3020
G01 X-85.9415 Y-27.3369
G01 X-85.9285 Y-27.3713
G01 X-85.9142 Y-27.4052
G01 X-85.8987 Y-27.4386
G01 X-85.8819 Y-27.4714
G01 X-85.8577 Y-27.5141
G01 X-85.8382 Y-27.5453
G01 X-85.8176 Y-27.5758
G01 X-85.7958 Y-27.6055
G01 X-85.7730 Y-27.6344
G01 X-85.7410 Y-27.6716
G01 X-85.7157 Y-27.6984
G01 X-85.6895 Y-27.7242
G01 X-85.6624 Y-27.7491
G01 X-85.6249 Y-27.7807
G01 X-85.5957 Y-27.8032
G01 X-85.5657 Y-27.8246
G01 X-85.5350 Y-27.8449
G01 X-85.5035 Y-27.8640
G01 X-85.4605 Y-27.8876
G01 X-85.4276 Y-27.9040
G01 X-85.3940 Y-27.9191
G01 X-85.3599 Y-27.9330
G01 X-85.3253 Y-27.9456
G01 X-85.2903 Y-27.9569
G01 X-85.2549 Y-27.9670
G01 X-85.2071 Y-27.9783
G01 X-85.1710 Y-27.9853
G01 X-85.1346 Y-27.9909
G01 X-85.0858 Y-27.9963
G01 X-85.0491 Y-27.9988
G01 X-85.0123 Y-27.9999
G01 X0.0000 Y-28.0000
G01 X0.0368 Y-27.9993
G01 X0.0736 Y-27.9973
G01 X0.1102 Y-27.9939
G01 X0.1467 Y-27.9892
G01 X0.1951 Y-27.9808
G01 X0.2311 Y-27.9729
G01 X0.2667 Y-27.9638
G01 X0.3020 Y-27.9533
G01 X0.3369 Y-27.9415
G01 X0.3713 Y-27.9285
G01 X0.4164 Y-27.9092
G01 X0.4496 Y-27.8932
G01 X0.4822 Y-27.8761
G01 X0.5141 Y-27.8577
G01 X0.5453 Y-27.8382
G01 X0.5758 Y-27.8176
G01 X0.6055 Y-27.7958
G01 X0.6344 Y-27.7730
G01 X0.6624 Y-27.7491
G01 X0.6895 Y-27.7242
G01 X0.7157 Y-27.6984
G01 X0.7410 Y-27.6716
G01 X0.7730 Y-27.6344
G01 X0.7958 Y-27.6055
G01 X0.8176 Y-27.5758
G01 X0.8449 Y-27.5350
G01 X0.8640 Y-27.5035
G01 X0.8819 Y-27.4714
G01 X0.8987 Y-27.4386
G01 X0.9191 Y-27.3940
G01 X0.9330 Y-27.3599
G01 X0.9456 Y-27.3253
G01 X0.9604 Y-27.2785
G01 X0.9700 Y-27.2430
G01 X0.9783 Y-27.2071
G01 X0.9853 Y-27.1710
G01 X0.9909 Y-27.1346
G01 X0.9952 Y-27.0980
G01 X0.9981 Y-27.0613
G01 X0.9997 Y-27.0245
G01 X1.0000 Y0.0000
G00 X1.0000 Y0.0000
G01 F70.00
G01 Z-1.4000
G01 F120.00
G01 X0.9993 Y0.0368
G01 X0.9963 Y0.0858
G01 X0.9909 Y0.1346
G01 X0.9831 Y0.1830
G01 X0.9729 Y0.2311
G01 X0.9604 Y0.2785
G01 X0.9456 Y0.3253
G01 X0.9285 Y0.3713
G01 X0.9092 Y0.4164
G01 X0.8876 Y0.4605
G01 X0.8640 Y0.5035
G01 X0.8382 Y0.5453
G01 X0.8105 Y0.5858
G01 X0.7807 Y0.6249
G01 X0.7491 Y0.6624
G01 X0.7157 Y0.6984
G01 X0.6806 Y0.7327
G01 X0.6438 Y0.7652
G01 X0.6055 Y0.7958
G01 X0.5657 Y0.8246
G01 X0.5246 Y0.8514
G01 X0.4822 Y0.8761
G01 X0.4386 Y0.8987
G01 X0.3940 Y0.9191
G01 X0.3484 Y0.9373
G01 X0.3020 Y0.9533
G01 X0.2549 Y0.9670
G01 X0.2071 Y0.9783
G01 X0.1589 Y0.9873
G01 X0.1102 Y0.9939
G01 X0.0613 Y0.9981
G01 X0.0123 Y0.9999
G01 X-85.0000 Y1.0000
G01 X-85.0368 Y0.9993
G01 X-85.0736 Y0.9973
G01 X-85.1102 Y0.9939
G01 X-85.1467 Y0.9892
G01 X-85.1830 Y0.9831
G01 X-85.2191 Y0.9757
G01 X-85.2549 Y0.9670
G01 X-85.3020 Y0.9533
G01 X-85.3369 Y0.9415
G01 X-85.3713 Y0.9285
G01 X-85.4052 Y0.9142
G01 X-85.4496 Y0.8932
G01 X-85.4822 Y0.8761
G01 X-85.5141 Y0.8577
G01 X-85.5453 Y0.8382
G01 X-85.5758 Y0.8176
G01 X-85.6152 Y0.7883
G01 X-85.6438 Y0.7652
G01 X-85.6716 Y0.7410
G01 X-85.6984 Y0.7157
G01 X-85.7242 Y0.6895
G01 X-85.7491 Y0.6624
G01 X-85.7730 Y0.6344
G01 X-85.8032 Y0.5957
G01 X-85.8246 Y0.5657
G01 X-85.8449 Y0.5350
G01 X-85.8640 Y0.5035
G01 X-85.8819 Y0.4714
G01 X-85.8987 Y0.4386
G01 X-85.9191 Y0.3940
G01 X-85.9330 Y0.3599
G01 X-85.9456 Y0.3253
G01 X-85.9569 Y0.2903
G01 X-85.9670 Y0.2549
G01 X-85.9757 Y0.2191
G01 X-85.9853 Y0.1710
G01 X-85.9909 Y0.1346
G01 X-85.9952 Y0.0980
G01 X-85.9981 Y0.0613
G01 X-85.9997 Y0.0245
G01 X-86.0000 Y-27.0000
G01 X-85.9993 Y-27.0368
G01 X-85.9973 Y-27.0736
G01 X-85.9939 Y-27.1102
G01 X-85.9892 Y-27.1467
G01 X-85.9808 Y-27.1951
G01 X-85.9729 Y-27.2311
G01 X-85.9638 Y-27.2667
G01 X-85.9533 Y-27.3020
G01 X-85.9415 Y-27.3369
G01 X-85.9285 Y-27.3713
G01 X-85.9142 Y-27.4052
G01 X-85.8987 Y-27.4386
G01 X-85.8819 Y-27.4714
G01 X-85.8577 Y-27.5141
G01 X-85.8382 Y-27.5453
G01 X-85.8176 Y-27.5758
G01 X-85.7958 Y-27.6055
G01 X-85.7730 Y-27.6344
G01 X-85.7410 Y-27.6716
G01 X-85.7157 Y-27.6984
G01 X-85.6895 Y-27.7242
G01 X-85.6624 Y-27.7491
G01 X-85.6249 Y-27.7807
G01 X-85.5957 Y-27.8032
G01 X-85.5657 Y-27.8246
G01 X-85.5350 Y-27.8449
G01 X-85.5035 Y-27.8640
G01 X-85.4605 Y-27.8876
G01 X-85.4276 Y-27.9040
G01 X-85.3940 Y-27.9191
G01 X-85.3599 Y-27.9330
G01 X-85.3253 Y-27.9456
G01 X-85.2903 Y-27.9569
G01 X-85.2549 Y-27.9670
G01 X-85.2071 Y-27.9783
G01 X-85.1710 Y-27.9853
G01 X-85.1346 Y-27.9909
G01 X-85.0858 Y-27.9963
G01 X-85.0491 Y-27.9988
G01 X-85.0123 Y-27.9999
G01 X0.0000 Y-28.0000
G01 X0.0368 Y-27.9993
G01 X0.0736 Y-27.9973
G01 X0.1102 Y-27.9939
G01 X0.1467 Y-27.9892
G01 X0.1951 Y-27.9808
G01 X0.2311 Y-27.9729
G01 X0.2667 Y-27.9638
G01 X0.3020 Y-27.9533
G01 X0.3369 Y-27.9415
G01 X0.3713 Y-27.9285
G01 X0.4164 Y-27.9092
G01 X0.4496 Y-27.8932
G01 X0.4822 Y-27.8761
G01 X0.5141 Y-27.8577
G01 X0.5453 Y-27.8382
G01 X0.5758 Y-27.8176
G01 X0.6055 Y-27.7958
G01 X0.6344 Y-27.7730
G01 X0.6624 Y-27.7491
G01 X0.6895 Y-27.7242
G01 X0.7157 Y-27.6984
G01 X0.7410 Y-27.6716
G01 X0.7730 Y-27.6344
G01 X0.7958 Y-27.6055
G01 X0.8176 Y-27.5758
G01 X0.8449 Y-27.5350
G01 X0.8640 Y-27.5035
G01 X0.8819 Y-27.4714
G01 X0.8987 Y-27.4386
G01 X0.9191 Y-27.3940
G01 X0.9330 Y-27.3599
G01 X0.9456 Y-27.3253
G01 X0.9604 Y-27.2785
G01 X0.9700 Y-27.2430
G01 X0.9783 Y-27.2071
G01 X0.9853 Y-27.1710
G01 X0.9909 Y-27.1346
G01 X0.9952 Y-27.0980
G01 X0.9981 Y-27.0613
G01 X0.9997 Y-27.0245
G01 X1.0000 Y0.0000
G00 X1.0000 Y0.0000
G01 F70.00
G01 Z-1.5000
G01 F120.00
G01 X0.9993 Y0.0368
G01 X0.9963 Y0.0858
G01 X0.9909 Y0.1346
G01 X0.9831 Y0.1830
G01 X0.9729 Y0.2311
G01 X0.9604 Y0.2785
G01 X0.9456 Y0.3253
G01 X0.9285 Y0.3713
G01 X0.9092 Y0.4164
G01 X0.8876 Y0.4605
G01 X0.8640 Y0.5035
G01 X0.8382 Y0.5453
G01 X0.8105 Y0.5858
G01 X0.7807 Y0.6249
G01 X0.7491 Y0.6624
G01 X0.7157 Y0.6984
G01 X0.6806 Y0.7327
G01 X0.6438 Y0.7652
G01 X0.6055 Y0.7958
G01 X0.5657 Y0.8246
G01 X0.5246 Y0.8514
G01 X0.4822 Y0.8761
G01 X0.4386 Y0.8987
G01 X0.3940 Y0.9191
G01 X0.3484 Y0.9373
G01 X0.3020 Y0.9533
G01 X0.2549 Y0.9670
G01 X0.2071 Y0.9783
G01 X0.1589 Y0.9873
G01 X0.1102 Y0.9939
G01 X0.0613 Y0.9981
G01 X0.0123 Y0.9999
G01 X-85.0000 Y1.0000
G01 X-85.0368 Y0.9993
G01 X-85.0736 Y0.9973
G01 X-85.1102 Y0.9939
G01 X-85.1467 Y0.9892
G01 X-85.1830 Y0.9831
G01 X-85.2191 Y0.9757
G01 X-85.2549 Y0.9670
G01 X-85.3020 Y0.9533
G01 X-85.3369 Y0.9415
G01 X-85.3713 Y0.9285
G01 X-85.4052 Y0.9142
G01 X-85.4496 Y0.8932
G01 X-85.4822 Y0.8761
G01 X-85.5141 Y0.8577
G01 X-85.5453 Y0.8382
G01 X-85.5758 Y0.8176
G01 X-85.6152 Y0.7883
G01 X-85.6438 Y0.7652
G01 X-85.6716 Y0.7410
G01 X-85.6984 Y0.7157
G01 X-85.7242 Y0.6895
G01 X-85.7491 Y0.6624
G01 X-85.7730 Y0.6344
G01 X-85.8032 Y0.5957
G01 X-85.8246 Y0.5657
G01 X-85.8449 Y0.5350
G01 X-85.8640 Y0.5035
G01 X-85.8819 Y0.4714
G01 X-85.8987 Y0.4386
G01 X-85.9191 Y0.3940
G01 X-85.9330 Y0.3599
G01 X-85.9456 Y0.3253
G01 X-85.9569 Y0.2903
G01 X-85.9670 Y0.2549
G01 X-85.9757 Y0.2191
G01 X-85.9853 Y0.1710
G01 X-85.9909 Y0.1346
G01 X-85.9952 Y0.0980
G01 X-85.9981 Y0.0613
G01 X-85.9997 Y0.0245
G01 X-86.0000 Y-27.0000
G01 X-85.9993 Y-27.0368
G01 X-85.9973 Y-27.0736
G01 X-85.9939 Y-27.1102
G01 X-85.9892 Y-27.1467
G01 X-85.9808 Y-27.1951
G01 X-85.9729 Y-27.2311
G01 X-85.9638 Y-27.2667
G01 X-85.9533 Y-27.3020
G01 X-85.9415 Y-27.3369
G01 X-85.9285 Y-27.3713
G01 X-85.9142 Y-27.4052
G01 X-85.8987 Y-27.4386
G01 X-85.8819 Y-27.4714
G01 X-85.8577 Y-27.5141
G01 X-85.8382 Y-27.5453
G01 X-85.8176 Y-27.5758
G01 X-85.7958 Y-27.6055
G01 X-85.7730 Y-27.6344
G01 X-85.7410 Y-27.6716
G01 X-85.7157 Y-27.6984
G01 X-85.6895 Y-27.7242
G01 X-85.6624 Y-27.7491
G01 X-85.6249 Y-27.7807
G01 X-85.5957 Y-27.8032
G01 X-85.5657 Y-27.8246
G01 X-85.5350 Y-27.8449
G01 X-85.5035 Y-27.8640
G01 X-85.4605 Y-27.8876
G01 X-85.4276 Y-27.9040
G01 X-85.3940 Y-27.9191
G01 X-85.3599 Y-27.9330
G01 X-85.3253 Y-27.9456
G01 X-85.2903 Y-27.9569
G01 X-85.2549 Y-27.9670
G01 X-85.2071 Y-27.9783
G01 X-85.1710 Y-27.9853
G01 X-85.1346 Y-27.9909
G01 X-85.0858 Y-27.9963
G01 X-85.0491 Y-27.9988
G01 X-85.0123 Y-27.9999
G01 X0.0000 Y-28.0000
G01 X0.0368 Y-27.9993
G01 X0.0736 Y-27.9973
G01 X0.1102 Y-27.9939
G01 X0.1467 Y-27.9892
G01 X0.1951 Y-27.9808
G01 X0.2311 Y-27.9729
G01 X0.2667 Y-27.9638
G01 X0.3020 Y-27.9533
G01 X0.3369 Y-27.9415
G01 X0.3713 Y-27.9285
G01 X0.4164 Y-27.9092
G01 X0.4496 Y-27.8932
G01 X0.4822 Y-27.8761
G01 X0.5141 Y-27.8577
G01 X0.5453 Y-27.8382
G01 X0.5758 Y-27.8176
G01 X0.6055 Y-27.7958
G01 X0.6344 Y-27.7730
G01 X0.6624 Y-27.7491
G01 X0.6895 Y-27.7242
G01 X0.7157 Y-27.6984
G01 X0.7410 Y-27.6716
G01 X0.7730 Y-27.6344
G01 X0.7958 Y-27.6055
G01 X0.8176 Y-27.5758
G01 X0.8449 Y-27.5350
G01 X0.8640 Y-27.5035
G01 X0.8819 Y-27.4714
G01 X0.8987 Y-27.4386
G01 X0.9191 Y-27.3940
G01 X0.9330 Y-27.3599
G01 X0.9456 Y-27.3253
G01 X0.9604 Y-27.2785
G01 X0.9700 Y-27.2430
G01 X0.9783 Y-27.2071
G01 X0.9853 Y-27.1710
G01 X0.9909 Y-27.1346
G01 X0.9952 Y-27.0980
G01 X0.9981 Y-27.0613
G01 X0.9997 Y-27.0245
G01 X1.0000 Y0.0000
G00 X1.0000 Y0.0000
G01 F70.00
G01 Z-1.6000
G01 F120.00
G01 X0.9993 Y0.0368
G01 X0.9963 Y0.0858
G01 X0.9909 Y0.1346
G01 X0.9831 Y0.1830
G01 X0.9729 Y0.2311
G01 X0.9604 Y0.2785
G01 X0.9456 Y0.3253
G01 X0.9285 Y0.3713
G01 X0.9092 Y0.4164
G01 X0.8876 Y0.4605
G01 X0.8640 Y0.5035
G01 X0.8382 Y0.5453
G01 X0.8105 Y0.5858
G01 X0.7807 Y0.6249
G01 X0.7491 Y0.6624
G01 X0.7157 Y0.6984
G01 X0.6806 Y0.7327
G01 X0.6438 Y0.7652
G01 X0.6055 Y0.7958
G01 X0.5657 Y0.8246
G01 X0.5246 Y0.8514
G01 X0.4822 Y0.8761
G01 X0.4386 Y0.8987
G01 X0.3940 Y0.9191
G01 X0.3484 Y0.9373
G01 X0.3020 Y0.9533
G01 X0.2549 Y0.9670
G01 X0.2071 Y0.9783
G01 X0.1589 Y0.9873
G01 X0.1102 Y0.9939
G01 X0.0613 Y0.9981
G01 X0.0123 Y0.9999
G01 X-85.0000 Y1.0000
G01 X-85.0368 Y0.9993
G01 X-85.0736 Y0.9973
G01 X-85.1102 Y0.9939
G01 X-85.1467 Y0.9892
G01 X-85.1830 Y0.9831
G01 X-85.2191 Y0.9757
G01 X-85.2549 Y0.9670
G01 X-85.3020 Y0.9533
G01 X-85.3369 Y0.9415
G01 X-85.3713 Y0.9285
G01 X-85.4052 Y0.9142
G01 X-85.4496 Y0.8932
G01 X-85.4822 Y0.8761
G01 X-85.5141 Y0.8577
G01 X-85.5453 Y0.8382
G01 X-85.5758 Y0.8176
G01 X-85.6152 Y0.7883
G01 X-85.6438 Y0.7652
G01 X-85.6716 Y0.7410
G01 X-85.6984 Y0.7157
G01 X-85.7242 Y0.6895
G01 X-85.7491 Y0.6624
G01 X-85.7730 Y0.6344
G01 X-85.8032 Y0.5957
G01 X-85.8246 Y0.5657
G01 X-85.8449 Y0.5350
G01 X-85.8640 Y0.5035
G01 X-85.8819 Y0.4714
G01 X-85.8987 Y0.4386
G01 X-85.9191 Y0.3940
G01 X-85.9330 Y0.3599
G01 X-85.9456 Y0.3253
G01 X-85.9569 Y0.2903
G01 X-85.9670 Y0.2549
G01 X-85.9757 Y0.2191
G01 X-85.9853 Y0.1710
G01 X-85.9909 Y0.1346
G01 X-85.9952 Y0.0980
G01 X-85.9981 Y0.0613
G01 X-85.9997 Y0.0245
G01 X-86.0000 Y-27.0000
G01 X-85.9993 Y-27.0368
G01 X-85.9973 Y-27.0736
G01 X-85.9939 Y-27.1102
G01 X-85.9892 Y-27.1467
G01 X-85.9808 Y-27.1951
G01 X-85.9729 Y-27.2311
G01 X-85.9638 Y-27.2667
G01 X-85.9533 Y-27.3020
G01 X-85.9415 Y-27.3369
G01 X-85.9285 Y-27.3713
G01 X-85.9142 Y-27.4052
G01 X-85.8987 Y-27.4386
G01 X-85.8819 Y-27.4714
G01 X-85.8577 Y-27.5141
G01 X-85.8382 Y-27.5453
G01 X-85.8176 Y-27.5758
G01 X-85.7958 Y-27.6055
G01 X-85.7730 Y-27.6344
G01 X-85.7410 Y-27.6716
G01 X-85.7157 Y-27.6984
G01 X-85.6895 Y-27.7242
G01 X-85.6624 Y-27.7491
G01 X-85.6249 Y-27.7807
G01 X-85.5957 Y-27.8032
G01 X-85.5657 Y-27.8246
G01 X-85.5350 Y-27.8449
G01 X-85.5035 Y-27.8640
G01 X-85.4605 Y-27.8876
G01 X-85.4276 Y-27.9040
G01 X-85.3940 Y-27.9191
G01 X-85.3599 Y-27.9330
G01 X-85.3253 Y-27.9456
G01 X-85.2903 Y-27.9569
G01 X-85.2549 Y-27.9670
G01 X-85.2071 Y-27.9783
G01 X-85.1710 Y-27.9853
G01 X-85.1346 Y-27.9909
G01 X-85.0858 Y-27.9963
G01 X-85.0491 Y-27.9988
G01 X-85.0123 Y-27.9999
G01 X0.0000 Y-28.0000
G01 X0.0368 Y-27.9993
G01 X0.0736 Y-27.9973
G01 X0.1102 Y-27.9939
G01 X0.1467 Y-27.9892
G01 X0.1951 Y-27.9808
G01 X0.2311 Y-27.9729
G01 X0.2667 Y-27.9638
G01 X0.3020 Y-27.9533
G01 X0.3369 Y-27.9415
G01 X0.3713 Y-27.9285
G01 X0.4164 Y-27.9092
G01 X0.4496 Y-27.8932
G01 X0.4822 Y-27.8761
G01 X0.5141 Y-27.8577
G01 X0.5453 Y-27.8382
G01 X0.5758 Y-27.8176
G01 X0.6055 Y-27.7958
G01 X0.6344 Y-27.7730
G01 X0.6624 Y-27.7491
G01 X0.6895 Y-27.7242
G01 X0.7157 Y-27.6984
G01 X0.7410 Y-27.6716
G01 X0.7730 Y-27.6344
G01 X0.7958 Y-27.6055
G01 X0.8176 Y-27.5758
G01 X0.8449 Y-27.5350
G01 X0.8640 Y-27.5035
G01 X0.8819 Y-27.4714
G01 X0.8987 Y-27.4386
G01 X0.9191 Y-27.3940
G01 X0.9330 Y-27.3599
G01 X0.9456 Y-27.3253
G01 X0.9604 Y-27.2785
G01 X0.9700 Y-27.2430
G01 X0.9783 Y-27.2071
G01 X0.9853 Y-27.1710
G01 X0.9909 Y-27.1346
G01 X0.9952 Y-27.0980
G01 X0.9981 Y-27.0613
G01 X0.9997 Y-27.0245
G01 X1.0000 Y0.0000
G00 X1.0000 Y0.0000
G01 F70.00
G01 Z-1.7000
G01 F120.00
G01 X0.9993 Y0.0368
G01 X0.9963 Y0.0858
G01 X0.9909 Y0.1346
G01 X0.9831 Y0.1830
G01 X0.9729 Y0.2311
G01 X0.9604 Y0.2785
G01 X0.9456 Y0.3253
G01 X0.9285 Y0.3713
G01 X0.9092 Y0.4164
G01 X0.8876 Y0.4605
G01 X0.8640 Y0.5035
G01 X0.8382 Y0.5453
G01 X0.8105 Y0.5858
G01 X0.7807 Y0.6249
G01 X0.7491 Y0.6624
G01 X0.7157 Y0.6984
G01 X0.6806 Y0.7327
G01 X0.6438 Y0.7652
G01 X0.6055 Y0.7958
G01 X0.5657 Y0.8246
G01 X0.5246 Y0.8514
G01 X0.4822 Y0.8761
G01 X0.4386 Y0.8987
G01 X0.3940 Y0.9191
G01 X0.3484 Y0.9373
G01 X0.3020 Y0.9533
G01 X0.2549 Y0.9670
G01 X0.2071 Y0.9783
G01 X0.1589 Y0.9873
G01 X0.1102 Y0.9939
G01 X0.0613 Y0.9981
G01 X0.0123 Y0.9999
G01 X-85.0000 Y1.0000
G01 X-85.0368 Y0.9993
G01 X-85.0736 Y0.9973
G01 X-85.1102 Y0.9939
G01 X-85.1467 Y0.9892
G01 X-85.1830 Y0.9831
G01 X-85.2191 Y0.9757
G01 X-85.2549 Y0.9670
G01 X-85.3020 Y0.9533
G01 X-85.3369 Y0.9415
G01 X-85.3713 Y0.9285
G01 X-85.4052 Y0.9142
G01 X-85.4496 Y0.8932
G01 X-85.4822 Y0.8761
G01 X-85.5141 Y0.8577
G01 X-85.5453 Y0.8382
G01 X-85.5758 Y0.8176
G01 X-85.6152 Y0.7883
G01 X-85.6438 Y0.7652
G01 X-85.6716 Y0.7410
G01 X-85.6984 Y0.7157
G01 X-85.7242 Y0.6895
G01 X-85.7491 Y0.6624
G01 X-85.7730 Y0.6344
G01 X-85.8032 Y0.5957
G01 X-85.8246 Y0.5657
G01 X-85.8449 Y0.5350
G01 X-85.8640 Y0.5035
G01 X-85.8819 Y0.4714
G01 X-85.8987 Y0.4386
G01 X-85.9191 Y0.3940
G01 X-85.9330 Y0.3599
G01 X-85.9456 Y0.3253
G01 X-85.9569 Y0.2903
G01 X-85.9670 Y0.2549
G01 X-85.9757 Y0.2191
G01 X-85.9853 Y0.1710
G01 X-85.9909 Y0.1346
G01 X-85.9952 Y0.0980
G01 X-85.9981 Y0.0613
G01 X-85.9997 Y0.0245
G01 X-86.0000 Y-27.0000
G01 X-85.9993 Y-27.0368
G01 X-85.9973 Y-27.0736
G01 X-85.9939 Y-27.1102
G01 X-85.9892 Y-27.1467
G01 X-85.9808 Y-27.1951
G01 X-85.9729 Y-27.2311
G01 X-85.9638 Y-27.2667
G01 X-85.9533 Y-27.3020
G01 X-85.9415 Y-27.3369
G01 X-85.9285 Y-27.3713
G01 X-85.9142 Y-27.4052
G01 X-85.8987 Y-27.4386
G01 X-85.8819 Y-27.4714
G01 X-85.8577 Y-27.5141
G01 X-85.8382 Y-27.5453
G01 X-85.8176 Y-27.5758
G01 X-85.7958 Y-27.6055
G01 X-85.7730 Y-27.6344
G01 X-85.7410 Y-27.6716
G01 X-85.7157 Y-27.6984
G01 X-85.6895 Y-27.7242
G01 X-85.6624 Y-27.7491
G01 X-85.6249 Y-27.7807
G01 X-85.5957 Y-27.8032
G01 X-85.5657 Y-27.8246
G01 X-85.5350 Y-27.8449
G01 X-85.5035 Y-27.8640
G01 X-85.4605 Y-27.8876
G01 X-85.4276 Y-27.9040
G01 X-85.3940 Y-27.9191
G01 X-85.3599 Y-27.9330
G01 X-85.3253 Y-27.9456
G01 X-85.2903 Y-27.9569
G01 X-85.2549 Y-27.9670
G01 X-85.2071 Y-27.9783
G01 X-85.1710 Y-27.9853
G01 X-85.1346 Y-27.9909
G01 X-85.0858 Y-27.9963
G01 X-85.0491 Y-27.9988
G01 X-85.0123 Y-27.9999
G01 X0.0000 Y-28.0000
G01 X0.0368 Y-27.9993
G01 X0.0736 Y-27.9973
G01 X0.1102 Y-27.9939
G01 X0.1467 Y-27.9892
G01 X0.1951 Y-27.9808
G01 X0.2311 Y-27.9729
G01 X0.2667 Y-27.9638
G01 X0.3020 Y-27.9533
G01 X0.3369 Y-27.9415
G01 X0.3713 Y-27.9285
G01 X0.4164 Y-27.9092
G01 X0.4496 Y-27.8932
G01 X0.4822 Y-27.8761
G01 X0.5141 Y-27.8577
G01 X0.5453 Y-27.8382
G01 X0.5758 Y-27.8176
G01 X0.6055 Y-27.7958
G01 X0.6344 Y-27.7730
G01 X0.6624 Y-27.7491
G01 X0.6895 Y-27.7242
G01 X0.7157 Y-27.6984
G01 X0.7410 Y-27.6716
G01 X0.7730 Y-27.6344
G01 X0.7958 Y-27.6055
G01 X0.8176 Y-27.5758
G01 X0.8449 Y-27.5350
G01 X0.8640 Y-27.5035
G01 X0.8819 Y-27.4714
G01 X0.8987 Y-27.4386
G01 X0.9191 Y-27.3940
G01 X0.9330 Y-27.3599
G01 X0.9456 Y-27.3253
G01 X0.9604 Y-27.2785
G01 X0.9700 Y-27.2430
G01 X0.9783 Y-27.2071
G01 X0.9853 Y-27.1710
G01 X0.9909 Y-27.1346
G01 X0.9952 Y-27.0980
G01 X0.9981 Y-27.0613
G01 X0.9997 Y-27.0245
G01 X1.0000 Y0.0000
G00 X1.0000 Y0.0000
G01 F70.00
G01 Z-1.8000
G01 F120.00
G01 X0.9993 Y0.0368
G01 X0.9963 Y0.0858
G01 X0.9909 Y0.1346
G01 X0.9831 Y0.1830
G01 X0.9729 Y0.2311
G01 X0.9604 Y0.2785
G01 X0.9456 Y0.3253
G01 X0.9285 Y0.3713
G01 X0.9092 Y0.4164
G01 X0.8876 Y0.4605
G01 X0.8640 Y0.5035
G01 X0.8382 Y0.5453
G01 X0.8105 Y0.5858
G01 X0.7807 Y0.6249
G01 X0.7491 Y0.6624
G01 X0.7157 Y0.6984
G01 X0.6806 Y0.7327
G01 X0.6438 Y0.7652
G01 X0.6055 Y0.7958
G01 X0.5657 Y0.8246
G01 X0.5246 Y0.8514
G01 X0.4822 Y0.8761
G01 X0.4386 Y0.8987
G01 X0.3940 Y0.9191
G01 X0.3484 Y0.9373
G01 X0.3020 Y0.9533
G01 X0.2549 Y0.9670
G01 X0.2071 Y0.9783
G01 X0.1589 Y0.9873
G01 X0.1102 Y0.9939
G01 X0.0613 Y0.9981
G01 X0.0123 Y0.9999
G01 X-85.0000 Y1.0000
G01 X-85.0368 Y0.9993
G01 X-85.0736 Y0.9973
G01 X-85.1102 Y0.9939
G01 X-85.1467 Y0.9892
G01 X-85.1830 Y0.9831
G01 X-85.2191 Y0.9757
G01 X-85.2549 Y0.9670
G01 X-85.3020 Y0.9533
G01 X-85.3369 Y0.9415
G01 X-85.3713 Y0.9285
G01 X-85.4052 Y0.9142
G01 X-85.4496 Y0.8932
G01 X-85.4822 Y0.8761
G01 X-85.5141 Y0.8577
G01 X-85.5453 Y0.8382
G01 X-85.5758 Y0.8176
G01 X-85.6152 Y0.7883
G01 X-85.6438 Y0.7652
G01 X-85.6716 Y0.7410
G01 X-85.6984 Y0.7157
G01 X-85.7242 Y0.6895
G01 X-85.7491 Y0.6624
G01 X-85.7730 Y0.6344
G01 X-85.8032 Y0.5957
G01 X-85.8246 Y0.5657
G01 X-85.8449 Y0.5350
G01 X-85.8640 Y0.5035
G01 X-85.8819 Y0.4714
G01 X-85.8987 Y0.4386
G01 X-85.9191 Y0.3940
G01 X-85.9330 Y0.3599
G01 X-85.9456 Y0.3253
G01 X-85.9569 Y0.2903
G01 X-85.9670 Y0.2549
G01 X-85.9757 Y0.2191
G01 X-85.9853 Y0.1710
G01 X-85.9909 Y0.1346
G01 X-85.9952 Y0.0980
G01 X-85.9981 Y0.0613
G01 X-85.9997 Y0.0245
G01 X-86.0000 Y-27.0000
G01 X-85.9993 Y-27.0368
G01 X-85.9973 Y-27.0736
G01 X-85.9939 Y-27.1102
G01 X-85.9892 Y-27.1467
G01 X-85.9808 Y-27.1951
G01 X-85.9729 Y-27.2311
G01 X-85.9638 Y-27.2667
G01 X-85.9533 Y-27.3020
G01 X-85.9415 Y-27.3369
G01 X-85.9285 Y-27.3713
G01 X-85.9142 Y-27.4052
G01 X-85.8987 Y-27.4386
G01 X-85.8819 Y-27.4714
G01 X-85.8577 Y-27.5141
G01 X-85.8382 Y-27.5453
G01 X-85.8176 Y-27.5758
G01 X-85.7958 Y-27.6055
G01 X-85.7730 Y-27.6344
G01 X-85.7410 Y-27.6716
G01 X-85.7157 Y-27.6984
G01 X-85.6895 Y-27.7242
G01 X-85.6624 Y-27.7491
G01 X-85.6249 Y-27.7807
G01 X-85.5957 Y-27.8032
G01 X-85.5657 Y-27.8246
G01 X-85.5350 Y-27.8449
G01 X-85.5035 Y-27.8640
G01 X-85.4605 Y-27.8876
G01 X-85.4276 Y-27.9040
G01 X-85.3940 Y-27.9191
G01 X-85.3599 Y-27.9330
G01 X-85.3253 Y-27.9456
G01 X-85.2903 Y-27.9569
G01 X-85.2549 Y-27.9670
G01 X-85.2071 Y-27.9783
G01 X-85.1710 Y-27.9853
G01 X-85.1346 Y-27.9909
G01 X-85.0858 Y-27.9963
G01 X-85.0491 Y-27.9988
G01 X-85.0123 Y-27.9999
G01 X0.0000 Y-28.0000
G01 X0.0368 Y-27.9993
G01 X0.0736 Y-27.9973
G01 X0.1102 Y-27.9939
G01 X0.1467 Y-27.9892
G01 X0.1951 Y-27.9808
G01 X0.2311 Y-27.9729
G01 X0.2667 Y-27.9638
G01 X0.3020 Y-27.9533
G01 X0.3369 Y-27.9415
G01 X0.3713 Y-27.9285
G01 X0.4164 Y-27.9092
G01 X0.4496 Y-27.8932
G01 X0.4822 Y-27.8761
G01 X0.5141 Y-27.8577
G01 X0.5453 Y-27.8382
G01 X0.5758 Y-27.8176
G01 X0.6055 Y-27.7958
G01 X0.6344 Y-27.7730
G01 X0.6624 Y-27.7491
G01 X0.6895 Y-27.7242
G01 X0.7157 Y-27.6984
G01 X0.7410 Y-27.6716
G01 X0.7730 Y-27.6344
G01 X0.7958 Y-27.6055
G01 X0.8176 Y-27.5758
G01 X0.8449 Y-27.5350
G01 X0.8640 Y-27.5035
G01 X0.8819 Y-27.4714
G01 X0.8987 Y-27.4386
G01 X0.9191 Y-27.3940
G01 X0.9330 Y-27.3599
G01 X0.9456 Y-27.3253
G01 X0.9604 Y-27.2785
G01 X0.9700 Y-27.2430
G01 X0.9783 Y-27.2071
G01 X0.9853 Y-27.1710
G01 X0.9909 Y-27.1346
G01 X0.9952 Y-27.0980
G01 X0.9981 Y-27.0613
G01 X0.9997 Y-27.0245
G01 X1.0000 Y0.0000
G00 Z2.0000
M05
G00 Z2.0000
G00 Z25.00

