(G-CODE GENERATED BY FLATCAM v8.993 - www.flatcam.org - Version Date: 2020/06/05)

(Name: PA6144_Ф1_верх.gbr_iso_combined1_cnc)
(Type: G-code from Geometry)
(Units: MM)

(Created on Tuesday, 05 January 2021 at 01:22)

(This preprocessor is the default preprocessor used by FlatCAM.)
(It is made to work with MACH3 compatible motion controllers.)

(TOOL DIAMETER: 2.0 mm)
(Feedrate_XY: 120.0 mm/min)
(Feedrate_Z: 70.0 mm/min)
(Feedrate rapids 1500.0 mm/min)

(Z_Cut: -1.8 mm)
(DepthPerCut: 0.1 mm <=>18 passes)
(Z_Move: 2.0 mm)
(Z Start: None mm)
(Z End: 25.0 mm)
(Steps per circle: 128)
(Preprocessor Geometry: default)

(X range:   63.1844 ...   67.9838  mm)
(Y range:  -24.2620 ...   -7.9533  mm)

(Spindle Speed: 10000 RPM)
G21
G90
G94



G01 F120.00
G00 Z2.0000

M03 S10000
G00 X66.5966 Y-12.6285
G01 F70.00
G01 Z-0.1000
G01 F120.00
G01 X64.5716 Y-12.6285
G01 X64.5367 Y-12.5845
G01 X64.5042 Y-12.5477
G01 X64.4611 Y-12.5041
G01 X64.4247 Y-12.4711
G01 X64.3868 Y-12.4400
G01 X64.3473 Y-12.4108
G01 X64.3168 Y-12.3901
G01 X64.2509 Y-12.3483
G01 X64.1546 Y-12.2805
G01 X64.0617 Y-12.2080
G01 X63.9726 Y-12.1311
G01 X63.8873 Y-12.0498
G01 X63.8060 Y-11.9645
G01 X63.7291 Y-11.8754
G01 X63.6566 Y-11.7825
G01 X63.5888 Y-11.6862
G01 X63.5258 Y-11.5867
G01 X63.4678 Y-11.4842
G01 X63.4148 Y-11.3790
G01 X63.3671 Y-11.2713
G01 X63.3247 Y-11.1614
G01 X63.2877 Y-11.0496
G01 X63.2563 Y-10.9361
G01 X63.2305 Y-10.8212
G01 X63.2104 Y-10.7051
G01 X63.1960 Y-10.5882
G01 X63.1873 Y-10.4707
G01 X63.1844 Y-10.3530
G01 X63.1873 Y-10.2353
G01 X63.1960 Y-10.1178
G01 X63.2104 Y-10.0009
G01 X63.2305 Y-9.8848
G01 X63.2563 Y-9.7699
G01 X63.2877 Y-9.6564
G01 X63.3247 Y-9.5446
G01 X63.3671 Y-9.4347
G01 X63.4148 Y-9.3270
G01 X63.4678 Y-9.2218
G01 X63.5258 Y-9.1193
G01 X63.5888 Y-9.0198
G01 X63.6566 Y-8.9235
G01 X63.7291 Y-8.8306
G01 X63.8060 Y-8.7415
G01 X63.8873 Y-8.6562
G01 X63.9726 Y-8.5749
G01 X64.0617 Y-8.4980
G01 X64.1546 Y-8.4255
G01 X64.2509 Y-8.3577
G01 X64.3504 Y-8.2947
G01 X64.4529 Y-8.2367
G01 X64.5581 Y-8.1837
G01 X64.6658 Y-8.1360
G01 X64.7757 Y-8.0936
G01 X64.8875 Y-8.0566
G01 X65.0010 Y-8.0252
G01 X65.1159 Y-7.9994
G01 X65.2320 Y-7.9793
G01 X65.3489 Y-7.9649
G01 X65.4664 Y-7.9562
G01 X65.5841 Y-7.9533
G01 X65.7018 Y-7.9562
G01 X65.8193 Y-7.9649
G01 X65.9362 Y-7.9793
G01 X66.0523 Y-7.9994
G01 X66.1672 Y-8.0252
G01 X66.2807 Y-8.0566
G01 X66.3925 Y-8.0936
G01 X66.5024 Y-8.1360
G01 X66.6101 Y-8.1837
G01 X66.7153 Y-8.2367
G01 X66.8178 Y-8.2947
G01 X66.9173 Y-8.3577
G01 X67.0136 Y-8.4255
G01 X67.1065 Y-8.4980
G01 X67.1956 Y-8.5749
G01 X67.2809 Y-8.6562
G01 X67.3622 Y-8.7415
G01 X67.4391 Y-8.8306
G01 X67.5116 Y-8.9235
G01 X67.5794 Y-9.0198
G01 X67.6424 Y-9.1193
G01 X67.7004 Y-9.2218
G01 X67.7534 Y-9.3270
G01 X67.8011 Y-9.4347
G01 X67.8435 Y-9.5446
G01 X67.8805 Y-9.6564
G01 X67.9119 Y-9.7699
G01 X67.9377 Y-9.8848
G01 X67.9578 Y-10.0009
G01 X67.9722 Y-10.1178
G01 X67.9809 Y-10.2353
G01 X67.9838 Y-10.3530
G01 X67.9809 Y-10.4707
G01 X67.9722 Y-10.5882
G01 X67.9578 Y-10.7051
G01 X67.9377 Y-10.8212
G01 X67.9119 Y-10.9361
G01 X67.8805 Y-11.0496
G01 X67.8435 Y-11.1614
G01 X67.8011 Y-11.2713
G01 X67.7534 Y-11.3790
G01 X67.7004 Y-11.4842
G01 X67.6424 Y-11.5867
G01 X67.5794 Y-11.6862
G01 X67.5116 Y-11.7825
G01 X67.4391 Y-11.8754
G01 X67.3622 Y-11.9645
G01 X67.2809 Y-12.0498
G01 X67.1956 Y-12.1311
G01 X67.1065 Y-12.2080
G01 X67.0136 Y-12.2805
G01 X66.9173 Y-12.3483
G01 X66.8514 Y-12.3901
G01 X66.8209 Y-12.4108
G01 X66.7912 Y-12.4325
G01 X66.7623 Y-12.4553
G01 X66.7161 Y-12.4957
G01 X66.6724 Y-12.5388
G01 X66.6315 Y-12.5845
G01 X66.5966 Y-12.6285
G00 X66.5966 Y-12.6285
G01 F70.00
G01 Z-0.2000
G01 F120.00
G01 X64.5716 Y-12.6285
G01 X64.5367 Y-12.5845
G01 X64.5042 Y-12.5477
G01 X64.4611 Y-12.5041
G01 X64.4247 Y-12.4711
G01 X64.3868 Y-12.4400
G01 X64.3473 Y-12.4108
G01 X64.3168 Y-12.3901
G01 X64.2509 Y-12.3483
G01 X64.1546 Y-12.2805
G01 X64.0617 Y-12.2080
G01 X63.9726 Y-12.1311
G01 X63.8873 Y-12.0498
G01 X63.8060 Y-11.9645
G01 X63.7291 Y-11.8754
G01 X63.6566 Y-11.7825
G01 X63.5888 Y-11.6862
G01 X63.5258 Y-11.5867
G01 X63.4678 Y-11.4842
G01 X63.4148 Y-11.3790
G01 X63.3671 Y-11.2713
G01 X63.3247 Y-11.1614
G01 X63.2877 Y-11.0496
G01 X63.2563 Y-10.9361
G01 X63.2305 Y-10.8212
G01 X63.2104 Y-10.7051
G01 X63.1960 Y-10.5882
G01 X63.1873 Y-10.4707
G01 X63.1844 Y-10.3530
G01 X63.1873 Y-10.2353
G01 X63.1960 Y-10.1178
G01 X63.2104 Y-10.0009
G01 X63.2305 Y-9.8848
G01 X63.2563 Y-9.7699
G01 X63.2877 Y-9.6564
G01 X63.3247 Y-9.5446
G01 X63.3671 Y-9.4347
G01 X63.4148 Y-9.3270
G01 X63.4678 Y-9.2218
G01 X63.5258 Y-9.1193
G01 X63.5888 Y-9.0198
G01 X63.6566 Y-8.9235
G01 X63.7291 Y-8.8306
G01 X63.8060 Y-8.7415
G01 X63.8873 Y-8.6562
G01 X63.9726 Y-8.5749
G01 X64.0617 Y-8.4980
G01 X64.1546 Y-8.4255
G01 X64.2509 Y-8.3577
G01 X64.3504 Y-8.2947
G01 X64.4529 Y-8.2367
G01 X64.5581 Y-8.1837
G01 X64.6658 Y-8.1360
G01 X64.7757 Y-8.0936
G01 X64.8875 Y-8.0566
G01 X65.0010 Y-8.0252
G01 X65.1159 Y-7.9994
G01 X65.2320 Y-7.9793
G01 X65.3489 Y-7.9649
G01 X65.4664 Y-7.9562
G01 X65.5841 Y-7.9533
G01 X65.7018 Y-7.9562
G01 X65.8193 Y-7.9649
G01 X65.9362 Y-7.9793
G01 X66.0523 Y-7.9994
G01 X66.1672 Y-8.0252
G01 X66.2807 Y-8.0566
G01 X66.3925 Y-8.0936
G01 X66.5024 Y-8.1360
G01 X66.6101 Y-8.1837
G01 X66.7153 Y-8.2367
G01 X66.8178 Y-8.2947
G01 X66.9173 Y-8.3577
G01 X67.0136 Y-8.4255
G01 X67.1065 Y-8.4980
G01 X67.1956 Y-8.5749
G01 X67.2809 Y-8.6562
G01 X67.3622 Y-8.7415
G01 X67.4391 Y-8.8306
G01 X67.5116 Y-8.9235
G01 X67.5794 Y-9.0198
G01 X67.6424 Y-9.1193
G01 X67.7004 Y-9.2218
G01 X67.7534 Y-9.3270
G01 X67.8011 Y-9.4347
G01 X67.8435 Y-9.5446
G01 X67.8805 Y-9.6564
G01 X67.9119 Y-9.7699
G01 X67.9377 Y-9.8848
G01 X67.9578 Y-10.0009
G01 X67.9722 Y-10.1178
G01 X67.9809 Y-10.2353
G01 X67.9838 Y-10.3530
G01 X67.9809 Y-10.4707
G01 X67.9722 Y-10.5882
G01 X67.9578 Y-10.7051
G01 X67.9377 Y-10.8212
G01 X67.9119 Y-10.9361
G01 X67.8805 Y-11.0496
G01 X67.8435 Y-11.1614
G01 X67.8011 Y-11.2713
G01 X67.7534 Y-11.3790
G01 X67.7004 Y-11.4842
G01 X67.6424 Y-11.5867
G01 X67.5794 Y-11.6862
G01 X67.5116 Y-11.7825
G01 X67.4391 Y-11.8754
G01 X67.3622 Y-11.9645
G01 X67.2809 Y-12.0498
G01 X67.1956 Y-12.1311
G01 X67.1065 Y-12.2080
G01 X67.0136 Y-12.2805
G01 X66.9173 Y-12.3483
G01 X66.8514 Y-12.3901
G01 X66.8209 Y-12.4108
G01 X66.7912 Y-12.4325
G01 X66.7623 Y-12.4553
G01 X66.7161 Y-12.4957
G01 X66.6724 Y-12.5388
G01 X66.6315 Y-12.5845
G01 X66.5966 Y-12.6285
G00 X66.5966 Y-12.6285
G01 F70.00
G01 Z-0.3000
G01 F120.00
G01 X64.5716 Y-12.6285
G01 X64.5367 Y-12.5845
G01 X64.5042 Y-12.5477
G01 X64.4611 Y-12.5041
G01 X64.4247 Y-12.4711
G01 X64.3868 Y-12.4400
G01 X64.3473 Y-12.4108
G01 X64.3168 Y-12.3901
G01 X64.2509 Y-12.3483
G01 X64.1546 Y-12.2805
G01 X64.0617 Y-12.2080
G01 X63.9726 Y-12.1311
G01 X63.8873 Y-12.0498
G01 X63.8060 Y-11.9645
G01 X63.7291 Y-11.8754
G01 X63.6566 Y-11.7825
G01 X63.5888 Y-11.6862
G01 X63.5258 Y-11.5867
G01 X63.4678 Y-11.4842
G01 X63.4148 Y-11.3790
G01 X63.3671 Y-11.2713
G01 X63.3247 Y-11.1614
G01 X63.2877 Y-11.0496
G01 X63.2563 Y-10.9361
G01 X63.2305 Y-10.8212
G01 X63.2104 Y-10.7051
G01 X63.1960 Y-10.5882
G01 X63.1873 Y-10.4707
G01 X63.1844 Y-10.3530
G01 X63.1873 Y-10.2353
G01 X63.1960 Y-10.1178
G01 X63.2104 Y-10.0009
G01 X63.2305 Y-9.8848
G01 X63.2563 Y-9.7699
G01 X63.2877 Y-9.6564
G01 X63.3247 Y-9.5446
G01 X63.3671 Y-9.4347
G01 X63.4148 Y-9.3270
G01 X63.4678 Y-9.2218
G01 X63.5258 Y-9.1193
G01 X63.5888 Y-9.0198
G01 X63.6566 Y-8.9235
G01 X63.7291 Y-8.8306
G01 X63.8060 Y-8.7415
G01 X63.8873 Y-8.6562
G01 X63.9726 Y-8.5749
G01 X64.0617 Y-8.4980
G01 X64.1546 Y-8.4255
G01 X64.2509 Y-8.3577
G01 X64.3504 Y-8.2947
G01 X64.4529 Y-8.2367
G01 X64.5581 Y-8.1837
G01 X64.6658 Y-8.1360
G01 X64.7757 Y-8.0936
G01 X64.8875 Y-8.0566
G01 X65.0010 Y-8.0252
G01 X65.1159 Y-7.9994
G01 X65.2320 Y-7.9793
G01 X65.3489 Y-7.9649
G01 X65.4664 Y-7.9562
G01 X65.5841 Y-7.9533
G01 X65.7018 Y-7.9562
G01 X65.8193 Y-7.9649
G01 X65.9362 Y-7.9793
G01 X66.0523 Y-7.9994
G01 X66.1672 Y-8.0252
G01 X66.2807 Y-8.0566
G01 X66.3925 Y-8.0936
G01 X66.5024 Y-8.1360
G01 X66.6101 Y-8.1837
G01 X66.7153 Y-8.2367
G01 X66.8178 Y-8.2947
G01 X66.9173 Y-8.3577
G01 X67.0136 Y-8.4255
G01 X67.1065 Y-8.4980
G01 X67.1956 Y-8.5749
G01 X67.2809 Y-8.6562
G01 X67.3622 Y-8.7415
G01 X67.4391 Y-8.8306
G01 X67.5116 Y-8.9235
G01 X67.5794 Y-9.0198
G01 X67.6424 Y-9.1193
G01 X67.7004 Y-9.2218
G01 X67.7534 Y-9.3270
G01 X67.8011 Y-9.4347
G01 X67.8435 Y-9.5446
G01 X67.8805 Y-9.6564
G01 X67.9119 Y-9.7699
G01 X67.9377 Y-9.8848
G01 X67.9578 Y-10.0009
G01 X67.9722 Y-10.1178
G01 X67.9809 Y-10.2353
G01 X67.9838 Y-10.3530
G01 X67.9809 Y-10.4707
G01 X67.9722 Y-10.5882
G01 X67.9578 Y-10.7051
G01 X67.9377 Y-10.8212
G01 X67.9119 Y-10.9361
G01 X67.8805 Y-11.0496
G01 X67.8435 Y-11.1614
G01 X67.8011 Y-11.2713
G01 X67.7534 Y-11.3790
G01 X67.7004 Y-11.4842
G01 X67.6424 Y-11.5867
G01 X67.5794 Y-11.6862
G01 X67.5116 Y-11.7825
G01 X67.4391 Y-11.8754
G01 X67.3622 Y-11.9645
G01 X67.2809 Y-12.0498
G01 X67.1956 Y-12.1311
G01 X67.1065 Y-12.2080
G01 X67.0136 Y-12.2805
G01 X66.9173 Y-12.3483
G01 X66.8514 Y-12.3901
G01 X66.8209 Y-12.4108
G01 X66.7912 Y-12.4325
G01 X66.7623 Y-12.4553
G01 X66.7161 Y-12.4957
G01 X66.6724 Y-12.5388
G01 X66.6315 Y-12.5845
G01 X66.5966 Y-12.6285
G00 X66.5966 Y-12.6285
G01 F70.00
G01 Z-0.4000
G01 F120.00
G01 X64.5716 Y-12.6285
G01 X64.5367 Y-12.5845
G01 X64.5042 Y-12.5477
G01 X64.4611 Y-12.5041
G01 X64.4247 Y-12.4711
G01 X64.3868 Y-12.4400
G01 X64.3473 Y-12.4108
G01 X64.3168 Y-12.3901
G01 X64.2509 Y-12.3483
G01 X64.1546 Y-12.2805
G01 X64.0617 Y-12.2080
G01 X63.9726 Y-12.1311
G01 X63.8873 Y-12.0498
G01 X63.8060 Y-11.9645
G01 X63.7291 Y-11.8754
G01 X63.6566 Y-11.7825
G01 X63.5888 Y-11.6862
G01 X63.5258 Y-11.5867
G01 X63.4678 Y-11.4842
G01 X63.4148 Y-11.3790
G01 X63.3671 Y-11.2713
G01 X63.3247 Y-11.1614
G01 X63.2877 Y-11.0496
G01 X63.2563 Y-10.9361
G01 X63.2305 Y-10.8212
G01 X63.2104 Y-10.7051
G01 X63.1960 Y-10.5882
G01 X63.1873 Y-10.4707
G01 X63.1844 Y-10.3530
G01 X63.1873 Y-10.2353
G01 X63.1960 Y-10.1178
G01 X63.2104 Y-10.0009
G01 X63.2305 Y-9.8848
G01 X63.2563 Y-9.7699
G01 X63.2877 Y-9.6564
G01 X63.3247 Y-9.5446
G01 X63.3671 Y-9.4347
G01 X63.4148 Y-9.3270
G01 X63.4678 Y-9.2218
G01 X63.5258 Y-9.1193
G01 X63.5888 Y-9.0198
G01 X63.6566 Y-8.9235
G01 X63.7291 Y-8.8306
G01 X63.8060 Y-8.7415
G01 X63.8873 Y-8.6562
G01 X63.9726 Y-8.5749
G01 X64.0617 Y-8.4980
G01 X64.1546 Y-8.4255
G01 X64.2509 Y-8.3577
G01 X64.3504 Y-8.2947
G01 X64.4529 Y-8.2367
G01 X64.5581 Y-8.1837
G01 X64.6658 Y-8.1360
G01 X64.7757 Y-8.0936
G01 X64.8875 Y-8.0566
G01 X65.0010 Y-8.0252
G01 X65.1159 Y-7.9994
G01 X65.2320 Y-7.9793
G01 X65.3489 Y-7.9649
G01 X65.4664 Y-7.9562
G01 X65.5841 Y-7.9533
G01 X65.7018 Y-7.9562
G01 X65.8193 Y-7.9649
G01 X65.9362 Y-7.9793
G01 X66.0523 Y-7.9994
G01 X66.1672 Y-8.0252
G01 X66.2807 Y-8.0566
G01 X66.3925 Y-8.0936
G01 X66.5024 Y-8.1360
G01 X66.6101 Y-8.1837
G01 X66.7153 Y-8.2367
G01 X66.8178 Y-8.2947
G01 X66.9173 Y-8.3577
G01 X67.0136 Y-8.4255
G01 X67.1065 Y-8.4980
G01 X67.1956 Y-8.5749
G01 X67.2809 Y-8.6562
G01 X67.3622 Y-8.7415
G01 X67.4391 Y-8.8306
G01 X67.5116 Y-8.9235
G01 X67.5794 Y-9.0198
G01 X67.6424 Y-9.1193
G01 X67.7004 Y-9.2218
G01 X67.7534 Y-9.3270
G01 X67.8011 Y-9.4347
G01 X67.8435 Y-9.5446
G01 X67.8805 Y-9.6564
G01 X67.9119 Y-9.7699
G01 X67.9377 Y-9.8848
G01 X67.9578 Y-10.0009
G01 X67.9722 Y-10.1178
G01 X67.9809 Y-10.2353
G01 X67.9838 Y-10.3530
G01 X67.9809 Y-10.4707
G01 X67.9722 Y-10.5882
G01 X67.9578 Y-10.7051
G01 X67.9377 Y-10.8212
G01 X67.9119 Y-10.9361
G01 X67.8805 Y-11.0496
G01 X67.8435 Y-11.1614
G01 X67.8011 Y-11.2713
G01 X67.7534 Y-11.3790
G01 X67.7004 Y-11.4842
G01 X67.6424 Y-11.5867
G01 X67.5794 Y-11.6862
G01 X67.5116 Y-11.7825
G01 X67.4391 Y-11.8754
G01 X67.3622 Y-11.9645
G01 X67.2809 Y-12.0498
G01 X67.1956 Y-12.1311
G01 X67.1065 Y-12.2080
G01 X67.0136 Y-12.2805
G01 X66.9173 Y-12.3483
G01 X66.8514 Y-12.3901
G01 X66.8209 Y-12.4108
G01 X66.7912 Y-12.4325
G01 X66.7623 Y-12.4553
G01 X66.7161 Y-12.4957
G01 X66.6724 Y-12.5388
G01 X66.6315 Y-12.5845
G01 X66.5966 Y-12.6285
G00 X66.5966 Y-12.6285
G01 F70.00
G01 Z-0.5000
G01 F120.00
G01 X64.5716 Y-12.6285
G01 X64.5367 Y-12.5845
G01 X64.5042 Y-12.5477
G01 X64.4611 Y-12.5041
G01 X64.4247 Y-12.4711
G01 X64.3868 Y-12.4400
G01 X64.3473 Y-12.4108
G01 X64.3168 Y-12.3901
G01 X64.2509 Y-12.3483
G01 X64.1546 Y-12.2805
G01 X64.0617 Y-12.2080
G01 X63.9726 Y-12.1311
G01 X63.8873 Y-12.0498
G01 X63.8060 Y-11.9645
G01 X63.7291 Y-11.8754
G01 X63.6566 Y-11.7825
G01 X63.5888 Y-11.6862
G01 X63.5258 Y-11.5867
G01 X63.4678 Y-11.4842
G01 X63.4148 Y-11.3790
G01 X63.3671 Y-11.2713
G01 X63.3247 Y-11.1614
G01 X63.2877 Y-11.0496
G01 X63.2563 Y-10.9361
G01 X63.2305 Y-10.8212
G01 X63.2104 Y-10.7051
G01 X63.1960 Y-10.5882
G01 X63.1873 Y-10.4707
G01 X63.1844 Y-10.3530
G01 X63.1873 Y-10.2353
G01 X63.1960 Y-10.1178
G01 X63.2104 Y-10.0009
G01 X63.2305 Y-9.8848
G01 X63.2563 Y-9.7699
G01 X63.2877 Y-9.6564
G01 X63.3247 Y-9.5446
G01 X63.3671 Y-9.4347
G01 X63.4148 Y-9.3270
G01 X63.4678 Y-9.2218
G01 X63.5258 Y-9.1193
G01 X63.5888 Y-9.0198
G01 X63.6566 Y-8.9235
G01 X63.7291 Y-8.8306
G01 X63.8060 Y-8.7415
G01 X63.8873 Y-8.6562
G01 X63.9726 Y-8.5749
G01 X64.0617 Y-8.4980
G01 X64.1546 Y-8.4255
G01 X64.2509 Y-8.3577
G01 X64.3504 Y-8.2947
G01 X64.4529 Y-8.2367
G01 X64.5581 Y-8.1837
G01 X64.6658 Y-8.1360
G01 X64.7757 Y-8.0936
G01 X64.8875 Y-8.0566
G01 X65.0010 Y-8.0252
G01 X65.1159 Y-7.9994
G01 X65.2320 Y-7.9793
G01 X65.3489 Y-7.9649
G01 X65.4664 Y-7.9562
G01 X65.5841 Y-7.9533
G01 X65.7018 Y-7.9562
G01 X65.8193 Y-7.9649
G01 X65.9362 Y-7.9793
G01 X66.0523 Y-7.9994
G01 X66.1672 Y-8.0252
G01 X66.2807 Y-8.0566
G01 X66.3925 Y-8.0936
G01 X66.5024 Y-8.1360
G01 X66.6101 Y-8.1837
G01 X66.7153 Y-8.2367
G01 X66.8178 Y-8.2947
G01 X66.9173 Y-8.3577
G01 X67.0136 Y-8.4255
G01 X67.1065 Y-8.4980
G01 X67.1956 Y-8.5749
G01 X67.2809 Y-8.6562
G01 X67.3622 Y-8.7415
G01 X67.4391 Y-8.8306
G01 X67.5116 Y-8.9235
G01 X67.5794 Y-9.0198
G01 X67.6424 Y-9.1193
G01 X67.7004 Y-9.2218
G01 X67.7534 Y-9.3270
G01 X67.8011 Y-9.4347
G01 X67.8435 Y-9.5446
G01 X67.8805 Y-9.6564
G01 X67.9119 Y-9.7699
G01 X67.9377 Y-9.8848
G01 X67.9578 Y-10.0009
G01 X67.9722 Y-10.1178
G01 X67.9809 Y-10.2353
G01 X67.9838 Y-10.3530
G01 X67.9809 Y-10.4707
G01 X67.9722 Y-10.5882
G01 X67.9578 Y-10.7051
G01 X67.9377 Y-10.8212
G01 X67.9119 Y-10.9361
G01 X67.8805 Y-11.0496
G01 X67.8435 Y-11.1614
G01 X67.8011 Y-11.2713
G01 X67.7534 Y-11.3790
G01 X67.7004 Y-11.4842
G01 X67.6424 Y-11.5867
G01 X67.5794 Y-11.6862
G01 X67.5116 Y-11.7825
G01 X67.4391 Y-11.8754
G01 X67.3622 Y-11.9645
G01 X67.2809 Y-12.0498
G01 X67.1956 Y-12.1311
G01 X67.1065 Y-12.2080
G01 X67.0136 Y-12.2805
G01 X66.9173 Y-12.3483
G01 X66.8514 Y-12.3901
G01 X66.8209 Y-12.4108
G01 X66.7912 Y-12.4325
G01 X66.7623 Y-12.4553
G01 X66.7161 Y-12.4957
G01 X66.6724 Y-12.5388
G01 X66.6315 Y-12.5845
G01 X66.5966 Y-12.6285
G00 X66.5966 Y-12.6285
G01 F70.00
G01 Z-0.6000
G01 F120.00
G01 X64.5716 Y-12.6285
G01 X64.5367 Y-12.5845
G01 X64.5042 Y-12.5477
G01 X64.4611 Y-12.5041
G01 X64.4247 Y-12.4711
G01 X64.3868 Y-12.4400
G01 X64.3473 Y-12.4108
G01 X64.3168 Y-12.3901
G01 X64.2509 Y-12.3483
G01 X64.1546 Y-12.2805
G01 X64.0617 Y-12.2080
G01 X63.9726 Y-12.1311
G01 X63.8873 Y-12.0498
G01 X63.8060 Y-11.9645
G01 X63.7291 Y-11.8754
G01 X63.6566 Y-11.7825
G01 X63.5888 Y-11.6862
G01 X63.5258 Y-11.5867
G01 X63.4678 Y-11.4842
G01 X63.4148 Y-11.3790
G01 X63.3671 Y-11.2713
G01 X63.3247 Y-11.1614
G01 X63.2877 Y-11.0496
G01 X63.2563 Y-10.9361
G01 X63.2305 Y-10.8212
G01 X63.2104 Y-10.7051
G01 X63.1960 Y-10.5882
G01 X63.1873 Y-10.4707
G01 X63.1844 Y-10.3530
G01 X63.1873 Y-10.2353
G01 X63.1960 Y-10.1178
G01 X63.2104 Y-10.0009
G01 X63.2305 Y-9.8848
G01 X63.2563 Y-9.7699
G01 X63.2877 Y-9.6564
G01 X63.3247 Y-9.5446
G01 X63.3671 Y-9.4347
G01 X63.4148 Y-9.3270
G01 X63.4678 Y-9.2218
G01 X63.5258 Y-9.1193
G01 X63.5888 Y-9.0198
G01 X63.6566 Y-8.9235
G01 X63.7291 Y-8.8306
G01 X63.8060 Y-8.7415
G01 X63.8873 Y-8.6562
G01 X63.9726 Y-8.5749
G01 X64.0617 Y-8.4980
G01 X64.1546 Y-8.4255
G01 X64.2509 Y-8.3577
G01 X64.3504 Y-8.2947
G01 X64.4529 Y-8.2367
G01 X64.5581 Y-8.1837
G01 X64.6658 Y-8.1360
G01 X64.7757 Y-8.0936
G01 X64.8875 Y-8.0566
G01 X65.0010 Y-8.0252
G01 X65.1159 Y-7.9994
G01 X65.2320 Y-7.9793
G01 X65.3489 Y-7.9649
G01 X65.4664 Y-7.9562
G01 X65.5841 Y-7.9533
G01 X65.7018 Y-7.9562
G01 X65.8193 Y-7.9649
G01 X65.9362 Y-7.9793
G01 X66.0523 Y-7.9994
G01 X66.1672 Y-8.0252
G01 X66.2807 Y-8.0566
G01 X66.3925 Y-8.0936
G01 X66.5024 Y-8.1360
G01 X66.6101 Y-8.1837
G01 X66.7153 Y-8.2367
G01 X66.8178 Y-8.2947
G01 X66.9173 Y-8.3577
G01 X67.0136 Y-8.4255
G01 X67.1065 Y-8.4980
G01 X67.1956 Y-8.5749
G01 X67.2809 Y-8.6562
G01 X67.3622 Y-8.7415
G01 X67.4391 Y-8.8306
G01 X67.5116 Y-8.9235
G01 X67.5794 Y-9.0198
G01 X67.6424 Y-9.1193
G01 X67.7004 Y-9.2218
G01 X67.7534 Y-9.3270
G01 X67.8011 Y-9.4347
G01 X67.8435 Y-9.5446
G01 X67.8805 Y-9.6564
G01 X67.9119 Y-9.7699
G01 X67.9377 Y-9.8848
G01 X67.9578 Y-10.0009
G01 X67.9722 Y-10.1178
G01 X67.9809 Y-10.2353
G01 X67.9838 Y-10.3530
G01 X67.9809 Y-10.4707
G01 X67.9722 Y-10.5882
G01 X67.9578 Y-10.7051
G01 X67.9377 Y-10.8212
G01 X67.9119 Y-10.9361
G01 X67.8805 Y-11.0496
G01 X67.8435 Y-11.1614
G01 X67.8011 Y-11.2713
G01 X67.7534 Y-11.3790
G01 X67.7004 Y-11.4842
G01 X67.6424 Y-11.5867
G01 X67.5794 Y-11.6862
G01 X67.5116 Y-11.7825
G01 X67.4391 Y-11.8754
G01 X67.3622 Y-11.9645
G01 X67.2809 Y-12.0498
G01 X67.1956 Y-12.1311
G01 X67.1065 Y-12.2080
G01 X67.0136 Y-12.2805
G01 X66.9173 Y-12.3483
G01 X66.8514 Y-12.3901
G01 X66.8209 Y-12.4108
G01 X66.7912 Y-12.4325
G01 X66.7623 Y-12.4553
G01 X66.7161 Y-12.4957
G01 X66.6724 Y-12.5388
G01 X66.6315 Y-12.5845
G01 X66.5966 Y-12.6285
G00 X66.5966 Y-12.6285
G01 F70.00
G01 Z-0.7000
G01 F120.00
G01 X64.5716 Y-12.6285
G01 X64.5367 Y-12.5845
G01 X64.5042 Y-12.5477
G01 X64.4611 Y-12.5041
G01 X64.4247 Y-12.4711
G01 X64.3868 Y-12.4400
G01 X64.3473 Y-12.4108
G01 X64.3168 Y-12.3901
G01 X64.2509 Y-12.3483
G01 X64.1546 Y-12.2805
G01 X64.0617 Y-12.2080
G01 X63.9726 Y-12.1311
G01 X63.8873 Y-12.0498
G01 X63.8060 Y-11.9645
G01 X63.7291 Y-11.8754
G01 X63.6566 Y-11.7825
G01 X63.5888 Y-11.6862
G01 X63.5258 Y-11.5867
G01 X63.4678 Y-11.4842
G01 X63.4148 Y-11.3790
G01 X63.3671 Y-11.2713
G01 X63.3247 Y-11.1614
G01 X63.2877 Y-11.0496
G01 X63.2563 Y-10.9361
G01 X63.2305 Y-10.8212
G01 X63.2104 Y-10.7051
G01 X63.1960 Y-10.5882
G01 X63.1873 Y-10.4707
G01 X63.1844 Y-10.3530
G01 X63.1873 Y-10.2353
G01 X63.1960 Y-10.1178
G01 X63.2104 Y-10.0009
G01 X63.2305 Y-9.8848
G01 X63.2563 Y-9.7699
G01 X63.2877 Y-9.6564
G01 X63.3247 Y-9.5446
G01 X63.3671 Y-9.4347
G01 X63.4148 Y-9.3270
G01 X63.4678 Y-9.2218
G01 X63.5258 Y-9.1193
G01 X63.5888 Y-9.0198
G01 X63.6566 Y-8.9235
G01 X63.7291 Y-8.8306
G01 X63.8060 Y-8.7415
G01 X63.8873 Y-8.6562
G01 X63.9726 Y-8.5749
G01 X64.0617 Y-8.4980
G01 X64.1546 Y-8.4255
G01 X64.2509 Y-8.3577
G01 X64.3504 Y-8.2947
G01 X64.4529 Y-8.2367
G01 X64.5581 Y-8.1837
G01 X64.6658 Y-8.1360
G01 X64.7757 Y-8.0936
G01 X64.8875 Y-8.0566
G01 X65.0010 Y-8.0252
G01 X65.1159 Y-7.9994
G01 X65.2320 Y-7.9793
G01 X65.3489 Y-7.9649
G01 X65.4664 Y-7.9562
G01 X65.5841 Y-7.9533
G01 X65.7018 Y-7.9562
G01 X65.8193 Y-7.9649
G01 X65.9362 Y-7.9793
G01 X66.0523 Y-7.9994
G01 X66.1672 Y-8.0252
G01 X66.2807 Y-8.0566
G01 X66.3925 Y-8.0936
G01 X66.5024 Y-8.1360
G01 X66.6101 Y-8.1837
G01 X66.7153 Y-8.2367
G01 X66.8178 Y-8.2947
G01 X66.9173 Y-8.3577
G01 X67.0136 Y-8.4255
G01 X67.1065 Y-8.4980
G01 X67.1956 Y-8.5749
G01 X67.2809 Y-8.6562
G01 X67.3622 Y-8.7415
G01 X67.4391 Y-8.8306
G01 X67.5116 Y-8.9235
G01 X67.5794 Y-9.0198
G01 X67.6424 Y-9.1193
G01 X67.7004 Y-9.2218
G01 X67.7534 Y-9.3270
G01 X67.8011 Y-9.4347
G01 X67.8435 Y-9.5446
G01 X67.8805 Y-9.6564
G01 X67.9119 Y-9.7699
G01 X67.9377 Y-9.8848
G01 X67.9578 Y-10.0009
G01 X67.9722 Y-10.1178
G01 X67.9809 Y-10.2353
G01 X67.9838 Y-10.3530
G01 X67.9809 Y-10.4707
G01 X67.9722 Y-10.5882
G01 X67.9578 Y-10.7051
G01 X67.9377 Y-10.8212
G01 X67.9119 Y-10.9361
G01 X67.8805 Y-11.0496
G01 X67.8435 Y-11.1614
G01 X67.8011 Y-11.2713
G01 X67.7534 Y-11.3790
G01 X67.7004 Y-11.4842
G01 X67.6424 Y-11.5867
G01 X67.5794 Y-11.6862
G01 X67.5116 Y-11.7825
G01 X67.4391 Y-11.8754
G01 X67.3622 Y-11.9645
G01 X67.2809 Y-12.0498
G01 X67.1956 Y-12.1311
G01 X67.1065 Y-12.2080
G01 X67.0136 Y-12.2805
G01 X66.9173 Y-12.3483
G01 X66.8514 Y-12.3901
G01 X66.8209 Y-12.4108
G01 X66.7912 Y-12.4325
G01 X66.7623 Y-12.4553
G01 X66.7161 Y-12.4957
G01 X66.6724 Y-12.5388
G01 X66.6315 Y-12.5845
G01 X66.5966 Y-12.6285
G00 X66.5966 Y-12.6285
G01 F70.00
G01 Z-0.8000
G01 F120.00
G01 X64.5716 Y-12.6285
G01 X64.5367 Y-12.5845
G01 X64.5042 Y-12.5477
G01 X64.4611 Y-12.5041
G01 X64.4247 Y-12.4711
G01 X64.3868 Y-12.4400
G01 X64.3473 Y-12.4108
G01 X64.3168 Y-12.3901
G01 X64.2509 Y-12.3483
G01 X64.1546 Y-12.2805
G01 X64.0617 Y-12.2080
G01 X63.9726 Y-12.1311
G01 X63.8873 Y-12.0498
G01 X63.8060 Y-11.9645
G01 X63.7291 Y-11.8754
G01 X63.6566 Y-11.7825
G01 X63.5888 Y-11.6862
G01 X63.5258 Y-11.5867
G01 X63.4678 Y-11.4842
G01 X63.4148 Y-11.3790
G01 X63.3671 Y-11.2713
G01 X63.3247 Y-11.1614
G01 X63.2877 Y-11.0496
G01 X63.2563 Y-10.9361
G01 X63.2305 Y-10.8212
G01 X63.2104 Y-10.7051
G01 X63.1960 Y-10.5882
G01 X63.1873 Y-10.4707
G01 X63.1844 Y-10.3530
G01 X63.1873 Y-10.2353
G01 X63.1960 Y-10.1178
G01 X63.2104 Y-10.0009
G01 X63.2305 Y-9.8848
G01 X63.2563 Y-9.7699
G01 X63.2877 Y-9.6564
G01 X63.3247 Y-9.5446
G01 X63.3671 Y-9.4347
G01 X63.4148 Y-9.3270
G01 X63.4678 Y-9.2218
G01 X63.5258 Y-9.1193
G01 X63.5888 Y-9.0198
G01 X63.6566 Y-8.9235
G01 X63.7291 Y-8.8306
G01 X63.8060 Y-8.7415
G01 X63.8873 Y-8.6562
G01 X63.9726 Y-8.5749
G01 X64.0617 Y-8.4980
G01 X64.1546 Y-8.4255
G01 X64.2509 Y-8.3577
G01 X64.3504 Y-8.2947
G01 X64.4529 Y-8.2367
G01 X64.5581 Y-8.1837
G01 X64.6658 Y-8.1360
G01 X64.7757 Y-8.0936
G01 X64.8875 Y-8.0566
G01 X65.0010 Y-8.0252
G01 X65.1159 Y-7.9994
G01 X65.2320 Y-7.9793
G01 X65.3489 Y-7.9649
G01 X65.4664 Y-7.9562
G01 X65.5841 Y-7.9533
G01 X65.7018 Y-7.9562
G01 X65.8193 Y-7.9649
G01 X65.9362 Y-7.9793
G01 X66.0523 Y-7.9994
G01 X66.1672 Y-8.0252
G01 X66.2807 Y-8.0566
G01 X66.3925 Y-8.0936
G01 X66.5024 Y-8.1360
G01 X66.6101 Y-8.1837
G01 X66.7153 Y-8.2367
G01 X66.8178 Y-8.2947
G01 X66.9173 Y-8.3577
G01 X67.0136 Y-8.4255
G01 X67.1065 Y-8.4980
G01 X67.1956 Y-8.5749
G01 X67.2809 Y-8.6562
G01 X67.3622 Y-8.7415
G01 X67.4391 Y-8.8306
G01 X67.5116 Y-8.9235
G01 X67.5794 Y-9.0198
G01 X67.6424 Y-9.1193
G01 X67.7004 Y-9.2218
G01 X67.7534 Y-9.3270
G01 X67.8011 Y-9.4347
G01 X67.8435 Y-9.5446
G01 X67.8805 Y-9.6564
G01 X67.9119 Y-9.7699
G01 X67.9377 Y-9.8848
G01 X67.9578 Y-10.0009
G01 X67.9722 Y-10.1178
G01 X67.9809 Y-10.2353
G01 X67.9838 Y-10.3530
G01 X67.9809 Y-10.4707
G01 X67.9722 Y-10.5882
G01 X67.9578 Y-10.7051
G01 X67.9377 Y-10.8212
G01 X67.9119 Y-10.9361
G01 X67.8805 Y-11.0496
G01 X67.8435 Y-11.1614
G01 X67.8011 Y-11.2713
G01 X67.7534 Y-11.3790
G01 X67.7004 Y-11.4842
G01 X67.6424 Y-11.5867
G01 X67.5794 Y-11.6862
G01 X67.5116 Y-11.7825
G01 X67.4391 Y-11.8754
G01 X67.3622 Y-11.9645
G01 X67.2809 Y-12.0498
G01 X67.1956 Y-12.1311
G01 X67.1065 Y-12.2080
G01 X67.0136 Y-12.2805
G01 X66.9173 Y-12.3483
G01 X66.8514 Y-12.3901
G01 X66.8209 Y-12.4108
G01 X66.7912 Y-12.4325
G01 X66.7623 Y-12.4553
G01 X66.7161 Y-12.4957
G01 X66.6724 Y-12.5388
G01 X66.6315 Y-12.5845
G01 X66.5966 Y-12.6285
G00 X66.5966 Y-12.6285
G01 F70.00
G01 Z-0.9000
G01 F120.00
G01 X64.5716 Y-12.6285
G01 X64.5367 Y-12.5845
G01 X64.5042 Y-12.5477
G01 X64.4611 Y-12.5041
G01 X64.4247 Y-12.4711
G01 X64.3868 Y-12.4400
G01 X64.3473 Y-12.4108
G01 X64.3168 Y-12.3901
G01 X64.2509 Y-12.3483
G01 X64.1546 Y-12.2805
G01 X64.0617 Y-12.2080
G01 X63.9726 Y-12.1311
G01 X63.8873 Y-12.0498
G01 X63.8060 Y-11.9645
G01 X63.7291 Y-11.8754
G01 X63.6566 Y-11.7825
G01 X63.5888 Y-11.6862
G01 X63.5258 Y-11.5867
G01 X63.4678 Y-11.4842
G01 X63.4148 Y-11.3790
G01 X63.3671 Y-11.2713
G01 X63.3247 Y-11.1614
G01 X63.2877 Y-11.0496
G01 X63.2563 Y-10.9361
G01 X63.2305 Y-10.8212
G01 X63.2104 Y-10.7051
G01 X63.1960 Y-10.5882
G01 X63.1873 Y-10.4707
G01 X63.1844 Y-10.3530
G01 X63.1873 Y-10.2353
G01 X63.1960 Y-10.1178
G01 X63.2104 Y-10.0009
G01 X63.2305 Y-9.8848
G01 X63.2563 Y-9.7699
G01 X63.2877 Y-9.6564
G01 X63.3247 Y-9.5446
G01 X63.3671 Y-9.4347
G01 X63.4148 Y-9.3270
G01 X63.4678 Y-9.2218
G01 X63.5258 Y-9.1193
G01 X63.5888 Y-9.0198
G01 X63.6566 Y-8.9235
G01 X63.7291 Y-8.8306
G01 X63.8060 Y-8.7415
G01 X63.8873 Y-8.6562
G01 X63.9726 Y-8.5749
G01 X64.0617 Y-8.4980
G01 X64.1546 Y-8.4255
G01 X64.2509 Y-8.3577
G01 X64.3504 Y-8.2947
G01 X64.4529 Y-8.2367
G01 X64.5581 Y-8.1837
G01 X64.6658 Y-8.1360
G01 X64.7757 Y-8.0936
G01 X64.8875 Y-8.0566
G01 X65.0010 Y-8.0252
G01 X65.1159 Y-7.9994
G01 X65.2320 Y-7.9793
G01 X65.3489 Y-7.9649
G01 X65.4664 Y-7.9562
G01 X65.5841 Y-7.9533
G01 X65.7018 Y-7.9562
G01 X65.8193 Y-7.9649
G01 X65.9362 Y-7.9793
G01 X66.0523 Y-7.9994
G01 X66.1672 Y-8.0252
G01 X66.2807 Y-8.0566
G01 X66.3925 Y-8.0936
G01 X66.5024 Y-8.1360
G01 X66.6101 Y-8.1837
G01 X66.7153 Y-8.2367
G01 X66.8178 Y-8.2947
G01 X66.9173 Y-8.3577
G01 X67.0136 Y-8.4255
G01 X67.1065 Y-8.4980
G01 X67.1956 Y-8.5749
G01 X67.2809 Y-8.6562
G01 X67.3622 Y-8.7415
G01 X67.4391 Y-8.8306
G01 X67.5116 Y-8.9235
G01 X67.5794 Y-9.0198
G01 X67.6424 Y-9.1193
G01 X67.7004 Y-9.2218
G01 X67.7534 Y-9.3270
G01 X67.8011 Y-9.4347
G01 X67.8435 Y-9.5446
G01 X67.8805 Y-9.6564
G01 X67.9119 Y-9.7699
G01 X67.9377 Y-9.8848
G01 X67.9578 Y-10.0009
G01 X67.9722 Y-10.1178
G01 X67.9809 Y-10.2353
G01 X67.9838 Y-10.3530
G01 X67.9809 Y-10.4707
G01 X67.9722 Y-10.5882
G01 X67.9578 Y-10.7051
G01 X67.9377 Y-10.8212
G01 X67.9119 Y-10.9361
G01 X67.8805 Y-11.0496
G01 X67.8435 Y-11.1614
G01 X67.8011 Y-11.2713
G01 X67.7534 Y-11.3790
G01 X67.7004 Y-11.4842
G01 X67.6424 Y-11.5867
G01 X67.5794 Y-11.6862
G01 X67.5116 Y-11.7825
G01 X67.4391 Y-11.8754
G01 X67.3622 Y-11.9645
G01 X67.2809 Y-12.0498
G01 X67.1956 Y-12.1311
G01 X67.1065 Y-12.2080
G01 X67.0136 Y-12.2805
G01 X66.9173 Y-12.3483
G01 X66.8514 Y-12.3901
G01 X66.8209 Y-12.4108
G01 X66.7912 Y-12.4325
G01 X66.7623 Y-12.4553
G01 X66.7161 Y-12.4957
G01 X66.6724 Y-12.5388
G01 X66.6315 Y-12.5845
G01 X66.5966 Y-12.6285
G00 X66.5966 Y-12.6285
G01 F70.00
G01 Z-1.0000
G01 F120.00
G01 X64.5716 Y-12.6285
G01 X64.5367 Y-12.5845
G01 X64.5042 Y-12.5477
G01 X64.4611 Y-12.5041
G01 X64.4247 Y-12.4711
G01 X64.3868 Y-12.4400
G01 X64.3473 Y-12.4108
G01 X64.3168 Y-12.3901
G01 X64.2509 Y-12.3483
G01 X64.1546 Y-12.2805
G01 X64.0617 Y-12.2080
G01 X63.9726 Y-12.1311
G01 X63.8873 Y-12.0498
G01 X63.8060 Y-11.9645
G01 X63.7291 Y-11.8754
G01 X63.6566 Y-11.7825
G01 X63.5888 Y-11.6862
G01 X63.5258 Y-11.5867
G01 X63.4678 Y-11.4842
G01 X63.4148 Y-11.3790
G01 X63.3671 Y-11.2713
G01 X63.3247 Y-11.1614
G01 X63.2877 Y-11.0496
G01 X63.2563 Y-10.9361
G01 X63.2305 Y-10.8212
G01 X63.2104 Y-10.7051
G01 X63.1960 Y-10.5882
G01 X63.1873 Y-10.4707
G01 X63.1844 Y-10.3530
G01 X63.1873 Y-10.2353
G01 X63.1960 Y-10.1178
G01 X63.2104 Y-10.0009
G01 X63.2305 Y-9.8848
G01 X63.2563 Y-9.7699
G01 X63.2877 Y-9.6564
G01 X63.3247 Y-9.5446
G01 X63.3671 Y-9.4347
G01 X63.4148 Y-9.3270
G01 X63.4678 Y-9.2218
G01 X63.5258 Y-9.1193
G01 X63.5888 Y-9.0198
G01 X63.6566 Y-8.9235
G01 X63.7291 Y-8.8306
G01 X63.8060 Y-8.7415
G01 X63.8873 Y-8.6562
G01 X63.9726 Y-8.5749
G01 X64.0617 Y-8.4980
G01 X64.1546 Y-8.4255
G01 X64.2509 Y-8.3577
G01 X64.3504 Y-8.2947
G01 X64.4529 Y-8.2367
G01 X64.5581 Y-8.1837
G01 X64.6658 Y-8.1360
G01 X64.7757 Y-8.0936
G01 X64.8875 Y-8.0566
G01 X65.0010 Y-8.0252
G01 X65.1159 Y-7.9994
G01 X65.2320 Y-7.9793
G01 X65.3489 Y-7.9649
G01 X65.4664 Y-7.9562
G01 X65.5841 Y-7.9533
G01 X65.7018 Y-7.9562
G01 X65.8193 Y-7.9649
G01 X65.9362 Y-7.9793
G01 X66.0523 Y-7.9994
G01 X66.1672 Y-8.0252
G01 X66.2807 Y-8.0566
G01 X66.3925 Y-8.0936
G01 X66.5024 Y-8.1360
G01 X66.6101 Y-8.1837
G01 X66.7153 Y-8.2367
G01 X66.8178 Y-8.2947
G01 X66.9173 Y-8.3577
G01 X67.0136 Y-8.4255
G01 X67.1065 Y-8.4980
G01 X67.1956 Y-8.5749
G01 X67.2809 Y-8.6562
G01 X67.3622 Y-8.7415
G01 X67.4391 Y-8.8306
G01 X67.5116 Y-8.9235
G01 X67.5794 Y-9.0198
G01 X67.6424 Y-9.1193
G01 X67.7004 Y-9.2218
G01 X67.7534 Y-9.3270
G01 X67.8011 Y-9.4347
G01 X67.8435 Y-9.5446
G01 X67.8805 Y-9.6564
G01 X67.9119 Y-9.7699
G01 X67.9377 Y-9.8848
G01 X67.9578 Y-10.0009
G01 X67.9722 Y-10.1178
G01 X67.9809 Y-10.2353
G01 X67.9838 Y-10.3530
G01 X67.9809 Y-10.4707
G01 X67.9722 Y-10.5882
G01 X67.9578 Y-10.7051
G01 X67.9377 Y-10.8212
G01 X67.9119 Y-10.9361
G01 X67.8805 Y-11.0496
G01 X67.8435 Y-11.1614
G01 X67.8011 Y-11.2713
G01 X67.7534 Y-11.3790
G01 X67.7004 Y-11.4842
G01 X67.6424 Y-11.5867
G01 X67.5794 Y-11.6862
G01 X67.5116 Y-11.7825
G01 X67.4391 Y-11.8754
G01 X67.3622 Y-11.9645
G01 X67.2809 Y-12.0498
G01 X67.1956 Y-12.1311
G01 X67.1065 Y-12.2080
G01 X67.0136 Y-12.2805
G01 X66.9173 Y-12.3483
G01 X66.8514 Y-12.3901
G01 X66.8209 Y-12.4108
G01 X66.7912 Y-12.4325
G01 X66.7623 Y-12.4553
G01 X66.7161 Y-12.4957
G01 X66.6724 Y-12.5388
G01 X66.6315 Y-12.5845
G01 X66.5966 Y-12.6285
G00 X66.5966 Y-12.6285
G01 F70.00
G01 Z-1.1000
G01 F120.00
G01 X64.5716 Y-12.6285
G01 X64.5367 Y-12.5845
G01 X64.5042 Y-12.5477
G01 X64.4611 Y-12.5041
G01 X64.4247 Y-12.4711
G01 X64.3868 Y-12.4400
G01 X64.3473 Y-12.4108
G01 X64.3168 Y-12.3901
G01 X64.2509 Y-12.3483
G01 X64.1546 Y-12.2805
G01 X64.0617 Y-12.2080
G01 X63.9726 Y-12.1311
G01 X63.8873 Y-12.0498
G01 X63.8060 Y-11.9645
G01 X63.7291 Y-11.8754
G01 X63.6566 Y-11.7825
G01 X63.5888 Y-11.6862
G01 X63.5258 Y-11.5867
G01 X63.4678 Y-11.4842
G01 X63.4148 Y-11.3790
G01 X63.3671 Y-11.2713
G01 X63.3247 Y-11.1614
G01 X63.2877 Y-11.0496
G01 X63.2563 Y-10.9361
G01 X63.2305 Y-10.8212
G01 X63.2104 Y-10.7051
G01 X63.1960 Y-10.5882
G01 X63.1873 Y-10.4707
G01 X63.1844 Y-10.3530
G01 X63.1873 Y-10.2353
G01 X63.1960 Y-10.1178
G01 X63.2104 Y-10.0009
G01 X63.2305 Y-9.8848
G01 X63.2563 Y-9.7699
G01 X63.2877 Y-9.6564
G01 X63.3247 Y-9.5446
G01 X63.3671 Y-9.4347
G01 X63.4148 Y-9.3270
G01 X63.4678 Y-9.2218
G01 X63.5258 Y-9.1193
G01 X63.5888 Y-9.0198
G01 X63.6566 Y-8.9235
G01 X63.7291 Y-8.8306
G01 X63.8060 Y-8.7415
G01 X63.8873 Y-8.6562
G01 X63.9726 Y-8.5749
G01 X64.0617 Y-8.4980
G01 X64.1546 Y-8.4255
G01 X64.2509 Y-8.3577
G01 X64.3504 Y-8.2947
G01 X64.4529 Y-8.2367
G01 X64.5581 Y-8.1837
G01 X64.6658 Y-8.1360
G01 X64.7757 Y-8.0936
G01 X64.8875 Y-8.0566
G01 X65.0010 Y-8.0252
G01 X65.1159 Y-7.9994
G01 X65.2320 Y-7.9793
G01 X65.3489 Y-7.9649
G01 X65.4664 Y-7.9562
G01 X65.5841 Y-7.9533
G01 X65.7018 Y-7.9562
G01 X65.8193 Y-7.9649
G01 X65.9362 Y-7.9793
G01 X66.0523 Y-7.9994
G01 X66.1672 Y-8.0252
G01 X66.2807 Y-8.0566
G01 X66.3925 Y-8.0936
G01 X66.5024 Y-8.1360
G01 X66.6101 Y-8.1837
G01 X66.7153 Y-8.2367
G01 X66.8178 Y-8.2947
G01 X66.9173 Y-8.3577
G01 X67.0136 Y-8.4255
G01 X67.1065 Y-8.4980
G01 X67.1956 Y-8.5749
G01 X67.2809 Y-8.6562
G01 X67.3622 Y-8.7415
G01 X67.4391 Y-8.8306
G01 X67.5116 Y-8.9235
G01 X67.5794 Y-9.0198
G01 X67.6424 Y-9.1193
G01 X67.7004 Y-9.2218
G01 X67.7534 Y-9.3270
G01 X67.8011 Y-9.4347
G01 X67.8435 Y-9.5446
G01 X67.8805 Y-9.6564
G01 X67.9119 Y-9.7699
G01 X67.9377 Y-9.8848
G01 X67.9578 Y-10.0009
G01 X67.9722 Y-10.1178
G01 X67.9809 Y-10.2353
G01 X67.9838 Y-10.3530
G01 X67.9809 Y-10.4707
G01 X67.9722 Y-10.5882
G01 X67.9578 Y-10.7051
G01 X67.9377 Y-10.8212
G01 X67.9119 Y-10.9361
G01 X67.8805 Y-11.0496
G01 X67.8435 Y-11.1614
G01 X67.8011 Y-11.2713
G01 X67.7534 Y-11.3790
G01 X67.7004 Y-11.4842
G01 X67.6424 Y-11.5867
G01 X67.5794 Y-11.6862
G01 X67.5116 Y-11.7825
G01 X67.4391 Y-11.8754
G01 X67.3622 Y-11.9645
G01 X67.2809 Y-12.0498
G01 X67.1956 Y-12.1311
G01 X67.1065 Y-12.2080
G01 X67.0136 Y-12.2805
G01 X66.9173 Y-12.3483
G01 X66.8514 Y-12.3901
G01 X66.8209 Y-12.4108
G01 X66.7912 Y-12.4325
G01 X66.7623 Y-12.4553
G01 X66.7161 Y-12.4957
G01 X66.6724 Y-12.5388
G01 X66.6315 Y-12.5845
G01 X66.5966 Y-12.6285
G00 X66.5966 Y-12.6285
G01 F70.00
G01 Z-1.2000
G01 F120.00
G01 X64.5716 Y-12.6285
G01 X64.5367 Y-12.5845
G01 X64.5042 Y-12.5477
G01 X64.4611 Y-12.5041
G01 X64.4247 Y-12.4711
G01 X64.3868 Y-12.4400
G01 X64.3473 Y-12.4108
G01 X64.3168 Y-12.3901
G01 X64.2509 Y-12.3483
G01 X64.1546 Y-12.2805
G01 X64.0617 Y-12.2080
G01 X63.9726 Y-12.1311
G01 X63.8873 Y-12.0498
G01 X63.8060 Y-11.9645
G01 X63.7291 Y-11.8754
G01 X63.6566 Y-11.7825
G01 X63.5888 Y-11.6862
G01 X63.5258 Y-11.5867
G01 X63.4678 Y-11.4842
G01 X63.4148 Y-11.3790
G01 X63.3671 Y-11.2713
G01 X63.3247 Y-11.1614
G01 X63.2877 Y-11.0496
G01 X63.2563 Y-10.9361
G01 X63.2305 Y-10.8212
G01 X63.2104 Y-10.7051
G01 X63.1960 Y-10.5882
G01 X63.1873 Y-10.4707
G01 X63.1844 Y-10.3530
G01 X63.1873 Y-10.2353
G01 X63.1960 Y-10.1178
G01 X63.2104 Y-10.0009
G01 X63.2305 Y-9.8848
G01 X63.2563 Y-9.7699
G01 X63.2877 Y-9.6564
G01 X63.3247 Y-9.5446
G01 X63.3671 Y-9.4347
G01 X63.4148 Y-9.3270
G01 X63.4678 Y-9.2218
G01 X63.5258 Y-9.1193
G01 X63.5888 Y-9.0198
G01 X63.6566 Y-8.9235
G01 X63.7291 Y-8.8306
G01 X63.8060 Y-8.7415
G01 X63.8873 Y-8.6562
G01 X63.9726 Y-8.5749
G01 X64.0617 Y-8.4980
G01 X64.1546 Y-8.4255
G01 X64.2509 Y-8.3577
G01 X64.3504 Y-8.2947
G01 X64.4529 Y-8.2367
G01 X64.5581 Y-8.1837
G01 X64.6658 Y-8.1360
G01 X64.7757 Y-8.0936
G01 X64.8875 Y-8.0566
G01 X65.0010 Y-8.0252
G01 X65.1159 Y-7.9994
G01 X65.2320 Y-7.9793
G01 X65.3489 Y-7.9649
G01 X65.4664 Y-7.9562
G01 X65.5841 Y-7.9533
G01 X65.7018 Y-7.9562
G01 X65.8193 Y-7.9649
G01 X65.9362 Y-7.9793
G01 X66.0523 Y-7.9994
G01 X66.1672 Y-8.0252
G01 X66.2807 Y-8.0566
G01 X66.3925 Y-8.0936
G01 X66.5024 Y-8.1360
G01 X66.6101 Y-8.1837
G01 X66.7153 Y-8.2367
G01 X66.8178 Y-8.2947
G01 X66.9173 Y-8.3577
G01 X67.0136 Y-8.4255
G01 X67.1065 Y-8.4980
G01 X67.1956 Y-8.5749
G01 X67.2809 Y-8.6562
G01 X67.3622 Y-8.7415
G01 X67.4391 Y-8.8306
G01 X67.5116 Y-8.9235
G01 X67.5794 Y-9.0198
G01 X67.6424 Y-9.1193
G01 X67.7004 Y-9.2218
G01 X67.7534 Y-9.3270
G01 X67.8011 Y-9.4347
G01 X67.8435 Y-9.5446
G01 X67.8805 Y-9.6564
G01 X67.9119 Y-9.7699
G01 X67.9377 Y-9.8848
G01 X67.9578 Y-10.0009
G01 X67.9722 Y-10.1178
G01 X67.9809 Y-10.2353
G01 X67.9838 Y-10.3530
G01 X67.9809 Y-10.4707
G01 X67.9722 Y-10.5882
G01 X67.9578 Y-10.7051
G01 X67.9377 Y-10.8212
G01 X67.9119 Y-10.9361
G01 X67.8805 Y-11.0496
G01 X67.8435 Y-11.1614
G01 X67.8011 Y-11.2713
G01 X67.7534 Y-11.3790
G01 X67.7004 Y-11.4842
G01 X67.6424 Y-11.5867
G01 X67.5794 Y-11.6862
G01 X67.5116 Y-11.7825
G01 X67.4391 Y-11.8754
G01 X67.3622 Y-11.9645
G01 X67.2809 Y-12.0498
G01 X67.1956 Y-12.1311
G01 X67.1065 Y-12.2080
G01 X67.0136 Y-12.2805
G01 X66.9173 Y-12.3483
G01 X66.8514 Y-12.3901
G01 X66.8209 Y-12.4108
G01 X66.7912 Y-12.4325
G01 X66.7623 Y-12.4553
G01 X66.7161 Y-12.4957
G01 X66.6724 Y-12.5388
G01 X66.6315 Y-12.5845
G01 X66.5966 Y-12.6285
G00 X66.5966 Y-12.6285
G01 F70.00
G01 Z-1.3000
G01 F120.00
G01 X64.5716 Y-12.6285
G01 X64.5367 Y-12.5845
G01 X64.5042 Y-12.5477
G01 X64.4611 Y-12.5041
G01 X64.4247 Y-12.4711
G01 X64.3868 Y-12.4400
G01 X64.3473 Y-12.4108
G01 X64.3168 Y-12.3901
G01 X64.2509 Y-12.3483
G01 X64.1546 Y-12.2805
G01 X64.0617 Y-12.2080
G01 X63.9726 Y-12.1311
G01 X63.8873 Y-12.0498
G01 X63.8060 Y-11.9645
G01 X63.7291 Y-11.8754
G01 X63.6566 Y-11.7825
G01 X63.5888 Y-11.6862
G01 X63.5258 Y-11.5867
G01 X63.4678 Y-11.4842
G01 X63.4148 Y-11.3790
G01 X63.3671 Y-11.2713
G01 X63.3247 Y-11.1614
G01 X63.2877 Y-11.0496
G01 X63.2563 Y-10.9361
G01 X63.2305 Y-10.8212
G01 X63.2104 Y-10.7051
G01 X63.1960 Y-10.5882
G01 X63.1873 Y-10.4707
G01 X63.1844 Y-10.3530
G01 X63.1873 Y-10.2353
G01 X63.1960 Y-10.1178
G01 X63.2104 Y-10.0009
G01 X63.2305 Y-9.8848
G01 X63.2563 Y-9.7699
G01 X63.2877 Y-9.6564
G01 X63.3247 Y-9.5446
G01 X63.3671 Y-9.4347
G01 X63.4148 Y-9.3270
G01 X63.4678 Y-9.2218
G01 X63.5258 Y-9.1193
G01 X63.5888 Y-9.0198
G01 X63.6566 Y-8.9235
G01 X63.7291 Y-8.8306
G01 X63.8060 Y-8.7415
G01 X63.8873 Y-8.6562
G01 X63.9726 Y-8.5749
G01 X64.0617 Y-8.4980
G01 X64.1546 Y-8.4255
G01 X64.2509 Y-8.3577
G01 X64.3504 Y-8.2947
G01 X64.4529 Y-8.2367
G01 X64.5581 Y-8.1837
G01 X64.6658 Y-8.1360
G01 X64.7757 Y-8.0936
G01 X64.8875 Y-8.0566
G01 X65.0010 Y-8.0252
G01 X65.1159 Y-7.9994
G01 X65.2320 Y-7.9793
G01 X65.3489 Y-7.9649
G01 X65.4664 Y-7.9562
G01 X65.5841 Y-7.9533
G01 X65.7018 Y-7.9562
G01 X65.8193 Y-7.9649
G01 X65.9362 Y-7.9793
G01 X66.0523 Y-7.9994
G01 X66.1672 Y-8.0252
G01 X66.2807 Y-8.0566
G01 X66.3925 Y-8.0936
G01 X66.5024 Y-8.1360
G01 X66.6101 Y-8.1837
G01 X66.7153 Y-8.2367
G01 X66.8178 Y-8.2947
G01 X66.9173 Y-8.3577
G01 X67.0136 Y-8.4255
G01 X67.1065 Y-8.4980
G01 X67.1956 Y-8.5749
G01 X67.2809 Y-8.6562
G01 X67.3622 Y-8.7415
G01 X67.4391 Y-8.8306
G01 X67.5116 Y-8.9235
G01 X67.5794 Y-9.0198
G01 X67.6424 Y-9.1193
G01 X67.7004 Y-9.2218
G01 X67.7534 Y-9.3270
G01 X67.8011 Y-9.4347
G01 X67.8435 Y-9.5446
G01 X67.8805 Y-9.6564
G01 X67.9119 Y-9.7699
G01 X67.9377 Y-9.8848
G01 X67.9578 Y-10.0009
G01 X67.9722 Y-10.1178
G01 X67.9809 Y-10.2353
G01 X67.9838 Y-10.3530
G01 X67.9809 Y-10.4707
G01 X67.9722 Y-10.5882
G01 X67.9578 Y-10.7051
G01 X67.9377 Y-10.8212
G01 X67.9119 Y-10.9361
G01 X67.8805 Y-11.0496
G01 X67.8435 Y-11.1614
G01 X67.8011 Y-11.2713
G01 X67.7534 Y-11.3790
G01 X67.7004 Y-11.4842
G01 X67.6424 Y-11.5867
G01 X67.5794 Y-11.6862
G01 X67.5116 Y-11.7825
G01 X67.4391 Y-11.8754
G01 X67.3622 Y-11.9645
G01 X67.2809 Y-12.0498
G01 X67.1956 Y-12.1311
G01 X67.1065 Y-12.2080
G01 X67.0136 Y-12.2805
G01 X66.9173 Y-12.3483
G01 X66.8514 Y-12.3901
G01 X66.8209 Y-12.4108
G01 X66.7912 Y-12.4325
G01 X66.7623 Y-12.4553
G01 X66.7161 Y-12.4957
G01 X66.6724 Y-12.5388
G01 X66.6315 Y-12.5845
G01 X66.5966 Y-12.6285
G00 X66.5966 Y-12.6285
G01 F70.00
G01 Z-1.4000
G01 F120.00
G01 X64.5716 Y-12.6285
G01 X64.5367 Y-12.5845
G01 X64.5042 Y-12.5477
G01 X64.4611 Y-12.5041
G01 X64.4247 Y-12.4711
G01 X64.3868 Y-12.4400
G01 X64.3473 Y-12.4108
G01 X64.3168 Y-12.3901
G01 X64.2509 Y-12.3483
G01 X64.1546 Y-12.2805
G01 X64.0617 Y-12.2080
G01 X63.9726 Y-12.1311
G01 X63.8873 Y-12.0498
G01 X63.8060 Y-11.9645
G01 X63.7291 Y-11.8754
G01 X63.6566 Y-11.7825
G01 X63.5888 Y-11.6862
G01 X63.5258 Y-11.5867
G01 X63.4678 Y-11.4842
G01 X63.4148 Y-11.3790
G01 X63.3671 Y-11.2713
G01 X63.3247 Y-11.1614
G01 X63.2877 Y-11.0496
G01 X63.2563 Y-10.9361
G01 X63.2305 Y-10.8212
G01 X63.2104 Y-10.7051
G01 X63.1960 Y-10.5882
G01 X63.1873 Y-10.4707
G01 X63.1844 Y-10.3530
G01 X63.1873 Y-10.2353
G01 X63.1960 Y-10.1178
G01 X63.2104 Y-10.0009
G01 X63.2305 Y-9.8848
G01 X63.2563 Y-9.7699
G01 X63.2877 Y-9.6564
G01 X63.3247 Y-9.5446
G01 X63.3671 Y-9.4347
G01 X63.4148 Y-9.3270
G01 X63.4678 Y-9.2218
G01 X63.5258 Y-9.1193
G01 X63.5888 Y-9.0198
G01 X63.6566 Y-8.9235
G01 X63.7291 Y-8.8306
G01 X63.8060 Y-8.7415
G01 X63.8873 Y-8.6562
G01 X63.9726 Y-8.5749
G01 X64.0617 Y-8.4980
G01 X64.1546 Y-8.4255
G01 X64.2509 Y-8.3577
G01 X64.3504 Y-8.2947
G01 X64.4529 Y-8.2367
G01 X64.5581 Y-8.1837
G01 X64.6658 Y-8.1360
G01 X64.7757 Y-8.0936
G01 X64.8875 Y-8.0566
G01 X65.0010 Y-8.0252
G01 X65.1159 Y-7.9994
G01 X65.2320 Y-7.9793
G01 X65.3489 Y-7.9649
G01 X65.4664 Y-7.9562
G01 X65.5841 Y-7.9533
G01 X65.7018 Y-7.9562
G01 X65.8193 Y-7.9649
G01 X65.9362 Y-7.9793
G01 X66.0523 Y-7.9994
G01 X66.1672 Y-8.0252
G01 X66.2807 Y-8.0566
G01 X66.3925 Y-8.0936
G01 X66.5024 Y-8.1360
G01 X66.6101 Y-8.1837
G01 X66.7153 Y-8.2367
G01 X66.8178 Y-8.2947
G01 X66.9173 Y-8.3577
G01 X67.0136 Y-8.4255
G01 X67.1065 Y-8.4980
G01 X67.1956 Y-8.5749
G01 X67.2809 Y-8.6562
G01 X67.3622 Y-8.7415
G01 X67.4391 Y-8.8306
G01 X67.5116 Y-8.9235
G01 X67.5794 Y-9.0198
G01 X67.6424 Y-9.1193
G01 X67.7004 Y-9.2218
G01 X67.7534 Y-9.3270
G01 X67.8011 Y-9.4347
G01 X67.8435 Y-9.5446
G01 X67.8805 Y-9.6564
G01 X67.9119 Y-9.7699
G01 X67.9377 Y-9.8848
G01 X67.9578 Y-10.0009
G01 X67.9722 Y-10.1178
G01 X67.9809 Y-10.2353
G01 X67.9838 Y-10.3530
G01 X67.9809 Y-10.4707
G01 X67.9722 Y-10.5882
G01 X67.9578 Y-10.7051
G01 X67.9377 Y-10.8212
G01 X67.9119 Y-10.9361
G01 X67.8805 Y-11.0496
G01 X67.8435 Y-11.1614
G01 X67.8011 Y-11.2713
G01 X67.7534 Y-11.3790
G01 X67.7004 Y-11.4842
G01 X67.6424 Y-11.5867
G01 X67.5794 Y-11.6862
G01 X67.5116 Y-11.7825
G01 X67.4391 Y-11.8754
G01 X67.3622 Y-11.9645
G01 X67.2809 Y-12.0498
G01 X67.1956 Y-12.1311
G01 X67.1065 Y-12.2080
G01 X67.0136 Y-12.2805
G01 X66.9173 Y-12.3483
G01 X66.8514 Y-12.3901
G01 X66.8209 Y-12.4108
G01 X66.7912 Y-12.4325
G01 X66.7623 Y-12.4553
G01 X66.7161 Y-12.4957
G01 X66.6724 Y-12.5388
G01 X66.6315 Y-12.5845
G01 X66.5966 Y-12.6285
G00 X66.5966 Y-12.6285
G01 F70.00
G01 Z-1.5000
G01 F120.00
G01 X64.5716 Y-12.6285
G01 X64.5367 Y-12.5845
G01 X64.5042 Y-12.5477
G01 X64.4611 Y-12.5041
G01 X64.4247 Y-12.4711
G01 X64.3868 Y-12.4400
G01 X64.3473 Y-12.4108
G01 X64.3168 Y-12.3901
G01 X64.2509 Y-12.3483
G01 X64.1546 Y-12.2805
G01 X64.0617 Y-12.2080
G01 X63.9726 Y-12.1311
G01 X63.8873 Y-12.0498
G01 X63.8060 Y-11.9645
G01 X63.7291 Y-11.8754
G01 X63.6566 Y-11.7825
G01 X63.5888 Y-11.6862
G01 X63.5258 Y-11.5867
G01 X63.4678 Y-11.4842
G01 X63.4148 Y-11.3790
G01 X63.3671 Y-11.2713
G01 X63.3247 Y-11.1614
G01 X63.2877 Y-11.0496
G01 X63.2563 Y-10.9361
G01 X63.2305 Y-10.8212
G01 X63.2104 Y-10.7051
G01 X63.1960 Y-10.5882
G01 X63.1873 Y-10.4707
G01 X63.1844 Y-10.3530
G01 X63.1873 Y-10.2353
G01 X63.1960 Y-10.1178
G01 X63.2104 Y-10.0009
G01 X63.2305 Y-9.8848
G01 X63.2563 Y-9.7699
G01 X63.2877 Y-9.6564
G01 X63.3247 Y-9.5446
G01 X63.3671 Y-9.4347
G01 X63.4148 Y-9.3270
G01 X63.4678 Y-9.2218
G01 X63.5258 Y-9.1193
G01 X63.5888 Y-9.0198
G01 X63.6566 Y-8.9235
G01 X63.7291 Y-8.8306
G01 X63.8060 Y-8.7415
G01 X63.8873 Y-8.6562
G01 X63.9726 Y-8.5749
G01 X64.0617 Y-8.4980
G01 X64.1546 Y-8.4255
G01 X64.2509 Y-8.3577
G01 X64.3504 Y-8.2947
G01 X64.4529 Y-8.2367
G01 X64.5581 Y-8.1837
G01 X64.6658 Y-8.1360
G01 X64.7757 Y-8.0936
G01 X64.8875 Y-8.0566
G01 X65.0010 Y-8.0252
G01 X65.1159 Y-7.9994
G01 X65.2320 Y-7.9793
G01 X65.3489 Y-7.9649
G01 X65.4664 Y-7.9562
G01 X65.5841 Y-7.9533
G01 X65.7018 Y-7.9562
G01 X65.8193 Y-7.9649
G01 X65.9362 Y-7.9793
G01 X66.0523 Y-7.9994
G01 X66.1672 Y-8.0252
G01 X66.2807 Y-8.0566
G01 X66.3925 Y-8.0936
G01 X66.5024 Y-8.1360
G01 X66.6101 Y-8.1837
G01 X66.7153 Y-8.2367
G01 X66.8178 Y-8.2947
G01 X66.9173 Y-8.3577
G01 X67.0136 Y-8.4255
G01 X67.1065 Y-8.4980
G01 X67.1956 Y-8.5749
G01 X67.2809 Y-8.6562
G01 X67.3622 Y-8.7415
G01 X67.4391 Y-8.8306
G01 X67.5116 Y-8.9235
G01 X67.5794 Y-9.0198
G01 X67.6424 Y-9.1193
G01 X67.7004 Y-9.2218
G01 X67.7534 Y-9.3270
G01 X67.8011 Y-9.4347
G01 X67.8435 Y-9.5446
G01 X67.8805 Y-9.6564
G01 X67.9119 Y-9.7699
G01 X67.9377 Y-9.8848
G01 X67.9578 Y-10.0009
G01 X67.9722 Y-10.1178
G01 X67.9809 Y-10.2353
G01 X67.9838 Y-10.3530
G01 X67.9809 Y-10.4707
G01 X67.9722 Y-10.5882
G01 X67.9578 Y-10.7051
G01 X67.9377 Y-10.8212
G01 X67.9119 Y-10.9361
G01 X67.8805 Y-11.0496
G01 X67.8435 Y-11.1614
G01 X67.8011 Y-11.2713
G01 X67.7534 Y-11.3790
G01 X67.7004 Y-11.4842
G01 X67.6424 Y-11.5867
G01 X67.5794 Y-11.6862
G01 X67.5116 Y-11.7825
G01 X67.4391 Y-11.8754
G01 X67.3622 Y-11.9645
G01 X67.2809 Y-12.0498
G01 X67.1956 Y-12.1311
G01 X67.1065 Y-12.2080
G01 X67.0136 Y-12.2805
G01 X66.9173 Y-12.3483
G01 X66.8514 Y-12.3901
G01 X66.8209 Y-12.4108
G01 X66.7912 Y-12.4325
G01 X66.7623 Y-12.4553
G01 X66.7161 Y-12.4957
G01 X66.6724 Y-12.5388
G01 X66.6315 Y-12.5845
G01 X66.5966 Y-12.6285
G00 X66.5966 Y-12.6285
G01 F70.00
G01 Z-1.6000
G01 F120.00
G01 X64.5716 Y-12.6285
G01 X64.5367 Y-12.5845
G01 X64.5042 Y-12.5477
G01 X64.4611 Y-12.5041
G01 X64.4247 Y-12.4711
G01 X64.3868 Y-12.4400
G01 X64.3473 Y-12.4108
G01 X64.3168 Y-12.3901
G01 X64.2509 Y-12.3483
G01 X64.1546 Y-12.2805
G01 X64.0617 Y-12.2080
G01 X63.9726 Y-12.1311
G01 X63.8873 Y-12.0498
G01 X63.8060 Y-11.9645
G01 X63.7291 Y-11.8754
G01 X63.6566 Y-11.7825
G01 X63.5888 Y-11.6862
G01 X63.5258 Y-11.5867
G01 X63.4678 Y-11.4842
G01 X63.4148 Y-11.3790
G01 X63.3671 Y-11.2713
G01 X63.3247 Y-11.1614
G01 X63.2877 Y-11.0496
G01 X63.2563 Y-10.9361
G01 X63.2305 Y-10.8212
G01 X63.2104 Y-10.7051
G01 X63.1960 Y-10.5882
G01 X63.1873 Y-10.4707
G01 X63.1844 Y-10.3530
G01 X63.1873 Y-10.2353
G01 X63.1960 Y-10.1178
G01 X63.2104 Y-10.0009
G01 X63.2305 Y-9.8848
G01 X63.2563 Y-9.7699
G01 X63.2877 Y-9.6564
G01 X63.3247 Y-9.5446
G01 X63.3671 Y-9.4347
G01 X63.4148 Y-9.3270
G01 X63.4678 Y-9.2218
G01 X63.5258 Y-9.1193
G01 X63.5888 Y-9.0198
G01 X63.6566 Y-8.9235
G01 X63.7291 Y-8.8306
G01 X63.8060 Y-8.7415
G01 X63.8873 Y-8.6562
G01 X63.9726 Y-8.5749
G01 X64.0617 Y-8.4980
G01 X64.1546 Y-8.4255
G01 X64.2509 Y-8.3577
G01 X64.3504 Y-8.2947
G01 X64.4529 Y-8.2367
G01 X64.5581 Y-8.1837
G01 X64.6658 Y-8.1360
G01 X64.7757 Y-8.0936
G01 X64.8875 Y-8.0566
G01 X65.0010 Y-8.0252
G01 X65.1159 Y-7.9994
G01 X65.2320 Y-7.9793
G01 X65.3489 Y-7.9649
G01 X65.4664 Y-7.9562
G01 X65.5841 Y-7.9533
G01 X65.7018 Y-7.9562
G01 X65.8193 Y-7.9649
G01 X65.9362 Y-7.9793
G01 X66.0523 Y-7.9994
G01 X66.1672 Y-8.0252
G01 X66.2807 Y-8.0566
G01 X66.3925 Y-8.0936
G01 X66.5024 Y-8.1360
G01 X66.6101 Y-8.1837
G01 X66.7153 Y-8.2367
G01 X66.8178 Y-8.2947
G01 X66.9173 Y-8.3577
G01 X67.0136 Y-8.4255
G01 X67.1065 Y-8.4980
G01 X67.1956 Y-8.5749
G01 X67.2809 Y-8.6562
G01 X67.3622 Y-8.7415
G01 X67.4391 Y-8.8306
G01 X67.5116 Y-8.9235
G01 X67.5794 Y-9.0198
G01 X67.6424 Y-9.1193
G01 X67.7004 Y-9.2218
G01 X67.7534 Y-9.3270
G01 X67.8011 Y-9.4347
G01 X67.8435 Y-9.5446
G01 X67.8805 Y-9.6564
G01 X67.9119 Y-9.7699
G01 X67.9377 Y-9.8848
G01 X67.9578 Y-10.0009
G01 X67.9722 Y-10.1178
G01 X67.9809 Y-10.2353
G01 X67.9838 Y-10.3530
G01 X67.9809 Y-10.4707
G01 X67.9722 Y-10.5882
G01 X67.9578 Y-10.7051
G01 X67.9377 Y-10.8212
G01 X67.9119 Y-10.9361
G01 X67.8805 Y-11.0496
G01 X67.8435 Y-11.1614
G01 X67.8011 Y-11.2713
G01 X67.7534 Y-11.3790
G01 X67.7004 Y-11.4842
G01 X67.6424 Y-11.5867
G01 X67.5794 Y-11.6862
G01 X67.5116 Y-11.7825
G01 X67.4391 Y-11.8754
G01 X67.3622 Y-11.9645
G01 X67.2809 Y-12.0498
G01 X67.1956 Y-12.1311
G01 X67.1065 Y-12.2080
G01 X67.0136 Y-12.2805
G01 X66.9173 Y-12.3483
G01 X66.8514 Y-12.3901
G01 X66.8209 Y-12.4108
G01 X66.7912 Y-12.4325
G01 X66.7623 Y-12.4553
G01 X66.7161 Y-12.4957
G01 X66.6724 Y-12.5388
G01 X66.6315 Y-12.5845
G01 X66.5966 Y-12.6285
G00 X66.5966 Y-12.6285
G01 F70.00
G01 Z-1.7000
G01 F120.00
G01 X64.5716 Y-12.6285
G01 X64.5367 Y-12.5845
G01 X64.5042 Y-12.5477
G01 X64.4611 Y-12.5041
G01 X64.4247 Y-12.4711
G01 X64.3868 Y-12.4400
G01 X64.3473 Y-12.4108
G01 X64.3168 Y-12.3901
G01 X64.2509 Y-12.3483
G01 X64.1546 Y-12.2805
G01 X64.0617 Y-12.2080
G01 X63.9726 Y-12.1311
G01 X63.8873 Y-12.0498
G01 X63.8060 Y-11.9645
G01 X63.7291 Y-11.8754
G01 X63.6566 Y-11.7825
G01 X63.5888 Y-11.6862
G01 X63.5258 Y-11.5867
G01 X63.4678 Y-11.4842
G01 X63.4148 Y-11.3790
G01 X63.3671 Y-11.2713
G01 X63.3247 Y-11.1614
G01 X63.2877 Y-11.0496
G01 X63.2563 Y-10.9361
G01 X63.2305 Y-10.8212
G01 X63.2104 Y-10.7051
G01 X63.1960 Y-10.5882
G01 X63.1873 Y-10.4707
G01 X63.1844 Y-10.3530
G01 X63.1873 Y-10.2353
G01 X63.1960 Y-10.1178
G01 X63.2104 Y-10.0009
G01 X63.2305 Y-9.8848
G01 X63.2563 Y-9.7699
G01 X63.2877 Y-9.6564
G01 X63.3247 Y-9.5446
G01 X63.3671 Y-9.4347
G01 X63.4148 Y-9.3270
G01 X63.4678 Y-9.2218
G01 X63.5258 Y-9.1193
G01 X63.5888 Y-9.0198
G01 X63.6566 Y-8.9235
G01 X63.7291 Y-8.8306
G01 X63.8060 Y-8.7415
G01 X63.8873 Y-8.6562
G01 X63.9726 Y-8.5749
G01 X64.0617 Y-8.4980
G01 X64.1546 Y-8.4255
G01 X64.2509 Y-8.3577
G01 X64.3504 Y-8.2947
G01 X64.4529 Y-8.2367
G01 X64.5581 Y-8.1837
G01 X64.6658 Y-8.1360
G01 X64.7757 Y-8.0936
G01 X64.8875 Y-8.0566
G01 X65.0010 Y-8.0252
G01 X65.1159 Y-7.9994
G01 X65.2320 Y-7.9793
G01 X65.3489 Y-7.9649
G01 X65.4664 Y-7.9562
G01 X65.5841 Y-7.9533
G01 X65.7018 Y-7.9562
G01 X65.8193 Y-7.9649
G01 X65.9362 Y-7.9793
G01 X66.0523 Y-7.9994
G01 X66.1672 Y-8.0252
G01 X66.2807 Y-8.0566
G01 X66.3925 Y-8.0936
G01 X66.5024 Y-8.1360
G01 X66.6101 Y-8.1837
G01 X66.7153 Y-8.2367
G01 X66.8178 Y-8.2947
G01 X66.9173 Y-8.3577
G01 X67.0136 Y-8.4255
G01 X67.1065 Y-8.4980
G01 X67.1956 Y-8.5749
G01 X67.2809 Y-8.6562
G01 X67.3622 Y-8.7415
G01 X67.4391 Y-8.8306
G01 X67.5116 Y-8.9235
G01 X67.5794 Y-9.0198
G01 X67.6424 Y-9.1193
G01 X67.7004 Y-9.2218
G01 X67.7534 Y-9.3270
G01 X67.8011 Y-9.4347
G01 X67.8435 Y-9.5446
G01 X67.8805 Y-9.6564
G01 X67.9119 Y-9.7699
G01 X67.9377 Y-9.8848
G01 X67.9578 Y-10.0009
G01 X67.9722 Y-10.1178
G01 X67.9809 Y-10.2353
G01 X67.9838 Y-10.3530
G01 X67.9809 Y-10.4707
G01 X67.9722 Y-10.5882
G01 X67.9578 Y-10.7051
G01 X67.9377 Y-10.8212
G01 X67.9119 Y-10.9361
G01 X67.8805 Y-11.0496
G01 X67.8435 Y-11.1614
G01 X67.8011 Y-11.2713
G01 X67.7534 Y-11.3790
G01 X67.7004 Y-11.4842
G01 X67.6424 Y-11.5867
G01 X67.5794 Y-11.6862
G01 X67.5116 Y-11.7825
G01 X67.4391 Y-11.8754
G01 X67.3622 Y-11.9645
G01 X67.2809 Y-12.0498
G01 X67.1956 Y-12.1311
G01 X67.1065 Y-12.2080
G01 X67.0136 Y-12.2805
G01 X66.9173 Y-12.3483
G01 X66.8514 Y-12.3901
G01 X66.8209 Y-12.4108
G01 X66.7912 Y-12.4325
G01 X66.7623 Y-12.4553
G01 X66.7161 Y-12.4957
G01 X66.6724 Y-12.5388
G01 X66.6315 Y-12.5845
G01 X66.5966 Y-12.6285
G00 X66.5966 Y-12.6285
G01 F70.00
G01 Z-1.8000
G01 F120.00
G01 X64.5716 Y-12.6285
G01 X64.5367 Y-12.5845
G01 X64.5042 Y-12.5477
G01 X64.4611 Y-12.5041
G01 X64.4247 Y-12.4711
G01 X64.3868 Y-12.4400
G01 X64.3473 Y-12.4108
G01 X64.3168 Y-12.3901
G01 X64.2509 Y-12.3483
G01 X64.1546 Y-12.2805
G01 X64.0617 Y-12.2080
G01 X63.9726 Y-12.1311
G01 X63.8873 Y-12.0498
G01 X63.8060 Y-11.9645
G01 X63.7291 Y-11.8754
G01 X63.6566 Y-11.7825
G01 X63.5888 Y-11.6862
G01 X63.5258 Y-11.5867
G01 X63.4678 Y-11.4842
G01 X63.4148 Y-11.3790
G01 X63.3671 Y-11.2713
G01 X63.3247 Y-11.1614
G01 X63.2877 Y-11.0496
G01 X63.2563 Y-10.9361
G01 X63.2305 Y-10.8212
G01 X63.2104 Y-10.7051
G01 X63.1960 Y-10.5882
G01 X63.1873 Y-10.4707
G01 X63.1844 Y-10.3530
G01 X63.1873 Y-10.2353
G01 X63.1960 Y-10.1178
G01 X63.2104 Y-10.0009
G01 X63.2305 Y-9.8848
G01 X63.2563 Y-9.7699
G01 X63.2877 Y-9.6564
G01 X63.3247 Y-9.5446
G01 X63.3671 Y-9.4347
G01 X63.4148 Y-9.3270
G01 X63.4678 Y-9.2218
G01 X63.5258 Y-9.1193
G01 X63.5888 Y-9.0198
G01 X63.6566 Y-8.9235
G01 X63.7291 Y-8.8306
G01 X63.8060 Y-8.7415
G01 X63.8873 Y-8.6562
G01 X63.9726 Y-8.5749
G01 X64.0617 Y-8.4980
G01 X64.1546 Y-8.4255
G01 X64.2509 Y-8.3577
G01 X64.3504 Y-8.2947
G01 X64.4529 Y-8.2367
G01 X64.5581 Y-8.1837
G01 X64.6658 Y-8.1360
G01 X64.7757 Y-8.0936
G01 X64.8875 Y-8.0566
G01 X65.0010 Y-8.0252
G01 X65.1159 Y-7.9994
G01 X65.2320 Y-7.9793
G01 X65.3489 Y-7.9649
G01 X65.4664 Y-7.9562
G01 X65.5841 Y-7.9533
G01 X65.7018 Y-7.9562
G01 X65.8193 Y-7.9649
G01 X65.9362 Y-7.9793
G01 X66.0523 Y-7.9994
G01 X66.1672 Y-8.0252
G01 X66.2807 Y-8.0566
G01 X66.3925 Y-8.0936
G01 X66.5024 Y-8.1360
G01 X66.6101 Y-8.1837
G01 X66.7153 Y-8.2367
G01 X66.8178 Y-8.2947
G01 X66.9173 Y-8.3577
G01 X67.0136 Y-8.4255
G01 X67.1065 Y-8.4980
G01 X67.1956 Y-8.5749
G01 X67.2809 Y-8.6562
G01 X67.3622 Y-8.7415
G01 X67.4391 Y-8.8306
G01 X67.5116 Y-8.9235
G01 X67.5794 Y-9.0198
G01 X67.6424 Y-9.1193
G01 X67.7004 Y-9.2218
G01 X67.7534 Y-9.3270
G01 X67.8011 Y-9.4347
G01 X67.8435 Y-9.5446
G01 X67.8805 Y-9.6564
G01 X67.9119 Y-9.7699
G01 X67.9377 Y-9.8848
G01 X67.9578 Y-10.0009
G01 X67.9722 Y-10.1178
G01 X67.9809 Y-10.2353
G01 X67.9838 Y-10.3530
G01 X67.9809 Y-10.4707
G01 X67.9722 Y-10.5882
G01 X67.9578 Y-10.7051
G01 X67.9377 Y-10.8212
G01 X67.9119 Y-10.9361
G01 X67.8805 Y-11.0496
G01 X67.8435 Y-11.1614
G01 X67.8011 Y-11.2713
G01 X67.7534 Y-11.3790
G01 X67.7004 Y-11.4842
G01 X67.6424 Y-11.5867
G01 X67.5794 Y-11.6862
G01 X67.5116 Y-11.7825
G01 X67.4391 Y-11.8754
G01 X67.3622 Y-11.9645
G01 X67.2809 Y-12.0498
G01 X67.1956 Y-12.1311
G01 X67.1065 Y-12.2080
G01 X67.0136 Y-12.2805
G01 X66.9173 Y-12.3483
G01 X66.8514 Y-12.3901
G01 X66.8209 Y-12.4108
G01 X66.7912 Y-12.4325
G01 X66.7623 Y-12.4553
G01 X66.7161 Y-12.4957
G01 X66.6724 Y-12.5388
G01 X66.6315 Y-12.5845
G01 X66.5966 Y-12.6285
G00 Z2.0000
G00 X65.5841 Y-19.2992
G01 F70.00
G01 Z-0.1000
G01 F120.00
G01 X65.6172 Y-19.3249
G01 X65.6472 Y-19.3462
G01 X65.6779 Y-19.3665
G01 X65.7094 Y-19.3856
G01 X65.7415 Y-19.4036
G01 X65.7743 Y-19.4203
G01 X65.8077 Y-19.4359
G01 X65.8416 Y-19.4502
G01 X65.8876 Y-19.4673
G01 X65.9462 Y-19.4854
G01 X65.9938 Y-19.4974
G01 X66.0523 Y-19.5087
G01 X66.1672 Y-19.5345
G01 X66.2807 Y-19.5659
G01 X66.3925 Y-19.6029
G01 X66.5024 Y-19.6453
G01 X66.6101 Y-19.6930
G01 X66.7153 Y-19.7460
G01 X66.8178 Y-19.8040
G01 X66.9173 Y-19.8670
G01 X67.0136 Y-19.9348
G01 X67.1065 Y-20.0073
G01 X67.1956 Y-20.0842
G01 X67.2809 Y-20.1655
G01 X67.3622 Y-20.2508
G01 X67.4391 Y-20.3399
G01 X67.5116 Y-20.4328
G01 X67.5794 Y-20.5291
G01 X67.6424 Y-20.6286
G01 X67.7004 Y-20.7311
G01 X67.7534 Y-20.8363
G01 X67.8011 Y-20.9440
G01 X67.8435 Y-21.0539
G01 X67.8805 Y-21.1657
G01 X67.9119 Y-21.2792
G01 X67.9377 Y-21.3941
G01 X67.9578 Y-21.5102
G01 X67.9722 Y-21.6271
G01 X67.9809 Y-21.7446
G01 X67.9838 Y-21.8623
G01 X67.9809 Y-21.9800
G01 X67.9722 Y-22.0975
G01 X67.9578 Y-22.2144
G01 X67.9377 Y-22.3305
G01 X67.9119 Y-22.4454
G01 X67.8805 Y-22.5589
G01 X67.8435 Y-22.6707
G01 X67.8011 Y-22.7806
G01 X67.7534 Y-22.8883
G01 X67.7004 Y-22.9935
G01 X67.6424 Y-23.0960
G01 X67.5794 Y-23.1955
G01 X67.5116 Y-23.2918
G01 X67.4391 Y-23.3847
G01 X67.3622 Y-23.4738
G01 X67.2809 Y-23.5591
G01 X67.1956 Y-23.6404
G01 X67.1065 Y-23.7173
G01 X67.0136 Y-23.7898
G01 X66.9173 Y-23.8576
G01 X66.8178 Y-23.9206
G01 X66.7153 Y-23.9786
G01 X66.6101 Y-24.0316
G01 X66.5024 Y-24.0793
G01 X66.3925 Y-24.1217
G01 X66.2807 Y-24.1587
G01 X66.1672 Y-24.1901
G01 X66.0523 Y-24.2159
G01 X65.9362 Y-24.2360
G01 X65.8193 Y-24.2504
G01 X65.7018 Y-24.2591
G01 X65.5841 Y-24.2620
G01 X65.4664 Y-24.2591
G01 X65.3489 Y-24.2504
G01 X65.2320 Y-24.2360
G01 X65.1159 Y-24.2159
G01 X65.0010 Y-24.1901
G01 X64.8875 Y-24.1587
G01 X64.7757 Y-24.1217
G01 X64.6658 Y-24.0793
G01 X64.5581 Y-24.0316
G01 X64.4529 Y-23.9786
G01 X64.3504 Y-23.9206
G01 X64.2509 Y-23.8576
G01 X64.1546 Y-23.7898
G01 X64.0617 Y-23.7173
G01 X63.9726 Y-23.6404
G01 X63.8873 Y-23.5591
G01 X63.8060 Y-23.4738
G01 X63.7291 Y-23.3847
G01 X63.6566 Y-23.2918
G01 X63.5888 Y-23.1955
G01 X63.5258 Y-23.0960
G01 X63.4678 Y-22.9935
G01 X63.4148 Y-22.8883
G01 X63.3671 Y-22.7806
G01 X63.3247 Y-22.6707
G01 X63.2877 Y-22.5589
G01 X63.2563 Y-22.4454
G01 X63.2305 Y-22.3305
G01 X63.2104 Y-22.2144
G01 X63.1960 Y-22.0975
G01 X63.1873 Y-21.9800
G01 X63.1844 Y-21.8623
G01 X63.1873 Y-21.7446
G01 X63.1960 Y-21.6271
G01 X63.2104 Y-21.5102
G01 X63.2305 Y-21.3941
G01 X63.2563 Y-21.2792
G01 X63.2877 Y-21.1657
G01 X63.3247 Y-21.0539
G01 X63.3671 Y-20.9440
G01 X63.4148 Y-20.8363
G01 X63.4678 Y-20.7311
G01 X63.5258 Y-20.6286
G01 X63.5888 Y-20.5291
G01 X63.6566 Y-20.4328
G01 X63.7291 Y-20.3399
G01 X63.8060 Y-20.2508
G01 X63.8873 Y-20.1655
G01 X63.9726 Y-20.0842
G01 X64.0617 Y-20.0073
G01 X64.1546 Y-19.9348
G01 X64.2509 Y-19.8670
G01 X64.3504 Y-19.8040
G01 X64.4529 Y-19.7460
G01 X64.5581 Y-19.6930
G01 X64.6658 Y-19.6453
G01 X64.7757 Y-19.6029
G01 X64.8875 Y-19.5659
G01 X65.0010 Y-19.5345
G01 X65.1159 Y-19.5087
G01 X65.1744 Y-19.4974
G01 X65.2220 Y-19.4854
G01 X65.2689 Y-19.4712
G01 X65.3266 Y-19.4502
G01 X65.3605 Y-19.4359
G01 X65.3939 Y-19.4203
G01 X65.4267 Y-19.4036
G01 X65.4588 Y-19.3856
G01 X65.4903 Y-19.3665
G01 X65.5210 Y-19.3462
G01 X65.5510 Y-19.3249
G01 X65.5841 Y-19.2992
G00 X65.5841 Y-19.2992
G01 F70.00
G01 Z-0.2000
G01 F120.00
G01 X65.6172 Y-19.3249
G01 X65.6472 Y-19.3462
G01 X65.6779 Y-19.3665
G01 X65.7094 Y-19.3856
G01 X65.7415 Y-19.4036
G01 X65.7743 Y-19.4203
G01 X65.8077 Y-19.4359
G01 X65.8416 Y-19.4502
G01 X65.8876 Y-19.4673
G01 X65.9462 Y-19.4854
G01 X65.9938 Y-19.4974
G01 X66.0523 Y-19.5087
G01 X66.1672 Y-19.5345
G01 X66.2807 Y-19.5659
G01 X66.3925 Y-19.6029
G01 X66.5024 Y-19.6453
G01 X66.6101 Y-19.6930
G01 X66.7153 Y-19.7460
G01 X66.8178 Y-19.8040
G01 X66.9173 Y-19.8670
G01 X67.0136 Y-19.9348
G01 X67.1065 Y-20.0073
G01 X67.1956 Y-20.0842
G01 X67.2809 Y-20.1655
G01 X67.3622 Y-20.2508
G01 X67.4391 Y-20.3399
G01 X67.5116 Y-20.4328
G01 X67.5794 Y-20.5291
G01 X67.6424 Y-20.6286
G01 X67.7004 Y-20.7311
G01 X67.7534 Y-20.8363
G01 X67.8011 Y-20.9440
G01 X67.8435 Y-21.0539
G01 X67.8805 Y-21.1657
G01 X67.9119 Y-21.2792
G01 X67.9377 Y-21.3941
G01 X67.9578 Y-21.5102
G01 X67.9722 Y-21.6271
G01 X67.9809 Y-21.7446
G01 X67.9838 Y-21.8623
G01 X67.9809 Y-21.9800
G01 X67.9722 Y-22.0975
G01 X67.9578 Y-22.2144
G01 X67.9377 Y-22.3305
G01 X67.9119 Y-22.4454
G01 X67.8805 Y-22.5589
G01 X67.8435 Y-22.6707
G01 X67.8011 Y-22.7806
G01 X67.7534 Y-22.8883
G01 X67.7004 Y-22.9935
G01 X67.6424 Y-23.0960
G01 X67.5794 Y-23.1955
G01 X67.5116 Y-23.2918
G01 X67.4391 Y-23.3847
G01 X67.3622 Y-23.4738
G01 X67.2809 Y-23.5591
G01 X67.1956 Y-23.6404
G01 X67.1065 Y-23.7173
G01 X67.0136 Y-23.7898
G01 X66.9173 Y-23.8576
G01 X66.8178 Y-23.9206
G01 X66.7153 Y-23.9786
G01 X66.6101 Y-24.0316
G01 X66.5024 Y-24.0793
G01 X66.3925 Y-24.1217
G01 X66.2807 Y-24.1587
G01 X66.1672 Y-24.1901
G01 X66.0523 Y-24.2159
G01 X65.9362 Y-24.2360
G01 X65.8193 Y-24.2504
G01 X65.7018 Y-24.2591
G01 X65.5841 Y-24.2620
G01 X65.4664 Y-24.2591
G01 X65.3489 Y-24.2504
G01 X65.2320 Y-24.2360
G01 X65.1159 Y-24.2159
G01 X65.0010 Y-24.1901
G01 X64.8875 Y-24.1587
G01 X64.7757 Y-24.1217
G01 X64.6658 Y-24.0793
G01 X64.5581 Y-24.0316
G01 X64.4529 Y-23.9786
G01 X64.3504 Y-23.9206
G01 X64.2509 Y-23.8576
G01 X64.1546 Y-23.7898
G01 X64.0617 Y-23.7173
G01 X63.9726 Y-23.6404
G01 X63.8873 Y-23.5591
G01 X63.8060 Y-23.4738
G01 X63.7291 Y-23.3847
G01 X63.6566 Y-23.2918
G01 X63.5888 Y-23.1955
G01 X63.5258 Y-23.0960
G01 X63.4678 Y-22.9935
G01 X63.4148 Y-22.8883
G01 X63.3671 Y-22.7806
G01 X63.3247 Y-22.6707
G01 X63.2877 Y-22.5589
G01 X63.2563 Y-22.4454
G01 X63.2305 Y-22.3305
G01 X63.2104 Y-22.2144
G01 X63.1960 Y-22.0975
G01 X63.1873 Y-21.9800
G01 X63.1844 Y-21.8623
G01 X63.1873 Y-21.7446
G01 X63.1960 Y-21.6271
G01 X63.2104 Y-21.5102
G01 X63.2305 Y-21.3941
G01 X63.2563 Y-21.2792
G01 X63.2877 Y-21.1657
G01 X63.3247 Y-21.0539
G01 X63.3671 Y-20.9440
G01 X63.4148 Y-20.8363
G01 X63.4678 Y-20.7311
G01 X63.5258 Y-20.6286
G01 X63.5888 Y-20.5291
G01 X63.6566 Y-20.4328
G01 X63.7291 Y-20.3399
G01 X63.8060 Y-20.2508
G01 X63.8873 Y-20.1655
G01 X63.9726 Y-20.0842
G01 X64.0617 Y-20.0073
G01 X64.1546 Y-19.9348
G01 X64.2509 Y-19.8670
G01 X64.3504 Y-19.8040
G01 X64.4529 Y-19.7460
G01 X64.5581 Y-19.6930
G01 X64.6658 Y-19.6453
G01 X64.7757 Y-19.6029
G01 X64.8875 Y-19.5659
G01 X65.0010 Y-19.5345
G01 X65.1159 Y-19.5087
G01 X65.1744 Y-19.4974
G01 X65.2220 Y-19.4854
G01 X65.2689 Y-19.4712
G01 X65.3266 Y-19.4502
G01 X65.3605 Y-19.4359
G01 X65.3939 Y-19.4203
G01 X65.4267 Y-19.4036
G01 X65.4588 Y-19.3856
G01 X65.4903 Y-19.3665
G01 X65.5210 Y-19.3462
G01 X65.5510 Y-19.3249
G01 X65.5841 Y-19.2992
G00 X65.5841 Y-19.2992
G01 F70.00
G01 Z-0.3000
G01 F120.00
G01 X65.6172 Y-19.3249
G01 X65.6472 Y-19.3462
G01 X65.6779 Y-19.3665
G01 X65.7094 Y-19.3856
G01 X65.7415 Y-19.4036
G01 X65.7743 Y-19.4203
G01 X65.8077 Y-19.4359
G01 X65.8416 Y-19.4502
G01 X65.8876 Y-19.4673
G01 X65.9462 Y-19.4854
G01 X65.9938 Y-19.4974
G01 X66.0523 Y-19.5087
G01 X66.1672 Y-19.5345
G01 X66.2807 Y-19.5659
G01 X66.3925 Y-19.6029
G01 X66.5024 Y-19.6453
G01 X66.6101 Y-19.6930
G01 X66.7153 Y-19.7460
G01 X66.8178 Y-19.8040
G01 X66.9173 Y-19.8670
G01 X67.0136 Y-19.9348
G01 X67.1065 Y-20.0073
G01 X67.1956 Y-20.0842
G01 X67.2809 Y-20.1655
G01 X67.3622 Y-20.2508
G01 X67.4391 Y-20.3399
G01 X67.5116 Y-20.4328
G01 X67.5794 Y-20.5291
G01 X67.6424 Y-20.6286
G01 X67.7004 Y-20.7311
G01 X67.7534 Y-20.8363
G01 X67.8011 Y-20.9440
G01 X67.8435 Y-21.0539
G01 X67.8805 Y-21.1657
G01 X67.9119 Y-21.2792
G01 X67.9377 Y-21.3941
G01 X67.9578 Y-21.5102
G01 X67.9722 Y-21.6271
G01 X67.9809 Y-21.7446
G01 X67.9838 Y-21.8623
G01 X67.9809 Y-21.9800
G01 X67.9722 Y-22.0975
G01 X67.9578 Y-22.2144
G01 X67.9377 Y-22.3305
G01 X67.9119 Y-22.4454
G01 X67.8805 Y-22.5589
G01 X67.8435 Y-22.6707
G01 X67.8011 Y-22.7806
G01 X67.7534 Y-22.8883
G01 X67.7004 Y-22.9935
G01 X67.6424 Y-23.0960
G01 X67.5794 Y-23.1955
G01 X67.5116 Y-23.2918
G01 X67.4391 Y-23.3847
G01 X67.3622 Y-23.4738
G01 X67.2809 Y-23.5591
G01 X67.1956 Y-23.6404
G01 X67.1065 Y-23.7173
G01 X67.0136 Y-23.7898
G01 X66.9173 Y-23.8576
G01 X66.8178 Y-23.9206
G01 X66.7153 Y-23.9786
G01 X66.6101 Y-24.0316
G01 X66.5024 Y-24.0793
G01 X66.3925 Y-24.1217
G01 X66.2807 Y-24.1587
G01 X66.1672 Y-24.1901
G01 X66.0523 Y-24.2159
G01 X65.9362 Y-24.2360
G01 X65.8193 Y-24.2504
G01 X65.7018 Y-24.2591
G01 X65.5841 Y-24.2620
G01 X65.4664 Y-24.2591
G01 X65.3489 Y-24.2504
G01 X65.2320 Y-24.2360
G01 X65.1159 Y-24.2159
G01 X65.0010 Y-24.1901
G01 X64.8875 Y-24.1587
G01 X64.7757 Y-24.1217
G01 X64.6658 Y-24.0793
G01 X64.5581 Y-24.0316
G01 X64.4529 Y-23.9786
G01 X64.3504 Y-23.9206
G01 X64.2509 Y-23.8576
G01 X64.1546 Y-23.7898
G01 X64.0617 Y-23.7173
G01 X63.9726 Y-23.6404
G01 X63.8873 Y-23.5591
G01 X63.8060 Y-23.4738
G01 X63.7291 Y-23.3847
G01 X63.6566 Y-23.2918
G01 X63.5888 Y-23.1955
G01 X63.5258 Y-23.0960
G01 X63.4678 Y-22.9935
G01 X63.4148 Y-22.8883
G01 X63.3671 Y-22.7806
G01 X63.3247 Y-22.6707
G01 X63.2877 Y-22.5589
G01 X63.2563 Y-22.4454
G01 X63.2305 Y-22.3305
G01 X63.2104 Y-22.2144
G01 X63.1960 Y-22.0975
G01 X63.1873 Y-21.9800
G01 X63.1844 Y-21.8623
G01 X63.1873 Y-21.7446
G01 X63.1960 Y-21.6271
G01 X63.2104 Y-21.5102
G01 X63.2305 Y-21.3941
G01 X63.2563 Y-21.2792
G01 X63.2877 Y-21.1657
G01 X63.3247 Y-21.0539
G01 X63.3671 Y-20.9440
G01 X63.4148 Y-20.8363
G01 X63.4678 Y-20.7311
G01 X63.5258 Y-20.6286
G01 X63.5888 Y-20.5291
G01 X63.6566 Y-20.4328
G01 X63.7291 Y-20.3399
G01 X63.8060 Y-20.2508
G01 X63.8873 Y-20.1655
G01 X63.9726 Y-20.0842
G01 X64.0617 Y-20.0073
G01 X64.1546 Y-19.9348
G01 X64.2509 Y-19.8670
G01 X64.3504 Y-19.8040
G01 X64.4529 Y-19.7460
G01 X64.5581 Y-19.6930
G01 X64.6658 Y-19.6453
G01 X64.7757 Y-19.6029
G01 X64.8875 Y-19.5659
G01 X65.0010 Y-19.5345
G01 X65.1159 Y-19.5087
G01 X65.1744 Y-19.4974
G01 X65.2220 Y-19.4854
G01 X65.2689 Y-19.4712
G01 X65.3266 Y-19.4502
G01 X65.3605 Y-19.4359
G01 X65.3939 Y-19.4203
G01 X65.4267 Y-19.4036
G01 X65.4588 Y-19.3856
G01 X65.4903 Y-19.3665
G01 X65.5210 Y-19.3462
G01 X65.5510 Y-19.3249
G01 X65.5841 Y-19.2992
G00 X65.5841 Y-19.2992
G01 F70.00
G01 Z-0.4000
G01 F120.00
G01 X65.6172 Y-19.3249
G01 X65.6472 Y-19.3462
G01 X65.6779 Y-19.3665
G01 X65.7094 Y-19.3856
G01 X65.7415 Y-19.4036
G01 X65.7743 Y-19.4203
G01 X65.8077 Y-19.4359
G01 X65.8416 Y-19.4502
G01 X65.8876 Y-19.4673
G01 X65.9462 Y-19.4854
G01 X65.9938 Y-19.4974
G01 X66.0523 Y-19.5087
G01 X66.1672 Y-19.5345
G01 X66.2807 Y-19.5659
G01 X66.3925 Y-19.6029
G01 X66.5024 Y-19.6453
G01 X66.6101 Y-19.6930
G01 X66.7153 Y-19.7460
G01 X66.8178 Y-19.8040
G01 X66.9173 Y-19.8670
G01 X67.0136 Y-19.9348
G01 X67.1065 Y-20.0073
G01 X67.1956 Y-20.0842
G01 X67.2809 Y-20.1655
G01 X67.3622 Y-20.2508
G01 X67.4391 Y-20.3399
G01 X67.5116 Y-20.4328
G01 X67.5794 Y-20.5291
G01 X67.6424 Y-20.6286
G01 X67.7004 Y-20.7311
G01 X67.7534 Y-20.8363
G01 X67.8011 Y-20.9440
G01 X67.8435 Y-21.0539
G01 X67.8805 Y-21.1657
G01 X67.9119 Y-21.2792
G01 X67.9377 Y-21.3941
G01 X67.9578 Y-21.5102
G01 X67.9722 Y-21.6271
G01 X67.9809 Y-21.7446
G01 X67.9838 Y-21.8623
G01 X67.9809 Y-21.9800
G01 X67.9722 Y-22.0975
G01 X67.9578 Y-22.2144
G01 X67.9377 Y-22.3305
G01 X67.9119 Y-22.4454
G01 X67.8805 Y-22.5589
G01 X67.8435 Y-22.6707
G01 X67.8011 Y-22.7806
G01 X67.7534 Y-22.8883
G01 X67.7004 Y-22.9935
G01 X67.6424 Y-23.0960
G01 X67.5794 Y-23.1955
G01 X67.5116 Y-23.2918
G01 X67.4391 Y-23.3847
G01 X67.3622 Y-23.4738
G01 X67.2809 Y-23.5591
G01 X67.1956 Y-23.6404
G01 X67.1065 Y-23.7173
G01 X67.0136 Y-23.7898
G01 X66.9173 Y-23.8576
G01 X66.8178 Y-23.9206
G01 X66.7153 Y-23.9786
G01 X66.6101 Y-24.0316
G01 X66.5024 Y-24.0793
G01 X66.3925 Y-24.1217
G01 X66.2807 Y-24.1587
G01 X66.1672 Y-24.1901
G01 X66.0523 Y-24.2159
G01 X65.9362 Y-24.2360
G01 X65.8193 Y-24.2504
G01 X65.7018 Y-24.2591
G01 X65.5841 Y-24.2620
G01 X65.4664 Y-24.2591
G01 X65.3489 Y-24.2504
G01 X65.2320 Y-24.2360
G01 X65.1159 Y-24.2159
G01 X65.0010 Y-24.1901
G01 X64.8875 Y-24.1587
G01 X64.7757 Y-24.1217
G01 X64.6658 Y-24.0793
G01 X64.5581 Y-24.0316
G01 X64.4529 Y-23.9786
G01 X64.3504 Y-23.9206
G01 X64.2509 Y-23.8576
G01 X64.1546 Y-23.7898
G01 X64.0617 Y-23.7173
G01 X63.9726 Y-23.6404
G01 X63.8873 Y-23.5591
G01 X63.8060 Y-23.4738
G01 X63.7291 Y-23.3847
G01 X63.6566 Y-23.2918
G01 X63.5888 Y-23.1955
G01 X63.5258 Y-23.0960
G01 X63.4678 Y-22.9935
G01 X63.4148 Y-22.8883
G01 X63.3671 Y-22.7806
G01 X63.3247 Y-22.6707
G01 X63.2877 Y-22.5589
G01 X63.2563 Y-22.4454
G01 X63.2305 Y-22.3305
G01 X63.2104 Y-22.2144
G01 X63.1960 Y-22.0975
G01 X63.1873 Y-21.9800
G01 X63.1844 Y-21.8623
G01 X63.1873 Y-21.7446
G01 X63.1960 Y-21.6271
G01 X63.2104 Y-21.5102
G01 X63.2305 Y-21.3941
G01 X63.2563 Y-21.2792
G01 X63.2877 Y-21.1657
G01 X63.3247 Y-21.0539
G01 X63.3671 Y-20.9440
G01 X63.4148 Y-20.8363
G01 X63.4678 Y-20.7311
G01 X63.5258 Y-20.6286
G01 X63.5888 Y-20.5291
G01 X63.6566 Y-20.4328
G01 X63.7291 Y-20.3399
G01 X63.8060 Y-20.2508
G01 X63.8873 Y-20.1655
G01 X63.9726 Y-20.0842
G01 X64.0617 Y-20.0073
G01 X64.1546 Y-19.9348
G01 X64.2509 Y-19.8670
G01 X64.3504 Y-19.8040
G01 X64.4529 Y-19.7460
G01 X64.5581 Y-19.6930
G01 X64.6658 Y-19.6453
G01 X64.7757 Y-19.6029
G01 X64.8875 Y-19.5659
G01 X65.0010 Y-19.5345
G01 X65.1159 Y-19.5087
G01 X65.1744 Y-19.4974
G01 X65.2220 Y-19.4854
G01 X65.2689 Y-19.4712
G01 X65.3266 Y-19.4502
G01 X65.3605 Y-19.4359
G01 X65.3939 Y-19.4203
G01 X65.4267 Y-19.4036
G01 X65.4588 Y-19.3856
G01 X65.4903 Y-19.3665
G01 X65.5210 Y-19.3462
G01 X65.5510 Y-19.3249
G01 X65.5841 Y-19.2992
G00 X65.5841 Y-19.2992
G01 F70.00
G01 Z-0.5000
G01 F120.00
G01 X65.6172 Y-19.3249
G01 X65.6472 Y-19.3462
G01 X65.6779 Y-19.3665
G01 X65.7094 Y-19.3856
G01 X65.7415 Y-19.4036
G01 X65.7743 Y-19.4203
G01 X65.8077 Y-19.4359
G01 X65.8416 Y-19.4502
G01 X65.8876 Y-19.4673
G01 X65.9462 Y-19.4854
G01 X65.9938 Y-19.4974
G01 X66.0523 Y-19.5087
G01 X66.1672 Y-19.5345
G01 X66.2807 Y-19.5659
G01 X66.3925 Y-19.6029
G01 X66.5024 Y-19.6453
G01 X66.6101 Y-19.6930
G01 X66.7153 Y-19.7460
G01 X66.8178 Y-19.8040
G01 X66.9173 Y-19.8670
G01 X67.0136 Y-19.9348
G01 X67.1065 Y-20.0073
G01 X67.1956 Y-20.0842
G01 X67.2809 Y-20.1655
G01 X67.3622 Y-20.2508
G01 X67.4391 Y-20.3399
G01 X67.5116 Y-20.4328
G01 X67.5794 Y-20.5291
G01 X67.6424 Y-20.6286
G01 X67.7004 Y-20.7311
G01 X67.7534 Y-20.8363
G01 X67.8011 Y-20.9440
G01 X67.8435 Y-21.0539
G01 X67.8805 Y-21.1657
G01 X67.9119 Y-21.2792
G01 X67.9377 Y-21.3941
G01 X67.9578 Y-21.5102
G01 X67.9722 Y-21.6271
G01 X67.9809 Y-21.7446
G01 X67.9838 Y-21.8623
G01 X67.9809 Y-21.9800
G01 X67.9722 Y-22.0975
G01 X67.9578 Y-22.2144
G01 X67.9377 Y-22.3305
G01 X67.9119 Y-22.4454
G01 X67.8805 Y-22.5589
G01 X67.8435 Y-22.6707
G01 X67.8011 Y-22.7806
G01 X67.7534 Y-22.8883
G01 X67.7004 Y-22.9935
G01 X67.6424 Y-23.0960
G01 X67.5794 Y-23.1955
G01 X67.5116 Y-23.2918
G01 X67.4391 Y-23.3847
G01 X67.3622 Y-23.4738
G01 X67.2809 Y-23.5591
G01 X67.1956 Y-23.6404
G01 X67.1065 Y-23.7173
G01 X67.0136 Y-23.7898
G01 X66.9173 Y-23.8576
G01 X66.8178 Y-23.9206
G01 X66.7153 Y-23.9786
G01 X66.6101 Y-24.0316
G01 X66.5024 Y-24.0793
G01 X66.3925 Y-24.1217
G01 X66.2807 Y-24.1587
G01 X66.1672 Y-24.1901
G01 X66.0523 Y-24.2159
G01 X65.9362 Y-24.2360
G01 X65.8193 Y-24.2504
G01 X65.7018 Y-24.2591
G01 X65.5841 Y-24.2620
G01 X65.4664 Y-24.2591
G01 X65.3489 Y-24.2504
G01 X65.2320 Y-24.2360
G01 X65.1159 Y-24.2159
G01 X65.0010 Y-24.1901
G01 X64.8875 Y-24.1587
G01 X64.7757 Y-24.1217
G01 X64.6658 Y-24.0793
G01 X64.5581 Y-24.0316
G01 X64.4529 Y-23.9786
G01 X64.3504 Y-23.9206
G01 X64.2509 Y-23.8576
G01 X64.1546 Y-23.7898
G01 X64.0617 Y-23.7173
G01 X63.9726 Y-23.6404
G01 X63.8873 Y-23.5591
G01 X63.8060 Y-23.4738
G01 X63.7291 Y-23.3847
G01 X63.6566 Y-23.2918
G01 X63.5888 Y-23.1955
G01 X63.5258 Y-23.0960
G01 X63.4678 Y-22.9935
G01 X63.4148 Y-22.8883
G01 X63.3671 Y-22.7806
G01 X63.3247 Y-22.6707
G01 X63.2877 Y-22.5589
G01 X63.2563 Y-22.4454
G01 X63.2305 Y-22.3305
G01 X63.2104 Y-22.2144
G01 X63.1960 Y-22.0975
G01 X63.1873 Y-21.9800
G01 X63.1844 Y-21.8623
G01 X63.1873 Y-21.7446
G01 X63.1960 Y-21.6271
G01 X63.2104 Y-21.5102
G01 X63.2305 Y-21.3941
G01 X63.2563 Y-21.2792
G01 X63.2877 Y-21.1657
G01 X63.3247 Y-21.0539
G01 X63.3671 Y-20.9440
G01 X63.4148 Y-20.8363
G01 X63.4678 Y-20.7311
G01 X63.5258 Y-20.6286
G01 X63.5888 Y-20.5291
G01 X63.6566 Y-20.4328
G01 X63.7291 Y-20.3399
G01 X63.8060 Y-20.2508
G01 X63.8873 Y-20.1655
G01 X63.9726 Y-20.0842
G01 X64.0617 Y-20.0073
G01 X64.1546 Y-19.9348
G01 X64.2509 Y-19.8670
G01 X64.3504 Y-19.8040
G01 X64.4529 Y-19.7460
G01 X64.5581 Y-19.6930
G01 X64.6658 Y-19.6453
G01 X64.7757 Y-19.6029
G01 X64.8875 Y-19.5659
G01 X65.0010 Y-19.5345
G01 X65.1159 Y-19.5087
G01 X65.1744 Y-19.4974
G01 X65.2220 Y-19.4854
G01 X65.2689 Y-19.4712
G01 X65.3266 Y-19.4502
G01 X65.3605 Y-19.4359
G01 X65.3939 Y-19.4203
G01 X65.4267 Y-19.4036
G01 X65.4588 Y-19.3856
G01 X65.4903 Y-19.3665
G01 X65.5210 Y-19.3462
G01 X65.5510 Y-19.3249
G01 X65.5841 Y-19.2992
G00 X65.5841 Y-19.2992
G01 F70.00
G01 Z-0.6000
G01 F120.00
G01 X65.6172 Y-19.3249
G01 X65.6472 Y-19.3462
G01 X65.6779 Y-19.3665
G01 X65.7094 Y-19.3856
G01 X65.7415 Y-19.4036
G01 X65.7743 Y-19.4203
G01 X65.8077 Y-19.4359
G01 X65.8416 Y-19.4502
G01 X65.8876 Y-19.4673
G01 X65.9462 Y-19.4854
G01 X65.9938 Y-19.4974
G01 X66.0523 Y-19.5087
G01 X66.1672 Y-19.5345
G01 X66.2807 Y-19.5659
G01 X66.3925 Y-19.6029
G01 X66.5024 Y-19.6453
G01 X66.6101 Y-19.6930
G01 X66.7153 Y-19.7460
G01 X66.8178 Y-19.8040
G01 X66.9173 Y-19.8670
G01 X67.0136 Y-19.9348
G01 X67.1065 Y-20.0073
G01 X67.1956 Y-20.0842
G01 X67.2809 Y-20.1655
G01 X67.3622 Y-20.2508
G01 X67.4391 Y-20.3399
G01 X67.5116 Y-20.4328
G01 X67.5794 Y-20.5291
G01 X67.6424 Y-20.6286
G01 X67.7004 Y-20.7311
G01 X67.7534 Y-20.8363
G01 X67.8011 Y-20.9440
G01 X67.8435 Y-21.0539
G01 X67.8805 Y-21.1657
G01 X67.9119 Y-21.2792
G01 X67.9377 Y-21.3941
G01 X67.9578 Y-21.5102
G01 X67.9722 Y-21.6271
G01 X67.9809 Y-21.7446
G01 X67.9838 Y-21.8623
G01 X67.9809 Y-21.9800
G01 X67.9722 Y-22.0975
G01 X67.9578 Y-22.2144
G01 X67.9377 Y-22.3305
G01 X67.9119 Y-22.4454
G01 X67.8805 Y-22.5589
G01 X67.8435 Y-22.6707
G01 X67.8011 Y-22.7806
G01 X67.7534 Y-22.8883
G01 X67.7004 Y-22.9935
G01 X67.6424 Y-23.0960
G01 X67.5794 Y-23.1955
G01 X67.5116 Y-23.2918
G01 X67.4391 Y-23.3847
G01 X67.3622 Y-23.4738
G01 X67.2809 Y-23.5591
G01 X67.1956 Y-23.6404
G01 X67.1065 Y-23.7173
G01 X67.0136 Y-23.7898
G01 X66.9173 Y-23.8576
G01 X66.8178 Y-23.9206
G01 X66.7153 Y-23.9786
G01 X66.6101 Y-24.0316
G01 X66.5024 Y-24.0793
G01 X66.3925 Y-24.1217
G01 X66.2807 Y-24.1587
G01 X66.1672 Y-24.1901
G01 X66.0523 Y-24.2159
G01 X65.9362 Y-24.2360
G01 X65.8193 Y-24.2504
G01 X65.7018 Y-24.2591
G01 X65.5841 Y-24.2620
G01 X65.4664 Y-24.2591
G01 X65.3489 Y-24.2504
G01 X65.2320 Y-24.2360
G01 X65.1159 Y-24.2159
G01 X65.0010 Y-24.1901
G01 X64.8875 Y-24.1587
G01 X64.7757 Y-24.1217
G01 X64.6658 Y-24.0793
G01 X64.5581 Y-24.0316
G01 X64.4529 Y-23.9786
G01 X64.3504 Y-23.9206
G01 X64.2509 Y-23.8576
G01 X64.1546 Y-23.7898
G01 X64.0617 Y-23.7173
G01 X63.9726 Y-23.6404
G01 X63.8873 Y-23.5591
G01 X63.8060 Y-23.4738
G01 X63.7291 Y-23.3847
G01 X63.6566 Y-23.2918
G01 X63.5888 Y-23.1955
G01 X63.5258 Y-23.0960
G01 X63.4678 Y-22.9935
G01 X63.4148 Y-22.8883
G01 X63.3671 Y-22.7806
G01 X63.3247 Y-22.6707
G01 X63.2877 Y-22.5589
G01 X63.2563 Y-22.4454
G01 X63.2305 Y-22.3305
G01 X63.2104 Y-22.2144
G01 X63.1960 Y-22.0975
G01 X63.1873 Y-21.9800
G01 X63.1844 Y-21.8623
G01 X63.1873 Y-21.7446
G01 X63.1960 Y-21.6271
G01 X63.2104 Y-21.5102
G01 X63.2305 Y-21.3941
G01 X63.2563 Y-21.2792
G01 X63.2877 Y-21.1657
G01 X63.3247 Y-21.0539
G01 X63.3671 Y-20.9440
G01 X63.4148 Y-20.8363
G01 X63.4678 Y-20.7311
G01 X63.5258 Y-20.6286
G01 X63.5888 Y-20.5291
G01 X63.6566 Y-20.4328
G01 X63.7291 Y-20.3399
G01 X63.8060 Y-20.2508
G01 X63.8873 Y-20.1655
G01 X63.9726 Y-20.0842
G01 X64.0617 Y-20.0073
G01 X64.1546 Y-19.9348
G01 X64.2509 Y-19.8670
G01 X64.3504 Y-19.8040
G01 X64.4529 Y-19.7460
G01 X64.5581 Y-19.6930
G01 X64.6658 Y-19.6453
G01 X64.7757 Y-19.6029
G01 X64.8875 Y-19.5659
G01 X65.0010 Y-19.5345
G01 X65.1159 Y-19.5087
G01 X65.1744 Y-19.4974
G01 X65.2220 Y-19.4854
G01 X65.2689 Y-19.4712
G01 X65.3266 Y-19.4502
G01 X65.3605 Y-19.4359
G01 X65.3939 Y-19.4203
G01 X65.4267 Y-19.4036
G01 X65.4588 Y-19.3856
G01 X65.4903 Y-19.3665
G01 X65.5210 Y-19.3462
G01 X65.5510 Y-19.3249
G01 X65.5841 Y-19.2992
G00 X65.5841 Y-19.2992
G01 F70.00
G01 Z-0.7000
G01 F120.00
G01 X65.6172 Y-19.3249
G01 X65.6472 Y-19.3462
G01 X65.6779 Y-19.3665
G01 X65.7094 Y-19.3856
G01 X65.7415 Y-19.4036
G01 X65.7743 Y-19.4203
G01 X65.8077 Y-19.4359
G01 X65.8416 Y-19.4502
G01 X65.8876 Y-19.4673
G01 X65.9462 Y-19.4854
G01 X65.9938 Y-19.4974
G01 X66.0523 Y-19.5087
G01 X66.1672 Y-19.5345
G01 X66.2807 Y-19.5659
G01 X66.3925 Y-19.6029
G01 X66.5024 Y-19.6453
G01 X66.6101 Y-19.6930
G01 X66.7153 Y-19.7460
G01 X66.8178 Y-19.8040
G01 X66.9173 Y-19.8670
G01 X67.0136 Y-19.9348
G01 X67.1065 Y-20.0073
G01 X67.1956 Y-20.0842
G01 X67.2809 Y-20.1655
G01 X67.3622 Y-20.2508
G01 X67.4391 Y-20.3399
G01 X67.5116 Y-20.4328
G01 X67.5794 Y-20.5291
G01 X67.6424 Y-20.6286
G01 X67.7004 Y-20.7311
G01 X67.7534 Y-20.8363
G01 X67.8011 Y-20.9440
G01 X67.8435 Y-21.0539
G01 X67.8805 Y-21.1657
G01 X67.9119 Y-21.2792
G01 X67.9377 Y-21.3941
G01 X67.9578 Y-21.5102
G01 X67.9722 Y-21.6271
G01 X67.9809 Y-21.7446
G01 X67.9838 Y-21.8623
G01 X67.9809 Y-21.9800
G01 X67.9722 Y-22.0975
G01 X67.9578 Y-22.2144
G01 X67.9377 Y-22.3305
G01 X67.9119 Y-22.4454
G01 X67.8805 Y-22.5589
G01 X67.8435 Y-22.6707
G01 X67.8011 Y-22.7806
G01 X67.7534 Y-22.8883
G01 X67.7004 Y-22.9935
G01 X67.6424 Y-23.0960
G01 X67.5794 Y-23.1955
G01 X67.5116 Y-23.2918
G01 X67.4391 Y-23.3847
G01 X67.3622 Y-23.4738
G01 X67.2809 Y-23.5591
G01 X67.1956 Y-23.6404
G01 X67.1065 Y-23.7173
G01 X67.0136 Y-23.7898
G01 X66.9173 Y-23.8576
G01 X66.8178 Y-23.9206
G01 X66.7153 Y-23.9786
G01 X66.6101 Y-24.0316
G01 X66.5024 Y-24.0793
G01 X66.3925 Y-24.1217
G01 X66.2807 Y-24.1587
G01 X66.1672 Y-24.1901
G01 X66.0523 Y-24.2159
G01 X65.9362 Y-24.2360
G01 X65.8193 Y-24.2504
G01 X65.7018 Y-24.2591
G01 X65.5841 Y-24.2620
G01 X65.4664 Y-24.2591
G01 X65.3489 Y-24.2504
G01 X65.2320 Y-24.2360
G01 X65.1159 Y-24.2159
G01 X65.0010 Y-24.1901
G01 X64.8875 Y-24.1587
G01 X64.7757 Y-24.1217
G01 X64.6658 Y-24.0793
G01 X64.5581 Y-24.0316
G01 X64.4529 Y-23.9786
G01 X64.3504 Y-23.9206
G01 X64.2509 Y-23.8576
G01 X64.1546 Y-23.7898
G01 X64.0617 Y-23.7173
G01 X63.9726 Y-23.6404
G01 X63.8873 Y-23.5591
G01 X63.8060 Y-23.4738
G01 X63.7291 Y-23.3847
G01 X63.6566 Y-23.2918
G01 X63.5888 Y-23.1955
G01 X63.5258 Y-23.0960
G01 X63.4678 Y-22.9935
G01 X63.4148 Y-22.8883
G01 X63.3671 Y-22.7806
G01 X63.3247 Y-22.6707
G01 X63.2877 Y-22.5589
G01 X63.2563 Y-22.4454
G01 X63.2305 Y-22.3305
G01 X63.2104 Y-22.2144
G01 X63.1960 Y-22.0975
G01 X63.1873 Y-21.9800
G01 X63.1844 Y-21.8623
G01 X63.1873 Y-21.7446
G01 X63.1960 Y-21.6271
G01 X63.2104 Y-21.5102
G01 X63.2305 Y-21.3941
G01 X63.2563 Y-21.2792
G01 X63.2877 Y-21.1657
G01 X63.3247 Y-21.0539
G01 X63.3671 Y-20.9440
G01 X63.4148 Y-20.8363
G01 X63.4678 Y-20.7311
G01 X63.5258 Y-20.6286
G01 X63.5888 Y-20.5291
G01 X63.6566 Y-20.4328
G01 X63.7291 Y-20.3399
G01 X63.8060 Y-20.2508
G01 X63.8873 Y-20.1655
G01 X63.9726 Y-20.0842
G01 X64.0617 Y-20.0073
G01 X64.1546 Y-19.9348
G01 X64.2509 Y-19.8670
G01 X64.3504 Y-19.8040
G01 X64.4529 Y-19.7460
G01 X64.5581 Y-19.6930
G01 X64.6658 Y-19.6453
G01 X64.7757 Y-19.6029
G01 X64.8875 Y-19.5659
G01 X65.0010 Y-19.5345
G01 X65.1159 Y-19.5087
G01 X65.1744 Y-19.4974
G01 X65.2220 Y-19.4854
G01 X65.2689 Y-19.4712
G01 X65.3266 Y-19.4502
G01 X65.3605 Y-19.4359
G01 X65.3939 Y-19.4203
G01 X65.4267 Y-19.4036
G01 X65.4588 Y-19.3856
G01 X65.4903 Y-19.3665
G01 X65.5210 Y-19.3462
G01 X65.5510 Y-19.3249
G01 X65.5841 Y-19.2992
G00 X65.5841 Y-19.2992
G01 F70.00
G01 Z-0.8000
G01 F120.00
G01 X65.6172 Y-19.3249
G01 X65.6472 Y-19.3462
G01 X65.6779 Y-19.3665
G01 X65.7094 Y-19.3856
G01 X65.7415 Y-19.4036
G01 X65.7743 Y-19.4203
G01 X65.8077 Y-19.4359
G01 X65.8416 Y-19.4502
G01 X65.8876 Y-19.4673
G01 X65.9462 Y-19.4854
G01 X65.9938 Y-19.4974
G01 X66.0523 Y-19.5087
G01 X66.1672 Y-19.5345
G01 X66.2807 Y-19.5659
G01 X66.3925 Y-19.6029
G01 X66.5024 Y-19.6453
G01 X66.6101 Y-19.6930
G01 X66.7153 Y-19.7460
G01 X66.8178 Y-19.8040
G01 X66.9173 Y-19.8670
G01 X67.0136 Y-19.9348
G01 X67.1065 Y-20.0073
G01 X67.1956 Y-20.0842
G01 X67.2809 Y-20.1655
G01 X67.3622 Y-20.2508
G01 X67.4391 Y-20.3399
G01 X67.5116 Y-20.4328
G01 X67.5794 Y-20.5291
G01 X67.6424 Y-20.6286
G01 X67.7004 Y-20.7311
G01 X67.7534 Y-20.8363
G01 X67.8011 Y-20.9440
G01 X67.8435 Y-21.0539
G01 X67.8805 Y-21.1657
G01 X67.9119 Y-21.2792
G01 X67.9377 Y-21.3941
G01 X67.9578 Y-21.5102
G01 X67.9722 Y-21.6271
G01 X67.9809 Y-21.7446
G01 X67.9838 Y-21.8623
G01 X67.9809 Y-21.9800
G01 X67.9722 Y-22.0975
G01 X67.9578 Y-22.2144
G01 X67.9377 Y-22.3305
G01 X67.9119 Y-22.4454
G01 X67.8805 Y-22.5589
G01 X67.8435 Y-22.6707
G01 X67.8011 Y-22.7806
G01 X67.7534 Y-22.8883
G01 X67.7004 Y-22.9935
G01 X67.6424 Y-23.0960
G01 X67.5794 Y-23.1955
G01 X67.5116 Y-23.2918
G01 X67.4391 Y-23.3847
G01 X67.3622 Y-23.4738
G01 X67.2809 Y-23.5591
G01 X67.1956 Y-23.6404
G01 X67.1065 Y-23.7173
G01 X67.0136 Y-23.7898
G01 X66.9173 Y-23.8576
G01 X66.8178 Y-23.9206
G01 X66.7153 Y-23.9786
G01 X66.6101 Y-24.0316
G01 X66.5024 Y-24.0793
G01 X66.3925 Y-24.1217
G01 X66.2807 Y-24.1587
G01 X66.1672 Y-24.1901
G01 X66.0523 Y-24.2159
G01 X65.9362 Y-24.2360
G01 X65.8193 Y-24.2504
G01 X65.7018 Y-24.2591
G01 X65.5841 Y-24.2620
G01 X65.4664 Y-24.2591
G01 X65.3489 Y-24.2504
G01 X65.2320 Y-24.2360
G01 X65.1159 Y-24.2159
G01 X65.0010 Y-24.1901
G01 X64.8875 Y-24.1587
G01 X64.7757 Y-24.1217
G01 X64.6658 Y-24.0793
G01 X64.5581 Y-24.0316
G01 X64.4529 Y-23.9786
G01 X64.3504 Y-23.9206
G01 X64.2509 Y-23.8576
G01 X64.1546 Y-23.7898
G01 X64.0617 Y-23.7173
G01 X63.9726 Y-23.6404
G01 X63.8873 Y-23.5591
G01 X63.8060 Y-23.4738
G01 X63.7291 Y-23.3847
G01 X63.6566 Y-23.2918
G01 X63.5888 Y-23.1955
G01 X63.5258 Y-23.0960
G01 X63.4678 Y-22.9935
G01 X63.4148 Y-22.8883
G01 X63.3671 Y-22.7806
G01 X63.3247 Y-22.6707
G01 X63.2877 Y-22.5589
G01 X63.2563 Y-22.4454
G01 X63.2305 Y-22.3305
G01 X63.2104 Y-22.2144
G01 X63.1960 Y-22.0975
G01 X63.1873 Y-21.9800
G01 X63.1844 Y-21.8623
G01 X63.1873 Y-21.7446
G01 X63.1960 Y-21.6271
G01 X63.2104 Y-21.5102
G01 X63.2305 Y-21.3941
G01 X63.2563 Y-21.2792
G01 X63.2877 Y-21.1657
G01 X63.3247 Y-21.0539
G01 X63.3671 Y-20.9440
G01 X63.4148 Y-20.8363
G01 X63.4678 Y-20.7311
G01 X63.5258 Y-20.6286
G01 X63.5888 Y-20.5291
G01 X63.6566 Y-20.4328
G01 X63.7291 Y-20.3399
G01 X63.8060 Y-20.2508
G01 X63.8873 Y-20.1655
G01 X63.9726 Y-20.0842
G01 X64.0617 Y-20.0073
G01 X64.1546 Y-19.9348
G01 X64.2509 Y-19.8670
G01 X64.3504 Y-19.8040
G01 X64.4529 Y-19.7460
G01 X64.5581 Y-19.6930
G01 X64.6658 Y-19.6453
G01 X64.7757 Y-19.6029
G01 X64.8875 Y-19.5659
G01 X65.0010 Y-19.5345
G01 X65.1159 Y-19.5087
G01 X65.1744 Y-19.4974
G01 X65.2220 Y-19.4854
G01 X65.2689 Y-19.4712
G01 X65.3266 Y-19.4502
G01 X65.3605 Y-19.4359
G01 X65.3939 Y-19.4203
G01 X65.4267 Y-19.4036
G01 X65.4588 Y-19.3856
G01 X65.4903 Y-19.3665
G01 X65.5210 Y-19.3462
G01 X65.5510 Y-19.3249
G01 X65.5841 Y-19.2992
G00 X65.5841 Y-19.2992
G01 F70.00
G01 Z-0.9000
G01 F120.00
G01 X65.6172 Y-19.3249
G01 X65.6472 Y-19.3462
G01 X65.6779 Y-19.3665
G01 X65.7094 Y-19.3856
G01 X65.7415 Y-19.4036
G01 X65.7743 Y-19.4203
G01 X65.8077 Y-19.4359
G01 X65.8416 Y-19.4502
G01 X65.8876 Y-19.4673
G01 X65.9462 Y-19.4854
G01 X65.9938 Y-19.4974
G01 X66.0523 Y-19.5087
G01 X66.1672 Y-19.5345
G01 X66.2807 Y-19.5659
G01 X66.3925 Y-19.6029
G01 X66.5024 Y-19.6453
G01 X66.6101 Y-19.6930
G01 X66.7153 Y-19.7460
G01 X66.8178 Y-19.8040
G01 X66.9173 Y-19.8670
G01 X67.0136 Y-19.9348
G01 X67.1065 Y-20.0073
G01 X67.1956 Y-20.0842
G01 X67.2809 Y-20.1655
G01 X67.3622 Y-20.2508
G01 X67.4391 Y-20.3399
G01 X67.5116 Y-20.4328
G01 X67.5794 Y-20.5291
G01 X67.6424 Y-20.6286
G01 X67.7004 Y-20.7311
G01 X67.7534 Y-20.8363
G01 X67.8011 Y-20.9440
G01 X67.8435 Y-21.0539
G01 X67.8805 Y-21.1657
G01 X67.9119 Y-21.2792
G01 X67.9377 Y-21.3941
G01 X67.9578 Y-21.5102
G01 X67.9722 Y-21.6271
G01 X67.9809 Y-21.7446
G01 X67.9838 Y-21.8623
G01 X67.9809 Y-21.9800
G01 X67.9722 Y-22.0975
G01 X67.9578 Y-22.2144
G01 X67.9377 Y-22.3305
G01 X67.9119 Y-22.4454
G01 X67.8805 Y-22.5589
G01 X67.8435 Y-22.6707
G01 X67.8011 Y-22.7806
G01 X67.7534 Y-22.8883
G01 X67.7004 Y-22.9935
G01 X67.6424 Y-23.0960
G01 X67.5794 Y-23.1955
G01 X67.5116 Y-23.2918
G01 X67.4391 Y-23.3847
G01 X67.3622 Y-23.4738
G01 X67.2809 Y-23.5591
G01 X67.1956 Y-23.6404
G01 X67.1065 Y-23.7173
G01 X67.0136 Y-23.7898
G01 X66.9173 Y-23.8576
G01 X66.8178 Y-23.9206
G01 X66.7153 Y-23.9786
G01 X66.6101 Y-24.0316
G01 X66.5024 Y-24.0793
G01 X66.3925 Y-24.1217
G01 X66.2807 Y-24.1587
G01 X66.1672 Y-24.1901
G01 X66.0523 Y-24.2159
G01 X65.9362 Y-24.2360
G01 X65.8193 Y-24.2504
G01 X65.7018 Y-24.2591
G01 X65.5841 Y-24.2620
G01 X65.4664 Y-24.2591
G01 X65.3489 Y-24.2504
G01 X65.2320 Y-24.2360
G01 X65.1159 Y-24.2159
G01 X65.0010 Y-24.1901
G01 X64.8875 Y-24.1587
G01 X64.7757 Y-24.1217
G01 X64.6658 Y-24.0793
G01 X64.5581 Y-24.0316
G01 X64.4529 Y-23.9786
G01 X64.3504 Y-23.9206
G01 X64.2509 Y-23.8576
G01 X64.1546 Y-23.7898
G01 X64.0617 Y-23.7173
G01 X63.9726 Y-23.6404
G01 X63.8873 Y-23.5591
G01 X63.8060 Y-23.4738
G01 X63.7291 Y-23.3847
G01 X63.6566 Y-23.2918
G01 X63.5888 Y-23.1955
G01 X63.5258 Y-23.0960
G01 X63.4678 Y-22.9935
G01 X63.4148 Y-22.8883
G01 X63.3671 Y-22.7806
G01 X63.3247 Y-22.6707
G01 X63.2877 Y-22.5589
G01 X63.2563 Y-22.4454
G01 X63.2305 Y-22.3305
G01 X63.2104 Y-22.2144
G01 X63.1960 Y-22.0975
G01 X63.1873 Y-21.9800
G01 X63.1844 Y-21.8623
G01 X63.1873 Y-21.7446
G01 X63.1960 Y-21.6271
G01 X63.2104 Y-21.5102
G01 X63.2305 Y-21.3941
G01 X63.2563 Y-21.2792
G01 X63.2877 Y-21.1657
G01 X63.3247 Y-21.0539
G01 X63.3671 Y-20.9440
G01 X63.4148 Y-20.8363
G01 X63.4678 Y-20.7311
G01 X63.5258 Y-20.6286
G01 X63.5888 Y-20.5291
G01 X63.6566 Y-20.4328
G01 X63.7291 Y-20.3399
G01 X63.8060 Y-20.2508
G01 X63.8873 Y-20.1655
G01 X63.9726 Y-20.0842
G01 X64.0617 Y-20.0073
G01 X64.1546 Y-19.9348
G01 X64.2509 Y-19.8670
G01 X64.3504 Y-19.8040
G01 X64.4529 Y-19.7460
G01 X64.5581 Y-19.6930
G01 X64.6658 Y-19.6453
G01 X64.7757 Y-19.6029
G01 X64.8875 Y-19.5659
G01 X65.0010 Y-19.5345
G01 X65.1159 Y-19.5087
G01 X65.1744 Y-19.4974
G01 X65.2220 Y-19.4854
G01 X65.2689 Y-19.4712
G01 X65.3266 Y-19.4502
G01 X65.3605 Y-19.4359
G01 X65.3939 Y-19.4203
G01 X65.4267 Y-19.4036
G01 X65.4588 Y-19.3856
G01 X65.4903 Y-19.3665
G01 X65.5210 Y-19.3462
G01 X65.5510 Y-19.3249
G01 X65.5841 Y-19.2992
G00 X65.5841 Y-19.2992
G01 F70.00
G01 Z-1.0000
G01 F120.00
G01 X65.6172 Y-19.3249
G01 X65.6472 Y-19.3462
G01 X65.6779 Y-19.3665
G01 X65.7094 Y-19.3856
G01 X65.7415 Y-19.4036
G01 X65.7743 Y-19.4203
G01 X65.8077 Y-19.4359
G01 X65.8416 Y-19.4502
G01 X65.8876 Y-19.4673
G01 X65.9462 Y-19.4854
G01 X65.9938 Y-19.4974
G01 X66.0523 Y-19.5087
G01 X66.1672 Y-19.5345
G01 X66.2807 Y-19.5659
G01 X66.3925 Y-19.6029
G01 X66.5024 Y-19.6453
G01 X66.6101 Y-19.6930
G01 X66.7153 Y-19.7460
G01 X66.8178 Y-19.8040
G01 X66.9173 Y-19.8670
G01 X67.0136 Y-19.9348
G01 X67.1065 Y-20.0073
G01 X67.1956 Y-20.0842
G01 X67.2809 Y-20.1655
G01 X67.3622 Y-20.2508
G01 X67.4391 Y-20.3399
G01 X67.5116 Y-20.4328
G01 X67.5794 Y-20.5291
G01 X67.6424 Y-20.6286
G01 X67.7004 Y-20.7311
G01 X67.7534 Y-20.8363
G01 X67.8011 Y-20.9440
G01 X67.8435 Y-21.0539
G01 X67.8805 Y-21.1657
G01 X67.9119 Y-21.2792
G01 X67.9377 Y-21.3941
G01 X67.9578 Y-21.5102
G01 X67.9722 Y-21.6271
G01 X67.9809 Y-21.7446
G01 X67.9838 Y-21.8623
G01 X67.9809 Y-21.9800
G01 X67.9722 Y-22.0975
G01 X67.9578 Y-22.2144
G01 X67.9377 Y-22.3305
G01 X67.9119 Y-22.4454
G01 X67.8805 Y-22.5589
G01 X67.8435 Y-22.6707
G01 X67.8011 Y-22.7806
G01 X67.7534 Y-22.8883
G01 X67.7004 Y-22.9935
G01 X67.6424 Y-23.0960
G01 X67.5794 Y-23.1955
G01 X67.5116 Y-23.2918
G01 X67.4391 Y-23.3847
G01 X67.3622 Y-23.4738
G01 X67.2809 Y-23.5591
G01 X67.1956 Y-23.6404
G01 X67.1065 Y-23.7173
G01 X67.0136 Y-23.7898
G01 X66.9173 Y-23.8576
G01 X66.8178 Y-23.9206
G01 X66.7153 Y-23.9786
G01 X66.6101 Y-24.0316
G01 X66.5024 Y-24.0793
G01 X66.3925 Y-24.1217
G01 X66.2807 Y-24.1587
G01 X66.1672 Y-24.1901
G01 X66.0523 Y-24.2159
G01 X65.9362 Y-24.2360
G01 X65.8193 Y-24.2504
G01 X65.7018 Y-24.2591
G01 X65.5841 Y-24.2620
G01 X65.4664 Y-24.2591
G01 X65.3489 Y-24.2504
G01 X65.2320 Y-24.2360
G01 X65.1159 Y-24.2159
G01 X65.0010 Y-24.1901
G01 X64.8875 Y-24.1587
G01 X64.7757 Y-24.1217
G01 X64.6658 Y-24.0793
G01 X64.5581 Y-24.0316
G01 X64.4529 Y-23.9786
G01 X64.3504 Y-23.9206
G01 X64.2509 Y-23.8576
G01 X64.1546 Y-23.7898
G01 X64.0617 Y-23.7173
G01 X63.9726 Y-23.6404
G01 X63.8873 Y-23.5591
G01 X63.8060 Y-23.4738
G01 X63.7291 Y-23.3847
G01 X63.6566 Y-23.2918
G01 X63.5888 Y-23.1955
G01 X63.5258 Y-23.0960
G01 X63.4678 Y-22.9935
G01 X63.4148 Y-22.8883
G01 X63.3671 Y-22.7806
G01 X63.3247 Y-22.6707
G01 X63.2877 Y-22.5589
G01 X63.2563 Y-22.4454
G01 X63.2305 Y-22.3305
G01 X63.2104 Y-22.2144
G01 X63.1960 Y-22.0975
G01 X63.1873 Y-21.9800
G01 X63.1844 Y-21.8623
G01 X63.1873 Y-21.7446
G01 X63.1960 Y-21.6271
G01 X63.2104 Y-21.5102
G01 X63.2305 Y-21.3941
G01 X63.2563 Y-21.2792
G01 X63.2877 Y-21.1657
G01 X63.3247 Y-21.0539
G01 X63.3671 Y-20.9440
G01 X63.4148 Y-20.8363
G01 X63.4678 Y-20.7311
G01 X63.5258 Y-20.6286
G01 X63.5888 Y-20.5291
G01 X63.6566 Y-20.4328
G01 X63.7291 Y-20.3399
G01 X63.8060 Y-20.2508
G01 X63.8873 Y-20.1655
G01 X63.9726 Y-20.0842
G01 X64.0617 Y-20.0073
G01 X64.1546 Y-19.9348
G01 X64.2509 Y-19.8670
G01 X64.3504 Y-19.8040
G01 X64.4529 Y-19.7460
G01 X64.5581 Y-19.6930
G01 X64.6658 Y-19.6453
G01 X64.7757 Y-19.6029
G01 X64.8875 Y-19.5659
G01 X65.0010 Y-19.5345
G01 X65.1159 Y-19.5087
G01 X65.1744 Y-19.4974
G01 X65.2220 Y-19.4854
G01 X65.2689 Y-19.4712
G01 X65.3266 Y-19.4502
G01 X65.3605 Y-19.4359
G01 X65.3939 Y-19.4203
G01 X65.4267 Y-19.4036
G01 X65.4588 Y-19.3856
G01 X65.4903 Y-19.3665
G01 X65.5210 Y-19.3462
G01 X65.5510 Y-19.3249
G01 X65.5841 Y-19.2992
G00 X65.5841 Y-19.2992
G01 F70.00
G01 Z-1.1000
G01 F120.00
G01 X65.6172 Y-19.3249
G01 X65.6472 Y-19.3462
G01 X65.6779 Y-19.3665
G01 X65.7094 Y-19.3856
G01 X65.7415 Y-19.4036
G01 X65.7743 Y-19.4203
G01 X65.8077 Y-19.4359
G01 X65.8416 Y-19.4502
G01 X65.8876 Y-19.4673
G01 X65.9462 Y-19.4854
G01 X65.9938 Y-19.4974
G01 X66.0523 Y-19.5087
G01 X66.1672 Y-19.5345
G01 X66.2807 Y-19.5659
G01 X66.3925 Y-19.6029
G01 X66.5024 Y-19.6453
G01 X66.6101 Y-19.6930
G01 X66.7153 Y-19.7460
G01 X66.8178 Y-19.8040
G01 X66.9173 Y-19.8670
G01 X67.0136 Y-19.9348
G01 X67.1065 Y-20.0073
G01 X67.1956 Y-20.0842
G01 X67.2809 Y-20.1655
G01 X67.3622 Y-20.2508
G01 X67.4391 Y-20.3399
G01 X67.5116 Y-20.4328
G01 X67.5794 Y-20.5291
G01 X67.6424 Y-20.6286
G01 X67.7004 Y-20.7311
G01 X67.7534 Y-20.8363
G01 X67.8011 Y-20.9440
G01 X67.8435 Y-21.0539
G01 X67.8805 Y-21.1657
G01 X67.9119 Y-21.2792
G01 X67.9377 Y-21.3941
G01 X67.9578 Y-21.5102
G01 X67.9722 Y-21.6271
G01 X67.9809 Y-21.7446
G01 X67.9838 Y-21.8623
G01 X67.9809 Y-21.9800
G01 X67.9722 Y-22.0975
G01 X67.9578 Y-22.2144
G01 X67.9377 Y-22.3305
G01 X67.9119 Y-22.4454
G01 X67.8805 Y-22.5589
G01 X67.8435 Y-22.6707
G01 X67.8011 Y-22.7806
G01 X67.7534 Y-22.8883
G01 X67.7004 Y-22.9935
G01 X67.6424 Y-23.0960
G01 X67.5794 Y-23.1955
G01 X67.5116 Y-23.2918
G01 X67.4391 Y-23.3847
G01 X67.3622 Y-23.4738
G01 X67.2809 Y-23.5591
G01 X67.1956 Y-23.6404
G01 X67.1065 Y-23.7173
G01 X67.0136 Y-23.7898
G01 X66.9173 Y-23.8576
G01 X66.8178 Y-23.9206
G01 X66.7153 Y-23.9786
G01 X66.6101 Y-24.0316
G01 X66.5024 Y-24.0793
G01 X66.3925 Y-24.1217
G01 X66.2807 Y-24.1587
G01 X66.1672 Y-24.1901
G01 X66.0523 Y-24.2159
G01 X65.9362 Y-24.2360
G01 X65.8193 Y-24.2504
G01 X65.7018 Y-24.2591
G01 X65.5841 Y-24.2620
G01 X65.4664 Y-24.2591
G01 X65.3489 Y-24.2504
G01 X65.2320 Y-24.2360
G01 X65.1159 Y-24.2159
G01 X65.0010 Y-24.1901
G01 X64.8875 Y-24.1587
G01 X64.7757 Y-24.1217
G01 X64.6658 Y-24.0793
G01 X64.5581 Y-24.0316
G01 X64.4529 Y-23.9786
G01 X64.3504 Y-23.9206
G01 X64.2509 Y-23.8576
G01 X64.1546 Y-23.7898
G01 X64.0617 Y-23.7173
G01 X63.9726 Y-23.6404
G01 X63.8873 Y-23.5591
G01 X63.8060 Y-23.4738
G01 X63.7291 Y-23.3847
G01 X63.6566 Y-23.2918
G01 X63.5888 Y-23.1955
G01 X63.5258 Y-23.0960
G01 X63.4678 Y-22.9935
G01 X63.4148 Y-22.8883
G01 X63.3671 Y-22.7806
G01 X63.3247 Y-22.6707
G01 X63.2877 Y-22.5589
G01 X63.2563 Y-22.4454
G01 X63.2305 Y-22.3305
G01 X63.2104 Y-22.2144
G01 X63.1960 Y-22.0975
G01 X63.1873 Y-21.9800
G01 X63.1844 Y-21.8623
G01 X63.1873 Y-21.7446
G01 X63.1960 Y-21.6271
G01 X63.2104 Y-21.5102
G01 X63.2305 Y-21.3941
G01 X63.2563 Y-21.2792
G01 X63.2877 Y-21.1657
G01 X63.3247 Y-21.0539
G01 X63.3671 Y-20.9440
G01 X63.4148 Y-20.8363
G01 X63.4678 Y-20.7311
G01 X63.5258 Y-20.6286
G01 X63.5888 Y-20.5291
G01 X63.6566 Y-20.4328
G01 X63.7291 Y-20.3399
G01 X63.8060 Y-20.2508
G01 X63.8873 Y-20.1655
G01 X63.9726 Y-20.0842
G01 X64.0617 Y-20.0073
G01 X64.1546 Y-19.9348
G01 X64.2509 Y-19.8670
G01 X64.3504 Y-19.8040
G01 X64.4529 Y-19.7460
G01 X64.5581 Y-19.6930
G01 X64.6658 Y-19.6453
G01 X64.7757 Y-19.6029
G01 X64.8875 Y-19.5659
G01 X65.0010 Y-19.5345
G01 X65.1159 Y-19.5087
G01 X65.1744 Y-19.4974
G01 X65.2220 Y-19.4854
G01 X65.2689 Y-19.4712
G01 X65.3266 Y-19.4502
G01 X65.3605 Y-19.4359
G01 X65.3939 Y-19.4203
G01 X65.4267 Y-19.4036
G01 X65.4588 Y-19.3856
G01 X65.4903 Y-19.3665
G01 X65.5210 Y-19.3462
G01 X65.5510 Y-19.3249
G01 X65.5841 Y-19.2992
G00 X65.5841 Y-19.2992
G01 F70.00
G01 Z-1.2000
G01 F120.00
G01 X65.6172 Y-19.3249
G01 X65.6472 Y-19.3462
G01 X65.6779 Y-19.3665
G01 X65.7094 Y-19.3856
G01 X65.7415 Y-19.4036
G01 X65.7743 Y-19.4203
G01 X65.8077 Y-19.4359
G01 X65.8416 Y-19.4502
G01 X65.8876 Y-19.4673
G01 X65.9462 Y-19.4854
G01 X65.9938 Y-19.4974
G01 X66.0523 Y-19.5087
G01 X66.1672 Y-19.5345
G01 X66.2807 Y-19.5659
G01 X66.3925 Y-19.6029
G01 X66.5024 Y-19.6453
G01 X66.6101 Y-19.6930
G01 X66.7153 Y-19.7460
G01 X66.8178 Y-19.8040
G01 X66.9173 Y-19.8670
G01 X67.0136 Y-19.9348
G01 X67.1065 Y-20.0073
G01 X67.1956 Y-20.0842
G01 X67.2809 Y-20.1655
G01 X67.3622 Y-20.2508
G01 X67.4391 Y-20.3399
G01 X67.5116 Y-20.4328
G01 X67.5794 Y-20.5291
G01 X67.6424 Y-20.6286
G01 X67.7004 Y-20.7311
G01 X67.7534 Y-20.8363
G01 X67.8011 Y-20.9440
G01 X67.8435 Y-21.0539
G01 X67.8805 Y-21.1657
G01 X67.9119 Y-21.2792
G01 X67.9377 Y-21.3941
G01 X67.9578 Y-21.5102
G01 X67.9722 Y-21.6271
G01 X67.9809 Y-21.7446
G01 X67.9838 Y-21.8623
G01 X67.9809 Y-21.9800
G01 X67.9722 Y-22.0975
G01 X67.9578 Y-22.2144
G01 X67.9377 Y-22.3305
G01 X67.9119 Y-22.4454
G01 X67.8805 Y-22.5589
G01 X67.8435 Y-22.6707
G01 X67.8011 Y-22.7806
G01 X67.7534 Y-22.8883
G01 X67.7004 Y-22.9935
G01 X67.6424 Y-23.0960
G01 X67.5794 Y-23.1955
G01 X67.5116 Y-23.2918
G01 X67.4391 Y-23.3847
G01 X67.3622 Y-23.4738
G01 X67.2809 Y-23.5591
G01 X67.1956 Y-23.6404
G01 X67.1065 Y-23.7173
G01 X67.0136 Y-23.7898
G01 X66.9173 Y-23.8576
G01 X66.8178 Y-23.9206
G01 X66.7153 Y-23.9786
G01 X66.6101 Y-24.0316
G01 X66.5024 Y-24.0793
G01 X66.3925 Y-24.1217
G01 X66.2807 Y-24.1587
G01 X66.1672 Y-24.1901
G01 X66.0523 Y-24.2159
G01 X65.9362 Y-24.2360
G01 X65.8193 Y-24.2504
G01 X65.7018 Y-24.2591
G01 X65.5841 Y-24.2620
G01 X65.4664 Y-24.2591
G01 X65.3489 Y-24.2504
G01 X65.2320 Y-24.2360
G01 X65.1159 Y-24.2159
G01 X65.0010 Y-24.1901
G01 X64.8875 Y-24.1587
G01 X64.7757 Y-24.1217
G01 X64.6658 Y-24.0793
G01 X64.5581 Y-24.0316
G01 X64.4529 Y-23.9786
G01 X64.3504 Y-23.9206
G01 X64.2509 Y-23.8576
G01 X64.1546 Y-23.7898
G01 X64.0617 Y-23.7173
G01 X63.9726 Y-23.6404
G01 X63.8873 Y-23.5591
G01 X63.8060 Y-23.4738
G01 X63.7291 Y-23.3847
G01 X63.6566 Y-23.2918
G01 X63.5888 Y-23.1955
G01 X63.5258 Y-23.0960
G01 X63.4678 Y-22.9935
G01 X63.4148 Y-22.8883
G01 X63.3671 Y-22.7806
G01 X63.3247 Y-22.6707
G01 X63.2877 Y-22.5589
G01 X63.2563 Y-22.4454
G01 X63.2305 Y-22.3305
G01 X63.2104 Y-22.2144
G01 X63.1960 Y-22.0975
G01 X63.1873 Y-21.9800
G01 X63.1844 Y-21.8623
G01 X63.1873 Y-21.7446
G01 X63.1960 Y-21.6271
G01 X63.2104 Y-21.5102
G01 X63.2305 Y-21.3941
G01 X63.2563 Y-21.2792
G01 X63.2877 Y-21.1657
G01 X63.3247 Y-21.0539
G01 X63.3671 Y-20.9440
G01 X63.4148 Y-20.8363
G01 X63.4678 Y-20.7311
G01 X63.5258 Y-20.6286
G01 X63.5888 Y-20.5291
G01 X63.6566 Y-20.4328
G01 X63.7291 Y-20.3399
G01 X63.8060 Y-20.2508
G01 X63.8873 Y-20.1655
G01 X63.9726 Y-20.0842
G01 X64.0617 Y-20.0073
G01 X64.1546 Y-19.9348
G01 X64.2509 Y-19.8670
G01 X64.3504 Y-19.8040
G01 X64.4529 Y-19.7460
G01 X64.5581 Y-19.6930
G01 X64.6658 Y-19.6453
G01 X64.7757 Y-19.6029
G01 X64.8875 Y-19.5659
G01 X65.0010 Y-19.5345
G01 X65.1159 Y-19.5087
G01 X65.1744 Y-19.4974
G01 X65.2220 Y-19.4854
G01 X65.2689 Y-19.4712
G01 X65.3266 Y-19.4502
G01 X65.3605 Y-19.4359
G01 X65.3939 Y-19.4203
G01 X65.4267 Y-19.4036
G01 X65.4588 Y-19.3856
G01 X65.4903 Y-19.3665
G01 X65.5210 Y-19.3462
G01 X65.5510 Y-19.3249
G01 X65.5841 Y-19.2992
G00 X65.5841 Y-19.2992
G01 F70.00
G01 Z-1.3000
G01 F120.00
G01 X65.6172 Y-19.3249
G01 X65.6472 Y-19.3462
G01 X65.6779 Y-19.3665
G01 X65.7094 Y-19.3856
G01 X65.7415 Y-19.4036
G01 X65.7743 Y-19.4203
G01 X65.8077 Y-19.4359
G01 X65.8416 Y-19.4502
G01 X65.8876 Y-19.4673
G01 X65.9462 Y-19.4854
G01 X65.9938 Y-19.4974
G01 X66.0523 Y-19.5087
G01 X66.1672 Y-19.5345
G01 X66.2807 Y-19.5659
G01 X66.3925 Y-19.6029
G01 X66.5024 Y-19.6453
G01 X66.6101 Y-19.6930
G01 X66.7153 Y-19.7460
G01 X66.8178 Y-19.8040
G01 X66.9173 Y-19.8670
G01 X67.0136 Y-19.9348
G01 X67.1065 Y-20.0073
G01 X67.1956 Y-20.0842
G01 X67.2809 Y-20.1655
G01 X67.3622 Y-20.2508
G01 X67.4391 Y-20.3399
G01 X67.5116 Y-20.4328
G01 X67.5794 Y-20.5291
G01 X67.6424 Y-20.6286
G01 X67.7004 Y-20.7311
G01 X67.7534 Y-20.8363
G01 X67.8011 Y-20.9440
G01 X67.8435 Y-21.0539
G01 X67.8805 Y-21.1657
G01 X67.9119 Y-21.2792
G01 X67.9377 Y-21.3941
G01 X67.9578 Y-21.5102
G01 X67.9722 Y-21.6271
G01 X67.9809 Y-21.7446
G01 X67.9838 Y-21.8623
G01 X67.9809 Y-21.9800
G01 X67.9722 Y-22.0975
G01 X67.9578 Y-22.2144
G01 X67.9377 Y-22.3305
G01 X67.9119 Y-22.4454
G01 X67.8805 Y-22.5589
G01 X67.8435 Y-22.6707
G01 X67.8011 Y-22.7806
G01 X67.7534 Y-22.8883
G01 X67.7004 Y-22.9935
G01 X67.6424 Y-23.0960
G01 X67.5794 Y-23.1955
G01 X67.5116 Y-23.2918
G01 X67.4391 Y-23.3847
G01 X67.3622 Y-23.4738
G01 X67.2809 Y-23.5591
G01 X67.1956 Y-23.6404
G01 X67.1065 Y-23.7173
G01 X67.0136 Y-23.7898
G01 X66.9173 Y-23.8576
G01 X66.8178 Y-23.9206
G01 X66.7153 Y-23.9786
G01 X66.6101 Y-24.0316
G01 X66.5024 Y-24.0793
G01 X66.3925 Y-24.1217
G01 X66.2807 Y-24.1587
G01 X66.1672 Y-24.1901
G01 X66.0523 Y-24.2159
G01 X65.9362 Y-24.2360
G01 X65.8193 Y-24.2504
G01 X65.7018 Y-24.2591
G01 X65.5841 Y-24.2620
G01 X65.4664 Y-24.2591
G01 X65.3489 Y-24.2504
G01 X65.2320 Y-24.2360
G01 X65.1159 Y-24.2159
G01 X65.0010 Y-24.1901
G01 X64.8875 Y-24.1587
G01 X64.7757 Y-24.1217
G01 X64.6658 Y-24.0793
G01 X64.5581 Y-24.0316
G01 X64.4529 Y-23.9786
G01 X64.3504 Y-23.9206
G01 X64.2509 Y-23.8576
G01 X64.1546 Y-23.7898
G01 X64.0617 Y-23.7173
G01 X63.9726 Y-23.6404
G01 X63.8873 Y-23.5591
G01 X63.8060 Y-23.4738
G01 X63.7291 Y-23.3847
G01 X63.6566 Y-23.2918
G01 X63.5888 Y-23.1955
G01 X63.5258 Y-23.0960
G01 X63.4678 Y-22.9935
G01 X63.4148 Y-22.8883
G01 X63.3671 Y-22.7806
G01 X63.3247 Y-22.6707
G01 X63.2877 Y-22.5589
G01 X63.2563 Y-22.4454
G01 X63.2305 Y-22.3305
G01 X63.2104 Y-22.2144
G01 X63.1960 Y-22.0975
G01 X63.1873 Y-21.9800
G01 X63.1844 Y-21.8623
G01 X63.1873 Y-21.7446
G01 X63.1960 Y-21.6271
G01 X63.2104 Y-21.5102
G01 X63.2305 Y-21.3941
G01 X63.2563 Y-21.2792
G01 X63.2877 Y-21.1657
G01 X63.3247 Y-21.0539
G01 X63.3671 Y-20.9440
G01 X63.4148 Y-20.8363
G01 X63.4678 Y-20.7311
G01 X63.5258 Y-20.6286
G01 X63.5888 Y-20.5291
G01 X63.6566 Y-20.4328
G01 X63.7291 Y-20.3399
G01 X63.8060 Y-20.2508
G01 X63.8873 Y-20.1655
G01 X63.9726 Y-20.0842
G01 X64.0617 Y-20.0073
G01 X64.1546 Y-19.9348
G01 X64.2509 Y-19.8670
G01 X64.3504 Y-19.8040
G01 X64.4529 Y-19.7460
G01 X64.5581 Y-19.6930
G01 X64.6658 Y-19.6453
G01 X64.7757 Y-19.6029
G01 X64.8875 Y-19.5659
G01 X65.0010 Y-19.5345
G01 X65.1159 Y-19.5087
G01 X65.1744 Y-19.4974
G01 X65.2220 Y-19.4854
G01 X65.2689 Y-19.4712
G01 X65.3266 Y-19.4502
G01 X65.3605 Y-19.4359
G01 X65.3939 Y-19.4203
G01 X65.4267 Y-19.4036
G01 X65.4588 Y-19.3856
G01 X65.4903 Y-19.3665
G01 X65.5210 Y-19.3462
G01 X65.5510 Y-19.3249
G01 X65.5841 Y-19.2992
G00 X65.5841 Y-19.2992
G01 F70.00
G01 Z-1.4000
G01 F120.00
G01 X65.6172 Y-19.3249
G01 X65.6472 Y-19.3462
G01 X65.6779 Y-19.3665
G01 X65.7094 Y-19.3856
G01 X65.7415 Y-19.4036
G01 X65.7743 Y-19.4203
G01 X65.8077 Y-19.4359
G01 X65.8416 Y-19.4502
G01 X65.8876 Y-19.4673
G01 X65.9462 Y-19.4854
G01 X65.9938 Y-19.4974
G01 X66.0523 Y-19.5087
G01 X66.1672 Y-19.5345
G01 X66.2807 Y-19.5659
G01 X66.3925 Y-19.6029
G01 X66.5024 Y-19.6453
G01 X66.6101 Y-19.6930
G01 X66.7153 Y-19.7460
G01 X66.8178 Y-19.8040
G01 X66.9173 Y-19.8670
G01 X67.0136 Y-19.9348
G01 X67.1065 Y-20.0073
G01 X67.1956 Y-20.0842
G01 X67.2809 Y-20.1655
G01 X67.3622 Y-20.2508
G01 X67.4391 Y-20.3399
G01 X67.5116 Y-20.4328
G01 X67.5794 Y-20.5291
G01 X67.6424 Y-20.6286
G01 X67.7004 Y-20.7311
G01 X67.7534 Y-20.8363
G01 X67.8011 Y-20.9440
G01 X67.8435 Y-21.0539
G01 X67.8805 Y-21.1657
G01 X67.9119 Y-21.2792
G01 X67.9377 Y-21.3941
G01 X67.9578 Y-21.5102
G01 X67.9722 Y-21.6271
G01 X67.9809 Y-21.7446
G01 X67.9838 Y-21.8623
G01 X67.9809 Y-21.9800
G01 X67.9722 Y-22.0975
G01 X67.9578 Y-22.2144
G01 X67.9377 Y-22.3305
G01 X67.9119 Y-22.4454
G01 X67.8805 Y-22.5589
G01 X67.8435 Y-22.6707
G01 X67.8011 Y-22.7806
G01 X67.7534 Y-22.8883
G01 X67.7004 Y-22.9935
G01 X67.6424 Y-23.0960
G01 X67.5794 Y-23.1955
G01 X67.5116 Y-23.2918
G01 X67.4391 Y-23.3847
G01 X67.3622 Y-23.4738
G01 X67.2809 Y-23.5591
G01 X67.1956 Y-23.6404
G01 X67.1065 Y-23.7173
G01 X67.0136 Y-23.7898
G01 X66.9173 Y-23.8576
G01 X66.8178 Y-23.9206
G01 X66.7153 Y-23.9786
G01 X66.6101 Y-24.0316
G01 X66.5024 Y-24.0793
G01 X66.3925 Y-24.1217
G01 X66.2807 Y-24.1587
G01 X66.1672 Y-24.1901
G01 X66.0523 Y-24.2159
G01 X65.9362 Y-24.2360
G01 X65.8193 Y-24.2504
G01 X65.7018 Y-24.2591
G01 X65.5841 Y-24.2620
G01 X65.4664 Y-24.2591
G01 X65.3489 Y-24.2504
G01 X65.2320 Y-24.2360
G01 X65.1159 Y-24.2159
G01 X65.0010 Y-24.1901
G01 X64.8875 Y-24.1587
G01 X64.7757 Y-24.1217
G01 X64.6658 Y-24.0793
G01 X64.5581 Y-24.0316
G01 X64.4529 Y-23.9786
G01 X64.3504 Y-23.9206
G01 X64.2509 Y-23.8576
G01 X64.1546 Y-23.7898
G01 X64.0617 Y-23.7173
G01 X63.9726 Y-23.6404
G01 X63.8873 Y-23.5591
G01 X63.8060 Y-23.4738
G01 X63.7291 Y-23.3847
G01 X63.6566 Y-23.2918
G01 X63.5888 Y-23.1955
G01 X63.5258 Y-23.0960
G01 X63.4678 Y-22.9935
G01 X63.4148 Y-22.8883
G01 X63.3671 Y-22.7806
G01 X63.3247 Y-22.6707
G01 X63.2877 Y-22.5589
G01 X63.2563 Y-22.4454
G01 X63.2305 Y-22.3305
G01 X63.2104 Y-22.2144
G01 X63.1960 Y-22.0975
G01 X63.1873 Y-21.9800
G01 X63.1844 Y-21.8623
G01 X63.1873 Y-21.7446
G01 X63.1960 Y-21.6271
G01 X63.2104 Y-21.5102
G01 X63.2305 Y-21.3941
G01 X63.2563 Y-21.2792
G01 X63.2877 Y-21.1657
G01 X63.3247 Y-21.0539
G01 X63.3671 Y-20.9440
G01 X63.4148 Y-20.8363
G01 X63.4678 Y-20.7311
G01 X63.5258 Y-20.6286
G01 X63.5888 Y-20.5291
G01 X63.6566 Y-20.4328
G01 X63.7291 Y-20.3399
G01 X63.8060 Y-20.2508
G01 X63.8873 Y-20.1655
G01 X63.9726 Y-20.0842
G01 X64.0617 Y-20.0073
G01 X64.1546 Y-19.9348
G01 X64.2509 Y-19.8670
G01 X64.3504 Y-19.8040
G01 X64.4529 Y-19.7460
G01 X64.5581 Y-19.6930
G01 X64.6658 Y-19.6453
G01 X64.7757 Y-19.6029
G01 X64.8875 Y-19.5659
G01 X65.0010 Y-19.5345
G01 X65.1159 Y-19.5087
G01 X65.1744 Y-19.4974
G01 X65.2220 Y-19.4854
G01 X65.2689 Y-19.4712
G01 X65.3266 Y-19.4502
G01 X65.3605 Y-19.4359
G01 X65.3939 Y-19.4203
G01 X65.4267 Y-19.4036
G01 X65.4588 Y-19.3856
G01 X65.4903 Y-19.3665
G01 X65.5210 Y-19.3462
G01 X65.5510 Y-19.3249
G01 X65.5841 Y-19.2992
G00 X65.5841 Y-19.2992
G01 F70.00
G01 Z-1.5000
G01 F120.00
G01 X65.6172 Y-19.3249
G01 X65.6472 Y-19.3462
G01 X65.6779 Y-19.3665
G01 X65.7094 Y-19.3856
G01 X65.7415 Y-19.4036
G01 X65.7743 Y-19.4203
G01 X65.8077 Y-19.4359
G01 X65.8416 Y-19.4502
G01 X65.8876 Y-19.4673
G01 X65.9462 Y-19.4854
G01 X65.9938 Y-19.4974
G01 X66.0523 Y-19.5087
G01 X66.1672 Y-19.5345
G01 X66.2807 Y-19.5659
G01 X66.3925 Y-19.6029
G01 X66.5024 Y-19.6453
G01 X66.6101 Y-19.6930
G01 X66.7153 Y-19.7460
G01 X66.8178 Y-19.8040
G01 X66.9173 Y-19.8670
G01 X67.0136 Y-19.9348
G01 X67.1065 Y-20.0073
G01 X67.1956 Y-20.0842
G01 X67.2809 Y-20.1655
G01 X67.3622 Y-20.2508
G01 X67.4391 Y-20.3399
G01 X67.5116 Y-20.4328
G01 X67.5794 Y-20.5291
G01 X67.6424 Y-20.6286
G01 X67.7004 Y-20.7311
G01 X67.7534 Y-20.8363
G01 X67.8011 Y-20.9440
G01 X67.8435 Y-21.0539
G01 X67.8805 Y-21.1657
G01 X67.9119 Y-21.2792
G01 X67.9377 Y-21.3941
G01 X67.9578 Y-21.5102
G01 X67.9722 Y-21.6271
G01 X67.9809 Y-21.7446
G01 X67.9838 Y-21.8623
G01 X67.9809 Y-21.9800
G01 X67.9722 Y-22.0975
G01 X67.9578 Y-22.2144
G01 X67.9377 Y-22.3305
G01 X67.9119 Y-22.4454
G01 X67.8805 Y-22.5589
G01 X67.8435 Y-22.6707
G01 X67.8011 Y-22.7806
G01 X67.7534 Y-22.8883
G01 X67.7004 Y-22.9935
G01 X67.6424 Y-23.0960
G01 X67.5794 Y-23.1955
G01 X67.5116 Y-23.2918
G01 X67.4391 Y-23.3847
G01 X67.3622 Y-23.4738
G01 X67.2809 Y-23.5591
G01 X67.1956 Y-23.6404
G01 X67.1065 Y-23.7173
G01 X67.0136 Y-23.7898
G01 X66.9173 Y-23.8576
G01 X66.8178 Y-23.9206
G01 X66.7153 Y-23.9786
G01 X66.6101 Y-24.0316
G01 X66.5024 Y-24.0793
G01 X66.3925 Y-24.1217
G01 X66.2807 Y-24.1587
G01 X66.1672 Y-24.1901
G01 X66.0523 Y-24.2159
G01 X65.9362 Y-24.2360
G01 X65.8193 Y-24.2504
G01 X65.7018 Y-24.2591
G01 X65.5841 Y-24.2620
G01 X65.4664 Y-24.2591
G01 X65.3489 Y-24.2504
G01 X65.2320 Y-24.2360
G01 X65.1159 Y-24.2159
G01 X65.0010 Y-24.1901
G01 X64.8875 Y-24.1587
G01 X64.7757 Y-24.1217
