(G-CODE GENERATED BY FLATCAM v8.993 - www.flatcam.org - Version Date: 2020/06/05)

(Name: PA6144_Ф1_верх.gbr_iso_combined_cnc)
(Type: G-code from Geometry)
(Units: MM)

(Created on Tuesday, 05 January 2021 at 00:36)

(This preprocessor is the default preprocessor used by FlatCAM.)
(It is made to work with MACH3 compatible motion controllers.)

(TOOL DIAMETER: 0.14 mm)
(Feedrate_XY: 120.0 mm/min)
(Feedrate_Z: 70.0 mm/min)
(Feedrate rapids 1500.0 mm/min)

(Z_Cut: -0.06 mm)
(Z_Move: 2.0 mm)
(Z Start: None mm)
(Z End: 25.0 mm)
(Steps per circle: 128)
(Preprocessor Geometry: default)

(X range:   -0.2800 ...   85.2800  mm)
(Y range:  -27.2800 ...    0.2800  mm)

(Spindle Speed: 10000 RPM)
G21
G90
G94



G01 F120.00
G00 Z2.0000

M03 S10000
G00 X-0.0700 Y0.0000
G01 F70.00
G01 Z-0.0600
G01 F120.00
G01 X-0.0700 Y-27.0000
G01 X-0.0691 Y-27.0111
G01 X-0.0665 Y-27.0220
G01 X-0.0621 Y-27.0322
G01 X-0.0562 Y-27.0417
G01 X-0.0489 Y-27.0501
G01 X-0.0403 Y-27.0572
G01 X-0.0315 Y-27.0625
G01 X-0.0211 Y-27.0667
G01 X-0.0103 Y-27.0692
G01 X0.0000 Y-27.0700
G01 X85.0000 Y-27.0700
G01 X85.0111 Y-27.0691
G01 X85.0220 Y-27.0665
G01 X85.0322 Y-27.0621
G01 X85.0417 Y-27.0562
G01 X85.0501 Y-27.0489
G01 X85.0567 Y-27.0410
G01 X85.0625 Y-27.0315
G01 X85.0667 Y-27.0211
G01 X85.0691 Y-27.0111
G01 X85.0700 Y-27.0000
G01 X85.0700 Y0.0000
G01 X85.0691 Y0.0111
G01 X85.0665 Y0.0220
G01 X85.0621 Y0.0322
G01 X85.0567 Y0.0410
G01 X85.0495 Y0.0495
G01 X85.0410 Y0.0567
G01 X85.0315 Y0.0625
G01 X85.0211 Y0.0667
G01 X85.0111 Y0.0691
G01 X85.0000 Y0.0700
G01 X-0.0000 Y0.0700
G01 X-0.0137 Y0.0687
G01 X-0.0268 Y0.0647
G01 X-0.0389 Y0.0582
G01 X-0.0495 Y0.0495
G01 X-0.0582 Y0.0389
G01 X-0.0647 Y0.0268
G01 X-0.0687 Y0.0137
G01 X-0.0700 Y0.0000
G00 Z2.0000
G00 X-0.1400 Y0.0000
G01 F70.00
G01 Z-0.0600
G01 F120.00
G01 X-0.1400 Y-27.0000
G01 X-0.1382 Y-27.0222
G01 X-0.1329 Y-27.0439
G01 X-0.1243 Y-27.0645
G01 X-0.1124 Y-27.0834
G01 X-0.0990 Y-27.0990
G01 X-0.0820 Y-27.1135
G01 X-0.0629 Y-27.1251
G01 X-0.0423 Y-27.1335
G01 X-0.0205 Y-27.1385
G01 X0.0000 Y-27.1400
G01 X85.0000 Y-27.1400
G01 X85.0222 Y-27.1382
G01 X85.0423 Y-27.1335
G01 X85.0629 Y-27.1251
G01 X85.0820 Y-27.1135
G01 X85.0990 Y-27.0990
G01 X85.1135 Y-27.0820
G01 X85.1251 Y-27.0629
G01 X85.1335 Y-27.0423
G01 X85.1385 Y-27.0205
G01 X85.1400 Y-27.0000
G01 X85.1400 Y0.0000
G01 X85.1385 Y0.0205
G01 X85.1335 Y0.0423
G01 X85.1251 Y0.0629
G01 X85.1135 Y0.0820
G01 X85.0990 Y0.0990
G01 X85.0820 Y0.1135
G01 X85.0629 Y0.1251
G01 X85.0423 Y0.1335
G01 X85.0222 Y0.1382
G01 X85.0000 Y0.1400
G01 X-0.0000 Y0.1400
G01 X-0.0137 Y0.1393
G01 X-0.0273 Y0.1373
G01 X-0.0406 Y0.1340
G01 X-0.0536 Y0.1293
G01 X-0.0660 Y0.1235
G01 X-0.0778 Y0.1164
G01 X-0.0888 Y0.1082
G01 X-0.0990 Y0.0990
G01 X-0.1082 Y0.0888
G01 X-0.1164 Y0.0778
G01 X-0.1235 Y0.0660
G01 X-0.1293 Y0.0536
G01 X-0.1340 Y0.0406
G01 X-0.1373 Y0.0273
G01 X-0.1393 Y0.0137
G01 X-0.1400 Y0.0000
G00 Z2.0000
G00 X-0.2100 Y0.0000
G01 F70.00
G01 Z-0.0600
G01 F120.00
G01 X-0.2100 Y-27.0000
G01 X-0.2092 Y-27.0180
G01 X-0.2073 Y-27.0334
G01 X-0.2037 Y-27.0510
G01 X-0.1994 Y-27.0659
G01 X-0.1940 Y-27.0804
G01 X-0.1876 Y-27.0944
G01 X-0.1788 Y-27.1102
G01 X-0.1702 Y-27.1230
G01 X-0.1607 Y-27.1352
G01 X-0.1485 Y-27.1485
G01 X-0.1372 Y-27.1590
G01 X-0.1230 Y-27.1702
G01 X-0.1102 Y-27.1788
G01 X-0.0944 Y-27.1876
G01 X-0.0780 Y-27.1950
G01 X-0.0634 Y-27.2002
G01 X-0.0485 Y-27.2043
G01 X-0.0334 Y-27.2073
G01 X-0.0154 Y-27.2094
G01 X0.0000 Y-27.2100
G01 X85.0000 Y-27.2100
G01 X85.0154 Y-27.2094
G01 X85.0334 Y-27.2073
G01 X85.0510 Y-27.2037
G01 X85.0659 Y-27.1994
G01 X85.0804 Y-27.1940
G01 X85.0967 Y-27.1864
G01 X85.1102 Y-27.1788
G01 X85.1251 Y-27.1687
G01 X85.1372 Y-27.1590
G01 X85.1503 Y-27.1467
G01 X85.1607 Y-27.1352
G01 X85.1702 Y-27.1230
G01 X85.1801 Y-27.1080
G01 X85.1876 Y-27.0944
G01 X85.1950 Y-27.0780
G01 X85.2002 Y-27.0634
G01 X85.2049 Y-27.0460
G01 X85.2077 Y-27.0308
G01 X85.2094 Y-27.0154
G01 X85.2100 Y-27.0000
G01 X85.2100 Y0.0000
G01 X85.2094 Y0.0154
G01 X85.2077 Y0.0308
G01 X85.2049 Y0.0460
G01 X85.2002 Y0.0634
G01 X85.1950 Y0.0780
G01 X85.1876 Y0.0944
G01 X85.1788 Y0.1102
G01 X85.1702 Y0.1230
G01 X85.1590 Y0.1372
G01 X85.1485 Y0.1485
G01 X85.1372 Y0.1590
G01 X85.1230 Y0.1702
G01 X85.1102 Y0.1788
G01 X85.0944 Y0.1876
G01 X85.0804 Y0.1940
G01 X85.0634 Y0.2002
G01 X85.0460 Y0.2049
G01 X85.0308 Y0.2077
G01 X85.0154 Y0.2094
G01 X85.0000 Y0.2100
G01 X-0.0000 Y0.2100
G01 X-0.0206 Y0.2090
G01 X-0.0410 Y0.2060
G01 X-0.0610 Y0.2010
G01 X-0.0804 Y0.1940
G01 X-0.0990 Y0.1852
G01 X-0.1167 Y0.1746
G01 X-0.1332 Y0.1623
G01 X-0.1485 Y0.1485
G01 X-0.1623 Y0.1332
G01 X-0.1746 Y0.1167
G01 X-0.1852 Y0.0990
G01 X-0.1940 Y0.0804
G01 X-0.2010 Y0.0610
G01 X-0.2060 Y0.0410
G01 X-0.2090 Y0.0206
G01 X-0.2100 Y0.0000
G00 Z2.0000
G00 X-0.2800 Y0.0000
G01 F70.00
G01 Z-0.0600
G01 F120.00
G01 X-0.2800 Y-27.0034
G01 X-0.2790 Y-27.0240
G01 X-0.2764 Y-27.0445
G01 X-0.2716 Y-27.0680
G01 X-0.2659 Y-27.0878
G01 X-0.2587 Y-27.1072
G01 X-0.2485 Y-27.1290
G01 X-0.2366 Y-27.1498
G01 X-0.2249 Y-27.1668
G01 X-0.2120 Y-27.1829
G01 X-0.1955 Y-27.2004
G01 X-0.1776 Y-27.2164
G01 X-0.1612 Y-27.2289
G01 X-0.1410 Y-27.2419
G01 X-0.1228 Y-27.2516
G01 X-0.1040 Y-27.2600
G01 X-0.0846 Y-27.2669
G01 X-0.0647 Y-27.2724
G01 X-0.0411 Y-27.2770
G01 X-0.0206 Y-27.2792
G01 X0.0000 Y-27.2800
G01 X85.0000 Y-27.2800
G01 X85.0240 Y-27.2790
G01 X85.0445 Y-27.2764
G01 X85.0647 Y-27.2724
G01 X85.0878 Y-27.2659
G01 X85.1072 Y-27.2587
G01 X85.1290 Y-27.2485
G01 X85.1469 Y-27.2384
G01 X85.1640 Y-27.2269
G01 X85.1803 Y-27.2142
G01 X85.1980 Y-27.1980
G01 X85.2142 Y-27.1803
G01 X85.2269 Y-27.1640
G01 X85.2384 Y-27.1469
G01 X85.2501 Y-27.1259
G01 X85.2587 Y-27.1072
G01 X85.2669 Y-27.0846
G01 X85.2724 Y-27.0647
G01 X85.2764 Y-27.0445
G01 X85.2790 Y-27.0240
G01 X85.2800 Y-27.0000
G01 X85.2800 Y0.0034
G01 X85.2787 Y0.0274
G01 X85.2759 Y0.0479
G01 X85.2716 Y0.0680
G01 X85.2659 Y0.0878
G01 X85.2587 Y0.1072
G01 X85.2485 Y0.1290
G01 X85.2384 Y0.1469
G01 X85.2249 Y0.1668
G01 X85.2120 Y0.1829
G01 X85.1980 Y0.1980
G01 X85.1803 Y0.2142
G01 X85.1640 Y0.2269
G01 X85.1469 Y0.2384
G01 X85.1259 Y0.2501
G01 X85.1040 Y0.2600
G01 X85.0846 Y0.2669
G01 X85.0647 Y0.2724
G01 X85.0445 Y0.2764
G01 X85.0240 Y0.2790
G01 X85.0000 Y0.2800
G01 X-0.0000 Y0.2800
G01 X-0.0274 Y0.2787
G01 X-0.0546 Y0.2746
G01 X-0.0813 Y0.2679
G01 X-0.1072 Y0.2587
G01 X-0.1320 Y0.2469
G01 X-0.1556 Y0.2328
G01 X-0.1776 Y0.2164
G01 X-0.1980 Y0.1980
G01 X-0.2164 Y0.1776
G01 X-0.2328 Y0.1556
G01 X-0.2469 Y0.1320
G01 X-0.2587 Y0.1072
G01 X-0.2679 Y0.0813
G01 X-0.2746 Y0.0546
G01 X-0.2787 Y0.0274
G01 X-0.2800 Y0.0000
G00 Z2.0000
G00 X7.7441 Y-2.2320
G01 F70.00
G01 Z-0.0600
G01 F120.00
G01 X7.7274 Y-2.2245
G01 X7.7095 Y-2.2143
G01 X7.6926 Y-2.2025
G01 X7.6770 Y-2.1890
G01 X7.6645 Y-2.1760
G01 X7.6516 Y-2.1599
G01 X7.6404 Y-2.1426
G01 X7.6316 Y-2.1259
G01 X7.6316 Y-2.2990
G01 X7.6433 Y-2.2866
G01 X7.6548 Y-2.2762
G01 X7.6670 Y-2.2667
G01 X7.6820 Y-2.2568
G01 X7.6979 Y-2.2482
G01 X7.7120 Y-2.2419
G01 X7.7290 Y-2.2359
G01 X7.7441 Y-2.2320
G00 Z2.0000
G00 X7.6316 Y-3.5748
G01 F70.00
G01 Z-0.0600
G01 F120.00
G01 X7.6316 Y-3.7479
G01 X7.6404 Y-3.7312
G01 X7.6516 Y-3.7139
G01 X7.6645 Y-3.6978
G01 X7.6770 Y-3.6848
G01 X7.6926 Y-3.6713
G01 X7.7095 Y-3.6595
G01 X7.7274 Y-3.6493
G01 X7.7441 Y-3.6418
G01 X7.7290 Y-3.6379
G01 X7.7120 Y-3.6319
G01 X7.6956 Y-3.6245
G01 X7.6820 Y-3.6170
G01 X7.6691 Y-3.6086
G01 X7.6548 Y-3.5976
G01 X7.6433 Y-3.5872
G01 X7.6316 Y-3.5748
G00 Z2.0000
G00 X7.6316 Y-4.6659
G01 F70.00
G01 Z-0.0600
G01 F120.00
G01 X7.6316 Y-4.7906
G01 X7.6931 Y-4.7906
G01 X7.7168 Y-4.7801
G01 X7.7441 Y-4.7720
G01 X7.7274 Y-4.7645
G01 X7.7095 Y-4.7543
G01 X7.6926 Y-4.7425
G01 X7.6770 Y-4.7290
G01 X7.6645 Y-4.7160
G01 X7.6516 Y-4.6999
G01 X7.6404 Y-4.6826
G01 X7.6316 Y-4.6659
G00 Z2.0000
G00 X7.6316 Y-6.2879
G01 F70.00
G01 Z-0.0600
G01 F120.00
G01 X7.6404 Y-6.2712
G01 X7.6516 Y-6.2539
G01 X7.6628 Y-6.2397
G01 X7.6770 Y-6.2248
G01 X7.6926 Y-6.2113
G01 X7.7095 Y-6.1995
G01 X7.7274 Y-6.1893
G01 X7.7441 Y-6.1818
G01 X7.7168 Y-6.1737
G01 X7.6929 Y-6.1631
G01 X7.6316 Y-6.1631
G01 X7.6316 Y-6.2879
G00 Z2.0000
G00 X7.6316 Y-7.3790
G01 F70.00
G01 Z-0.0600
G01 F120.00
G01 X7.6433 Y-7.3666
G01 X7.6548 Y-7.3562
G01 X7.6670 Y-7.3467
G01 X7.6820 Y-7.3368
G01 X7.6979 Y-7.3282
G01 X7.7120 Y-7.3219
G01 X7.7290 Y-7.3159
G01 X7.7441 Y-7.3120
G01 X7.7274 Y-7.3045
G01 X7.7095 Y-7.2943
G01 X7.6926 Y-7.2825
G01 X7.6770 Y-7.2690
G01 X7.6645 Y-7.2560
G01 X7.6516 Y-7.2399
G01 X7.6404 Y-7.2226
G01 X7.6316 Y-7.2059
G01 X7.6316 Y-7.3790
G00 Z2.0000
G00 X7.6316 Y-8.8279
G01 F70.00
G01 Z-0.0600
G01 F120.00
G01 X7.6404 Y-8.8112
G01 X7.6516 Y-8.7939
G01 X7.6628 Y-8.7797
G01 X7.6770 Y-8.7648
G01 X7.6926 Y-8.7513
G01 X7.7095 Y-8.7395
G01 X7.7274 Y-8.7293
G01 X7.7441 Y-8.7218
G01 X7.7290 Y-8.7179
G01 X7.7120 Y-8.7119
G01 X7.6956 Y-8.7045
G01 X7.6820 Y-8.6970
G01 X7.6691 Y-8.6886
G01 X7.6548 Y-8.6776
G01 X7.6433 Y-8.6672
G01 X7.6316 Y-8.6548
G01 X7.6316 Y-8.8279
G00 Z2.0000
G00 X9.2100 Y-8.8469
G01 F70.00
G01 Z-0.0600
G01 F120.00
G01 X10.3200 Y-8.8469
G01 X10.3200 Y-8.3369
G01 X10.0600 Y-8.3369
G01 X10.0600 Y-8.5178
G01 X10.0583 Y-8.5322
G01 X10.0553 Y-8.5421
G01 X10.0513 Y-8.5507
G01 X10.0462 Y-8.5586
G01 X10.0395 Y-8.5664
G01 X10.0317 Y-8.5731
G01 X10.0238 Y-8.5782
G01 X10.0152 Y-8.5822
G01 X10.0053 Y-8.5852
G01 X9.9900 Y-8.5869
G01 X9.2100 Y-8.5869
G01 X9.2100 Y-8.8469
G00 Z2.0000
G00 X9.2800 Y-8.7769
G01 F70.00
G01 Z-0.0600
G01 F120.00
G01 X10.2500 Y-8.7769
G01 X10.2500 Y-8.4069
G01 X10.1300 Y-8.4069
G01 X10.1298 Y-8.5238
G01 X10.1270 Y-8.5459
G01 X10.1212 Y-8.5657
G01 X10.1151 Y-8.5798
G01 X10.1074 Y-8.5932
G01 X10.0993 Y-8.6044
G01 X10.0890 Y-8.6159
G01 X10.0775 Y-8.6262
G01 X10.0663 Y-8.6343
G01 X10.0545 Y-8.6412
G01 X10.0404 Y-8.6475
G01 X10.0290 Y-8.6514
G01 X10.0156 Y-8.6545
G01 X10.0037 Y-8.6562
G01 X9.9917 Y-8.6569
G01 X9.2800 Y-8.6569
G01 X9.2800 Y-8.7769
G00 Z2.0000
G00 X10.0794 Y-8.7069
G01 F70.00
G01 Z-0.0600
G01 F120.00
G01 X10.1800 Y-8.7069
G01 X10.1800 Y-8.6063
G01 X10.1714 Y-8.6226
G01 X10.1617 Y-8.6378
G01 X10.1507 Y-8.6521
G01 X10.1385 Y-8.6654
G01 X10.1252 Y-8.6776
G01 X10.1109 Y-8.6886
G01 X10.0957 Y-8.6983
G01 X10.0794 Y-8.7069
G00 Z2.0000
G00 X9.9487 Y-9.7100
G01 F70.00
G01 Z-0.0600
G01 F120.00
G01 X9.8481 Y-9.7100
G01 X9.8478 Y-9.7581
G01 X9.8446 Y-9.7862
G01 X9.8412 Y-9.8013
G01 X9.8367 Y-9.8161
G01 X9.8301 Y-9.8329
G01 X9.8233 Y-9.8468
G01 X9.8155 Y-9.8601
G01 X9.8052 Y-9.8749
G01 X9.7937 Y-9.8888
G01 X9.7829 Y-9.8999
G01 X9.7693 Y-9.9117
G01 X9.7569 Y-9.9209
G01 X9.7416 Y-9.9305
G01 X9.7271 Y-9.9380
G01 X9.8281 Y-9.9380
G01 X9.8284 Y-9.8897
G01 X9.8316 Y-9.8616
G01 X9.8350 Y-9.8465
G01 X9.8395 Y-9.8317
G01 X9.8461 Y-9.8149
G01 X9.8529 Y-9.8010
G01 X9.8607 Y-9.7877
G01 X9.8710 Y-9.7728
G01 X9.8825 Y-9.7590
G01 X9.8933 Y-9.7479
G01 X9.9069 Y-9.7360
G01 X9.9193 Y-9.7268
G01 X9.9346 Y-9.7173
G01 X9.9487 Y-9.7100
G00 Z2.0000
G00 X9.5665 Y-10.9279
G01 F70.00
G01 Z-0.0600
G01 F120.00
G01 X9.5871 Y-10.9216
G01 X9.6073 Y-10.9176
G01 X9.6278 Y-10.9156
G01 X9.6484 Y-10.9156
G01 X9.6689 Y-10.9176
G01 X9.6891 Y-10.9216
G01 X9.7088 Y-10.9276
G01 X9.7279 Y-10.9355
G01 X9.7526 Y-10.9493
G01 X9.7753 Y-10.9663
G01 X9.7954 Y-10.9862
G01 X9.8113 Y-11.0065
G01 X9.8257 Y-11.0309
G01 X9.8367 Y-11.0570
G01 X9.8441 Y-11.0843
G01 X9.8475 Y-11.1100
G01 X9.9487 Y-11.1100
G01 X9.9324 Y-11.1014
G01 X9.9172 Y-11.0917
G01 X9.9029 Y-11.0807
G01 X9.8896 Y-11.0685
G01 X9.8774 Y-11.0552
G01 X9.8664 Y-11.0409
G01 X9.8567 Y-11.0257
G01 X9.8483 Y-11.0098
G01 X9.8422 Y-10.9956
G01 X9.8371 Y-10.9810
G01 X9.8327 Y-10.9635
G01 X9.8300 Y-10.9483
G01 X9.8282 Y-10.9252
G01 X9.8281 Y-10.8582
G01 X9.6362 Y-10.8582
G01 X9.5665 Y-10.9279
G00 Z2.0000
G00 X9.9487 Y-11.7500
G01 F70.00
G01 Z-0.0600
G01 F120.00
G01 X9.8481 Y-11.7500
G01 X9.8481 Y-11.8506
G01 X9.8567 Y-11.8343
G01 X9.8664 Y-11.8191
G01 X9.8774 Y-11.8048
G01 X9.8896 Y-11.7915
G01 X9.9029 Y-11.7793
G01 X9.9172 Y-11.7683
G01 X9.9324 Y-11.7586
G01 X9.9487 Y-11.7500
G00 Z2.0000
G00 X9.8481 Y-13.1890
G01 F70.00
G01 Z-0.0600
G01 F120.00
G01 X9.8634 Y-13.2010
G01 X9.8765 Y-13.2133
G01 X9.8902 Y-13.2288
G01 X9.9008 Y-13.2433
G01 X9.9102 Y-13.2587
G01 X9.9192 Y-13.2773
G01 X9.9264 Y-13.2966
G01 X9.9311 Y-13.3140
G01 X9.9346 Y-13.3343
G01 X9.9361 Y-13.3548
G01 X9.9362 Y-13.5881
G01 X9.9435 Y-13.5740
G01 X9.9530 Y-13.5587
G01 X9.9639 Y-13.5443
G01 X9.9759 Y-13.5308
G01 X9.9890 Y-13.5185
G01 X10.0032 Y-13.5073
G01 X10.0182 Y-13.4974
G01 X10.0341 Y-13.4888
G01 X10.0482 Y-13.4825
G01 X10.0628 Y-13.4773
G01 X10.0777 Y-13.4732
G01 X10.0954 Y-13.4698
G01 X10.1210 Y-13.4676
G01 X10.1814 Y-13.4675
G01 X10.1833 Y-13.1700
G01 X10.0252 Y-13.1696
G01 X9.9971 Y-13.1660
G01 X9.9821 Y-13.1624
G01 X9.9674 Y-13.1577
G01 X9.9483 Y-13.1498
G01 X9.9301 Y-13.1401
G01 X9.9130 Y-13.1287
G01 X9.8971 Y-13.1156
G01 X9.8825 Y-13.1010
G01 X9.8694 Y-13.0851
G01 X9.8580 Y-13.0680
G01 X9.8481 Y-13.0494
G01 X9.8481 Y-13.1890
G00 Z2.0000
G00 X9.7781 Y-13.2300
G01 F70.00
G01 Z-0.0600
G01 F120.00
G01 X9.7952 Y-13.2382
G01 X9.8123 Y-13.2496
G01 X9.8276 Y-13.2635
G01 X9.8397 Y-13.2780
G01 X9.8505 Y-13.2955
G01 X9.8586 Y-13.3145
G01 X9.8638 Y-13.3344
G01 X9.8660 Y-13.3531
G01 X9.8662 Y-15.1575
G01 X11.4062 Y-15.1575
G01 X11.4063 Y-13.3548
G01 X11.4073 Y-13.3429
G01 X11.4092 Y-13.3310
G01 X11.4156 Y-13.3096
G01 X11.4252 Y-13.2895
G01 X11.4317 Y-13.2794
G01 X11.4391 Y-13.2699
G01 X11.4472 Y-13.2610
G01 X11.4561 Y-13.2529
G01 X11.4742 Y-13.2399
G01 X11.4848 Y-13.2342
G01 X11.4958 Y-13.2294
G01 X11.5181 Y-13.2229
G01 X11.5181 Y-11.6800
G01 X9.7781 Y-11.6800
G01 X9.7781 Y-13.2300
G00 Z2.0000
G00 X9.9757 Y-13.2330
G01 F70.00
G01 Z-0.0600
G01 F120.00
G01 X9.9849 Y-13.2528
G01 X9.9921 Y-13.2722
G01 X9.9978 Y-13.2920
G01 X10.0026 Y-13.3155
G01 X10.0049 Y-13.3326
G01 X10.0060 Y-13.3497
G01 X10.0062 Y-13.4245
G01 X10.0319 Y-13.4139
G01 X10.0582 Y-13.4059
G01 X10.0851 Y-13.4005
G01 X10.1118 Y-13.3979
G01 X10.1128 Y-13.2400
G01 X10.0244 Y-13.2397
G01 X10.0004 Y-13.2375
G01 X9.9757 Y-13.2330
G00 Z2.0000
G00 X11.2662 Y-13.4245
G01 F70.00
G01 Z-0.0600
G01 F120.00
G01 X11.2663 Y-13.3531
G01 X11.2672 Y-13.3360
G01 X11.2692 Y-13.3189
G01 X11.2730 Y-13.2987
G01 X11.2783 Y-13.2787
G01 X11.2850 Y-13.2592
G01 X11.2944 Y-13.2376
G01 X11.2650 Y-13.2399
G01 X11.1731 Y-13.2400
G01 X11.1721 Y-13.3987
G01 X11.1975 Y-13.4022
G01 X11.2209 Y-13.4076
G01 X11.2438 Y-13.4150
G01 X11.2662 Y-13.4245
G00 Z2.0000
G00 X11.3362 Y-13.5881
G01 F70.00
G01 Z-0.0600
G01 F120.00
G01 X11.3362 Y-13.3574
G01 X11.3375 Y-13.3369
G01 X11.3408 Y-13.3165
G01 X11.3468 Y-13.2941
G01 X11.3553 Y-13.2725
G01 X11.3661 Y-13.2520
G01 X11.3791 Y-13.2328
G01 X11.3941 Y-13.2152
G01 X11.4110 Y-13.1993
G01 X11.4295 Y-13.1854
G01 X11.4481 Y-13.1743
G01 X11.4481 Y-13.0494
G01 X11.4382 Y-13.0680
G01 X11.4268 Y-13.0851
G01 X11.4137 Y-13.1010
G01 X11.3991 Y-13.1156
G01 X11.3832 Y-13.1287
G01 X11.3638 Y-13.1414
G01 X11.3456 Y-13.1509
G01 X11.3264 Y-13.1586
G01 X11.2991 Y-13.1660
G01 X11.2838 Y-13.1684
G01 X11.2684 Y-13.1697
G01 X11.1036 Y-13.1700
G01 X11.1016 Y-13.4675
G01 X11.1539 Y-13.4676
G01 X11.1796 Y-13.4702
G01 X11.1947 Y-13.4732
G01 X11.2121 Y-13.4781
G01 X11.2289 Y-13.4845
G01 X11.2429 Y-13.4911
G01 X11.2585 Y-13.5001
G01 X11.2713 Y-13.5088
G01 X11.2853 Y-13.5202
G01 X11.2983 Y-13.5327
G01 X11.3102 Y-13.5463
G01 X11.3194 Y-13.5587
G01 X11.3289 Y-13.5740
G01 X11.3362 Y-13.5881
G00 Z2.0000
G00 X11.2862 Y-14.8975
G01 F70.00
G01 Z-0.0600
G01 F120.00
G01 X11.2862 Y-13.6775
G01 X11.2849 Y-13.6587
G01 X11.2816 Y-13.6418
G01 X11.2762 Y-13.6255
G01 X11.2680 Y-13.6085
G01 X11.2586 Y-13.5941
G01 X11.2476 Y-13.5810
G01 X11.2350 Y-13.5693
G01 X11.2211 Y-13.5592
G01 X11.2061 Y-13.5509
G01 X11.1950 Y-13.5463
G01 X11.1819 Y-13.5421
G01 X11.1701 Y-13.5396
G01 X11.1565 Y-13.5379
G01 X11.0312 Y-13.5375
G01 X11.0340 Y-13.1000
G01 X11.2615 Y-13.1000
G01 X11.2786 Y-13.0985
G01 X11.2954 Y-13.0949
G01 X11.3133 Y-13.0887
G01 X11.3286 Y-13.0810
G01 X11.3429 Y-13.0714
G01 X11.3571 Y-13.0590
G01 X11.3695 Y-13.0448
G01 X11.3791 Y-13.0305
G01 X11.3868 Y-13.0152
G01 X11.3926 Y-12.9990
G01 X11.3966 Y-12.9805
G01 X11.3981 Y-12.9600
G01 X11.3981 Y-11.9400
G01 X11.3972 Y-11.9246
G01 X11.3951 Y-11.9110
G01 X11.3916 Y-11.8977
G01 X11.3868 Y-11.8848
G01 X11.3782 Y-11.8680
G01 X11.3674 Y-11.8525
G01 X11.3534 Y-11.8374
G01 X11.3387 Y-11.8255
G01 X11.3226 Y-11.8157
G01 X11.3036 Y-11.8076
G01 X11.2837 Y-11.8024
G01 X11.2650 Y-11.8002
G01 X10.0364 Y-11.8000
G01 X10.0227 Y-11.8009
G01 X10.0091 Y-11.8030
G01 X9.9958 Y-11.8065
G01 X9.9829 Y-11.8113
G01 X9.9661 Y-11.8199
G01 X9.9506 Y-11.8307
G01 X9.9367 Y-11.8435
G01 X9.9246 Y-11.8580
G01 X9.9138 Y-11.8755
G01 X9.9063 Y-11.8928
G01 X9.9011 Y-11.9110
G01 X9.8985 Y-11.9297
G01 X9.8981 Y-12.9600
G01 X9.8990 Y-12.9754
G01 X9.9011 Y-12.9890
G01 X9.9063 Y-13.0072
G01 X9.9138 Y-13.0245
G01 X9.9227 Y-13.0392
G01 X9.9344 Y-13.0540
G01 X9.9467 Y-13.0660
G01 X9.9618 Y-13.0774
G01 X9.9782 Y-13.0866
G01 X9.9958 Y-13.0935
G01 X10.0142 Y-13.0979
G01 X10.0347 Y-13.1000
G01 X10.2538 Y-13.1000
G01 X10.2509 Y-13.5375
G01 X10.1159 Y-13.5379
G01 X10.1023 Y-13.5396
G01 X10.0905 Y-13.5421
G01 X10.0790 Y-13.5457
G01 X10.0679 Y-13.5502
G01 X10.0528 Y-13.5583
G01 X10.0387 Y-13.5682
G01 X10.0248 Y-13.5810
G01 X10.0138 Y-13.5941
G01 X10.0044 Y-13.6085
G01 X9.9962 Y-13.6255
G01 X9.9908 Y-13.6418
G01 X9.9875 Y-13.6587
G01 X9.9862 Y-13.6775
G01 X9.9862 Y-14.8992
G01 X9.9871 Y-14.9129
G01 X9.9892 Y-14.9265
G01 X9.9927 Y-14.9398
G01 X9.9975 Y-14.9527
G01 X10.0061 Y-14.9695
G01 X10.0180 Y-14.9863
G01 X10.0309 Y-15.0001
G01 X10.0456 Y-15.0120
G01 X10.0617 Y-15.0218
G01 X10.0790 Y-15.0293
G01 X10.0972 Y-15.0345
G01 X10.1159 Y-15.0371
G01 X11.1514 Y-15.0374
G01 X11.1650 Y-15.0362
G01 X11.1785 Y-15.0337
G01 X11.1917 Y-15.0299
G01 X11.2045 Y-15.0248
G01 X11.2152 Y-15.0193
G01 X11.2268 Y-15.0120
G01 X11.2376 Y-15.0035
G01 X11.2476 Y-14.9940
G01 X11.2555 Y-14.9850
G01 X11.2636 Y-14.9738
G01 X11.2705 Y-14.9620
G01 X11.2762 Y-14.9495
G01 X11.2807 Y-14.9365
G01 X11.2838 Y-14.9231
G01 X11.2855 Y-14.9112
G01 X11.2862 Y-14.8975
G00 Z2.0000
G00 X11.2162 Y-14.8975
G01 F70.00
G01 Z-0.0600
G01 F120.00
G01 X11.2162 Y-13.6775
G01 X11.2156 Y-13.6681
G01 X11.2134 Y-13.6580
G01 X11.2098 Y-13.6483
G01 X11.2044 Y-13.6386
G01 X11.1981 Y-13.6305
G01 X11.1906 Y-13.6234
G01 X11.1822 Y-13.6175
G01 X11.1730 Y-13.6128
G01 X11.1624 Y-13.6094
G01 X11.1471 Y-13.6075
G01 X10.9607 Y-13.6075
G01 X10.9645 Y-13.0300
G01 X11.2581 Y-13.0300
G01 X11.2675 Y-13.0294
G01 X11.2776 Y-13.0272
G01 X11.2865 Y-13.0240
G01 X11.2955 Y-13.0191
G01 X11.3032 Y-13.0136
G01 X11.3100 Y-13.0070
G01 X11.3163 Y-12.9989
G01 X11.3210 Y-12.9907
G01 X11.3248 Y-12.9811
G01 X11.3272 Y-12.9711
G01 X11.3281 Y-12.9600
G01 X11.3281 Y-11.9400
G01 X11.3269 Y-11.9272
G01 X11.3231 Y-11.9140
G01 X11.3186 Y-11.9048
G01 X11.3128 Y-11.8963
G01 X11.3057 Y-11.8887
G01 X11.2977 Y-11.8823
G01 X11.2888 Y-11.8771
G01 X11.2792 Y-11.8733
G01 X11.2692 Y-11.8709
G01 X11.2598 Y-11.8700
G01 X10.0381 Y-11.8700
G01 X10.0253 Y-11.8712
G01 X10.0121 Y-11.8750
G01 X10.0036 Y-11.8791
G01 X9.9950 Y-11.8848
G01 X9.9874 Y-11.8917
G01 X9.9809 Y-11.8997
G01 X9.9760 Y-11.9078
G01 X9.9719 Y-11.9172
G01 X9.9693 Y-11.9272
G01 X9.9681 Y-11.9374
G01 X9.9681 Y-12.9600
G01 X9.9687 Y-12.9694
G01 X9.9706 Y-12.9787
G01 X9.9741 Y-12.9884
G01 X9.9790 Y-12.9974
G01 X9.9851 Y-13.0057
G01 X9.9917 Y-13.0124
G01 X9.9999 Y-13.0187
G01 X10.0089 Y-13.0236
G01 X10.0186 Y-13.0272
G01 X10.0278 Y-13.0292
G01 X10.0381 Y-13.0300
G01 X10.3242 Y-13.0300
G01 X10.3205 Y-13.6075
G01 X10.1253 Y-13.6075
G01 X10.1109 Y-13.6092
G01 X10.1002 Y-13.6125
G01 X10.0910 Y-13.6170
G01 X10.0818 Y-13.6234
G01 X10.0743 Y-13.6305
G01 X10.0680 Y-13.6386
G01 X10.0626 Y-13.6483
G01 X10.0590 Y-13.6580
G01 X10.0568 Y-13.6681
G01 X10.0562 Y-13.6775
G01 X10.0562 Y-14.8975
G01 X10.0574 Y-14.9103
G01 X10.0612 Y-14.9235
G01 X10.0653 Y-14.9320
G01 X10.0710 Y-14.9406
G01 X10.0779 Y-14.9482
G01 X10.0859 Y-14.9547
G01 X10.0947 Y-14.9600
G01 X10.1034 Y-14.9637
G01 X10.1134 Y-14.9663
G01 X10.1236 Y-14.9675
G01 X11.1479 Y-14.9675
G01 X11.1615 Y-14.9658
G01 X11.1746 Y-14.9615
G01 X11.1858 Y-14.9552
G01 X11.1963 Y-14.9464
G01 X11.2044 Y-14.9364
G01 X11.2109 Y-14.9243
G01 X11.2149 Y-14.9112
G01 X11.2162 Y-14.8975
G00 Z2.0000
G00 X11.2356 Y-15.0875
G01 F70.00
G01 Z-0.0600
G01 F120.00
G01 X11.3362 Y-15.0875
G01 X11.3362 Y-14.9869
G01 X11.3276 Y-15.0032
G01 X11.3179 Y-15.0184
G01 X11.3069 Y-15.0327
G01 X11.2947 Y-15.0460
G01 X11.2814 Y-15.0582
G01 X11.2671 Y-15.0692
G01 X11.2519 Y-15.0789
G01 X11.2356 Y-15.0875
G00 Z2.0000
G00 X11.4762 Y-15.2275
G01 F70.00
G01 Z-0.0600
G01 F120.00
G01 X11.4762 Y-13.3574
G01 X11.4771 Y-13.3489
G01 X11.4790 Y-13.3405
G01 X11.4822 Y-13.3316
G01 X11.4862 Y-13.3240
G01 X11.4910 Y-13.3169
G01 X11.4967 Y-13.3105
G01 X11.5031 Y-13.3048
G01 X11.5102 Y-13.3000
G01 X11.5234 Y-13.2938
G01 X11.5376 Y-13.2905
G01 X11.5881 Y-13.2900
G01 X11.5881 Y-11.6100
G01 X9.7081 Y-11.6100
G01 X9.7081 Y-13.2900
G01 X9.7296 Y-13.2901
G01 X9.7424 Y-13.2919
G01 X9.7569 Y-13.2971
G01 X9.7693 Y-13.3048
G01 X9.7803 Y-13.3156
G01 X9.7887 Y-13.3285
G01 X9.7941 Y-13.3430
G01 X9.7962 Y-13.3583
G01 X9.7962 Y-15.2275
G01 X11.4762 Y-15.2275
G00 Z2.0000
G00 X10.9563 Y-15.8781
G01 F70.00
G01 Z-0.0600
G01 F120.00
G01 X10.9649 Y-15.8618
G01 X10.9746 Y-15.8466
G01 X10.9856 Y-15.8323
G01 X10.9978 Y-15.8190
G01 X11.0111 Y-15.8068
G01 X11.0254 Y-15.7958
G01 X11.0406 Y-15.7861
G01 X11.0569 Y-15.7775
G01 X10.9563 Y-15.7775
G01 X10.9563 Y-15.8781
G00 Z2.0000
G00 X10.2157 Y-15.7775
G01 F70.00
G01 Z-0.0600
G01 F120.00
G01 X10.2320 Y-15.7861
G01 X10.2472 Y-15.7958
G01 X10.2615 Y-15.8068
G01 X10.2748 Y-15.8190
G01 X10.2870 Y-15.8323
G01 X10.2980 Y-15.8466
G01 X10.3077 Y-15.8618
G01 X10.3163 Y-15.8781
G01 X10.3163 Y-15.7775
G01 X10.2157 Y-15.7775
G00 Z2.0000
G00 X9.9362 Y-14.9869
G01 F70.00
G01 Z-0.0600
G01 F120.00
G01 X9.9362 Y-15.0875
G01 X10.0368 Y-15.0875
G01 X10.0205 Y-15.0789
G01 X10.0053 Y-15.0692
G01 X9.9910 Y-15.0582
G01 X9.9777 Y-15.0460
G01 X9.9655 Y-15.0327
G01 X9.9545 Y-15.0184
G01 X9.9448 Y-15.0032
G01 X9.9362 Y-14.9869
G00 Z2.0000
G00 X8.9862 Y-14.3869
G01 F70.00
G01 Z-0.0600
G01 F120.00
G01 X8.9776 Y-14.4032
G01 X8.9679 Y-14.4184
G01 X8.9569 Y-14.4327
G01 X8.9447 Y-14.4460
G01 X8.9314 Y-14.4582
G01 X8.9171 Y-14.4692
G01 X8.9019 Y-14.4789
G01 X8.8856 Y-14.4875
G01 X8.9862 Y-14.4875
G01 X8.9862 Y-14.3869
G00 Z2.0000
G00 X8.2706 Y-14.5075
G01 F70.00
G01 Z-0.0600
G01 F120.00
G01 X8.2336 Y-14.5075
G01 X8.2192 Y-14.5417
G01 X8.2313 Y-14.5315
G01 X8.2438 Y-14.5226
G01 X8.2569 Y-14.5145
G01 X8.2706 Y-14.5075
G00 Z2.0000
G00 X8.0391 Y-14.9697
G01 F70.00
G01 Z-0.0600
G01 F120.00
G01 X7.9593 Y-15.1595
G01 X7.9797 Y-15.1664
G01 X8.0007 Y-15.1762
G01 X8.0184 Y-15.1868
G01 X8.0369 Y-15.2007
G01 X8.0538 Y-15.2166
G01 X8.0688 Y-15.2342
G01 X8.0818 Y-15.2534
G01 X8.0917 Y-15.2720
G01 X8.0917 Y-15.1006
G01 X8.0800 Y-15.0861
G01 X8.0699 Y-15.0711
G01 X8.0611 Y-15.0552
G01 X8.0537 Y-15.0387
G01 X8.0478 Y-15.0216
G01 X8.0434 Y-15.0041
G01 X8.0404 Y-14.9863
G01 X8.0391 Y-14.9697
G00 Z2.0000
G00 X8.1117 Y-15.7044
G01 F70.00
G01 Z-0.0600
G01 F120.00
G01 X8.1117 Y-15.7671
G01 X8.1731 Y-15.7810
G01 X8.1550 Y-15.7652
G01 X8.1377 Y-15.7461
G01 X8.1229 Y-15.7251
G01 X8.1117 Y-15.7044
G00 Z2.0000
G00 X8.7514 Y-15.9111
G01 F70.00
G01 Z-0.0600
G01 F120.00
G01 X8.8976 Y-15.9441
G01 X8.9026 Y-15.9165
G01 X8.9104 Y-15.8919
G01 X8.9211 Y-15.8685
G01 X8.9361 Y-15.8445
G01 X8.9542 Y-15.8227
G01 X8.9731 Y-15.8052
G01 X8.9940 Y-15.7901
G01 X9.0169 Y-15.7775
G01 X8.9038 Y-15.7775
G01 X8.8927 Y-15.8028
G01 X8.8794 Y-15.8249
G01 X8.8636 Y-15.8452
G01 X8.8454 Y-15.8634
G01 X8.8229 Y-15.8807
G01 X8.8007 Y-15.8936
G01 X8.7770 Y-15.9038
G01 X8.7514 Y-15.9111
G00 Z2.0000
G00 X9.0363 Y-16.1188
G01 F70.00
G01 Z-0.0600
G01 F120.00
G01 X7.9717 Y-15.8791
G01 X7.9717 Y-15.3605
G01 X7.9705 Y-15.3486
G01 X7.9673 Y-15.3370
G01 X7.9638 Y-15.3292
G01 X7.9589 Y-15.3211
G01 X7.9536 Y-15.3144
G01 X7.9474 Y-15.3084
G01 X7.9406 Y-15.3032
G01 X7.9324 Y-15.2985
G01 X7.9245 Y-15.2952
G01 X7.9162 Y-15.2929
G01 X7.9026 Y-15.2914
G01 X7.7519 Y-15.2914
G01 X8.1406 Y-14.3675
G01 X8.8005 Y-14.3674
G01 X8.8099 Y-14.3662
G01 X8.8190 Y-14.3637
G01 X8.8277 Y-14.3600
G01 X8.8351 Y-14.3557
G01 X8.8426 Y-14.3499
G01 X8.8492 Y-14.3432
G01 X8.8549 Y-14.3357
G01 X8.8595 Y-14.3274
G01 X8.8645 Y-14.3128
G01 X8.8662 Y-14.2975
G01 X8.8662 Y-12.9975
G01 X8.8643 Y-12.9813
G01 X8.8618 Y-12.9731
G01 X8.8583 Y-12.9653
G01 X8.8539 Y-12.9579
G01 X8.8481 Y-12.9505
G01 X8.8413 Y-12.9439
G01 X8.8336 Y-12.9384
G01 X8.8254 Y-12.9339
G01 X8.8165 Y-12.9305
G01 X8.8073 Y-12.9284
G01 X8.7979 Y-12.9275
G01 X7.3962 Y-12.9275
G01 X7.3800 Y-12.9294
G01 X7.3718 Y-12.9319
G01 X7.3640 Y-12.9354
G01 X7.3566 Y-12.9398
G01 X7.3492 Y-12.9456
G01 X7.3426 Y-12.9524
G01 X7.3371 Y-12.9601
G01 X7.3326 Y-12.9683
G01 X7.3292 Y-12.9772
G01 X7.3271 Y-12.9864
G01 X7.3262 Y-12.9958
G01 X7.3263 Y-14.3018
G01 X7.3275 Y-14.3112
G01 X7.3297 Y-14.3195
G01 X7.3329 Y-14.3274
G01 X7.3371 Y-14.3349
G01 X7.3421 Y-14.3419
G01 X7.3486 Y-14.3488
G01 X7.3552 Y-14.3542
G01 X7.3624 Y-14.3588
G01 X7.3751 Y-14.3642
G01 X7.3893 Y-14.3672
G01 X7.4460 Y-14.3675
G01 X7.0573 Y-15.2914
G01 X6.2983 Y-15.2915
G01 X6.2889 Y-15.2926
G01 X6.2806 Y-15.2947
G01 X6.2725 Y-15.2978
G01 X6.2643 Y-15.3023
G01 X6.2573 Y-15.3073
G01 X6.2504 Y-15.3138
G01 X6.2445 Y-15.3211
G01 X6.2396 Y-15.3292
G01 X6.2338 Y-15.3444
G01 X6.2322 Y-15.3528
G01 X6.2317 Y-15.3614
G01 X6.2317 Y-16.6614
G01 X6.2322 Y-16.6700
G01 X6.2338 Y-16.6784
G01 X6.2396 Y-16.6936
G01 X6.2445 Y-16.7017
G01 X6.2504 Y-16.7090
G01 X6.2573 Y-16.7155
G01 X6.2650 Y-16.7210
G01 X6.2733 Y-16.7254
G01 X6.2822 Y-16.7286
G01 X6.2914 Y-16.7306
G01 X6.3000 Y-16.7314
G01 X7.9077 Y-16.7311
G01 X7.9179 Y-16.7295
G01 X7.9277 Y-16.7264
G01 X7.9369 Y-16.7219
G01 X7.9448 Y-16.7166
G01 X7.9524 Y-16.7097
G01 X7.9589 Y-16.7017
G01 X7.9642 Y-16.6929
G01 X7.9682 Y-16.6834
G01 X7.9707 Y-16.6734
G01 X7.9717 Y-16.6631
G01 X7.9717 Y-16.5354
G01 X9.0363 Y-16.7751
G01 X9.0366 Y-17.1944
G01 X9.0384 Y-17.2045
G01 X9.0416 Y-17.2143
G01 X9.0463 Y-17.2235
G01 X9.0522 Y-17.2319
G01 X9.0587 Y-17.2388
G01 X9.0667 Y-17.2452
G01 X9.0756 Y-17.2504
G01 X9.0852 Y-17.2542
G01 X9.0960 Y-17.2567
G01 X9.1063 Y-17.2575
G01 X10.1272 Y-17.2575
G01 X10.1408 Y-17.2560
G01 X10.1539 Y-17.2518
G01 X10.1659 Y-17.2452
G01 X10.1764 Y-17.2364
G01 X10.1845 Y-17.2264
G01 X10.1910 Y-17.2143
G01 X10.1950 Y-17.2012
G01 X10.1963 Y-17.1884
G01 X10.1963 Y-15.9675
G01 X10.1950 Y-15.9538
G01 X10.1910 Y-15.9407
G01 X10.1845 Y-15.9286
G01 X10.1752 Y-15.9174
G01 X10.1652 Y-15.9093
G01 X10.1531 Y-15.9028
G01 X10.1400 Y-15.8988
G01 X10.1272 Y-15.8975
G01 X9.1063 Y-15.8975
G01 X9.0943 Y-15.8985
G01 X9.0852 Y-15.9008
G01 X9.0756 Y-15.9046
G01 X9.0674 Y-15.9093
G01 X9.0593 Y-15.9156
G01 X9.0522 Y-15.9231
G01 X9.0463 Y-15.9315
G01 X9.0416 Y-15.9407
G01 X9.0386 Y-15.9497
G01 X9.0369 Y-15.9581
G01 X9.0363 Y-15.9666
G01 X9.0363 Y-16.1188
G00 Z2.0000
G00 X8.8963 Y-16.9498
G01 F70.00
G01 Z-0.0600
G01 F120.00
G01 X8.8963 Y-16.8871
G01 X8.8349 Y-16.8732
G01 X8.8530 Y-16.8890
G01 X8.8703 Y-16.9081
G01 X8.8851 Y-16.9291
G01 X8.8963 Y-16.9498
G00 Z2.0000
G00 X9.0169 Y-17.3775
G01 F70.00
G01 Z-0.0600
G01 F120.00
G01 X9.0006 Y-17.3689
G01 X8.9854 Y-17.3592
G01 X8.9711 Y-17.3482
G01 X8.9578 Y-17.3360
G01 X8.9456 Y-17.3227
G01 X8.9346 Y-17.3084
G01 X8.9249 Y-17.2932
G01 X8.9163 Y-17.2769
G01 X8.9163 Y-17.3775
G01 X9.0169 Y-17.3775
G00 Z2.0000
G00 X9.4021 Y-18.0788
G01 F70.00
G01 Z-0.0600
G01 F120.00
G01 X8.7088 Y-18.0788
G01 X8.7088 Y-18.9221
G01 X8.9688 Y-18.9221
G01 X8.9688 Y-18.4079
G01 X8.9709 Y-18.3918
G01 X8.9767 Y-18.3766
G01 X8.9811 Y-18.3692
G01 X8.9869 Y-18.3618
G01 X8.9931 Y-18.3558
G01 X8.9999 Y-18.3506
G01 X9.0073 Y-18.3463
G01 X9.0152 Y-18.3429
G01 X9.0243 Y-18.3403
G01 X9.0328 Y-18.3391
G01 X9.4021 Y-18.3388
G01 X9.4021 Y-18.0788
G00 Z2.0000
G00 X9.3321 Y-18.1488
G01 F70.00
G01 Z-0.0600
G01 F120.00
G01 X8.7788 Y-18.1488
G01 X8.7788 Y-18.8521
G01 X8.8988 Y-18.8521
G01 X8.8991 Y-18.4002
G01 X8.9018 Y-18.3798
G01 X8.9082 Y-18.3584
G01 X8.9170 Y-18.3398
G01 X8.9284 Y-18.3227
G01 X8.9374 Y-18.3123
G01 X8.9474 Y-18.3028
G01 X8.9582 Y-18.2943
G01 X8.9698 Y-18.2870
G01 X8.9821 Y-18.2808
G01 X8.9949 Y-18.2759
G01 X9.0065 Y-18.2726
G01 X9.0200 Y-18.2701
G01 X9.0388 Y-18.2688
G01 X9.3321 Y-18.2688
G01 X9.3321 Y-18.1488
G00 Z2.0000
G00 X8.8488 Y-18.3194
G01 F70.00
G01 Z-0.0600
G01 F120.00
G01 X8.8574 Y-18.3031
G01 X8.8671 Y-18.2879
G01 X8.8781 Y-18.2736
G01 X8.8903 Y-18.2603
G01 X8.9036 Y-18.2481
G01 X8.9179 Y-18.2371
G01 X8.9331 Y-18.2274
G01 X8.9494 Y-18.2188
G01 X8.8488 Y-18.2188
G01 X8.8488 Y-18.3194
G00 Z2.0000
G00 X8.0917 Y-18.6508
G01 F70.00
G01 Z-0.0600
G01 F120.00
G01 X8.0831 Y-18.6671
G01 X8.0734 Y-18.6823
G01 X8.0624 Y-18.6966
G01 X8.0502 Y-18.7099
G01 X8.0369 Y-18.7221
G01 X8.0226 Y-18.7331
G01 X8.0074 Y-18.7428
G01 X7.9911 Y-18.7514
G01 X8.0917 Y-18.7514
G01 X8.0917 Y-18.6508
G00 Z2.0000
G00 X7.6578 Y-18.7714
G01 F70.00
G01 Z-0.0600
G01 F120.00
G01 X7.5579 Y-18.7714
G01 X7.5574 Y-18.8715
G01 X7.5661 Y-18.8551
G01 X7.5759 Y-18.8400
G01 X7.5869 Y-18.8258
G01 X7.5991 Y-18.8126
G01 X7.6123 Y-18.8004
G01 X7.6266 Y-18.7895
G01 X7.6417 Y-18.7798
G01 X7.6578 Y-18.7714
G00 Z2.0000
G00 X7.5555 Y-19.2781
G01 F70.00
G01 Z-0.0600
G01 F120.00
G01 X7.5551 Y-19.3800
G01 X7.6567 Y-19.3800
G01 X7.6401 Y-19.3713
G01 X7.6249 Y-19.3615
G01 X7.6106 Y-19.3504
G01 X7.5973 Y-19.3382
G01 X7.5851 Y-19.3248
G01 X7.5741 Y-19.3104
G01 X7.5644 Y-19.2952
G01 X7.5555 Y-19.2781
G00 Z2.0000
G00 X7.9804 Y-19.4000
G01 F70.00
G01 Z-0.0600
G01 F120.00
G01 X7.9967 Y-19.4086
G01 X8.0119 Y-19.4183
G01 X8.0262 Y-19.4293
G01 X8.0395 Y-19.4415
G01 X8.0517 Y-19.4548
G01 X8.0627 Y-19.4691
G01 X8.0724 Y-19.4843
G01 X8.0810 Y-19.5006
G01 X8.0810 Y-19.4000
G01 X7.9804 Y-19.4000
G00 Z2.0000
G00 X8.7088 Y-19.4954
G01 F70.00
G01 Z-0.0600
G01 F120.00
G01 X8.7088 Y-20.3388
G01 X9.4021 Y-20.3388
G01 X9.4021 Y-20.0788
G01 X9.0328 Y-20.0785
G01 X9.0243 Y-20.0773
G01 X9.0160 Y-20.0750
G01 X9.0073 Y-20.0713
G01 X8.9999 Y-20.0670
G01 X8.9931 Y-20.0618
G01 X8.9869 Y-20.0558
G01 X8.9811 Y-20.0484
G01 X8.9767 Y-20.0410
G01 X8.9709 Y-20.0258
G01 X8.9688 Y-20.0097
G01 X8.9688 Y-19.4954
G01 X8.7088 Y-19.4954
G00 Z2.0000
G00 X8.7788 Y-19.5654
G01 F70.00
G01 Z-0.0600
G01 F120.00
G01 X8.7788 Y-20.2688
G01 X9.3321 Y-20.2688
G01 X9.3321 Y-20.1488
G01 X9.0388 Y-20.1488
G01 X9.0200 Y-20.1475
G01 X9.0065 Y-20.1450
G01 X8.9949 Y-20.1417
G01 X8.9821 Y-20.1368
G01 X8.9698 Y-20.1306
G01 X8.9582 Y-20.1233
G01 X8.9474 Y-20.1148
G01 X8.9374 Y-20.1053
G01 X8.9284 Y-20.0949
G01 X8.9170 Y-20.0778
G01 X8.9082 Y-20.0592
G01 X8.9018 Y-20.0378
G01 X8.8991 Y-20.0174
G01 X8.8988 Y-19.5654
G01 X8.7788 Y-19.5654
G00 Z2.0000
G00 X8.8488 Y-20.0982
G01 F70.00
G01 Z-0.0600
G01 F120.00
G01 X8.8488 Y-20.1988
G01 X8.9494 Y-20.1988
G01 X8.9331 Y-20.1902
G01 X8.9179 Y-20.1805
G01 X8.9036 Y-20.1695
G01 X8.8903 Y-20.1573
G01 X8.8781 Y-20.1440
G01 X8.8671 Y-20.1297
G01 X8.8574 Y-20.1145
G01 X8.8488 Y-20.0982
G00 Z2.0000
G00 X9.4021 Y-20.7188
G01 F70.00
G01 Z-0.0600
G01 F120.00
G01 X8.7088 Y-20.7188
G01 X8.7088 Y-21.4621
G01 X8.9688 Y-21.4621
G01 X8.9688 Y-21.0471
G01 X8.9697 Y-21.0377
G01 X8.9716 Y-21.0293
G01 X8.9745 Y-21.0212
G01 X8.9783 Y-21.0136
G01 X8.9881 Y-21.0005
G01 X8.9944 Y-20.9947
G01 X9.0014 Y-20.9897
G01 X9.0160 Y-20.9826
G01 X9.0243 Y-20.9803
G01 X9.0328 Y-20.9791
G01 X9.4021 Y-20.9788
G01 X9.4021 Y-20.7188
G00 Z2.0000
G00 X9.3321 Y-20.7888
G01 F70.00
G01 Z-0.0600
G01 F120.00
G01 X8.7788 Y-20.7888
G01 X8.7788 Y-21.3921
G01 X8.8988 Y-21.3921
G01 X8.8993 Y-21.0368
G01 X8.9030 Y-21.0148
G01 X8.9101 Y-20.9936
G01 X8.9153 Y-20.9828
G01 X8.9214 Y-20.9725
G01 X8.9351 Y-20.9548
G01 X8.9448 Y-20.9451
G01 X8.9540 Y-20.9374
G01 X8.9639 Y-20.9305
G01 X8.9759 Y-20.9237
G01 X8.9868 Y-20.9188
G01 X8.9982 Y-20.9148
G01 X9.0098 Y-20.9118
G01 X9.0234 Y-20.9097
G01 X9.0388 Y-20.9088
G01 X9.3321 Y-20.9088
G01 X9.3321 Y-20.7888
G00 Z2.0000
G00 X8.8488 Y-20.9594
G01 F70.00
G01 Z-0.0600
G01 F120.00
G01 X8.8574 Y-20.9431
G01 X8.8671 Y-20.9279
G01 X8.8781 Y-20.9136
G01 X8.8903 Y-20.9003
G01 X8.9036 Y-20.8881
G01 X8.9179 Y-20.8771
G01 X8.9331 Y-20.8674
G01 X8.9494 Y-20.8588
G01 X8.8488 Y-20.8588
G01 X8.8488 Y-20.9594
G00 Z2.0000
G00 X8.0310 Y-20.8900
G01 F70.00
G01 Z-0.0600
G01 F120.00
G01 X8.0310 Y-19.5883
G01 X8.0303 Y-19.5763
G01 X8.0286 Y-19.5644
G01 X8.0255 Y-19.5510
G01 X8.0216 Y-19.5396
G01 X8.0136 Y-19.5225
G01 X8.0034 Y-19.5066
G01 X7.9912 Y-19.4922
G01 X7.9785 Y-19.4807
G01 X7.9630 Y-19.4699
G01 X7.9477 Y-19.4620
G01 X7.9316 Y-19.4560
G01 X7.9132 Y-19.4518
G01 X7.8910 Y-19.4500
G01 X7.4848 Y-19.4500
G01 X7.4882 Y-18.7014
G01 X7.9017 Y-18.7014
G01 X7.9154 Y-18.7007
G01 X7.9290 Y-18.6987
G01 X7.9489 Y-18.6932
G01 X7.9677 Y-18.6849
G01 X7.9837 Y-18.6749
G01 X7.9995 Y-18.6616
G01 X8.0131 Y-18.6462
G01 X8.0235 Y-18.6304
G01 X8.0323 Y-18.6118
G01 X8.0383 Y-18.5921
G01 X8.0408 Y-18.5768
G01 X8.0417 Y-18.5614
G01 X8.0416 Y-17.2562
G01 X8.0402 Y-17.2409
G01 X8.0371 Y-17.2257
G01 X8.0323 Y-17.2110
G01 X8.0260 Y-17.1969
G01 X8.0181 Y-17.1836
G01 X8.0088 Y-17.1713
G01 X7.9982 Y-17.1600
G01 X7.9878 Y-17.1510
G01 X7.9692 Y-17.1388
G01 X7.9584 Y-17.1334
G01 X7.9472 Y-17.1290
G01 X7.9256 Y-17.1235
G01 X7.9034 Y-17.1214
G01 X6.2983 Y-17.1214
G01 X6.2795 Y-17.1232
G01 X6.2611 Y-17.1274
G01 X6.2450 Y-17.1334
G01 X6.2283 Y-17.1422
G01 X6.2129 Y-17.1532
G01 X6.2003 Y-17.1649
G01 X6.1893 Y-17.1780
G01 X6.1791 Y-17.1939
G01 X6.1717 Y-17.2094
G01 X6.1663 Y-17.2257
G01 X6.1630 Y-17.2426
G01 X6.1617 Y-17.2597
G01 X6.1617 Y-18.5614
G01 X6.1628 Y-18.5785
G01 X6.1655 Y-18.5937
G01 X6.1717 Y-18.6134
G01 X6.1799 Y-18.6304
G01 X6.1913 Y-18.6475
G01 X6.2039 Y-18.6616
G01 X6.2183 Y-18.6738
G01 X6.2357 Y-18.6849
G01 X6.2545 Y-18.6932
G01 X6.2744 Y-18.6987
G01 X6.2863 Y-18.7005
G01 X6.3000 Y-18.7014
G01 X6.7079 Y-18.7014
G01 X6.7045 Y-19.4500
G01 X6.6339 Y-19.4500
G01 X5.5058 Y-18.6705
G01 X5.5055 Y-17.7556
G01 X5.5037 Y-17.7403
G01 X5.4998 Y-17.7236
G01 X5.4938 Y-17.7075
G01 X5.4868 Y-17.6937
G01 X5.4772 Y-17.6794
G01 X5.4672 Y-17.6677
G01 X5.4559 Y-17.6571
G01 X5.4421 Y-17.6468
G01 X5.4241 Y-17.6369
G01 X5.4064 Y-17.6302
G01 X5.3863 Y-17.6257
G01 X5.3675 Y-17.6242
G01 X4.0624 Y-17.6242
G01 X4.0470 Y-17.6255
G01 X4.0318 Y-17.6284
G01 X4.0170 Y-17.6330
G01 X4.0029 Y-17.6391
G01 X3.9895 Y-17.6468
G01 X3.9770 Y-17.6560
G01 X3.9656 Y-17.6664
G01 X3.9554 Y-17.6781
G01 X3.9432 Y-17.6967
G01 X3.9340 Y-17.7170
G01 X3.9282 Y-17.7386
G01 X3.9258 Y-17.7608
G01 X3.9258 Y-19.1659
G01 X3.9269 Y-19.1813
G01 X3.9296 Y-19.1965
G01 X3.9340 Y-19.2114
G01 X3.9400 Y-19.2256
G01 X3.9484 Y-19.2405
G01 X3.9576 Y-19.2530
G01 X3.9680 Y-19.2644
G01 X3.9797 Y-19.2746
G01 X3.9983 Y-19.2868
G01 X4.0186 Y-19.2960
G01 X4.0402 Y-19.3018
G01 X4.0624 Y-19.3042
G01 X5.0503 Y-19.3042
G01 X6.1510 Y-20.0647
G01 X6.1510 Y-20.8900
G01 X6.1515 Y-20.9020
G01 X6.1544 Y-20.9207
G01 X6.1604 Y-20.9404
G01 X6.1684 Y-20.9575
G01 X6.1786 Y-20.9734
G01 X6.1908 Y-20.9878
G01 X6.2049 Y-21.0004
G01 X6.2220 Y-21.0118
G01 X6.2390 Y-21.0200
G01 X6.2520 Y-21.0245
G01 X6.2654 Y-21.0276
G01 X6.2790 Y-21.0295
G01 X6.2910 Y-21.0300
G01 X7.9013 Y-21.0296
G01 X7.9149 Y-21.0279
G01 X7.9283 Y-21.0249
G01 X7.9398 Y-21.0212
G01 X7.9524 Y-21.0158
G01 X7.9644 Y-21.0092
G01 X7.9744 Y-21.0024
G01 X7.9837 Y-20.9949
G01 X7.9936 Y-20.9853
G01 X8.0024 Y-20.9748
G01 X8.0102 Y-20.9634
G01 X8.0168 Y-20.9514
G01 X8.0216 Y-20.9404
G01 X8.0255 Y-20.9290
G01 X8.0286 Y-20.9156
G01 X8.0303 Y-20.9037
G01 X8.0310 Y-20.8900
G00 Z2.0000
G00 X7.9610 Y-20.8900
G01 F70.00
G01 Z-0.0600
G01 F120.00
G01 X7.9610 Y-19.5900
G01 X7.9597 Y-19.5763
G01 X7.9560 Y-19.5640
G01 X7.9519 Y-19.5555
G01 X7.9462 Y-19.5469
G01 X7.9399 Y-19.5399
G01 X7.9327 Y-19.5338
G01 X7.9248 Y-19.5287
G01 X7.9154 Y-19.5244
G01 X7.9063 Y-19.5217
G01 X7.8970 Y-19.5203
G01 X7.4144 Y-19.5200
G01 X7.4185 Y-18.6314
G01 X7.9086 Y-18.6311
G01 X7.9187 Y-18.6293
G01 X7.9293 Y-18.6257
G01 X7.9391 Y-18.6205
G01 X7.9481 Y-18.6138
G01 X7.9558 Y-18.6058
G01 X7.9622 Y-18.5966
G01 X7.9670 Y-18.5866
G01 X7.9700 Y-18.5767
G01 X7.9717 Y-18.5614
G01 X7.9717 Y-17.2605
G01 X7.9698 Y-17.2452
G01 X7.9646 Y-17.2307
G01 X7.9564 Y-17.2177
G01 X7.9454 Y-17.2067
G01 X7.9355 Y-17.2001
G01 X7.9253 Y-17.1955
G01 X7.9137 Y-17.1924
G01 X7.9026 Y-17.1914
G01 X6.3008 Y-17.1914
G01 X6.2914 Y-17.1922
G01 X6.2822 Y-17.1942
G01 X6.2733 Y-17.1974
G01 X6.2650 Y-17.2018
G01 X6.2573 Y-17.2073
G01 X6.2504 Y-17.2138
G01 X6.2440 Y-17.2218
G01 X6.2392 Y-17.2299
G01 X6.2336 Y-17.2452
G01 X6.2317 Y-17.2614
G01 X6.2317 Y-18.5614
G01 X6.2336 Y-18.5776
G01 X6.2370 Y-18.5882
G01 X6.2417 Y-18.5974
G01 X6.2476 Y-18.6058
G01 X6.2553 Y-18.6138
G01 X6.2643 Y-18.6205
G01 X6.2741 Y-18.6257
G01 X6.2847 Y-18.6293
G01 X6.2948 Y-18.6311
G01 X6.7783 Y-18.6314
G01 X6.7742 Y-19.5200
G01 X6.6121 Y-19.5200
G01 X5.4358 Y-18.7073
G01 X5.4358 Y-17.7616
G01 X5.4349 Y-17.7531
G01 X5.4330 Y-17.7447
G01 X5.4267 Y-17.7297
G01 X5.4220 Y-17.7225
G01 X5.4165 Y-17.7159
G01 X5.4040 Y-17.7055
G01 X5.3957 Y-17.7009
G01 X5.3861 Y-17.6972
G01 X5.3761 Y-17.6950
G01 X5.3667 Y-17.6942
G01 X4.0649 Y-17.6942
G01 X4.0496 Y-17.6961
G01 X4.0351 Y-17.7013
G01 X4.0221 Y-17.7095
G01 X4.0111 Y-17.7205
G01 X4.0045 Y-17.7304
G01 X3.9999 Y-17.7406
G01 X3.9970 Y-17.7514
G01 X3.9958 Y-17.7633
G01 X3.9958 Y-19.1651
G01 X3.9977 Y-19.1804
G01 X4.0029 Y-19.1949
G01 X4.0111 Y-19.2079
G01 X4.0221 Y-19.2189
G01 X4.0313 Y-19.2251
G01 X4.0422 Y-19.2301
G01 X4.0538 Y-19.2332
G01 X4.0649 Y-19.2342
G01 X5.0721 Y-19.2342
G01 X6.2210 Y-20.0280
G01 X6.2211 Y-20.8934
G01 X6.2222 Y-20.9028
G01 X6.2245 Y-20.9120
G01 X6.2281 Y-20.9207
G01 X6.2333 Y-20.9296
G01 X6.2391 Y-20.9370
G01 X6.2466 Y-20.9441
G01 X6.2543 Y-20.9496
G01 X6.2634 Y-20.9543
G01 X6.2773 Y-20.9587
G01 X6.2910 Y-20.9600
G01 X7.8936 Y-20.9600
G01 X7.9072 Y-20.9581
G01 X7.9194 Y-20.9540
G01 X7.9306 Y-20.9477
G01 X7.9411 Y-20.9389
G01 X7.9497 Y-20.9282
G01 X7.9557 Y-20.9168
G01 X7.9597 Y-20.9037
G01 X7.9610 Y-20.8900
G00 Z2.0000
G00 X8.7088 Y-22.0354
G01 F70.00
G01 Z-0.0600
G01 F120.00
G01 X8.7088 Y-22.7788
G01 X9.4021 Y-22.7788
G01 X9.4021 Y-22.5188
G01 X9.0328 Y-22.5185
G01 X9.0243 Y-22.5173
G01 X9.0160 Y-22.5150
G01 X9.0014 Y-22.5079
G01 X8.9887 Y-22.4977
G01 X8.9831 Y-22.4912
G01 X8.9783 Y-22.4840
G01 X8.9745 Y-22.4764
G01 X8.9716 Y-22.4683
G01 X8.9697 Y-22.4599
G01 X8.9688 Y-22.4505
G01 X8.9688 Y-22.0354
G01 X8.7088 Y-22.0354
G00 Z2.0000
G00 X8.7788 Y-22.1054
G01 F70.00
G01 Z-0.0600
G01 F120.00
G01 X8.7788 Y-22.7088
G01 X9.3321 Y-22.7088
G01 X9.3321 Y-22.5888
G01 X9.0388 Y-22.5888
G01 X9.0234 Y-22.5879
G01 X9.0098 Y-22.5858
G01 X8.9982 Y-22.5828
G01 X8.9868 Y-22.5788
G01 X8.9759 Y-22.5739
G01 X8.9639 Y-22.5671
G01 X8.9540 Y-22.5602
G01 X8.9448 Y-22.5525
G01 X8.9351 Y-22.5428
G01 X8.9214 Y-22.5251
G01 X8.9153 Y-22.5148
G01 X8.9101 Y-22.5040
G01 X8.9030 Y-22.4828
G01 X8.8993 Y-22.4608
G01 X8.8988 Y-22.1054
G01 X8.7788 Y-22.1054
G00 Z2.0000
G00 X8.8488 Y-22.5382
G01 F70.00
G01 Z-0.0600
G01 F120.00
G01 X8.8488 Y-22.6388
G01 X8.9494 Y-22.6388
G01 X8.9331 Y-22.6302
G01 X8.9179 Y-22.6205
G01 X8.9036 Y-22.6095
G01 X8.8903 Y-22.5973
G01 X8.8781 Y-22.5840
G01 X8.8671 Y-22.5697
G01 X8.8574 Y-22.5545
G01 X8.8488 Y-22.5382
G00 Z2.0000
G00 X8.0810 Y-22.8794
G01 F70.00
G01 Z-0.0600
G01 F120.00
G01 X8.0724 Y-22.8957
G01 X8.0627 Y-22.9109
G01 X8.0517 Y-22.9252
G01 X8.0395 Y-22.9385
G01 X8.0262 Y-22.9507
G01 X8.0119 Y-22.9617
G01 X7.9967 Y-22.9714
G01 X7.9804 Y-22.9800
G01 X8.0810 Y-22.9800
G01 X8.0810 Y-22.8794
G00 Z2.0000
G00 X8.8488 Y-23.4994
G01 F70.00
G01 Z-0.0600
G01 F120.00
G01 X8.8574 Y-23.4831
G01 X8.8671 Y-23.4679
G01 X8.8781 Y-23.4536
G01 X8.8903 Y-23.4403
G01 X8.9036 Y-23.4281
G01 X8.9179 Y-23.4171
G01 X8.9331 Y-23.4074
G01 X8.9494 Y-23.3988
G01 X8.8488 Y-23.3988
G01 X8.8488 Y-23.4994
G00 Z2.0000
G00 X9.3321 Y-23.3288
G01 F70.00
G01 Z-0.0600
G01 F120.00
G01 X8.7788 Y-23.3288
G01 X8.7788 Y-23.9321
G01 X8.8988 Y-23.9321
G01 X8.8993 Y-23.5768
G01 X8.9030 Y-23.5548
G01 X8.9101 Y-23.5336
G01 X8.9153 Y-23.5228
G01 X8.9214 Y-23.5125
G01 X8.9351 Y-23.4948
G01 X8.9448 Y-23.4851
G01 X8.9540 Y-23.4774
G01 X8.9639 Y-23.4705
G01 X8.9759 Y-23.4637
G01 X8.9868 Y-23.4588
G01 X8.9982 Y-23.4548
G01 X9.0098 Y-23.4518
G01 X9.0234 Y-23.4497
G01 X9.0388 Y-23.4488
G01 X9.3321 Y-23.4488
G01 X9.3321 Y-23.3288
G00 Z2.0000
G00 X9.4021 Y-23.2588
G01 F70.00
G01 Z-0.0600
G01 F120.00
G01 X8.7088 Y-23.2588
G01 X8.7088 Y-24.0021
G01 X8.9688 Y-24.0021
G01 X8.9688 Y-23.5871
G01 X8.9697 Y-23.5777
G01 X8.9716 Y-23.5693
G01 X8.9745 Y-23.5612
G01 X8.9783 Y-23.5536
G01 X8.9881 Y-23.5405
G01 X8.9944 Y-23.5347
G01 X9.0014 Y-23.5297
G01 X9.0160 Y-23.5226
G01 X9.0243 Y-23.5203
G01 X9.0328 Y-23.5191
G01 X9.4021 Y-23.5188
G01 X9.4021 Y-23.2588
G00 Z2.0000
G00 X9.9754 Y-23.2588
G01 F70.00
G01 Z-0.0600
G01 F120.00
G01 X9.9754 Y-23.5188
G01 X10.3388 Y-23.5188
G01 X10.3499 Y-23.5197
G01 X10.3624 Y-23.5229
G01 X10.3733 Y-23.5279
G01 X10.3839 Y-23.5352
G01 X10.3924 Y-23.5437
G01 X10.3993 Y-23.5536
G01 X10.4044 Y-23.5644
G01 X10.4076 Y-23.5760
G01 X10.4088 Y-23.5888
G01 X10.4088 Y-24.9888
G01 X10.4083 Y-24.9974
G01 X10.4067 Y-25.0058
G01 X10.4035 Y-25.0156
G01 X10.3984 Y-25.0255
G01 X10.3924 Y-25.0339
G01 X10.3852 Y-25.0412
G01 X10.3770 Y-25.0475
G01 X10.3672 Y-25.0528
G01 X10.3575 Y-25.0563
G01 X10.3474 Y-25.0583
G01 X10.3388 Y-25.0588
G01 X9.9754 Y-25.0588
G01 X9.9754 Y-25.3188
G01 X12.5688 Y-25.3188
G01 X12.5688 Y-23.2588
G01 X12.3066 Y-23.2588
G01 X12.2921 Y-23.2573
G01 X12.2806 Y-23.2538
G01 X12.2699 Y-23.2484
G01 X12.2603 Y-23.2412
G01 X12.2525 Y-23.2332
G01 X12.2461 Y-23.2240
G01 X12.2410 Y-23.2132
G01 X12.2378 Y-23.2016
G01 X12.2366 Y-23.1897
G01 X12.2367 Y-22.8462
G01 X12.2380 Y-22.8351
G01 X12.2410 Y-22.8244
G01 X12.2457 Y-22.8143
G01 X12.2520 Y-22.8051
G01 X12.2616 Y-22.7952
G01 X12.2736 Y-22.7871
G01 X12.2871 Y-22.7816
G01 X12.3006 Y-22.7791
G01 X12.5688 Y-22.7788
G01 X12.5688 Y-20.7188
G01 X12.3066 Y-20.7188
G01 X12.2921 Y-20.7173
G01 X12.2806 Y-20.7138
G01 X12.2699 Y-20.7084
G01 X12.2603 Y-20.7012
G01 X12.2525 Y-20.6932
G01 X12.2461 Y-20.6840
G01 X12.2410 Y-20.6732
G01 X12.2378 Y-20.6616
G01 X12.2366 Y-20.6497
G01 X12.2368 Y-20.4037
G01 X12.2389 Y-20.3910
G01 X12.2433 Y-20.3789
G01 X12.2504 Y-20.3671
G01 X12.2590 Y-20.3575
G01 X12.2685 Y-20.3501
G01 X12.2790 Y-20.3445
G01 X12.2905 Y-20.3407
G01 X12.3023 Y-20.3389
G01 X12.5688 Y-20.3388
G01 X12.5688 Y-18.0788
G01 X12.3066 Y-18.0788
G01 X12.2921 Y-18.0773
G01 X12.2806 Y-18.0738
G01 X12.2699 Y-18.0684
G01 X12.2603 Y-18.0612
G01 X12.2525 Y-18.0532
G01 X12.2461 Y-18.0440
G01 X12.2410 Y-18.0332
G01 X12.2378 Y-18.0216
G01 X12.2366 Y-18.0097
G01 X12.2366 Y-17.5866
G01 X12.2373 Y-17.5781
G01 X12.2389 Y-17.5697
G01 X12.2449 Y-17.5545
G01 X12.2542 Y-17.5411
G01 X12.2663 Y-17.5303
G01 X12.2806 Y-17.5225
G01 X12.2964 Y-17.5183
G01 X12.3066 Y-17.5175
G01 X12.4963 Y-17.5175
G01 X12.4963 Y-15.6375
G01 X10.8163 Y-15.6375
G01 X10.8163 Y-17.5175
G01 X11.0060 Y-17.5175
G01 X11.0162 Y-17.5183
G01 X11.0320 Y-17.5225
G01 X11.0397 Y-17.5262
G01 X11.0470 Y-17.5308
G01 X11.0536 Y-17.5362
G01 X11.0595 Y-17.5424
G01 X11.0685 Y-17.5560
G01 X11.0741 Y-17.5713
G01 X11.0760 Y-17.5866
G01 X11.0760 Y-18.0097
G01 X11.0749 Y-18.0208
G01 X11.0722 Y-18.0316
G01 X11.0677 Y-18.0418
G01 X11.0622 Y-18.0505
G01 X11.0555 Y-18.0583
G01 X11.0477 Y-18.0650
G01 X11.0390 Y-18.0705
G01 X11.0296 Y-18.0747
G01 X11.0196 Y-18.0775
G01 X11.0094 Y-18.0787
G01 X9.9754 Y-18.0788
G01 X9.9754 Y-18.3388
G01 X10.3388 Y-18.3388
G01 X10.3499 Y-18.3397
G01 X10.3624 Y-18.3429
G01 X10.3733 Y-18.3479
G01 X10.3839 Y-18.3552
G01 X10.3924 Y-18.3637
G01 X10.3993 Y-18.3736
G01 X10.4044 Y-18.3844
G01 X10.4076 Y-18.3960
G01 X10.4088 Y-18.4088
G01 X10.4088 Y-20.0088
G01 X10.4071 Y-20.0241
G01 X10.4041 Y-20.0340
G01 X10.3993 Y-20.0440
G01 X10.3929 Y-20.0532
G01 X10.3858 Y-20.0607
G01 X10.3770 Y-20.0675
G01 X10.3680 Y-20.0724
G01 X10.3583 Y-20.0760
G01 X10.3474 Y-20.0783
G01 X10.3388 Y-20.0788
G01 X9.9754 Y-20.0788
G01 X9.9754 Y-20.3388
G01 X11.0103 Y-20.3389
G01 X11.0230 Y-20.3409
G01 X11.0359 Y-20.3455
G01 X11.0470 Y-20.3521
G01 X11.0567 Y-20.3605
G01 X11.0651 Y-20.3714
G01 X11.0710 Y-20.3828
G01 X11.0748 Y-20.3960
G01 X11.0760 Y-20.4088
G01 X11.0760 Y-20.6488
G01 X11.0751 Y-20.6599
G01 X11.0727 Y-20.6699
G01 X11.0693 Y-20.6787
G01 X11.0642 Y-20.6877
G01 X11.0578 Y-20.6958
G01 X11.0510 Y-20.7024
G01 X11.0427 Y-20.7084
G01 X11.0336 Y-20.7131
G01 X11.0246 Y-20.7163
G01 X11.0154 Y-20.7182
G01 X11.0060 Y-20.7188
G01 X9.9754 Y-20.7188
G01 X9.9754 Y-20.9788
G01 X10.3388 Y-20.9788
G01 X10.3499 Y-20.9797
G01 X10.3624 Y-20.9829
G01 X10.3733 Y-20.9879
G01 X10.3839 Y-20.9952
G01 X10.3924 Y-21.0037
G01 X10.3993 Y-21.0136
G01 X10.4044 Y-21.0244
G01 X10.4076 Y-21.0360
G01 X10.4088 Y-21.0488
G01 X10.4088 Y-22.4488
G01 X10.4083 Y-22.4574
G01 X10.4067 Y-22.4658
G01 X10.4035 Y-22.4756
G01 X10.3984 Y-22.4855
G01 X10.3924 Y-22.4939
G01 X10.3852 Y-22.5012
G01 X10.3770 Y-22.5075
G01 X10.3672 Y-22.5128
G01 X10.3575 Y-22.5163
G01 X10.3474 Y-22.5183
G01 X10.3388 Y-22.5188
G01 X9.9754 Y-22.5188
G01 X9.9754 Y-22.7788
G01 X11.0060 Y-22.7788
G01 X11.0188 Y-22.7800
G01 X11.0320 Y-22.7838
G01 X11.0405 Y-22.7879
G01 X11.0490 Y-22.7936
G01 X11.0561 Y-22.7999
G01 X11.0622 Y-22.8071
G01 X11.0673 Y-22.8150
G01 X11.0713 Y-22.8236
G01 X11.0741 Y-22.8326
G01 X11.0757 Y-22.8428
G01 X11.0760 Y-23.1897
G01 X11.0748 Y-23.2016
G01 X11.0713 Y-23.2140
G01 X11.0669 Y-23.2233
G01 X11.0612 Y-23.2319
G01 X11.0542 Y-23.2395
G01 X11.0463 Y-23.2460
G01 X11.0374 Y-23.2513
G01 X11.0287 Y-23.2550
G01 X11.0188 Y-23.2576
G01 X11.0086 Y-23.2588
G01 X9.9754 Y-23.2588
G00 Z2.0000
G00 X10.0454 Y-23.3288
G01 F70.00
G01 Z-0.0600
G01 F120.00
G01 X10.0454 Y-23.4488
G01 X10.3422 Y-23.4488
G01 X10.3627 Y-23.4509
G01 X10.3811 Y-23.4553
G01 X10.4002 Y-23.4630
G01 X10.4194 Y-23.4743
G01 X10.4366 Y-23.4886
G01 X10.4512 Y-23.5054
G01 X10.4631 Y-23.5243
G01 X10.4717 Y-23.5449
G01 X10.4770 Y-23.5666
G01 X10.4788 Y-23.5888
G01 X10.4788 Y-24.9888
G01 X10.4777 Y-25.0059
G01 X10.4742 Y-25.0245
G01 X10.4681 Y-25.0424
G01 X10.4598 Y-25.0593
G01 X10.4492 Y-25.0749
G01 X10.4366 Y-25.0890
G01 X10.4222 Y-25.1012
G01 X10.4063 Y-25.1114
G01 X10.3892 Y-25.1194
G01 X10.3711 Y-25.1250
G01 X10.3559 Y-25.1277
G01 X10.3405 Y-25.1288
G01 X10.0454 Y-25.1288
G01 X10.0454 Y-25.2488
G01 X12.4988 Y-25.2488
G01 X12.4988 Y-23.3288
G01 X12.2998 Y-23.3286
G01 X12.2878 Y-23.3275
G01 X12.2760 Y-23.3254
G01 X12.2643 Y-23.3223
G01 X12.2530 Y-23.3181
G01 X12.2347 Y-23.3089
G01 X12.2191 Y-23.2981
G01 X12.2041 Y-23.2841
G01 X12.1912 Y-23.2680
G01 X12.1808 Y-23.2502
G01 X12.1732 Y-23.2311
G01 X12.1684 Y-23.2110
G01 X12.1666 Y-23.1905
G01 X12.1669 Y-22.8402
G01 X12.1693 Y-22.8215
G01 X12.1742 Y-22.8033
G01 X12.1816 Y-22.7859
G01 X12.1912 Y-22.7696
G01 X12.1995 Y-22.7587
G01 X12.2089 Y-22.7486
G01 X12.2191 Y-22.7395
G01 X12.2303 Y-22.7314
G01 X12.2406 Y-22.7253
G01 X12.2530 Y-22.7195
G01 X12.2660 Y-22.7148
G01 X12.2793 Y-22.7115
G01 X12.2912 Y-22.7097
G01 X12.3049 Y-22.7088
G01 X12.4988 Y-22.7088
G01 X12.4988 Y-20.7888
G01 X12.2998 Y-20.7886
G01 X12.2878 Y-20.7875
G01 X12.2760 Y-20.7854
G01 X12.2643 Y-20.7823
G01 X12.2530 Y-20.7781
G01 X12.2347 Y-20.7689
G01 X12.2191 Y-20.7581
G01 X12.2041 Y-20.7441
G01 X12.1912 Y-20.7280
G01 X12.1808 Y-20.7102
G01 X12.1732 Y-20.6911
G01 X12.1684 Y-20.6710
G01 X12.1666 Y-20.6505
G01 X12.1666 Y-20.4088
G01 X12.1673 Y-20.3951
G01 X12.1712 Y-20.3731
G01 X12.1779 Y-20.3536
G01 X12.1874 Y-20.3354
G01 X12.2006 Y-20.3174
G01 X12.2101 Y-20.3074
G01 X12.2191 Y-20.2995
G01 X12.2288 Y-20.2924
G01 X12.2391 Y-20.2862
G01 X12.2499 Y-20.2808
G01 X12.2611 Y-20.2764
G01 X12.2726 Y-20.2730
G01 X12.2844 Y-20.2706
G01 X12.3049 Y-20.2688
G01 X12.4988 Y-20.2688
G01 X12.4988 Y-18.1488
G01 X12.2998 Y-18.1486
G01 X12.2878 Y-18.1475
G01 X12.2760 Y-18.1454
G01 X12.2643 Y-18.1423
G01 X12.2530 Y-18.1381
G01 X12.2347 Y-18.1289
G01 X12.2191 Y-18.1181
G01 X12.2041 Y-18.1041
G01 X12.1912 Y-18.0880
G01 X12.1808 Y-18.0702
G01 X12.1732 Y-18.0511
G01 X12.1684 Y-18.0310
G01 X12.1666 Y-18.0105
G01 X12.1667 Y-17.5841
G01 X12.1677 Y-17.5704
G01 X12.1704 Y-17.5552
G01 X12.1742 Y-17.5420
G01 X12.1793 Y-17.5292
G01 X12.1865 Y-17.5155
G01 X12.1942 Y-17.5041
G01 X12.2029 Y-17.4935
G01 X12.2139 Y-17.4826
G01 X12.2260 Y-17.4730
G01 X12.2376 Y-17.4657
G01 X12.2499 Y-17.4595
G01 X12.2627 Y-17.4546
G01 X12.2810 Y-17.4499
G01 X12.2998 Y-17.4477
G01 X12.4263 Y-17.4475
G01 X12.4263 Y-15.7075
G01 X10.8863 Y-15.7075
G01 X10.8863 Y-17.4475
G01 X11.0128 Y-17.4477
G01 X11.0316 Y-17.4499
G01 X11.0515 Y-17.4551
G01 X11.0643 Y-17.4602
G01 X11.0779 Y-17.4674
G01 X11.0907 Y-17.4761
G01 X11.1025 Y-17.4861
G01 X11.1131 Y-17.4974
G01 X11.1214 Y-17.5083
G01 X11.1294 Y-17.5215
G01 X11.1353 Y-17.5339
G01 X11.1399 Y-17.5469
G01 X11.1433 Y-17.5602
G01 X11.1453 Y-17.5738
G01 X11.1460 Y-17.5875
G01 X11.1460 Y-18.0105
G01 X11.1439 Y-18.0327
G01 X11.1384 Y-18.0543
G01 X11.1302 Y-18.0733
G01 X11.1194 Y-18.0908
G01 X11.1062 Y-18.1066
G01 X11.0921 Y-18.1192
G01 X11.0750 Y-18.1306
G01 X11.0564 Y-18.1394
G01 X11.0383 Y-18.1450
G01 X11.0180 Y-18.1483
G01 X11.0060 Y-18.1488
G01 X10.0454 Y-18.1488
G01 X10.0454 Y-18.2688
G01 X10.3422 Y-18.2688
G01 X10.3627 Y-18.2709
G01 X10.3811 Y-18.2753
G01 X10.4002 Y-18.2830
G01 X10.4194 Y-18.2943
G01 X10.4366 Y-18.3086
G01 X10.4512 Y-18.3254
G01 X10.4631 Y-18.3443
G01 X10.4717 Y-18.3649
G01 X10.4770 Y-18.3866
G01 X10.4788 Y-18.4088
G01 X10.4788 Y-20.0088
G01 X10.4779 Y-20.0242
G01 X10.4750 Y-20.0411
G01 X10.4694 Y-20.0592
G01 X10.4606 Y-20.0778
G01 X10.4502 Y-20.0936
G01 X10.4378 Y-20.1078
G01 X10.4236 Y-20.1202
G01 X10.4078 Y-20.1306
G01 X10.3908 Y-20.1388
G01 X10.3728 Y-20.1446
G01 X10.3576 Y-20.1475
G01 X10.3405 Y-20.1488
G01 X10.0454 Y-20.1488
G01 X10.0454 Y-20.2688
G01 X11.0060 Y-20.2688
G01 X11.0231 Y-20.2699
G01 X11.0350 Y-20.2718
G01 X11.0483 Y-20.2753
G01 X11.0611 Y-20.2801
G01 X11.0720 Y-20.2853
G01 X11.0823 Y-20.2914
G01 X11.0921 Y-20.2984
G01 X11.1025 Y-20.3074
G01 X11.1109 Y-20.3161
G01 X11.1184 Y-20.3254
G01 X11.1261 Y-20.3368
G01 X11.1325 Y-20.3489
G01 X11.1372 Y-20.3600
G01 X11.1414 Y-20.3731
G01 X11.1439 Y-20.3849
G01 X11.1455 Y-20.3968
G01 X11.1460 Y-20.4088
G01 X11.1460 Y-20.6505
G01 X11.1449 Y-20.6659
G01 X11.1418 Y-20.6828
G01 X11.1366 Y-20.6992
G01 X11.1294 Y-20.7148
G01 X11.1204 Y-20.7294
G01 X11.1097 Y-20.7428
G01 X11.0961 Y-20.7559
G01 X11.0823 Y-20.7662
G01 X11.0674 Y-20.7746
G01 X11.0515 Y-20.7812
G01 X11.0299 Y-20.7867
G01 X11.0077 Y-20.7888
G01 X10.0454 Y-20.7888
G01 X10.0454 Y-20.9088
G01 X10.3422 Y-20.9088
G01 X10.3627 Y-20.9109
G01 X10.3811 Y-20.9153
G01 X10.4002 Y-20.9230
G01 X10.4194 Y-20.9343
G01 X10.4366 Y-20.9486
G01 X10.4512 Y-20.9654
G01 X10.4631 Y-20.9843
G01 X10.4717 Y-21.0049
G01 X10.4770 Y-21.0266
G01 X10.4788 Y-21.0488
G01 X10.4788 Y-22.4488
G01 X10.4777 Y-22.4659
G01 X10.4742 Y-22.4845
G01 X10.4681 Y-22.5024
G01 X10.4598 Y-22.5193
G01 X10.4492 Y-22.5349
G01 X10.4366 Y-22.5490
G01 X10.4222 Y-22.5612
G01 X10.4063 Y-22.5714
G01 X10.3892 Y-22.5794
G01 X10.3711 Y-22.5850
G01 X10.3559 Y-22.5877
G01 X10.3405 Y-22.5888
G01 X10.0454 Y-22.5888
G01 X10.0454 Y-22.7088
G01 X11.0077 Y-22.7088
G01 X11.0231 Y-22.7099
G01 X11.0383 Y-22.7126
G01 X11.0531 Y-22.7170
G01 X11.0674 Y-22.7230
G01 X11.0823 Y-22.7314
G01 X11.0961 Y-22.7417
G01 X11.1085 Y-22.7535
G01 X11.1194 Y-22.7668
G01 X11.1286 Y-22.7813
G01 X11.1360 Y-22.7968
G01 X11.1414 Y-22.8131
G01 X11.1447 Y-22.8300
G01 X11.1460 Y-22.8488
G01 X11.1460 Y-23.1905
G01 X11.1453 Y-23.2025
G01 X11.1436 Y-23.2144
G01 X11.1409 Y-23.2261
G01 X11.1372 Y-23.2376
G01 X11.1294 Y-23.2548
G01 X11.1184 Y-23.2722
G01 X11.1050 Y-23.2878
G01 X11.0907 Y-23.3002
G01 X11.0735 Y-23.3114
G01 X11.0564 Y-23.3194
G01 X11.0383 Y-23.3250
G01 X11.0180 Y-23.3283
G01 X11.0060 Y-23.3288
G01 X10.0454 Y-23.3288
G00 Z2.0000
G00 X10.6858 Y-22.5688
G01 F70.00
G01 Z-0.0600
G01 F120.00
G01 X10.6740 Y-22.5399
G01 X10.6656 Y-22.5101
G01 X10.6605 Y-22.4797
G01 X10.6588 Y-22.4488
G01 X10.6588 Y-21.0454
G01 X10.6609 Y-21.0145
G01 X10.6664 Y-20.9841
G01 X10.6752 Y-20.9545
G01 X10.6858 Y-20.9288
G01 X10.5918 Y-20.9288
G01 X10.6036 Y-20.9577
G01 X10.6120 Y-20.9875
G01 X10.6171 Y-21.0179
G01 X10.6188 Y-21.0488
G01 X10.6188 Y-22.4522
G01 X10.6167 Y-22.4831
G01 X10.6112 Y-22.5135
G01 X10.6024 Y-22.5431
G01 X10.5918 Y-22.5688
G01 X10.6858 Y-22.5688
G00 Z2.0000
G00 X10.8494 Y-22.6388
G01 F70.00
G01 Z-0.0600
G01 F120.00
G01 X10.8243 Y-22.6248
G01 X10.8116 Y-22.6159
G01 X10.7997 Y-22.6061
G01 X10.7885 Y-22.5955
G01 X10.7781 Y-22.5840
G01 X10.7614 Y-22.5611
G01 X10.7479 Y-22.5363
G01 X10.7420 Y-22.5220
G01 X10.7371 Y-22.5073
G01 X10.7311 Y-22.4796
G01 X10.7294 Y-22.4642
G01 X10.7288 Y-22.4488
G01 X10.7288 Y-21.0488
G01 X10.7294 Y-21.0334
G01 X10.7328 Y-21.0078
G01 X10.7402 Y-20.9805
G01 X10.7512 Y-20.9544
G01 X10.7656 Y-20.9300
G01 X10.7832 Y-20.9078
G01 X10.8036 Y-20.8881
G01 X10.8265 Y-20.8714
G01 X10.8494 Y-20.8588
G01 X10.4282 Y-20.8588
G01 X10.4533 Y-20.8728
G01 X10.4660 Y-20.8817
G01 X10.4779 Y-20.8915
G01 X10.4891 Y-20.9021
G01 X10.4995 Y-20.9136
G01 X10.5162 Y-20.9365
G01 X10.5297 Y-20.9613
G01 X10.5356 Y-20.9756
G01 X10.5405 Y-20.9903
G01 X10.5442 Y-21.0053
G01 X10.5469 Y-21.0205
G01 X10.5488 Y-21.0488
G01 X10.5488 Y-22.4488
G01 X10.5482 Y-22.4642
G01 X10.5448 Y-22.4898
G01 X10.5374 Y-22.5171
G01 X10.5264 Y-22.5432
G01 X10.5120 Y-22.5676
G01 X10.4944 Y-22.5898
G01 X10.4740 Y-22.6095
G01 X10.4511 Y-22.6262
G01 X10.4282 Y-22.6388
G01 X10.8494 Y-22.6388
G00 Z2.0000
G00 X11.1962 Y-22.7598
G01 F70.00
G01 Z-0.0600
G01 F120.00
G01 X11.1962 Y-22.6588
G01 X11.0954 Y-22.6588
G01 X11.1117 Y-22.6674
G01 X11.1269 Y-22.6771
G01 X11.1412 Y-22.6881
G01 X11.1545 Y-22.7003
G01 X11.1667 Y-22.7136
G01 X11.1777 Y-22.7279
G01 X11.1874 Y-22.7431
G01 X11.1962 Y-22.7598
G00 Z2.0000
G00 X11.0954 Y-23.3788
G01 F70.00
G01 Z-0.0600
G01 F120.00
G01 X11.1962 Y-23.3788
G01 X11.1962 Y-23.2778
G01 X11.1874 Y-23.2945
G01 X11.1777 Y-23.3097
G01 X11.1667 Y-23.3240
G01 X11.1545 Y-23.3373
G01 X11.1412 Y-23.3495
G01 X11.1269 Y-23.3605
G01 X11.1117 Y-23.3702
G01 X11.0954 Y-23.3788
G00 Z2.0000
G00 X12.1164 Y-23.2778
G01 F70.00
G01 Z-0.0600
G01 F120.00
G01 X12.1164 Y-23.3788
G01 X12.2172 Y-23.3788
G01 X12.2009 Y-23.3702
G01 X12.1857 Y-23.3605
G01 X12.1714 Y-23.3495
G01 X12.1581 Y-23.3373
G01 X12.1459 Y-23.3240
G01 X12.1349 Y-23.3097
G01 X12.1252 Y-23.2945
G01 X12.1164 Y-23.2778
G00 Z2.0000
G00 X12.3282 Y-23.3988
G01 F70.00
G01 Z-0.0600
G01 F120.00
G01 X12.3445 Y-23.4074
G01 X12.3597 Y-23.4171
G01 X12.3740 Y-23.4281
G01 X12.3873 Y-23.4403
G01 X12.3995 Y-23.4536
G01 X12.4105 Y-23.4679
G01 X12.4202 Y-23.4831
G01 X12.4288 Y-23.4994
G01 X12.4288 Y-23.3988
G01 X12.3282 Y-23.3988
G00 Z2.0000
G00 X12.2172 Y-22.6588
G01 F70.00
G01 Z-0.0600
G01 F120.00
G01 X12.1164 Y-22.6588
G01 X12.1164 Y-22.7598
G01 X12.1252 Y-22.7431
G01 X12.1349 Y-22.7279
G01 X12.1459 Y-22.7136
G01 X12.1581 Y-22.7003
G01 X12.1714 Y-22.6881
G01 X12.1857 Y-22.6771
G01 X12.2009 Y-22.6674
G01 X12.2172 Y-22.6588
G00 Z2.0000
G00 X12.4288 Y-22.5382
G01 F70.00
G01 Z-0.0600
G01 F120.00
G01 X12.4202 Y-22.5545
G01 X12.4105 Y-22.5697
G01 X12.3995 Y-22.5840
G01 X12.3873 Y-22.5973
G01 X12.3740 Y-22.6095
G01 X12.3597 Y-22.6205
G01 X12.3445 Y-22.6302
G01 X12.3282 Y-22.6388
G01 X12.4288 Y-22.6388
G01 X12.4288 Y-22.5382
G00 Z2.0000
G00 X14.0127 Y-22.0137
G01 F70.00
G01 Z-0.0600
G01 F120.00
G01 X14.0127 Y-22.4349
G01 X14.0267 Y-22.4098
G01 X14.0356 Y-22.3971
G01 X14.0454 Y-22.3852
G01 X14.0560 Y-22.3740
G01 X14.0675 Y-22.3636
G01 X14.0904 Y-22.3469
G01 X14.1152 Y-22.3334
G01 X14.1295 Y-22.3275
G01 X14.1442 Y-22.3226
G01 X14.1592 Y-22.3189
G01 X14.1744 Y-22.3162
G01 X14.2027 Y-22.3143
G01 X15.8156 Y-22.3147
G01 X15.8437 Y-22.3183
G01 X15.8710 Y-22.3257
G01 X15.8971 Y-22.3367
G01 X15.9215 Y-22.3511
G01 X15.9437 Y-22.3687
G01 X15.9634 Y-22.3891
G01 X15.9801 Y-22.4120
G01 X15.9927 Y-22.4349
G01 X15.9927 Y-22.0137
G01 X15.9787 Y-22.0388
G01 X15.9698 Y-22.0515
G01 X15.9600 Y-22.0634
G01 X15.9494 Y-22.0746
G01 X15.9379 Y-22.0850
G01 X15.9150 Y-22.1017
G01 X15.8902 Y-22.1152
G01 X15.8759 Y-22.1211
G01 X15.8612 Y-22.1260
G01 X15.8462 Y-22.1297
G01 X15.8310 Y-22.1324
G01 X15.8027 Y-22.1343
G01 X14.1898 Y-22.1339
G01 X14.1617 Y-22.1303
G01 X14.1344 Y-22.1229
G01 X14.1083 Y-22.1119
G01 X14.0839 Y-22.0975
G01 X14.0617 Y-22.0799
G01 X14.0420 Y-22.0595
G01 X14.0253 Y-22.0366
G01 X14.0127 Y-22.0137
G00 Z2.0000
G00 X14.0827 Y-22.1773
G01 F70.00
G01 Z-0.0600
G01 F120.00
G01 X14.0827 Y-22.2713
G01 X14.1116 Y-22.2595
G01 X14.1414 Y-22.2511
G01 X14.1718 Y-22.2460
G01 X14.2027 Y-22.2443
G01 X15.8061 Y-22.2443
G01 X15.8370 Y-22.2464
G01 X15.8674 Y-22.2519
G01 X15.8970 Y-22.2607
G01 X15.9227 Y-22.2713
G01 X15.9227 Y-22.1773
G01 X15.8938 Y-22.1891
G01 X15.8640 Y-22.1975
G01 X15.8336 Y-22.2026
G01 X15.8027 Y-22.2043
G01 X14.1993 Y-22.2043
G01 X14.1684 Y-22.2022
G01 X14.1380 Y-22.1967
G01 X14.1084 Y-22.1879
G01 X14.0827 Y-22.1773
G00 Z2.0000
G00 X13.8727 Y-23.4610
G01 F70.00
G01 Z-0.0600
G01 F120.00
G01 X13.8727 Y-24.1543
G01 X14.7161 Y-24.1543
G01 X14.7161 Y-23.8943
G01 X14.2018 Y-23.8943
G01 X14.1857 Y-23.8922
G01 X14.1705 Y-23.8864
G01 X14.1631 Y-23.8820
G01 X14.1563 Y-23.8767
G01 X14.1497 Y-23.8700
G01 X14.1445 Y-23.8632
G01 X14.1398 Y-23.8550
G01 X14.1365 Y-23.8471
G01 X14.1342 Y-23.8388
G01 X14.1330 Y-23.8303
G01 X14.1327 Y-23.4610
G01 X13.8727 Y-23.4610
G00 Z2.0000
G00 X13.9427 Y-23.5310
G01 F70.00
G01 Z-0.0600
G01 F120.00
G01 X13.9427 Y-24.0843
G01 X14.6461 Y-24.0843
G01 X14.6461 Y-23.9643
G01 X14.1941 Y-23.9640
G01 X14.1737 Y-23.9613
G01 X14.1539 Y-23.9555
G01 X14.1337 Y-23.9461
G01 X14.1166 Y-23.9347
G01 X14.1062 Y-23.9257
G01 X14.0967 Y-23.9157
G01 X14.0882 Y-23.9049
G01 X14.0809 Y-23.8933
G01 X14.0747 Y-23.8810
G01 X14.0698 Y-23.8682
G01 X14.0665 Y-23.8566
G01 X14.0640 Y-23.8431
G01 X14.0627 Y-23.8243
G01 X14.0627 Y-23.5310
G01 X13.9427 Y-23.5310
G00 Z2.0000
G00 X14.0127 Y-23.9137
G01 F70.00
G01 Z-0.0600
G01 F120.00
G01 X14.0127 Y-24.0143
G01 X14.1133 Y-24.0143
G01 X14.0970 Y-24.0057
G01 X14.0818 Y-23.9960
G01 X14.0675 Y-23.9850
G01 X14.0542 Y-23.9728
G01 X14.0420 Y-23.9595
G01 X14.0310 Y-23.9452
G01 X14.0213 Y-23.9300
G01 X14.0127 Y-23.9137
G00 Z2.0000
G00 X15.2894 Y-24.1543
G01 F70.00
G01 Z-0.0600
G01 F120.00
G01 X16.1327 Y-24.1543
G01 X16.1327 Y-23.4610
G01 X15.8727 Y-23.4610
G01 X15.8724 Y-23.8303
G01 X15.8712 Y-23.8388
G01 X15.8689 Y-23.8471
G01 X15.8656 Y-23.8550
G01 X15.8609 Y-23.8632
G01 X15.8557 Y-23.8700
G01 X15.8491 Y-23.8767
G01 X15.8423 Y-23.8820
G01 X15.8349 Y-23.8864
G01 X15.8197 Y-23.8922
G01 X15.8036 Y-23.8943
G01 X15.2894 Y-23.8943
G01 X15.2894 Y-24.1543
G00 Z2.0000
G00 X15.3594 Y-24.0843
G01 F70.00
G01 Z-0.0600
G01 F120.00
G01 X16.0627 Y-24.0843
G01 X16.0627 Y-23.5310
G01 X15.9427 Y-23.5310
G01 X15.9427 Y-23.8243
G01 X15.9414 Y-23.8431
G01 X15.9389 Y-23.8566
G01 X15.9356 Y-23.8682
G01 X15.9307 Y-23.8810
G01 X15.9245 Y-23.8933
G01 X15.9172 Y-23.9049
G01 X15.9087 Y-23.9157
G01 X15.8992 Y-23.9257
G01 X15.8888 Y-23.9347
G01 X15.8702 Y-23.9469
G01 X15.8515 Y-23.9555
G01 X15.8317 Y-23.9613
G01 X15.8113 Y-23.9640
G01 X15.3594 Y-23.9643
G01 X15.3594 Y-24.0843
G00 Z2.0000
G00 X15.8921 Y-24.0143
G01 F70.00
G01 Z-0.0600
G01 F120.00
G01 X15.9927 Y-24.0143
G01 X15.9927 Y-23.9137
G01 X15.9841 Y-23.9300
G01 X15.9744 Y-23.9452
G01 X15.9634 Y-23.9595
G01 X15.9512 Y-23.9728
G01 X15.9379 Y-23.9850
G01 X15.9236 Y-23.9960
G01 X15.9084 Y-24.0057
G01 X15.8921 Y-24.0143
G00 Z2.0000
G00 X16.0127 Y-20.7503
G01 F70.00
G01 Z-0.0600
G01 F120.00
G01 X16.0140 Y-20.7476
G01 X16.0155 Y-20.7446
G01 X16.0127 Y-20.7465
G01 X16.0127 Y-20.7503
G00 Z2.0000
G00 X15.2318 Y-19.3675
G01 F70.00
G01 Z-0.0600
G01 F120.00
G01 X15.2307 Y-19.3450
G01 X15.2274 Y-19.3226
G01 X15.2219 Y-19.3007
G01 X15.2143 Y-19.2795
G01 X15.2046 Y-19.2591
G01 X15.1930 Y-19.2397
G01 X15.1796 Y-19.2216
G01 X15.1644 Y-19.2049
G01 X15.1477 Y-19.1897
G01 X15.1296 Y-19.1763
G01 X15.1102 Y-19.1647
G01 X15.0898 Y-19.1550
G01 X15.0686 Y-19.1474
G01 X15.0467 Y-19.1419
G01 X15.0243 Y-19.1386
G01 X15.0018 Y-19.1375
G01 X14.9793 Y-19.1386
G01 X14.9569 Y-19.1419
G01 X14.9350 Y-19.1474
G01 X14.9138 Y-19.1550
G01 X14.8934 Y-19.1647
G01 X14.8740 Y-19.1763
G01 X14.8559 Y-19.1897
G01 X14.8392 Y-19.2049
G01 X14.8240 Y-19.2216
G01 X14.8106 Y-19.2397
G01 X14.7990 Y-19.2591
G01 X14.7893 Y-19.2795
G01 X14.7817 Y-19.3007
G01 X14.7762 Y-19.3226
G01 X14.7729 Y-19.3450
G01 X14.7718 Y-19.3675
G01 X14.7729 Y-19.3900
G01 X14.7762 Y-19.4124
G01 X14.7817 Y-19.4343
G01 X14.7893 Y-19.4555
G01 X14.7990 Y-19.4759
G01 X14.8106 Y-19.4953
G01 X14.8240 Y-19.5134
G01 X14.8392 Y-19.5301
G01 X14.8559 Y-19.5453
G01 X14.8740 Y-19.5587
G01 X14.8934 Y-19.5703
G01 X14.9138 Y-19.5800
G01 X14.9350 Y-19.5876
G01 X14.9569 Y-19.5931
G01 X14.9793 Y-19.5964
G01 X15.0018 Y-19.5975
G01 X15.0243 Y-19.5964
G01 X15.0467 Y-19.5931
G01 X15.0686 Y-19.5876
G01 X15.0898 Y-19.5800
G01 X15.1102 Y-19.5703
G01 X15.1296 Y-19.5587
G01 X15.1477 Y-19.5453
G01 X15.1644 Y-19.5301
G01 X15.1796 Y-19.5134
G01 X15.1930 Y-19.4953
G01 X15.2046 Y-19.4759
G01 X15.2143 Y-19.4555
G01 X15.2219 Y-19.4343
G01 X15.2274 Y-19.4124
G01 X15.2307 Y-19.3900
G01 X15.2318 Y-19.3675
G00 Z2.0000
G00 X15.1618 Y-19.3675
G01 F70.00
G01 Z-0.0600
G01 F120.00
G01 X15.1610 Y-19.3518
G01 X15.1587 Y-19.3363
G01 X15.1549 Y-19.3211
G01 X15.1496 Y-19.3063
G01 X15.1429 Y-19.2921
G01 X15.1348 Y-19.2786
G01 X15.1254 Y-19.2660
G01 X15.1149 Y-19.2544
G01 X15.1033 Y-19.2439
G01 X15.0907 Y-19.2345
G01 X15.0772 Y-19.2264
G01 X15.0630 Y-19.2197
G01 X15.0482 Y-19.2144
G01 X15.0330 Y-19.2106
G01 X15.0175 Y-19.2083
G01 X15.0018 Y-19.2075
G01 X14.9861 Y-19.2083
G01 X14.9706 Y-19.2106
G01 X14.9554 Y-19.2144
G01 X14.9406 Y-19.2197
G01 X14.9264 Y-19.2264
G01 X14.9129 Y-19.2345
G01 X14.9003 Y-19.2439
G01 X14.8887 Y-19.2544
G01 X14.8782 Y-19.2660
G01 X14.8688 Y-19.2786
G01 X14.8607 Y-19.2921
G01 X14.8540 Y-19.3063
G01 X14.8487 Y-19.3211
G01 X14.8449 Y-19.3363
G01 X14.8426 Y-19.3518
G01 X14.8418 Y-19.3675
G01 X14.8426 Y-19.3832
G01 X14.8449 Y-19.3987
G01 X14.8487 Y-19.4139
G01 X14.8540 Y-19.4287
G01 X14.8607 Y-19.4429
G01 X14.8688 Y-19.4564
G01 X14.8782 Y-19.4690
G01 X14.8887 Y-19.4806
G01 X14.9003 Y-19.4911
G01 X14.9129 Y-19.5005
G01 X14.9264 Y-19.5086
G01 X14.9406 Y-19.5153
G01 X14.9554 Y-19.5206
G01 X14.9706 Y-19.5244
G01 X14.9861 Y-19.5267
G01 X15.0018 Y-19.5275
G01 X15.0175 Y-19.5267
G01 X15.0330 Y-19.5244
G01 X15.0482 Y-19.5206
G01 X15.0630 Y-19.5153
G01 X15.0772 Y-19.5086
G01 X15.0907 Y-19.5005
G01 X15.1033 Y-19.4911
G01 X15.1149 Y-19.4806
G01 X15.1254 Y-19.4690
G01 X15.1348 Y-19.4564
G01 X15.1429 Y-19.4429
G01 X15.1496 Y-19.4287
G01 X15.1549 Y-19.4139
G01 X15.1587 Y-19.3987
G01 X15.1610 Y-19.3832
G01 X15.1618 Y-19.3675
G00 Z2.0000
G00 X15.0917 Y-19.3675
G01 F70.00
G01 Z-0.0600
G01 F120.00
G01 X15.0900 Y-19.3500
G01 X15.0849 Y-19.3331
G01 X15.0766 Y-19.3175
G01 X15.0654 Y-19.3039
G01 X15.0518 Y-19.2927
G01 X15.0362 Y-19.2844
G01 X15.0193 Y-19.2793
G01 X15.0018 Y-19.2776
G01 X14.9843 Y-19.2793
G01 X14.9674 Y-19.2844
G01 X14.9518 Y-19.2927
G01 X14.9382 Y-19.3039
G01 X14.9270 Y-19.3175
G01 X14.9187 Y-19.3331
G01 X14.9136 Y-19.3500
G01 X14.9119 Y-19.3675
G01 X14.9136 Y-19.3850
G01 X14.9187 Y-19.4019
G01 X14.9270 Y-19.4175
G01 X14.9382 Y-19.4311
G01 X14.9518 Y-19.4423
G01 X14.9674 Y-19.4506
G01 X14.9843 Y-19.4557
G01 X15.0018 Y-19.4574
G01 X15.0193 Y-19.4557
G01 X15.0362 Y-19.4506
G01 X15.0518 Y-19.4423
G01 X15.0654 Y-19.4311
G01 X15.0766 Y-19.4175
G01 X15.0849 Y-19.4019
G01 X15.0900 Y-19.3850
G01 X15.0917 Y-19.3675
G00 Z2.0000
G00 X15.0217 Y-19.3675
G01 F70.00
G01 Z-0.0600
G01 F120.00
G01 X15.0202 Y-19.3599
G01 X15.0159 Y-19.3534
G01 X15.0094 Y-19.3491
G01 X15.0018 Y-19.3476
G01 X14.9942 Y-19.3491
G01 X14.9877 Y-19.3534
G01 X14.9834 Y-19.3599
G01 X14.9819 Y-19.3675
G01 X14.9834 Y-19.3751
G01 X14.9877 Y-19.3816
G01 X14.9942 Y-19.3859
G01 X15.0018 Y-19.3874
G01 X15.0094 Y-19.3859
G01 X15.0159 Y-19.3816
G01 X15.0202 Y-19.3751
G01 X15.0217 Y-19.3675
G00 Z2.0000
G00 X13.9898 Y-20.7457
G01 F70.00
G01 Z-0.0600
G01 F120.00
G01 X13.9914 Y-20.7490
G01 X13.9927 Y-20.7517
G01 X13.9927 Y-20.7478
G01 X13.9898 Y-20.7457
G00 Z2.0000
G00 X13.5504 Y-20.2709
G01 F70.00
G01 Z-0.0600
G01 F120.00
G01 X13.5512 Y-20.2898
G01 X13.5512 Y-20.4378
G01 X13.5528 Y-20.4610
G01 X13.5573 Y-20.4811
G01 X13.5647 Y-20.5003
G01 X13.5749 Y-20.5182
G01 X13.5831 Y-20.5293
G01 X13.5973 Y-20.5442
G01 X13.6079 Y-20.5529
G01 X13.6194 Y-20.5606
G01 X13.6378 Y-20.5698
G01 X13.6574 Y-20.5763
G01 X13.6708 Y-20.5790
G01 X13.6845 Y-20.5803
G01 X13.7461 Y-20.5806
G01 X13.7641 Y-20.5816
G01 X13.7870 Y-20.5851
G01 X13.8070 Y-20.5904
G01 X13.7908 Y-20.5748
G01 X13.7365 Y-20.5178
G01 X13.6783 Y-20.4503
G01 X13.6253 Y-20.3820
G01 X13.5800 Y-20.3175
G01 X13.5504 Y-20.2709
G00 Z2.0000
G00 X12.4288 Y-20.0982
G01 F70.00
G01 Z-0.0600
G01 F120.00
G01 X12.4202 Y-20.1145
G01 X12.4105 Y-20.1297
G01 X12.3995 Y-20.1440
G01 X12.3873 Y-20.1573
G01 X12.3740 Y-20.1695
G01 X12.3597 Y-20.1805
G01 X12.3445 Y-20.1902
G01 X12.3282 Y-20.1988
G01 X12.4288 Y-20.1988
G01 X12.4288 Y-20.0982
G00 Z2.0000
G00 X12.2172 Y-20.2188
G01 F70.00
G01 Z-0.0600
G01 F120.00
G01 X12.1164 Y-20.2188
G01 X12.1164 Y-20.3198
G01 X12.1252 Y-20.3031
G01 X12.1349 Y-20.2879
G01 X12.1459 Y-20.2736
G01 X12.1581 Y-20.2603
G01 X12.1714 Y-20.2481
G01 X12.1857 Y-20.2371
G01 X12.2009 Y-20.2274
G01 X12.2172 Y-20.2188
G00 Z2.0000
G00 X12.1164 Y-20.7378
G01 F70.00
G01 Z-0.0600
G01 F120.00
G01 X12.1164 Y-20.8388
G01 X12.2172 Y-20.8388
G01 X12.2009 Y-20.8302
G01 X12.1857 Y-20.8205
G01 X12.1714 Y-20.8095
G01 X12.1581 Y-20.7973
G01 X12.1459 Y-20.7840
G01 X12.1349 Y-20.7697
G01 X12.1252 Y-20.7545
G01 X12.1164 Y-20.7378
G00 Z2.0000
G00 X12.3282 Y-20.8588
G01 F70.00
G01 Z-0.0600
G01 F120.00
G01 X12.3445 Y-20.8674
G01 X12.3597 Y-20.8771
G01 X12.3740 Y-20.8881
G01 X12.3873 Y-20.9003
G01 X12.3995 Y-20.9136
G01 X12.4105 Y-20.9279
G01 X12.4202 Y-20.9431
G01 X12.4288 Y-20.9594
G01 X12.4288 Y-20.8588
G01 X12.3282 Y-20.8588
G00 Z2.0000
G00 X11.0954 Y-20.8388
G01 F70.00
G01 Z-0.0600
G01 F120.00
G01 X11.1962 Y-20.8388
G01 X11.1962 Y-20.7378
G01 X11.1874 Y-20.7545
G01 X11.1777 Y-20.7697
G01 X11.1667 Y-20.7840
G01 X11.1545 Y-20.7973
G01 X11.1412 Y-20.8095
G01 X11.1269 Y-20.8205
G01 X11.1117 Y-20.8302
G01 X11.0954 Y-20.8388
G00 Z2.0000
G00 X11.1962 Y-20.3198
G01 F70.00
G01 Z-0.0600
G01 F120.00
G01 X11.1962 Y-20.2188
G01 X11.0954 Y-20.2188
G01 X11.1117 Y-20.2274
G01 X11.1269 Y-20.2371
G01 X11.1412 Y-20.2481
G01 X11.1545 Y-20.2603
G01 X11.1667 Y-20.2736
G01 X11.1777 Y-20.2879
G01 X11.1874 Y-20.3031
G01 X11.1962 Y-20.3198
G00 Z2.0000
G00 X10.8494 Y-20.1988
G01 F70.00
G01 Z-0.0600
G01 F120.00
G01 X10.8243 Y-20.1848
G01 X10.8116 Y-20.1759
G01 X10.7997 Y-20.1661
G01 X10.7885 Y-20.1555
G01 X10.7781 Y-20.1440
G01 X10.7614 Y-20.1211
G01 X10.7479 Y-20.0963
G01 X10.7420 Y-20.0820
G01 X10.7371 Y-20.0673
G01 X10.7311 Y-20.0396
G01 X10.7294 Y-20.0242
G01 X10.7288 Y-20.0088
G01 X10.7292 Y-18.3959
G01 X10.7328 Y-18.3678
G01 X10.7402 Y-18.3405
G01 X10.7512 Y-18.3144
G01 X10.7656 Y-18.2900
G01 X10.7832 Y-18.2678
G01 X10.8036 Y-18.2481
G01 X10.8265 Y-18.2314
G01 X10.8494 Y-18.2188
G01 X10.4282 Y-18.2188
G01 X10.4533 Y-18.2328
G01 X10.4660 Y-18.2417
G01 X10.4779 Y-18.2515
G01 X10.4891 Y-18.2621
G01 X10.4995 Y-18.2736
G01 X10.5162 Y-18.2965
G01 X10.5297 Y-18.3213
G01 X10.5356 Y-18.3356
G01 X10.5405 Y-18.3503
G01 X10.5442 Y-18.3653
G01 X10.5469 Y-18.3805
G01 X10.5488 Y-18.4088
G01 X10.5484 Y-20.0217
G01 X10.5448 Y-20.0498
G01 X10.5374 Y-20.0771
G01 X10.5264 Y-20.1032
G01 X10.5120 Y-20.1276
G01 X10.4944 Y-20.1498
G01 X10.4740 Y-20.1695
G01 X10.4511 Y-20.1862
G01 X10.4282 Y-20.1988
G01 X10.8494 Y-20.1988
G00 Z2.0000
G00 X10.6858 Y-20.1288
G01 F70.00
G01 Z-0.0600
G01 F120.00
G01 X10.6740 Y-20.0999
G01 X10.6656 Y-20.0701
G01 X10.6605 Y-20.0397
G01 X10.6588 Y-20.0088
G01 X10.6588 Y-18.4054
G01 X10.6609 Y-18.3745
G01 X10.6664 Y-18.3441
G01 X10.6752 Y-18.3145
G01 X10.6858 Y-18.2888
G01 X10.5918 Y-18.2888
G01 X10.6036 Y-18.3177
G01 X10.6120 Y-18.3475
G01 X10.6171 Y-18.3779
G01 X10.6188 Y-18.4088
G01 X10.6188 Y-20.0122
G01 X10.6167 Y-20.0431
G01 X10.6112 Y-20.0735
G01 X10.6024 Y-20.1031
G01 X10.5918 Y-20.1288
G01 X10.6858 Y-20.1288
G00 Z2.0000
G00 X11.0954 Y-18.1988
G01 F70.00
G01 Z-0.0600
G01 F120.00
G01 X11.1962 Y-18.1988
G01 X11.1962 Y-18.0978
G01 X11.1874 Y-18.1145
G01 X11.1777 Y-18.1297
G01 X11.1667 Y-18.1440
G01 X11.1545 Y-18.1573
G01 X11.1412 Y-18.1695
G01 X11.1269 Y-18.1805
G01 X11.1117 Y-18.1902
G01 X11.0954 Y-18.1988
G00 Z2.0000
G00 X11.1962 Y-17.4985
G01 F70.00
G01 Z-0.0600
G01 F120.00
G01 X11.1962 Y-17.3975
G01 X11.1386 Y-17.3974
G01 X11.1129 Y-17.3948
G01 X11.0978 Y-17.3918
G01 X11.0829 Y-17.3877
G01 X11.0683 Y-17.3825
G01 X11.0519 Y-17.3751
G01 X11.0361 Y-17.3663
G01 X11.0212 Y-17.3562
G01 X11.0072 Y-17.3448
G01 X10.9960 Y-17.3342
G01 X10.9840 Y-17.3207
G01 X10.9731 Y-17.3063
G01 X10.9636 Y-17.2910
G01 X10.9563 Y-17.2769
G01 X10.9563 Y-17.3775
G01 X11.0137 Y-17.3776
G01 X11.0393 Y-17.3802
G01 X11.0545 Y-17.3832
G01 X11.0718 Y-17.3881
G01 X11.0863 Y-17.3935
G01 X11.1004 Y-17.3999
G01 X11.1161 Y-17.4087
G01 X11.1311 Y-17.4188
G01 X11.1431 Y-17.4285
G01 X11.1563 Y-17.4408
G01 X11.1683 Y-17.4543
G01 X11.1791 Y-17.4687
G01 X11.1887 Y-17.4840
G01 X11.1962 Y-17.4985
G00 Z2.0000
G00 X10.3163 Y-17.2769
G01 F70.00
G01 Z-0.0600
G01 F120.00
G01 X10.3077 Y-17.2932
G01 X10.2980 Y-17.3084
G01 X10.2870 Y-17.3227
G01 X10.2748 Y-17.3360
G01 X10.2615 Y-17.3482
G01 X10.2472 Y-17.3592
G01 X10.2320 Y-17.3689
G01 X10.2157 Y-17.3775
G01 X10.3163 Y-17.3775
G01 X10.3163 Y-17.2769
G00 Z2.0000
G00 X12.1164 Y-18.0978
G01 F70.00
G01 Z-0.0600
G01 F120.00
G01 X12.1164 Y-18.1988
G01 X12.2172 Y-18.1988
G01 X12.2009 Y-18.1902
G01 X12.1857 Y-18.1805
G01 X12.1714 Y-18.1695
G01 X12.1581 Y-18.1573
G01 X12.1459 Y-18.1440
G01 X12.1349 Y-18.1297
G01 X12.1252 Y-18.1145
G01 X12.1164 Y-18.0978
G00 Z2.0000
G00 X12.3282 Y-18.2188
G01 F70.00
G01 Z-0.0600
G01 F120.00
G01 X12.3445 Y-18.2274
G01 X12.3597 Y-18.2371
G01 X12.3740 Y-18.2481
G01 X12.3873 Y-18.2603
G01 X12.3995 Y-18.2736
G01 X12.4105 Y-18.2879
G01 X12.4202 Y-18.3031
G01 X12.4288 Y-18.3194
G01 X12.4288 Y-18.2188
G01 X12.3282 Y-18.2188
G00 Z2.0000
G00 X12.3563 Y-17.2769
G01 F70.00
G01 Z-0.0600
G01 F120.00
G01 X12.3490 Y-17.2910
G01 X12.3395 Y-17.3063
G01 X12.3286 Y-17.3207
G01 X12.3166 Y-17.3342
G01 X12.3035 Y-17.3465
G01 X12.2914 Y-17.3562
G01 X12.2765 Y-17.3663
G01 X12.2607 Y-17.3751
G01 X12.2467 Y-17.3815
G01 X12.2322 Y-17.3869
G01 X12.2173 Y-17.3912
G01 X12.1997 Y-17.3948
G01 X12.1740 Y-17.3974
G01 X12.1164 Y-17.3975
G01 X12.1164 Y-17.4985
G01 X12.1239 Y-17.4840
G01 X12.1335 Y-17.4687
G01 X12.1443 Y-17.4543
G01 X12.1563 Y-17.4408
G01 X12.1695 Y-17.4285
G01 X12.1815 Y-17.4188
G01 X12.1965 Y-17.4087
G01 X12.2122 Y-17.3999
G01 X12.2286 Y-17.3925
G01 X12.2432 Y-17.3873
G01 X12.2581 Y-17.3832
G01 X12.2733 Y-17.3802
G01 X12.2989 Y-17.3776
G01 X12.3563 Y-17.3775
G01 X12.3563 Y-17.2769
G00 Z2.0000
G00 X12.2557 Y-15.7775
G01 F70.00
G01 Z-0.0600
G01 F120.00
G01 X12.2720 Y-15.7861
G01 X12.2872 Y-15.7958
G01 X12.3015 Y-15.8068
G01 X12.3148 Y-15.8190
G01 X12.3270 Y-15.8323
G01 X12.3380 Y-15.8466
G01 X12.3477 Y-15.8618
G01 X12.3563 Y-15.8781
G01 X12.3563 Y-15.7775
G01 X12.2557 Y-15.7775
G00 Z2.0000
G00 X13.7061 Y-13.0677
G01 F70.00
G01 Z-0.0600
G01 F120.00
G01 X13.6845 Y-13.0681
G01 X13.6777 Y-13.0692
G01 X13.6678 Y-13.0719
G01 X13.6614 Y-13.0745
G01 X13.6525 Y-13.0796
G01 X13.6469 Y-13.0837
G01 X13.6395 Y-13.0908
G01 X13.6351 Y-13.0961
G01 X13.6296 Y-13.1049
G01 X13.6254 Y-13.1143
G01 X13.6234 Y-13.1209
G01 X13.6214 Y-13.1345
G01 X13.6212 Y-13.1642
G01 X13.6807 Y-13.0947
G01 X13.7061 Y-13.0677
G00 Z2.0000
G00 X13.8870 Y-12.9915
G01 F70.00
G01 Z-0.0600
G01 F120.00
G01 X13.8646 Y-12.9958
G01 X13.8441 Y-12.9976
G01 X13.6940 Y-12.9977
G01 X13.6777 Y-12.9985
G01 X13.6641 Y-13.0005
G01 X13.6442 Y-13.0060
G01 X13.6315 Y-13.0112
G01 X13.6194 Y-13.0177
G01 X13.6025 Y-13.0296
G01 X13.5923 Y-13.0388
G01 X13.5831 Y-13.0490
G01 X13.5712 Y-13.0659
G01 X13.5620 Y-13.0843
G01 X13.5555 Y-13.1039
G01 X13.5520 Y-13.1242
G01 X13.5512 Y-13.1405
G01 X13.5512 Y-13.3654
G01 X13.5504 Y-13.3843
G01 X13.5801 Y-13.3375
G01 X13.6269 Y-13.2709
G01 X13.6834 Y-13.1987
G01 X13.7349 Y-13.1391
G01 X13.7909 Y-13.0802
G01 X13.8516 Y-13.0222
G01 X13.8870 Y-12.9915
G00 Z2.0000
G00 X14.4425 Y-12.4738
G01 F70.00
G01 Z-0.0600
G01 F120.00
G01 X14.4467 Y-12.4868
G01 X14.4505 Y-12.5018
G01 X14.4545 Y-12.5299
G01 X14.4546 Y-12.5582
G01 X14.4510 Y-12.5863
G01 X14.4436 Y-12.6136
G01 X14.4326 Y-12.6397
G01 X14.4182 Y-12.6641
G01 X14.4090 Y-12.6765
G01 X14.3996 Y-12.6875
G01 X14.4283 Y-12.6766
G01 X14.5006 Y-12.6527
G01 X14.5418 Y-12.6410
G01 X14.5418 Y-12.5731
G01 X14.4425 Y-12.4738
G00 Z2.0000
G00 X14.6118 Y-12.6947
G01 F70.00
G01 Z-0.0600
G01 F120.00
G01 X14.5258 Y-12.7181
G01 X14.4494 Y-12.7434
G01 X14.3743 Y-12.7723
G01 X14.3007 Y-12.8050
G01 X14.2288 Y-12.8411
G01 X14.1588 Y-12.8808
G01 X14.0908 Y-12.9239
G01 X14.0250 Y-12.9702
G01 X13.9615 Y-13.0198
G01 X13.9005 Y-13.0723
G01 X13.8422 Y-13.1278
G01 X13.7867 Y-13.1861
G01 X13.7342 Y-13.2471
G01 X13.6846 Y-13.3106
G01 X13.6383 Y-13.3764
G01 X13.5952 Y-13.4444
G01 X13.5555 Y-13.5144
G01 X13.5194 Y-13.5863
G01 X13.4867 Y-13.6599
G01 X13.4578 Y-13.7350
G01 X13.4325 Y-13.8114
G01 X13.4110 Y-13.8890
G01 X13.3934 Y-13.9676
G01 X13.3797 Y-14.0469
G01 X13.3698 Y-14.1268
G01 X13.3639 Y-14.2070
G01 X13.3619 Y-14.2875
G01 X13.3639 Y-14.3680
G01 X13.3698 Y-14.4482
G01 X13.3797 Y-14.5281
G01 X13.3934 Y-14.6074
G01 X13.4110 Y-14.6860
G01 X13.4325 Y-14.7636
G01 X13.4578 Y-14.8400
G01 X13.4867 Y-14.9151
G01 X13.5194 Y-14.9887
G01 X13.5555 Y-15.0606
G01 X13.5952 Y-15.1306
G01 X13.6383 Y-15.1986
G01 X13.6846 Y-15.2644
G01 X13.7342 Y-15.3279
G01 X13.7867 Y-15.3889
G01 X13.8422 Y-15.4472
G01 X13.9005 Y-15.5027
G01 X13.9615 Y-15.5552
G01 X14.0250 Y-15.6048
G01 X14.0908 Y-15.6511
G01 X14.1588 Y-15.6942
G01 X14.2288 Y-15.7339
G01 X14.3007 Y-15.7700
G01 X14.3743 Y-15.8027
G01 X14.4494 Y-15.8316
G01 X14.5258 Y-15.8569
G01 X14.6034 Y-15.8784
G01 X14.6820 Y-15.8960
G01 X14.7613 Y-15.9097
G01 X14.8412 Y-15.9196
G01 X14.9214 Y-15.9255
G01 X15.0019 Y-15.9275
G01 X15.0824 Y-15.9255
G01 X15.1626 Y-15.9196
G01 X15.2425 Y-15.9097
G01 X15.3218 Y-15.8960
G01 X15.4004 Y-15.8784
G01 X15.4780 Y-15.8569
G01 X15.5576 Y-15.8304
G01 X15.6295 Y-15.8027
G01 X15.7000 Y-15.7715
G01 X15.7719 Y-15.7354
G01 X15.8450 Y-15.6942
G01 X15.9130 Y-15.6511
G01 X15.9788 Y-15.6048
G01 X16.0449 Y-15.5530
G01 X16.1058 Y-15.5003
G01 X16.1616 Y-15.4472
G01 X16.2147 Y-15.3914
G01 X16.2696 Y-15.3279
G01 X16.3192 Y-15.2644
G01 X16.3655 Y-15.1986
G01 X16.4103 Y-15.1277
G01 X16.4483 Y-15.0606
G01 X16.4829 Y-14.9918
G01 X16.5171 Y-14.9151
G01 X16.5460 Y-14.8400
G01 X16.5722 Y-14.7603
G01 X16.5928 Y-14.6860
G01 X16.6097 Y-14.6108
G01 X16.6241 Y-14.5281
G01 X16.6340 Y-14.4482
G01 X16.6401 Y-14.3645
G01 X16.6419 Y-14.2875
G01 X16.6401 Y-14.2105
G01 X16.6343 Y-14.1302
G01 X16.6241 Y-14.0469
G01 X16.6104 Y-13.9676
G01 X16.5928 Y-13.8890
G01 X16.5702 Y-13.8082
G01 X16.5460 Y-13.7350
G01 X16.5183 Y-13.6631
G01 X16.4859 Y-13.5894
G01 X16.4483 Y-13.5144
G01 X16.4068 Y-13.4414
G01 X16.3655 Y-13.3764
G01 X16.3192 Y-13.3106
G01 X16.2696 Y-13.2471
G01 X16.2171 Y-13.1861
G01 X16.1616 Y-13.1278
G01 X16.1033 Y-13.0723
G01 X16.0423 Y-13.0198
G01 X15.9788 Y-12.9702
G01 X15.9130 Y-12.9239
G01 X15.8450 Y-12.8808
G01 X15.7750 Y-12.8411
G01 X15.7031 Y-12.8050
G01 X15.6295 Y-12.7723
G01 X15.5544 Y-12.7434
G01 X15.4780 Y-12.7181
G01 X15.3920 Y-12.6947
G01 X15.3920 Y-12.3808
G01 X15.3904 Y-12.3477
G01 X15.3880 Y-12.3270
G01 X15.3845 Y-12.3064
G01 X15.3795 Y-12.2844
G01 X15.3703 Y-12.2543
G01 X15.3623 Y-12.2332
G01 X15.3546 Y-12.2157
G01 X15.3443 Y-12.1956
G01 X15.3282 Y-12.1686
G01 X15.3163 Y-12.1515
G01 X15.3013 Y-12.1324
G01 X15.2778 Y-12.1066
G01 X14.3253 Y-11.1541
G01 X14.3114 Y-11.1409
G01 X14.2942 Y-11.1263
G01 X14.2690 Y-11.1076
G01 X14.2514 Y-11.0963
G01 X14.2333 Y-11.0859
G01 X14.2162 Y-11.0773
G01 X14.1987 Y-11.0696
G01 X14.1776 Y-11.0616
G01 X14.1593 Y-11.0557
G01 X14.1289 Y-11.0481
G01 X14.1066 Y-11.0441
G01 X14.0876 Y-11.0418
G01 X14.0494 Y-11.0399
G01 X13.6882 Y-11.0399
G01 X13.6878 Y-10.9097
G01 X13.6861 Y-10.8961
G01 X13.6836 Y-10.8843
G01 X13.6794 Y-10.8712
G01 X13.6748 Y-10.8601
G01 X13.6665 Y-10.8451
G01 X13.6553 Y-10.8299
G01 X13.6435 Y-10.8174
G01 X13.6302 Y-10.8065
G01 X13.6142 Y-10.7965
G01 X13.5986 Y-10.7894
G01 X13.5822 Y-10.7842
G01 X13.5653 Y-10.7811
G01 X13.5482 Y-10.7800
G01 X12.3230 Y-10.7801
G01 X12.3077 Y-10.7815
G01 X12.2925 Y-10.7846
G01 X12.2778 Y-10.7894
G01 X12.2637 Y-10.7957
G01 X12.2504 Y-10.8036
G01 X12.2381 Y-10.8129
G01 X12.2268 Y-10.8235
G01 X12.2178 Y-10.8339
G01 X12.2056 Y-10.8525
G01 X12.1964 Y-10.8728
G01 X12.1906 Y-10.8944
G01 X12.1882 Y-10.9166
G01 X12.1882 Y-11.9434
G01 X12.1895 Y-11.9588
G01 X12.1924 Y-11.9740
G01 X12.1970 Y-11.9888
G01 X12.2031 Y-12.0029
G01 X12.2108 Y-12.0163
G01 X12.2200 Y-12.0288
G01 X12.2304 Y-12.0402
G01 X12.2421 Y-12.0504
G01 X12.2607 Y-12.0626
G01 X12.2810 Y-12.0718
G01 X12.3026 Y-12.0776
G01 X12.3248 Y-12.0800
G01 X13.5482 Y-12.0800
G01 X13.5670 Y-12.0787
G01 X13.5839 Y-12.0754
G01 X13.6002 Y-12.0700
G01 X13.6172 Y-12.0618
G01 X13.6316 Y-12.0524
G01 X13.6447 Y-12.0414
G01 X13.6564 Y-12.0288
G01 X13.6665 Y-12.0149
G01 X13.6748 Y-11.9999
G01 X13.6800 Y-11.9872
G01 X13.6836 Y-11.9757
G01 X13.6861 Y-11.9639
G01 X13.6878 Y-11.9503
G01 X13.6882 Y-11.8201
G01 X13.8878 Y-11.8201
G01 X14.6118 Y-12.5441
G01 X14.6118 Y-12.6947
G00 Z2.0000
G00 X14.6818 Y-12.7508
G01 F70.00
G01 Z-0.0600
G01 F120.00
G01 X14.6204 Y-12.7646
G01 X14.5462 Y-12.7851
G01 X14.4730 Y-12.8093
G01 X14.4011 Y-12.8370
G01 X14.3306 Y-12.8682
G01 X14.2618 Y-12.9029
G01 X14.1948 Y-12.9409
G01 X14.1297 Y-12.9821
G01 X14.0667 Y-13.0265
G01 X14.0059 Y-13.0739
G01 X13.9476 Y-13.1242
G01 X13.8917 Y-13.1773
G01 X13.8386 Y-13.2332
G01 X13.7883 Y-13.2915
G01 X13.7409 Y-13.3523
G01 X13.6965 Y-13.4153
G01 X13.6553 Y-13.4804
G01 X13.6173 Y-13.5474
G01 X13.5826 Y-13.6162
G01 X13.5514 Y-13.6867
G01 X13.5237 Y-13.7586
G01 X13.4995 Y-13.8318
G01 X13.4790 Y-13.9060
G01 X13.4621 Y-13.9812
G01 X13.4489 Y-14.0571
G01 X13.4395 Y-14.1336
G01 X13.4338 Y-14.2105
G01 X13.4319 Y-14.2875
G01 X13.4338 Y-14.3645
G01 X13.4395 Y-14.4414
G01 X13.4489 Y-14.5179
G01 X13.4621 Y-14.5938
G01 X13.4790 Y-14.6690
G01 X13.4995 Y-14.7432
G01 X13.5237 Y-14.8164
G01 X13.5514 Y-14.8883
G01 X13.5826 Y-14.9588
G01 X13.6173 Y-15.0276
G01 X13.6553 Y-15.0946
G01 X13.6965 Y-15.1597
G01 X13.7409 Y-15.2227
G01 X13.7883 Y-15.2835
G01 X13.8386 Y-15.3418
G01 X13.8917 Y-15.3977
G01 X13.9476 Y-15.4508
G01 X14.0059 Y-15.5011
G01 X14.0667 Y-15.5485
G01 X14.1297 Y-15.5929
G01 X14.1948 Y-15.6341
G01 X14.2618 Y-15.6721
G01 X14.3306 Y-15.7068
G01 X14.4011 Y-15.7380
G01 X14.4730 Y-15.7657
G01 X14.5462 Y-15.7899
G01 X14.6204 Y-15.8104
G01 X14.6956 Y-15.8273
G01 X14.7715 Y-15.8405
G01 X14.8480 Y-15.8499
G01 X14.9249 Y-15.8556
G01 X15.0019 Y-15.8575
G01 X15.0789 Y-15.8556
G01 X15.1558 Y-15.8499
G01 X15.2323 Y-15.8405
G01 X15.3082 Y-15.8273
G01 X15.3850 Y-15.8100
G01 X15.4576 Y-15.7899
G01 X15.5292 Y-15.7663
G01 X15.6027 Y-15.7380
G01 X15.6732 Y-15.7068
G01 X15.7420 Y-15.6721
G01 X15.8105 Y-15.6332
G01 X15.8741 Y-15.5929
G01 X15.9358 Y-15.5495
G01 X15.9979 Y-15.5011
G01 X16.0575 Y-15.4496
G01 X16.1121 Y-15.3977
G01 X16.1640 Y-15.3431
G01 X16.2155 Y-15.2835
G01 X16.2629 Y-15.2227
G01 X16.3073 Y-15.1597
G01 X16.3494 Y-15.0932
G01 X16.3865 Y-15.0276
G01 X16.4204 Y-14.9603
G01 X16.4517 Y-14.8899
G01 X16.4801 Y-14.8164
G01 X16.5048 Y-14.7416
G01 X16.5252 Y-14.6673
G01 X16.5417 Y-14.5938
G01 X16.5546 Y-14.5196
G01 X16.5643 Y-14.4414
G01 X16.5700 Y-14.3645
G01 X16.5719 Y-14.2875
G01 X16.5699 Y-14.2087
G01 X16.5642 Y-14.1319
G01 X16.5549 Y-14.0571
G01 X16.5420 Y-13.9829
G01 X16.5248 Y-13.9060
G01 X16.5043 Y-13.8318
G01 X16.4795 Y-13.7570
G01 X16.4524 Y-13.6867
G01 X16.4219 Y-13.6178
G01 X16.3865 Y-13.5474
G01 X16.3481 Y-13.4796
G01 X16.3073 Y-13.4153
G01 X16.2629 Y-13.3523
G01 X16.2155 Y-13.2915
G01 X16.1652 Y-13.2332
G01 X16.1121 Y-13.1773
G01 X16.0562 Y-13.1242
G01 X15.9979 Y-13.0739
G01 X15.9358 Y-13.0255
G01 X15.8741 Y-12.9821
G01 X15.8090 Y-12.9409
G01 X15.7420 Y-12.9029
G01 X15.6716 Y-12.8675
G01 X15.6027 Y-12.8370
G01 X15.5292 Y-12.8087
G01 X15.4560 Y-12.7846
G01 X15.3834 Y-12.7646
G01 X15.3220 Y-12.7508
G01 X15.3220 Y-12.3825
G01 X15.3205 Y-12.3511
G01 X15.3155 Y-12.3184
G01 X15.3087 Y-12.2912
G01 X15.3033 Y-12.2747
G01 X15.2970 Y-12.2584
G01 X15.2850 Y-12.2331
G01 X15.2676 Y-12.2039
G01 X15.2494 Y-12.1794
G01 X15.2283 Y-12.1561
G01 X14.2758 Y-11.2036
G01 X14.2525 Y-11.1825
G01 X14.2258 Y-11.1629
G01 X14.2018 Y-11.1485
G01 X14.1878 Y-11.1414
G01 X14.1572 Y-11.1286
G01 X14.1407 Y-11.1232
G01 X14.1135 Y-11.1164
G01 X14.0799 Y-11.1113
G01 X14.0494 Y-11.1099
G01 X13.6182 Y-11.1099
G01 X13.6182 Y-10.9191
G01 X13.6165 Y-10.9047
G01 X13.6135 Y-10.8948
G01 X13.6091 Y-10.8855
G01 X13.6034 Y-10.8769
G01 X13.5958 Y-10.8687
G01 X13.5878 Y-10.8623
G01 X13.5789 Y-10.8571
G01 X13.5693 Y-10.8533
G01 X13.5585 Y-10.8508
G01 X13.5482 Y-10.8500
G01 X12.3265 Y-10.8500
G01 X12.3112 Y-10.8521
G01 X12.2967 Y-10.8575
G01 X12.2838 Y-10.8659
G01 X12.2730 Y-10.8769
G01 X12.2665 Y-10.8870
G01 X12.2620 Y-10.8972
G01 X12.2592 Y-10.9080
G01 X12.2582 Y-10.9191
G01 X12.2582 Y-11.9409
G01 X12.2601 Y-11.9562
G01 X12.2653 Y-11.9707
G01 X12.2741 Y-11.9844
G01 X12.2851 Y-11.9952
G01 X12.2952 Y-12.0017
G01 X12.3054 Y-12.0062
G01 X12.3162 Y-12.0090
G01 X12.3273 Y-12.0100
G01 X13.5482 Y-12.0100
G01 X13.5585 Y-12.0092
G01 X13.5693 Y-12.0067
G01 X13.5789 Y-12.0029
G01 X13.5878 Y-11.9977
G01 X13.5958 Y-11.9913
G01 X13.6034 Y-11.9831
G01 X13.6091 Y-11.9745
G01 X13.6135 Y-11.9652
G01 X13.6165 Y-11.9553
G01 X13.6182 Y-11.9409
G01 X13.6182 Y-11.7501
G01 X13.9168 Y-11.7501
G01 X14.6818 Y-12.5151
G01 X14.6818 Y-12.7508
G00 Z2.0000
G00 X15.5066 Y-12.6538
G01 F70.00
G01 Z-0.0600
G01 F120.00
G01 X15.4932 Y-12.6397
G01 X15.4820 Y-12.6255
G01 X15.4708 Y-12.6083
G01 X15.4620 Y-12.5915
G01 X15.4620 Y-12.6410
G01 X15.5066 Y-12.6538
G00 Z2.0000
G00 X15.2319 Y-14.2875
G01 F70.00
G01 Z-0.0600
G01 F120.00
G01 X15.2308 Y-14.2650
G01 X15.2275 Y-14.2426
G01 X15.2220 Y-14.2207
G01 X15.2144 Y-14.1995
G01 X15.2047 Y-14.1791
G01 X15.1931 Y-14.1597
G01 X15.1797 Y-14.1416
G01 X15.1645 Y-14.1249
G01 X15.1478 Y-14.1097
G01 X15.1297 Y-14.0963
G01 X15.1103 Y-14.0847
G01 X15.0899 Y-14.0750
G01 X15.0687 Y-14.0674
G01 X15.0468 Y-14.0619
G01 X15.0244 Y-14.0586
G01 X15.0019 Y-14.0575
G01 X14.9794 Y-14.0586
G01 X14.9570 Y-14.0619
G01 X14.9351 Y-14.0674
G01 X14.9139 Y-14.0750
G01 X14.8935 Y-14.0847
G01 X14.8741 Y-14.0963
G01 X14.8560 Y-14.1097
G01 X14.8393 Y-14.1249
G01 X14.8241 Y-14.1416
G01 X14.8107 Y-14.1597
G01 X14.7991 Y-14.1791
G01 X14.7894 Y-14.1995
G01 X14.7818 Y-14.2207
G01 X14.7763 Y-14.2426
G01 X14.7730 Y-14.2650
G01 X14.7719 Y-14.2875
G01 X14.7730 Y-14.3100
G01 X14.7763 Y-14.3324
G01 X14.7818 Y-14.3543
G01 X14.7894 Y-14.3755
G01 X14.7991 Y-14.3959
G01 X14.8107 Y-14.4153
G01 X14.8241 Y-14.4334
G01 X14.8393 Y-14.4501
G01 X14.8560 Y-14.4653
G01 X14.8741 Y-14.4787
G01 X14.8935 Y-14.4903
G01 X14.9139 Y-14.5000
G01 X14.9351 Y-14.5076
G01 X14.9570 Y-14.5131
G01 X14.9794 Y-14.5164
G01 X15.0019 Y-14.5175
G01 X15.0244 Y-14.5164
G01 X15.0468 Y-14.5131
G01 X15.0687 Y-14.5076
G01 X15.0899 Y-14.5000
G01 X15.1103 Y-14.4903
G01 X15.1297 Y-14.4787
G01 X15.1478 Y-14.4653
G01 X15.1645 Y-14.4501
G01 X15.1797 Y-14.4334
G01 X15.1931 Y-14.4153
G01 X15.2047 Y-14.3959
G01 X15.2144 Y-14.3755
G01 X15.2220 Y-14.3543
G01 X15.2275 Y-14.3324
G01 X15.2308 Y-14.3100
G01 X15.2319 Y-14.2875
G00 Z2.0000
G00 X15.1619 Y-14.2875
G01 F70.00
G01 Z-0.0600
G01 F120.00
G01 X15.1611 Y-14.2718
G01 X15.1588 Y-14.2563
G01 X15.1550 Y-14.2411
G01 X15.1497 Y-14.2263
G01 X15.1430 Y-14.2121
G01 X15.1349 Y-14.1986
G01 X15.1255 Y-14.1860
G01 X15.1150 Y-14.1744
G01 X15.1034 Y-14.1639
G01 X15.0908 Y-14.1545
G01 X15.0773 Y-14.1464
G01 X15.0631 Y-14.1397
G01 X15.0483 Y-14.1344
G01 X15.0331 Y-14.1306
G01 X15.0176 Y-14.1283
G01 X15.0019 Y-14.1275
G01 X14.9862 Y-14.1283
G01 X14.9707 Y-14.1306
G01 X14.9555 Y-14.1344
G01 X14.9407 Y-14.1397
G01 X14.9265 Y-14.1464
G01 X14.9130 Y-14.1545
G01 X14.9004 Y-14.1639
G01 X14.8888 Y-14.1744
G01 X14.8783 Y-14.1860
G01 X14.8689 Y-14.1986
G01 X14.8608 Y-14.2121
G01 X14.8541 Y-14.2263
G01 X14.8488 Y-14.2411
G01 X14.8450 Y-14.2563
G01 X14.8427 Y-14.2718
G01 X14.8419 Y-14.2875
G01 X14.8427 Y-14.3032
G01 X14.8450 Y-14.3187
G01 X14.8488 Y-14.3339
G01 X14.8541 Y-14.3487
G01 X14.8608 Y-14.3629
G01 X14.8689 Y-14.3764
G01 X14.8783 Y-14.3890
G01 X14.8888 Y-14.4006
G01 X14.9004 Y-14.4111
G01 X14.9130 Y-14.4205
G01 X14.9265 Y-14.4286
G01 X14.9407 Y-14.4353
G01 X14.9555 Y-14.4406
G01 X14.9707 Y-14.4444
G01 X14.9862 Y-14.4467
G01 X15.0019 Y-14.4475
G01 X15.0176 Y-14.4467
G01 X15.0331 Y-14.4444
G01 X15.0483 Y-14.4406
G01 X15.0631 Y-14.4353
G01 X15.0773 Y-14.4286
G01 X15.0908 Y-14.4205
G01 X15.1034 Y-14.4111
G01 X15.1150 Y-14.4006
G01 X15.1255 Y-14.3890
G01 X15.1349 Y-14.3764
G01 X15.1430 Y-14.3629
G01 X15.1497 Y-14.3487
G01 X15.1550 Y-14.3339
G01 X15.1588 Y-14.3187
G01 X15.1611 Y-14.3032
G01 X15.1619 Y-14.2875
G00 Z2.0000
G00 X15.0918 Y-14.2875
G01 F70.00
G01 Z-0.0600
G01 F120.00
G01 X15.0901 Y-14.2700
G01 X15.0850 Y-14.2531
G01 X15.0767 Y-14.2375
G01 X15.0655 Y-14.2239
G01 X15.0519 Y-14.2127
G01 X15.0363 Y-14.2044
G01 X15.0194 Y-14.1993
G01 X15.0019 Y-14.1976
G01 X14.9844 Y-14.1993
G01 X14.9675 Y-14.2044
G01 X14.9519 Y-14.2127
G01 X14.9383 Y-14.2239
G01 X14.9271 Y-14.2375
G01 X14.9188 Y-14.2531
G01 X14.9137 Y-14.2700
G01 X14.9120 Y-14.2875
G01 X14.9137 Y-14.3050
G01 X14.9188 Y-14.3219
G01 X14.9271 Y-14.3375
G01 X14.9383 Y-14.3511
G01 X14.9519 Y-14.3623
G01 X14.9675 Y-14.3706
G01 X14.9844 Y-14.3757
G01 X15.0019 Y-14.3774
G01 X15.0194 Y-14.3757
G01 X15.0363 Y-14.3706
G01 X15.0519 Y-14.3623
G01 X15.0655 Y-14.3511
G01 X15.0767 Y-14.3375
G01 X15.0850 Y-14.3219
G01 X15.0901 Y-14.3050
G01 X15.0918 Y-14.2875
G00 Z2.0000
G00 X15.0218 Y-14.2875
G01 F70.00
G01 Z-0.0600
G01 F120.00
G01 X15.0203 Y-14.2799
G01 X15.0160 Y-14.2734
G01 X15.0095 Y-14.2691
G01 X15.0019 Y-14.2676
G01 X14.9943 Y-14.2691
G01 X14.9878 Y-14.2734
G01 X14.9835 Y-14.2799
G01 X14.9820 Y-14.2875
G01 X14.9835 Y-14.2951
G01 X14.9878 Y-14.3016
G01 X14.9943 Y-14.3059
G01 X15.0019 Y-14.3074
G01 X15.0095 Y-14.3059
G01 X15.0160 Y-14.3016
G01 X15.0203 Y-14.2951
G01 X15.0218 Y-14.2875
G00 Z2.0000
G00 X17.2499 Y-13.0406
G01 F70.00
G01 Z-0.0600
G01 F120.00
G01 X17.2240 Y-13.0514
G01 X17.1944 Y-13.0601
G01 X17.1674 Y-13.0652
G01 X17.1365 Y-13.0676
G01 X16.2977 Y-13.0677
G01 X16.3231 Y-13.0947
G01 X16.3757 Y-13.1556
G01 X16.4295 Y-13.2244
G01 X16.4819 Y-13.2986
G01 X16.5269 Y-13.3695
G01 X16.5717 Y-13.4484
G01 X16.6110 Y-13.5265
G01 X16.6464 Y-13.6063
G01 X16.6790 Y-13.6911
G01 X16.7053 Y-13.7708
G01 X16.7301 Y-13.8617
G01 X16.7490 Y-13.9470
G01 X16.7626 Y-14.0263
G01 X16.7726 Y-14.1062
G01 X16.7798 Y-14.2002
G01 X16.7819 Y-14.2875
G01 X16.7798 Y-14.3748
G01 X16.7730 Y-14.4654
G01 X16.7626 Y-14.5487
G01 X16.7463 Y-14.6415
G01 X16.7268 Y-14.7266
G01 X16.7053 Y-14.8042
G01 X16.6801 Y-14.8807
G01 X16.6464 Y-14.9687
G01 X16.6110 Y-15.0485
G01 X16.5717 Y-15.1266
G01 X16.5287 Y-15.2026
G01 X16.4819 Y-15.2764
G01 X16.4274 Y-15.3533
G01 X16.3734 Y-15.4220
G01 X16.3208 Y-15.4829
G01 X16.2653 Y-15.5412
G01 X16.1973 Y-15.6064
G01 X16.1311 Y-15.6635
G01 X16.0622 Y-15.7172
G01 X15.9879 Y-15.7694
G01 X15.9170 Y-15.8143
G01 X15.8410 Y-15.8573
G01 X15.7629 Y-15.8966
G01 X15.6831 Y-15.9320
G01 X15.6016 Y-15.9634
G01 X15.5186 Y-15.9909
G01 X15.4344 Y-16.0142
G01 X15.3559 Y-16.0319
G01 X15.2631 Y-16.0482
G01 X15.1832 Y-16.0582
G01 X15.0824 Y-16.0656
G01 X15.0019 Y-16.0675
G01 X14.9146 Y-16.0654
G01 X14.8274 Y-16.0589
G01 X14.7407 Y-16.0482
G01 X14.6546 Y-16.0333
G01 X14.5694 Y-16.0142
G01 X14.4852 Y-15.9909
G01 X14.4022 Y-15.9634
G01 X14.3207 Y-15.9320
G01 X14.2409 Y-15.8966
G01 X14.1628 Y-15.8573
G01 X14.0927 Y-15.8177
G01 X14.0130 Y-15.7675
G01 X13.9416 Y-15.7172
G01 X13.8727 Y-15.6635
G01 X13.8117 Y-15.6109
G01 X13.7432 Y-15.5462
G01 X13.6877 Y-15.4879
G01 X13.6212 Y-15.4108
G01 X13.6212 Y-18.2441
G01 X13.6876 Y-18.1671
G01 X13.7431 Y-18.1088
G01 X13.8116 Y-18.0441
G01 X13.8726 Y-17.9915
G01 X13.9415 Y-17.9378
G01 X14.0129 Y-17.8875
G01 X14.0867 Y-17.8407
G01 X14.1627 Y-17.7977
G01 X14.2408 Y-17.7584
G01 X14.3206 Y-17.7230
G01 X14.3957 Y-17.6939
G01 X14.4917 Y-17.6622
G01 X14.5693 Y-17.6408
G01 X14.6545 Y-17.6217
G01 X14.7406 Y-17.6068
G01 X14.8205 Y-17.5968
G01 X14.9213 Y-17.5894
G01 X15.0018 Y-17.5875
G01 X15.0891 Y-17.5896
G01 X15.1763 Y-17.5961
G01 X15.2630 Y-17.6068
G01 X15.3491 Y-17.6217
G01 X15.4276 Y-17.6393
G01 X15.5251 Y-17.6662
G01 X15.6015 Y-17.6916
G01 X15.6830 Y-17.7230
G01 X15.7628 Y-17.7584
G01 X15.8284 Y-17.7913
G01 X17.2499 Y-16.3698
G01 X17.2499 Y-13.0406
G00 Z2.0000
G00 X17.3199 Y-12.8767
G01 F70.00
G01 Z-0.0600
G01 F120.00
G01 X17.3071 Y-12.9001
G01 X17.2904 Y-12.9229
G01 X17.2726 Y-12.9416
G01 X17.2506 Y-12.9594
G01 X17.2264 Y-12.9741
G01 X17.2028 Y-12.9846
G01 X17.1782 Y-12.9920
G01 X17.1503 Y-12.9967
G01 X17.1297 Y-12.9977
G01 X16.1675 Y-12.9977
G01 X16.1417 Y-12.9961
G01 X16.1168 Y-12.9915
G01 X16.1522 Y-13.0222
G01 X16.2092 Y-13.0765
G01 X16.2672 Y-13.1372
G01 X16.3237 Y-13.2027
G01 X16.3769 Y-13.2709
G01 X16.4265 Y-13.3418
G01 X16.4686 Y-13.4084
G01 X16.5075 Y-13.4769
G01 X16.5477 Y-13.5564
G01 X16.5827 Y-13.6355
G01 X16.6136 Y-13.7163
G01 X16.6383 Y-13.7911
G01 X16.6593 Y-13.8670
G01 X16.6790 Y-13.9539
G01 X16.6934 Y-14.0366
G01 X16.7037 Y-14.1199
G01 X16.7100 Y-14.2087
G01 X16.7119 Y-14.2875
G01 X16.7100 Y-14.3663
G01 X16.7039 Y-14.4525
G01 X16.6934 Y-14.5384
G01 X16.6780 Y-14.6261
G01 X16.6607 Y-14.7030
G01 X16.6397 Y-14.7789
G01 X16.6136 Y-14.8587
G01 X16.5817 Y-14.9419
G01 X16.5477 Y-15.0186
G01 X16.5100 Y-15.0936
G01 X16.4659 Y-15.1710
G01 X16.4237 Y-15.2375
G01 X16.3784 Y-15.3020
G01 X16.3270 Y-15.3683
G01 X16.2689 Y-15.4359
G01 X16.2111 Y-15.4967
G01 X16.1503 Y-15.5545
G01 X16.0827 Y-15.6126
G01 X16.0205 Y-15.6610
G01 X15.9562 Y-15.7064
G01 X15.8832 Y-15.7529
G01 X15.8080 Y-15.7956
G01 X15.7330 Y-15.8333
G01 X15.6563 Y-15.8673
G01 X15.5780 Y-15.8975
G01 X15.4983 Y-15.9239
G01 X15.4174 Y-15.9463
G01 X15.3355 Y-15.9646
G01 X15.2528 Y-15.9790
G01 X15.1695 Y-15.9893
G01 X15.0858 Y-15.9954
G01 X15.0019 Y-15.9975
G01 X14.9180 Y-15.9954
G01 X14.8343 Y-15.9893
G01 X14.7510 Y-15.9790
G01 X14.6683 Y-15.9646
G01 X14.5889 Y-15.9469
G01 X14.5055 Y-15.9239
G01 X14.4258 Y-15.8975
G01 X14.3475 Y-15.8673
G01 X14.2708 Y-15.8333
G01 X14.1958 Y-15.7956
G01 X14.1228 Y-15.7542
G01 X14.0519 Y-15.7093
G01 X13.9853 Y-15.6625
G01 X13.9171 Y-15.6093
G01 X13.8535 Y-15.5545
G01 X13.7927 Y-15.4967
G01 X13.7366 Y-15.4378
G01 X13.6801 Y-15.3723
G01 X13.6300 Y-15.3082
G01 X13.5815 Y-15.2397
G01 X13.5504 Y-15.1907
G01 X13.5512 Y-15.2096
G01 X13.5512 Y-18.4452
G01 X13.5504 Y-18.4641
G01 X13.5814 Y-18.4153
G01 X13.6299 Y-18.3468
G01 X13.6800 Y-18.2827
G01 X13.7365 Y-18.2172
G01 X13.7926 Y-18.1583
G01 X13.8534 Y-18.1005
G01 X13.9170 Y-18.0457
G01 X13.9852 Y-17.9925
G01 X14.0518 Y-17.9457
G01 X14.1227 Y-17.9008
G01 X14.1957 Y-17.8594
G01 X14.2707 Y-17.8217
G01 X14.3474 Y-17.7877
G01 X14.4257 Y-17.7575
G01 X14.5054 Y-17.7311
G01 X14.5863 Y-17.7087
G01 X14.6682 Y-17.6904
G01 X14.7509 Y-17.6760
G01 X14.8342 Y-17.6657
G01 X14.9179 Y-17.6596
G01 X15.0018 Y-17.6575
G01 X15.0857 Y-17.6596
G01 X15.1694 Y-17.6657
G01 X15.2502 Y-17.6756
G01 X15.3354 Y-17.6904
G01 X15.4173 Y-17.7087
G01 X15.4982 Y-17.7311
G01 X15.5754 Y-17.7566
G01 X15.6562 Y-17.7877
G01 X15.7306 Y-17.8206
G01 X15.8056 Y-17.8582
G01 X15.8407 Y-17.8779
G01 X17.3199 Y-16.3988
G01 X17.3199 Y-12.8767
G00 Z2.0000
G00 X18.2401 Y-12.3361
G01 F70.00
G01 Z-0.0600
G01 F120.00
G01 X18.2502 Y-12.3171
G01 X18.2617 Y-12.3000
G01 X18.2747 Y-12.2841
G01 X18.2893 Y-12.2695
G01 X18.3073 Y-12.2549
G01 X18.3246 Y-12.2437
G01 X18.3429 Y-12.2342
G01 X18.3624 Y-12.2264
G01 X18.3443 Y-12.2201
G01 X18.3256 Y-12.2115
G01 X18.3078 Y-12.2011
G01 X18.2911 Y-12.1891
G01 X18.2756 Y-12.1754
G01 X18.2633 Y-12.1623
G01 X18.2506 Y-12.1460
G01 X18.2401 Y-12.1296
G01 X18.2401 Y-12.3361
G00 Z2.0000
G00 X18.4303 Y-12.8577
G01 F70.00
G01 Z-0.0600
G01 F120.00
G01 X18.9172 Y-12.8577
G01 X18.9283 Y-12.8567
G01 X18.9391 Y-12.8539
G01 X18.9486 Y-12.8499
G01 X18.9567 Y-12.8450
G01 X18.9918 Y-12.8176
G01 X19.0652 Y-12.7659
G01 X19.1411 Y-12.7179
G01 X19.2193 Y-12.6736
G01 X19.2995 Y-12.6332
G01 X19.3816 Y-12.5968
G01 X19.4654 Y-12.5645
G01 X19.5507 Y-12.5363
G01 X19.6373 Y-12.5124
G01 X19.7242 Y-12.4928
G01 X19.7394 Y-12.4868
G01 X19.7501 Y-12.4798
G01 X19.7588 Y-12.4715
G01 X19.7660 Y-12.4618
G01 X19.7714 Y-12.4511
G01 X19.7750 Y-12.4388
G01 X19.7763 Y-12.4268
G01 X19.7756 Y-12.4148
G01 X19.7726 Y-12.4023
G01 X19.7685 Y-12.3929
G01 X19.7626 Y-12.3834
G01 X19.7559 Y-12.3756
G01 X19.7481 Y-12.3689
G01 X19.7394 Y-12.3634
G01 X19.7291 Y-12.3589
G01 X19.7192 Y-12.3563
G01 X19.7089 Y-12.3551
G01 X18.4303 Y-12.3551
G01 X18.4192 Y-12.3560
G01 X18.4076 Y-12.3589
G01 X18.3981 Y-12.3630
G01 X18.3900 Y-12.3679
G01 X18.3821 Y-12.3744
G01 X18.3757 Y-12.3814
G01 X18.3698 Y-12.3899
G01 X18.3657 Y-12.3983
G01 X18.3624 Y-12.4081
G01 X18.3608 Y-12.4174
G01 X18.3604 Y-12.7912
G01 X18.3624 Y-12.8047
G01 X18.3667 Y-12.8169
G01 X18.3731 Y-12.8280
G01 X18.3821 Y-12.8384
G01 X18.3929 Y-12.8469
G01 X18.4043 Y-12.8527
G01 X18.4175 Y-12.8565
G01 X18.4303 Y-12.8577
G00 Z2.0000
G00 X18.4303 Y-12.9277
G01 F70.00
G01 Z-0.0600
G01 F120.00
G01 X18.9198 Y-12.9277
G01 X18.9318 Y-12.9269
G01 X18.9453 Y-12.9247
G01 X18.9570 Y-12.9217
G01 X18.9683 Y-12.9177
G01 X18.9823 Y-12.9112
G01 X18.9941 Y-12.9041
G01 X19.0335 Y-12.8739
G01 X19.1041 Y-12.8241
G01 X19.1771 Y-12.7779
G01 X19.2523 Y-12.7354
G01 X19.3294 Y-12.6965
G01 X19.4084 Y-12.6615
G01 X19.4890 Y-12.6304
G01 X19.5710 Y-12.6033
G01 X19.6543 Y-12.5803
G01 X19.7470 Y-12.5591
G01 X19.7647 Y-12.5524
G01 X19.7813 Y-12.5434
G01 X19.7911 Y-12.5365
G01 X19.8004 Y-12.5288
G01 X19.8101 Y-12.5191
G01 X19.8178 Y-12.5099
G01 X19.8246 Y-12.5000
G01 X19.8306 Y-12.4896
G01 X19.8357 Y-12.4787
G01 X19.8398 Y-12.4674
G01 X19.8430 Y-12.4558
G01 X19.8451 Y-12.4439
G01 X19.8462 Y-12.4320
G01 X19.8463 Y-12.4199
G01 X19.8453 Y-12.4080
G01 X19.8433 Y-12.3961
G01 X19.8403 Y-12.3845
G01 X19.8364 Y-12.3731
G01 X19.8282 Y-12.3561
G01 X19.8167 Y-12.3390
G01 X19.8041 Y-12.3249
G01 X19.7884 Y-12.3116
G01 X19.7724 Y-12.3016
G01 X19.7535 Y-12.2933
G01 X19.7337 Y-12.2878
G01 X19.7132 Y-12.2853
G01 X18.4286 Y-12.2851
G01 X18.4149 Y-12.2860
G01 X18.4030 Y-12.2878
G01 X18.3913 Y-12.2906
G01 X18.3783 Y-12.2951
G01 X18.3613 Y-12.3033
G01 X18.3469 Y-12.3127
G01 X18.3326 Y-12.3249
G01 X18.3210 Y-12.3376
G01 X18.3102 Y-12.3531
G01 X18.3023 Y-12.3684
G01 X18.2964 Y-12.3845
G01 X18.2924 Y-12.4012
G01 X18.2908 Y-12.4131
G01 X18.2903 Y-12.4251
G01 X18.2908 Y-12.7997
G01 X18.2924 Y-12.8117
G01 X18.2954 Y-12.8251
G01 X18.2991 Y-12.8365
G01 X18.3045 Y-12.8491
G01 X18.3111 Y-12.8612
G01 X18.3189 Y-12.8725
G01 X18.3278 Y-12.8830
G01 X18.3363 Y-12.8915
G01 X18.3456 Y-12.8991
G01 X18.3569 Y-12.9069
G01 X18.3674 Y-12.9128
G01 X18.3799 Y-12.9183
G01 X18.3930 Y-12.9227
G01 X18.4047 Y-12.9254
G01 X18.4166 Y-12.9271
G01 X18.4303 Y-12.9277
G00 Z2.0000
G00 X18.3101 Y-14.1168
G01 F70.00
G01 Z-0.0600
G01 F120.00
G01 X18.3212 Y-14.0263
G01 X18.3348 Y-13.9470
G01 X18.3570 Y-13.8484
G01 X18.3785 Y-13.7708
G01 X18.4060 Y-13.6878
G01 X18.4374 Y-13.6063
G01 X18.4713 Y-13.5296
G01 X18.5121 Y-13.4484
G01 X18.5517 Y-13.3783
G01 X18.6038 Y-13.2957
G01 X18.6522 Y-13.2272
G01 X18.7038 Y-13.1609
G01 X18.7607 Y-13.0947
G01 X18.7861 Y-13.0677
G01 X18.4303 Y-13.0677
G01 X18.4132 Y-13.0672
G01 X18.3858 Y-13.0642
G01 X18.3590 Y-13.0585
G01 X18.3328 Y-13.0502
G01 X18.3101 Y-13.0406
G01 X18.3101 Y-14.1168
G00 Z2.0000
G00 X20.1018 Y-14.2875
G01 F70.00
G01 Z-0.0600
G01 F120.00
G01 X20.1003 Y-14.2799
G01 X20.0960 Y-14.2734
G01 X20.0895 Y-14.2691
G01 X20.0819 Y-14.2676
G01 X20.0743 Y-14.2691
G01 X20.0678 Y-14.2734
G01 X20.0635 Y-14.2799
G01 X20.0620 Y-14.2875
G01 X20.0635 Y-14.2951
G01 X20.0678 Y-14.3016
G01 X20.0743 Y-14.3059
G01 X20.0819 Y-14.3074
G01 X20.0895 Y-14.3059
G01 X20.0960 Y-14.3016
G01 X20.1003 Y-14.2951
G01 X20.1018 Y-14.2875
G00 Z2.0000
G00 X20.1718 Y-14.2875
G01 F70.00
G01 Z-0.0600
G01 F120.00
G01 X20.1701 Y-14.2700
G01 X20.1650 Y-14.2531
G01 X20.1567 Y-14.2375
G01 X20.1455 Y-14.2239
G01 X20.1319 Y-14.2127
G01 X20.1163 Y-14.2044
G01 X20.0994 Y-14.1993
G01 X20.0819 Y-14.1976
G01 X20.0644 Y-14.1993
G01 X20.0475 Y-14.2044
G01 X20.0319 Y-14.2127
G01 X20.0183 Y-14.2239
G01 X20.0071 Y-14.2375
G01 X19.9988 Y-14.2531
G01 X19.9937 Y-14.2700
G01 X19.9920 Y-14.2875
G01 X19.9937 Y-14.3050
G01 X19.9988 Y-14.3219
G01 X20.0071 Y-14.3375
G01 X20.0183 Y-14.3511
G01 X20.0319 Y-14.3623
G01 X20.0475 Y-14.3706
G01 X20.0644 Y-14.3757
G01 X20.0819 Y-14.3774
G01 X20.0994 Y-14.3757
G01 X20.1163 Y-14.3706
G01 X20.1319 Y-14.3623
G01 X20.1455 Y-14.3511
G01 X20.1567 Y-14.3375
G01 X20.1650 Y-14.3219
G01 X20.1701 Y-14.3050
G01 X20.1718 Y-14.2875
G00 Z2.0000
G00 X20.2419 Y-14.2875
G01 F70.00
G01 Z-0.0600
G01 F120.00
G01 X20.2411 Y-14.2718
G01 X20.2388 Y-14.2563
G01 X20.2350 Y-14.2411
G01 X20.2297 Y-14.2263
G01 X20.2230 Y-14.2121
G01 X20.2149 Y-14.1986
G01 X20.2055 Y-14.1860
G01 X20.1950 Y-14.1744
G01 X20.1834 Y-14.1639
G01 X20.1708 Y-14.1545
G01 X20.1573 Y-14.1464
G01 X20.1431 Y-14.1397
G01 X20.1283 Y-14.1344
G01 X20.1131 Y-14.1306
G01 X20.0976 Y-14.1283
G01 X20.0819 Y-14.1275
G01 X20.0662 Y-14.1283
G01 X20.0507 Y-14.1306
G01 X20.0355 Y-14.1344
G01 X20.0207 Y-14.1397
G01 X20.0065 Y-14.1464
G01 X19.9930 Y-14.1545
G01 X19.9804 Y-14.1639
G01 X19.9688 Y-14.1744
G01 X19.9583 Y-14.1860
G01 X19.9489 Y-14.1986
G01 X19.9408 Y-14.2121
G01 X19.9341 Y-14.2263
G01 X19.9288 Y-14.2411
G01 X19.9250 Y-14.2563
G01 X19.9227 Y-14.2718
G01 X19.9219 Y-14.2875
G01 X19.9227 Y-14.3032
G01 X19.9250 Y-14.3187
G01 X19.9288 Y-14.3339
G01 X19.9341 Y-14.3487
G01 X19.9408 Y-14.3629
G01 X19.9489 Y-14.3764
G01 X19.9583 Y-14.3890
G01 X19.9688 Y-14.4006
G01 X19.9804 Y-14.4111
G01 X19.9930 Y-14.4205
G01 X20.0065 Y-14.4286
G01 X20.0207 Y-14.4353
G01 X20.0355 Y-14.4406
G01 X20.0507 Y-14.4444
G01 X20.0662 Y-14.4467
G01 X20.0819 Y-14.4475
G01 X20.0976 Y-14.4467
G01 X20.1131 Y-14.4444
G01 X20.1283 Y-14.4406
G01 X20.1431 Y-14.4353
G01 X20.1573 Y-14.4286
G01 X20.1708 Y-14.4205
G01 X20.1834 Y-14.4111
G01 X20.1950 Y-14.4006
G01 X20.2055 Y-14.3890
G01 X20.2149 Y-14.3764
G01 X20.2230 Y-14.3629
G01 X20.2297 Y-14.3487
G01 X20.2350 Y-14.3339
G01 X20.2388 Y-14.3187
G01 X20.2411 Y-14.3032
G01 X20.2419 Y-14.2875
G00 Z2.0000
G00 X20.3119 Y-14.2875
G01 F70.00
G01 Z-0.0600
G01 F120.00
G01 X20.3108 Y-14.2650
G01 X20.3075 Y-14.2426
G01 X20.3020 Y-14.2207
G01 X20.2944 Y-14.1995
G01 X20.2847 Y-14.1791
G01 X20.2731 Y-14.1597
G01 X20.2597 Y-14.1416
G01 X20.2445 Y-14.1249
G01 X20.2278 Y-14.1097
G01 X20.2097 Y-14.0963
G01 X20.1903 Y-14.0847
G01 X20.1699 Y-14.0750
G01 X20.1487 Y-14.0674
G01 X20.1268 Y-14.0619
G01 X20.1044 Y-14.0586
G01 X20.0819 Y-14.0575
G01 X20.0594 Y-14.0586
G01 X20.0370 Y-14.0619
G01 X20.0151 Y-14.0674
G01 X19.9939 Y-14.0750
G01 X19.9735 Y-14.0847
G01 X19.9541 Y-14.0963
G01 X19.9360 Y-14.1097
G01 X19.9193 Y-14.1249
G01 X19.9041 Y-14.1416
G01 X19.8907 Y-14.1597
G01 X19.8791 Y-14.1791
G01 X19.8694 Y-14.1995
G01 X19.8618 Y-14.2207
G01 X19.8563 Y-14.2426
G01 X19.8530 Y-14.2650
G01 X19.8519 Y-14.2875
G01 X19.8530 Y-14.3100
G01 X19.8563 Y-14.3324
G01 X19.8618 Y-14.3543
G01 X19.8694 Y-14.3755
G01 X19.8791 Y-14.3959
G01 X19.8907 Y-14.4153
G01 X19.9041 Y-14.4334
G01 X19.9193 Y-14.4501
G01 X19.9360 Y-14.4653
G01 X19.9541 Y-14.4787
G01 X19.9735 Y-14.4903
G01 X19.9939 Y-14.5000
G01 X20.0151 Y-14.5076
G01 X20.0370 Y-14.5131
G01 X20.0594 Y-14.5164
G01 X20.0819 Y-14.5175
G01 X20.1044 Y-14.5164
G01 X20.1268 Y-14.5131
G01 X20.1487 Y-14.5076
G01 X20.1699 Y-14.5000
G01 X20.1903 Y-14.4903
G01 X20.2097 Y-14.4787
G01 X20.2278 Y-14.4653
G01 X20.2445 Y-14.4501
G01 X20.2597 Y-14.4334
G01 X20.2731 Y-14.4153
G01 X20.2847 Y-14.3959
G01 X20.2944 Y-14.3755
G01 X20.3020 Y-14.3543
G01 X20.3075 Y-14.3324
G01 X20.3108 Y-14.3100
G01 X20.3119 Y-14.2875
G00 Z2.0000
G00 X21.3754 Y-13.3983
G01 F70.00
G01 Z-0.0600
G01 F120.00
G01 X21.3429 Y-13.3523
G01 X21.2955 Y-13.2915
G01 X21.2452 Y-13.2332
G01 X21.1914 Y-13.1767
G01 X21.1362 Y-13.1242
G01 X21.0779 Y-13.0739
G01 X21.0171 Y-13.0265
G01 X20.9534 Y-12.9816
G01 X20.8890 Y-12.9409
G01 X20.8220 Y-12.9029
G01 X20.7532 Y-12.8682
G01 X20.6827 Y-12.8370
G01 X20.6108 Y-12.8093
G01 X20.5376 Y-12.7851
G01 X20.4634 Y-12.7646
G01 X20.3873 Y-12.7475
