(G-CODE GENERATED BY FLATCAM v8.993 - www.flatcam.org - Version Date: 2020/06/05)

(Name: Power Stab AMS1117-5 AMS1117-3_Ф1_верх.gbr_iso_combined_cnc)
(Type: G-code from Geometry)
(Units: MM)

(Created on Monday, 28 September 2020 at 19:52)

(This preprocessor is the default preprocessor used by FlatCAM.)
(It is made to work with MACH3 compatible motion controllers.)

(TOOL DIAMETER: 0.14 mm)
(Feedrate_XY: 60.0 mm/min)
(Feedrate_Z: 70.0 mm/min)
(Feedrate rapids 1500.0 mm/min)

(Z_Cut: -0.07 mm)
(Z_Move: 2.0 mm)
(Z Start: None mm)
(Z End: 25.0 mm)
(Steps per circle: 128)
(Preprocessor Geometry: default)

(X range:   -0.2800 ...   40.2800  mm)
(Y range:  -25.2800 ...    0.2800  mm)

(Spindle Speed: None RPM)
G21
G90
G94



G01 F60.00
G00 Z2.0000

M03
G00 X-0.0700 Y-0.0000
G01 F70.00
G01 Z-0.0700
G01 F60.00
G01 X-0.0700 Y-25.0000
G01 X-0.0695 Y-25.0086
G01 X-0.0679 Y-25.0170
G01 X-0.0653 Y-25.0252
G01 X-0.0613 Y-25.0338
G01 X-0.0562 Y-25.0417
G01 X-0.0507 Y-25.0483
G01 X-0.0444 Y-25.0541
G01 X-0.0367 Y-25.0596
G01 X-0.0284 Y-25.0640
G01 X-0.0195 Y-25.0672
G01 X-0.0103 Y-25.0692
G01 X0.0000 Y-25.0700
G01 X40.0000 Y-25.0700
G01 X40.0086 Y-25.0695
G01 X40.0178 Y-25.0677
G01 X40.0260 Y-25.0650
G01 X40.0345 Y-25.0609
G01 X40.0417 Y-25.0562
G01 X40.0483 Y-25.0507
G01 X40.0541 Y-25.0444
G01 X40.0596 Y-25.0367
G01 X40.0640 Y-25.0284
G01 X40.0675 Y-25.0187
G01 X40.0694 Y-25.0094
G01 X40.0700 Y-25.0000
G01 X40.0700 Y-0.0000
G01 X40.0695 Y0.0086
G01 X40.0679 Y0.0170
G01 X40.0650 Y0.0260
G01 X40.0613 Y0.0338
G01 X40.0567 Y0.0410
G01 X40.0507 Y0.0483
G01 X40.0437 Y0.0547
G01 X40.0367 Y0.0596
G01 X40.0284 Y0.0640
G01 X40.0195 Y0.0672
G01 X40.0103 Y0.0692
G01 X40.0000 Y0.0700
G01 X0.0000 Y0.0700
G01 X-0.0137 Y0.0687
G01 X-0.0268 Y0.0647
G01 X-0.0389 Y0.0582
G01 X-0.0495 Y0.0495
G01 X-0.0582 Y0.0389
G01 X-0.0647 Y0.0268
G01 X-0.0687 Y0.0137
G01 X-0.0700 Y-0.0000
G00 Z2.0000
G00 X-0.1400 Y-0.0000
G01 F70.00
G01 Z-0.0700
G01 F60.00
G01 X-0.1400 Y-25.0000
G01 X-0.1389 Y-25.0171
G01 X-0.1354 Y-25.0357
G01 X-0.1300 Y-25.0520
G01 X-0.1226 Y-25.0675
G01 X-0.1124 Y-25.0834
G01 X-0.1014 Y-25.0965
G01 X-0.0875 Y-25.1093
G01 X-0.0734 Y-25.1192
G01 X-0.0567 Y-25.1280
G01 X-0.0390 Y-25.1345
G01 X-0.0205 Y-25.1385
G01 X0.0000 Y-25.1400
G01 X40.0000 Y-25.1400
G01 X40.0188 Y-25.1387
G01 X40.0357 Y-25.1354
G01 X40.0520 Y-25.1300
G01 X40.0675 Y-25.1226
G01 X40.0834 Y-25.1124
G01 X40.0965 Y-25.1014
G01 X40.1082 Y-25.0888
G01 X40.1192 Y-25.0734
G01 X40.1280 Y-25.0567
G01 X40.1345 Y-25.0390
G01 X40.1385 Y-25.0205
G01 X40.1400 Y-25.0000
G01 X40.1400 Y-0.0000
G01 X40.1389 Y0.0171
G01 X40.1358 Y0.0340
G01 X40.1306 Y0.0504
G01 X40.1226 Y0.0675
G01 X40.1124 Y0.0834
G01 X40.1014 Y0.0965
G01 X40.0888 Y0.1082
G01 X40.0734 Y0.1192
G01 X40.0567 Y0.1280
G01 X40.0390 Y0.1345
G01 X40.0188 Y0.1387
G01 X40.0000 Y0.1400
G01 X0.0000 Y0.1400
G01 X-0.0137 Y0.1393
G01 X-0.0273 Y0.1373
G01 X-0.0406 Y0.1340
G01 X-0.0536 Y0.1293
G01 X-0.0660 Y0.1235
G01 X-0.0778 Y0.1164
G01 X-0.0888 Y0.1082
G01 X-0.0990 Y0.0990
G01 X-0.1082 Y0.0888
G01 X-0.1164 Y0.0778
G01 X-0.1235 Y0.0660
G01 X-0.1293 Y0.0536
G01 X-0.1340 Y0.0406
G01 X-0.1373 Y0.0273
G01 X-0.1393 Y0.0137
G01 X-0.1400 Y-0.0000
G00 Z2.0000
G00 X-0.2100 Y-0.0000
G01 F70.00
G01 Z-0.0700
G01 F60.00
G01 X-0.2100 Y-25.0000
G01 X-0.2081 Y-25.0283
G01 X-0.2031 Y-25.0535
G01 X-0.1950 Y-25.0780
G01 X-0.1827 Y-25.1035
G01 X-0.1687 Y-25.1251
G01 X-0.1503 Y-25.1467
G01 X-0.1312 Y-25.1640
G01 X-0.1102 Y-25.1788
G01 X-0.0851 Y-25.1920
G01 X-0.0707 Y-25.1977
G01 X-0.0560 Y-25.2024
G01 X-0.0283 Y-25.2081
G01 X0.0000 Y-25.2100
G01 X40.0000 Y-25.2100
G01 X40.0257 Y-25.2084
G01 X40.0510 Y-25.2037
G01 X40.0756 Y-25.1959
G01 X40.1013 Y-25.1840
G01 X40.1251 Y-25.1687
G01 X40.1448 Y-25.1521
G01 X40.1623 Y-25.1332
G01 X40.1788 Y-25.1102
G01 X40.1920 Y-25.0851
G01 X40.2017 Y-25.0585
G01 X40.2054 Y-25.0435
G01 X40.2081 Y-25.0283
G01 X40.2100 Y-25.0000
G01 X40.2100 Y-0.0000
G01 X40.2084 Y0.0257
G01 X40.2031 Y0.0535
G01 X40.1950 Y0.0780
G01 X40.1840 Y0.1013
G01 X40.1687 Y0.1251
G01 X40.1521 Y0.1448
G01 X40.1332 Y0.1623
G01 X40.1102 Y0.1788
G01 X40.0851 Y0.1920
G01 X40.0707 Y0.1977
G01 X40.0560 Y0.2024
G01 X40.0283 Y0.2081
G01 X40.0000 Y0.2100
G01 X0.0000 Y0.2100
G01 X-0.0206 Y0.2090
G01 X-0.0410 Y0.2060
G01 X-0.0610 Y0.2010
G01 X-0.0804 Y0.1940
G01 X-0.0990 Y0.1852
G01 X-0.1167 Y0.1746
G01 X-0.1332 Y0.1623
G01 X-0.1485 Y0.1485
G01 X-0.1623 Y0.1332
G01 X-0.1746 Y0.1167
G01 X-0.1852 Y0.0990
G01 X-0.1940 Y0.0804
G01 X-0.2010 Y0.0610
G01 X-0.2060 Y0.0410
G01 X-0.2090 Y0.0206
G01 X-0.2100 Y-0.0000
G00 Z2.0000
G00 X-0.2800 Y-0.0000
G01 F70.00
G01 Z-0.0700
G01 F60.00
G01 X-0.2800 Y-25.0000
G01 X-0.2795 Y-25.0172
G01 X-0.2779 Y-25.0343
G01 X-0.2753 Y-25.0513
G01 X-0.2716 Y-25.0680
G01 X-0.2669 Y-25.0846
G01 X-0.2612 Y-25.1008
G01 X-0.2531 Y-25.1197
G01 X-0.2453 Y-25.1350
G01 X-0.2366 Y-25.1498
G01 X-0.2269 Y-25.1640
G01 X-0.2164 Y-25.1776
G01 X-0.2028 Y-25.1931
G01 X-0.1880 Y-25.2075
G01 X-0.1750 Y-25.2186
G01 X-0.1612 Y-25.2289
G01 X-0.1469 Y-25.2384
G01 X-0.1320 Y-25.2469
G01 X-0.1135 Y-25.2560
G01 X-0.0943 Y-25.2636
G01 X-0.0780 Y-25.2689
G01 X-0.0613 Y-25.2732
G01 X-0.0411 Y-25.2770
G01 X-0.0206 Y-25.2792
G01 X0.0000 Y-25.2800
G01 X40.0000 Y-25.2800
G01 X40.0172 Y-25.2795
G01 X40.0343 Y-25.2779
G01 X40.0546 Y-25.2746
G01 X40.0714 Y-25.2708
G01 X40.0911 Y-25.2648
G01 X40.1072 Y-25.2587
G01 X40.1228 Y-25.2516
G01 X40.1380 Y-25.2436
G01 X40.1527 Y-25.2347
G01 X40.1668 Y-25.2249
G01 X40.1803 Y-25.2142
G01 X40.1931 Y-25.2028
G01 X40.2075 Y-25.1880
G01 X40.2186 Y-25.1750
G01 X40.2289 Y-25.1612
G01 X40.2384 Y-25.1469
G01 X40.2485 Y-25.1290
G01 X40.2574 Y-25.1103
G01 X40.2648 Y-25.0911
G01 X40.2699 Y-25.0747
G01 X40.2746 Y-25.0546
G01 X40.2775 Y-25.0377
G01 X40.2792 Y-25.0206
G01 X40.2800 Y-25.0000
G01 X40.2800 Y-0.0000
G01 X40.2795 Y0.0172
G01 X40.2779 Y0.0343
G01 X40.2753 Y0.0513
G01 X40.2716 Y0.0680
G01 X40.2669 Y0.0846
G01 X40.2612 Y0.1008
G01 X40.2531 Y0.1197
G01 X40.2453 Y0.1350
G01 X40.2366 Y0.1498
G01 X40.2269 Y0.1640
G01 X40.2164 Y0.1776
G01 X40.2028 Y0.1931
G01 X40.1906 Y0.2051
G01 X40.1776 Y0.2164
G01 X40.1612 Y0.2289
G01 X40.1469 Y0.2384
G01 X40.1290 Y0.2485
G01 X40.1103 Y0.2574
G01 X40.0943 Y0.2636
G01 X40.0747 Y0.2699
G01 X40.0580 Y0.2739
G01 X40.0377 Y0.2775
G01 X40.0206 Y0.2792
G01 X40.0000 Y0.2800
G01 X0.0000 Y0.2800
G01 X-0.0274 Y0.2787
G01 X-0.0546 Y0.2746
G01 X-0.0813 Y0.2679
G01 X-0.1072 Y0.2587
G01 X-0.1320 Y0.2469
G01 X-0.1556 Y0.2328
G01 X-0.1776 Y0.2164
G01 X-0.1980 Y0.1980
G01 X-0.2164 Y0.1776
G01 X-0.2328 Y0.1556
G01 X-0.2469 Y0.1320
G01 X-0.2587 Y0.1072
G01 X-0.2679 Y0.0813
G01 X-0.2746 Y0.0546
G01 X-0.2787 Y0.0274
G01 X-0.2800 Y-0.0000
G00 Z2.0000
G00 X1.9342 Y-2.3602
G01 F70.00
G01 Z-0.0700
G01 F60.00
G01 X1.9425 Y-2.3519
G01 X1.9342 Y-2.3436
G01 X1.9259 Y-2.3519
G01 X1.9342 Y-2.3602
G00 Z2.0000
G00 X1.9673 Y-2.6399
G01 F70.00
G01 Z-0.0700
G01 F60.00
G01 X1.9676 Y-2.4481
G01 X1.9703 Y-2.4346
G01 X1.9755 Y-2.4220
G01 X1.9831 Y-2.4105
G01 X1.9922 Y-2.4014
G01 X2.0013 Y-2.3949
G01 X2.0113 Y-2.3900
G01 X2.0219 Y-2.3867
G01 X2.0330 Y-2.3851
G01 X2.2856 Y-2.3846
G01 X2.2964 Y-2.3810
G01 X2.3018 Y-2.3774
G01 X2.3063 Y-2.3729
G01 X2.3119 Y-2.3630
G01 X2.3135 Y-2.3567
G01 X2.3138 Y-2.3503
G01 X2.3113 Y-2.3393
G01 X2.3053 Y-2.3297
G01 X2.2964 Y-2.3228
G01 X2.2856 Y-2.3192
G01 X2.0330 Y-2.3187
G01 X2.0219 Y-2.3171
G01 X2.0113 Y-2.3138
G01 X2.0013 Y-2.3089
G01 X1.9922 Y-2.3024
G01 X1.9831 Y-2.2933
G01 X1.9755 Y-2.2818
G01 X1.9703 Y-2.2692
G01 X1.9676 Y-2.2557
G01 X1.9673 Y-2.0640
G01 X1.9666 Y-2.0567
G01 X1.9625 Y-2.0461
G01 X1.9552 Y-2.0376
G01 X1.9453 Y-2.0320
G01 X1.9390 Y-2.0304
G01 X1.9326 Y-2.0301
G01 X1.9216 Y-2.0326
G01 X1.9120 Y-2.0386
G01 X1.9051 Y-2.0475
G01 X1.9018 Y-2.0567
G01 X1.9011 Y-2.0640
G01 X1.9008 Y-2.2557
G01 X1.8984 Y-2.2683
G01 X1.8933 Y-2.2811
G01 X1.8858 Y-2.2926
G01 X1.8769 Y-2.3019
G01 X1.8679 Y-2.3084
G01 X1.8579 Y-2.3135
G01 X1.8473 Y-2.3170
G01 X1.8354 Y-2.3187
G01 X1.5827 Y-2.3192
G01 X1.5764 Y-2.3208
G01 X1.5705 Y-2.3236
G01 X1.5620 Y-2.3309
G01 X1.5584 Y-2.3363
G01 X1.5559 Y-2.3423
G01 X1.5545 Y-2.3535
G01 X1.5570 Y-2.3645
G01 X1.5630 Y-2.3741
G01 X1.5719 Y-2.3810
G01 X1.5827 Y-2.3846
G01 X1.8346 Y-2.3850
G01 X1.8440 Y-2.3861
G01 X1.8531 Y-2.3885
G01 X1.8626 Y-2.3924
G01 X1.8707 Y-2.3972
G01 X1.8818 Y-2.4067
G01 X1.8907 Y-2.4182
G01 X1.8971 Y-2.4314
G01 X1.9006 Y-2.4464
G01 X1.9011 Y-2.4550
G01 X1.9011 Y-2.6399
G01 X1.9018 Y-2.6472
G01 X1.9037 Y-2.6534
G01 X1.9097 Y-2.6630
G01 X1.9186 Y-2.6699
G01 X1.9294 Y-2.6735
G01 X1.9406 Y-2.6732
G01 X1.9512 Y-2.6691
G01 X1.9597 Y-2.6618
G01 X1.9653 Y-2.6519
G01 X1.9669 Y-2.6456
G01 X1.9673 Y-2.6399
G00 Z2.0000
G00 X2.7431 Y-1.7579
G01 F70.00
G01 Z-0.0700
G01 F60.00
G01 X2.6573 Y-1.9008
G01 X2.6541 Y-1.9074
G01 X2.6525 Y-1.9137
G01 X2.6522 Y-1.9202
G01 X2.6532 Y-1.9266
G01 X2.6553 Y-1.9327
G01 X2.6587 Y-1.9383
G01 X2.6630 Y-1.9431
G01 X2.6682 Y-1.9469
G01 X2.6740 Y-1.9497
G01 X2.6836 Y-1.9516
G01 X2.6948 Y-1.9502
G01 X2.7035 Y-1.9461
G01 X2.7107 Y-1.9396
G01 X2.7842 Y-1.8181
G01 X2.7915 Y-1.8086
G01 X2.8004 Y-1.8006
G01 X2.8075 Y-1.7959
G01 X2.8151 Y-1.7920
G01 X2.9397 Y-1.7400
G01 X2.9504 Y-1.7367
G01 X2.9650 Y-1.7350
G01 X3.0979 Y-1.7350
G01 X3.1141 Y-1.7369
G01 X3.1248 Y-1.7403
G01 X3.2510 Y-1.7931
G01 X3.2592 Y-1.7977
G01 X3.2661 Y-1.8028
G01 X3.2728 Y-1.8093
G01 X3.2782 Y-1.8160
G01 X3.3363 Y-1.9126
G01 X3.3404 Y-1.9211
G01 X3.3433 Y-1.9301
G01 X3.3454 Y-1.9454
G01 X3.3454 Y-2.0363
G01 X3.3439 Y-2.0491
G01 X3.3401 Y-2.0614
G01 X3.3359 Y-2.0698
G01 X3.2801 Y-2.1629
G01 X3.2740 Y-2.1711
G01 X3.2667 Y-2.1784
G01 X3.2585 Y-2.1845
G01 X3.2495 Y-2.1894
G01 X3.1015 Y-2.2514
G01 X3.0940 Y-2.2575
G01 X3.0886 Y-2.2656
G01 X3.0858 Y-2.2749
G01 X3.0856 Y-2.2829
G01 X3.0874 Y-2.2908
G01 X3.0910 Y-2.2980
G01 X3.0963 Y-2.3041
G01 X3.1029 Y-2.3088
G01 X3.2510 Y-2.3708
G01 X3.2648 Y-2.3794
G01 X3.2762 Y-2.3909
G01 X3.3359 Y-2.4897
G01 X3.3424 Y-2.5046
G01 X3.3446 Y-2.5138
G01 X3.3454 Y-2.5232
G01 X3.3451 Y-2.6191
G01 X3.3422 Y-2.6334
G01 X3.3364 Y-2.6468
G01 X3.2801 Y-2.7407
G01 X3.2734 Y-2.7496
G01 X3.2661 Y-2.7567
G01 X3.2578 Y-2.7628
G01 X3.2494 Y-2.7672
G01 X3.1248 Y-2.8191
G01 X3.1133 Y-2.8227
G01 X3.1014 Y-2.8244
G01 X2.9649 Y-2.8244
G01 X2.9521 Y-2.8231
G01 X2.9397 Y-2.8194
G01 X2.8097 Y-2.7649
G01 X2.7964 Y-2.7556
G01 X2.7861 Y-2.7442
G01 X2.7127 Y-2.6224
G01 X2.7061 Y-2.6153
G01 X2.6963 Y-2.6097
G01 X2.6868 Y-2.6078
G01 X2.6772 Y-2.6088
G01 X2.6682 Y-2.6125
G01 X2.6607 Y-2.6186
G01 X2.6547 Y-2.6282
G01 X2.6523 Y-2.6376
G01 X2.6528 Y-2.6473
G01 X2.6561 Y-2.6564
G01 X2.7431 Y-2.8016
G01 X2.7464 Y-2.8063
G01 X2.7509 Y-2.8108
G01 X2.7600 Y-2.8161
G01 X2.9371 Y-2.8895
G01 X2.9461 Y-2.8906
G01 X3.1176 Y-2.8906
G01 X3.1250 Y-2.8899
G01 X3.1320 Y-2.8877
G01 X3.3075 Y-2.8144
G01 X3.3153 Y-2.8086
G01 X3.3207 Y-2.8016
G01 X3.4064 Y-2.6585
G01 X3.4096 Y-2.6519
G01 X3.4114 Y-2.6440
G01 X3.4116 Y-2.4973
G01 X3.4101 Y-2.4868
G01 X3.4064 Y-2.4787
G01 X3.3207 Y-2.3356
G01 X3.3092 Y-2.3214
G01 X3.3041 Y-2.3134
G01 X3.3004 Y-2.3057
G01 X3.2975 Y-2.2967
G01 X3.2959 Y-2.2883
G01 X3.2954 Y-2.2797
G01 X3.2959 Y-2.2711
G01 X3.2975 Y-2.2627
G01 X3.3001 Y-2.2545
G01 X3.3041 Y-2.2460
G01 X3.3092 Y-2.2380
G01 X3.3207 Y-2.2238
G01 X3.4064 Y-2.0808
G01 X3.4101 Y-2.0727
G01 X3.4116 Y-2.0622
G01 X3.4116 Y-1.9195
G01 X3.4105 Y-1.9106
G01 X3.4076 Y-1.9030
G01 X3.3207 Y-1.7579
G01 X3.3174 Y-1.7533
G01 X3.3129 Y-1.7487
G01 X3.3038 Y-1.7434
G01 X3.1320 Y-1.6717
G01 X3.1250 Y-1.6695
G01 X3.1176 Y-1.6688
G01 X2.9461 Y-1.6688
G01 X2.9371 Y-1.6699
G01 X2.7577 Y-1.7444
G01 X2.7497 Y-1.7497
G01 X2.7431 Y-1.7579
G00 Z2.0000
G00 X3.2255 Y-2.2752
G01 F70.00
G01 Z-0.0700
G01 F60.00
G01 X3.2146 Y-2.2797
G01 X3.2255 Y-2.2842
G01 X3.2255 Y-2.2752
G00 Z2.0000
G00 X3.7498 Y-2.8566
G01 F70.00
G01 Z-0.0700
G01 F60.00
G01 X3.7513 Y-2.8671
G01 X3.7564 Y-2.8772
G01 X3.7645 Y-2.8850
G01 X3.7749 Y-2.8895
G01 X3.7838 Y-2.8906
G01 X3.8538 Y-2.8905
G01 X3.8602 Y-2.8895
G01 X3.8678 Y-2.8866
G01 X3.8744 Y-2.8820
G01 X3.8797 Y-2.8759
G01 X3.8833 Y-2.8686
G01 X3.8849 Y-2.8623
G01 X3.8852 Y-2.7981
G01 X3.8842 Y-2.7917
G01 X3.8813 Y-2.7841
G01 X3.8767 Y-2.7775
G01 X3.8706 Y-2.7722
G01 X3.8633 Y-2.7686
G01 X3.8554 Y-2.7668
G01 X3.7813 Y-2.7667
G01 X3.7749 Y-2.7677
G01 X3.7673 Y-2.7706
G01 X3.7607 Y-2.7752
G01 X3.7564 Y-2.7800
G01 X3.7530 Y-2.7856
G01 X3.7505 Y-2.7933
G01 X3.7498 Y-2.8006
G01 X3.7498 Y-2.8566
G00 Z2.0000
G00 X4.7969 Y-2.2752
G01 F70.00
G01 Z-0.0700
G01 F60.00
G01 X4.7860 Y-2.2797
G01 X4.7969 Y-2.2842
G01 X4.7969 Y-2.2752
G00 Z2.0000
G00 X4.3145 Y-1.7579
G01 F70.00
G01 Z-0.0700
G01 F60.00
G01 X4.2287 Y-1.9008
G01 X4.2255 Y-1.9074
G01 X4.2239 Y-1.9137
G01 X4.2236 Y-1.9202
G01 X4.2246 Y-1.9266
G01 X4.2267 Y-1.9327
G01 X4.2301 Y-1.9383
G01 X4.2344 Y-1.9431
G01 X4.2396 Y-1.9469
G01 X4.2454 Y-1.9497
G01 X4.2550 Y-1.9516
G01 X4.2662 Y-1.9502
G01 X4.2749 Y-1.9461
G01 X4.2821 Y-1.9396
G01 X4.3556 Y-1.8181
G01 X4.3629 Y-1.8086
G01 X4.3718 Y-1.8006
G01 X4.3789 Y-1.7959
G01 X4.3865 Y-1.7920
G01 X4.5111 Y-1.7400
G01 X4.5218 Y-1.7367
G01 X4.5364 Y-1.7350
G01 X4.6693 Y-1.7350
G01 X4.6855 Y-1.7369
G01 X4.6962 Y-1.7403
G01 X4.8224 Y-1.7931
G01 X4.8299 Y-1.7972
G01 X4.8375 Y-1.8028
G01 X4.8437 Y-1.8087
G01 X4.8496 Y-1.8160
G01 X4.9077 Y-1.9126
G01 X4.9118 Y-1.9211
G01 X4.9147 Y-1.9301
G01 X4.9168 Y-1.9454
G01 X4.9168 Y-2.0363
G01 X4.9153 Y-2.0491
G01 X4.9115 Y-2.0614
G01 X4.9073 Y-2.0698
G01 X4.8515 Y-2.1629
G01 X4.8454 Y-2.1711
G01 X4.8381 Y-2.1784
G01 X4.8299 Y-2.1845
G01 X4.8209 Y-2.1894
G01 X4.6729 Y-2.2514
G01 X4.6654 Y-2.2575
G01 X4.6608 Y-2.2642
G01 X4.6575 Y-2.2733
G01 X4.6570 Y-2.2829
G01 X4.6588 Y-2.2908
G01 X4.6624 Y-2.2980
G01 X4.6677 Y-2.3041
G01 X4.6743 Y-2.3088
G01 X4.8224 Y-2.3708
G01 X4.8362 Y-2.3794
G01 X4.8476 Y-2.3909
G01 X4.9073 Y-2.4897
G01 X4.9138 Y-2.5046
G01 X4.9160 Y-2.5138
G01 X4.9168 Y-2.5232
G01 X4.9165 Y-2.6191
G01 X4.9136 Y-2.6334
G01 X4.9078 Y-2.6468
G01 X4.8515 Y-2.7407
G01 X4.8448 Y-2.7496
G01 X4.8375 Y-2.7567
G01 X4.8299 Y-2.7623
G01 X4.8208 Y-2.7672
G01 X4.6962 Y-2.8191
G01 X4.6847 Y-2.8227
G01 X4.6728 Y-2.8244
G01 X4.5363 Y-2.8244
G01 X4.5235 Y-2.8231
G01 X4.5111 Y-2.8194
G01 X4.3811 Y-2.7649
G01 X4.3678 Y-2.7556
G01 X4.3575 Y-2.7442
G01 X4.2841 Y-2.6224
G01 X4.2775 Y-2.6153
G01 X4.2677 Y-2.6097
G01 X4.2582 Y-2.6078
G01 X4.2486 Y-2.6088
G01 X4.2396 Y-2.6125
G01 X4.2321 Y-2.6186
G01 X4.2267 Y-2.6267
G01 X4.2239 Y-2.6360
G01 X4.2242 Y-2.6473
G01 X4.2275 Y-2.6564
G01 X4.3145 Y-2.8016
G01 X4.3178 Y-2.8063
G01 X4.3223 Y-2.8108
G01 X4.3314 Y-2.8161
G01 X4.5085 Y-2.8895
G01 X4.5175 Y-2.8906
G01 X4.6890 Y-2.8906
G01 X4.6964 Y-2.8899
G01 X4.7034 Y-2.8877
G01 X4.8789 Y-2.8144
G01 X4.8867 Y-2.8086
G01 X4.8921 Y-2.8016
G01 X4.9778 Y-2.6585
G01 X4.9810 Y-2.6519
G01 X4.9828 Y-2.6440
G01 X4.9830 Y-2.4973
G01 X4.9815 Y-2.4868
G01 X4.9778 Y-2.4787
G01 X4.8921 Y-2.3356
G01 X4.8806 Y-2.3214
G01 X4.8755 Y-2.3134
G01 X4.8718 Y-2.3057
G01 X4.8691 Y-2.2975
G01 X4.8673 Y-2.2883
G01 X4.8668 Y-2.2797
G01 X4.8673 Y-2.2711
G01 X4.8691 Y-2.2619
G01 X4.8718 Y-2.2537
G01 X4.8755 Y-2.2460
G01 X4.8806 Y-2.2380
G01 X4.8921 Y-2.2238
G01 X4.9778 Y-2.0808
G01 X4.9815 Y-2.0727
G01 X4.9830 Y-2.0622
G01 X4.9830 Y-1.9195
G01 X4.9819 Y-1.9106
G01 X4.9790 Y-1.9030
G01 X4.8921 Y-1.7579
G01 X4.8888 Y-1.7533
G01 X4.8843 Y-1.7487
G01 X4.8752 Y-1.7434
G01 X4.7034 Y-1.6717
G01 X4.6964 Y-1.6695
G01 X4.6890 Y-1.6688
G01 X4.5175 Y-1.6688
G01 X4.5085 Y-1.6699
G01 X4.3291 Y-1.7444
G01 X4.3211 Y-1.7497
G01 X4.3145 Y-1.7579
G00 Z2.0000
G00 X5.7628 Y-2.6714
G01 F70.00
G01 Z-0.0700
G01 F60.00
G01 X5.7583 Y-2.6788
G01 X5.7529 Y-2.6855
G01 X5.7467 Y-2.6915
G01 X5.7399 Y-2.6967
G01 X5.7325 Y-2.7010
G01 X5.7246 Y-2.7044
G01 X5.7087 Y-2.7081
G01 X5.6924 Y-2.7080
G01 X5.6840 Y-2.7064
G01 X5.6758 Y-2.7038
G01 X5.6680 Y-2.7002
G01 X5.6607 Y-2.6957
G01 X5.6485 Y-2.6848
G01 X5.6392 Y-2.6715
G01 X5.3826 Y-2.1905
G01 X5.3788 Y-2.1853
G01 X5.3727 Y-2.1801
G01 X5.3670 Y-2.1770
G01 X5.3592 Y-2.1748
G01 X5.3511 Y-2.1746
G01 X5.3447 Y-2.1759
G01 X5.3373 Y-2.1792
G01 X5.3321 Y-2.1830
G01 X5.3252 Y-2.1919
G01 X5.3216 Y-2.2026
G01 X5.3219 Y-2.2139
G01 X5.3255 Y-2.2238
G01 X5.6714 Y-2.8723
G01 X5.6765 Y-2.8797
G01 X5.6840 Y-2.8858
G01 X5.6914 Y-2.8891
G01 X5.7010 Y-2.8905
G01 X5.7090 Y-2.8895
G01 X5.7180 Y-2.8858
G01 X5.7255 Y-2.8797
G01 X5.7306 Y-2.8723
G01 X6.0764 Y-2.2238
G01 X6.0800 Y-2.2139
G01 X6.0805 Y-2.2042
G01 X6.0774 Y-2.1933
G01 X6.0721 Y-2.1853
G01 X6.0659 Y-2.1800
G01 X6.0587 Y-2.1764
G01 X6.0508 Y-2.1746
G01 X6.0443 Y-2.1746
G01 X6.0364 Y-2.1764
G01 X6.0306 Y-2.1792
G01 X6.0242 Y-2.1842
G01 X6.0201 Y-2.1892
G01 X5.7628 Y-2.6714
G00 Z2.0000
G00 X5.7007 Y-2.7785
G01 F70.00
G01 Z-0.0700
G01 F60.00
G01 X5.7010 Y-2.7790
G01 X5.7012 Y-2.7785
G01 X5.7007 Y-2.7785
G00 Z2.0000
G00 X7.6400 Y-4.0992
G01 F70.00
G01 Z-0.0700
G01 F60.00
G01 X7.6400 Y-4.5925
G01 X8.2834 Y-4.5925
G01 X8.2834 Y-4.5325
G01 X7.7683 Y-4.5325
G01 X7.7572 Y-4.5313
G01 X7.7464 Y-4.5284
G01 X7.7370 Y-4.5242
G01 X7.7276 Y-4.5182
G01 X7.7170 Y-4.5082
G01 X7.7083 Y-4.4955
G01 X7.7025 Y-4.4812
G01 X7.7001 Y-4.4668
G01 X7.7000 Y-4.0992
G01 X7.6400 Y-4.0992
G00 Z2.0000
G00 X7.7000 Y-5.0625
G01 F70.00
G01 Z-0.0700
G01 F60.00
G01 X7.7000 Y-5.2775
G01 X5.0750 Y-5.2776
G01 X5.0566 Y-5.2798
G01 X5.0388 Y-5.2848
G01 X5.0198 Y-5.2937
G01 X5.0045 Y-5.3042
G01 X4.9911 Y-5.3169
G01 X4.9797 Y-5.3315
G01 X4.9708 Y-5.3477
G01 X4.9640 Y-5.3667
G01 X4.9612 Y-5.3807
G01 X4.9600 Y-5.3975
G01 X4.9600 Y-14.9225
G01 X4.9620 Y-14.9442
G01 X4.9673 Y-14.9637
G01 X4.9746 Y-14.9798
G01 X4.9846 Y-14.9954
G01 X4.9964 Y-15.0086
G01 X5.0119 Y-15.0213
G01 X5.0279 Y-15.0306
G01 X5.0443 Y-15.0371
G01 X5.0615 Y-15.0411
G01 X5.0791 Y-15.0425
G01 X10.6750 Y-15.0425
G01 X10.6750 Y-18.7325
G01 X10.6757 Y-18.7460
G01 X10.6786 Y-18.7617
G01 X10.6835 Y-18.7768
G01 X10.6896 Y-18.7898
G01 X10.6981 Y-18.8033
G01 X10.7072 Y-18.8144
G01 X10.7189 Y-18.8253
G01 X10.7326 Y-18.8350
G01 X10.7452 Y-18.8417
G01 X10.7602 Y-18.8474
G01 X10.7765 Y-18.8511
G01 X10.7908 Y-18.8524
G01 X12.7000 Y-18.8525
G01 X12.7217 Y-18.8505
G01 X12.7412 Y-18.8452
G01 X12.7573 Y-18.8379
G01 X12.7722 Y-18.8284
G01 X12.7855 Y-18.8168
G01 X12.7974 Y-18.8026
G01 X12.8066 Y-18.7876
G01 X12.8143 Y-18.7690
G01 X12.8186 Y-18.7510
G01 X12.8200 Y-18.7342
G01 X12.8200 Y-15.0425
G01 X17.7809 Y-15.0425
G01 X17.7985 Y-15.0411
G01 X17.8157 Y-15.0371
G01 X17.8321 Y-15.0306
G01 X17.8481 Y-15.0213
G01 X17.8612 Y-15.0109
G01 X17.8739 Y-14.9973
G01 X17.8850 Y-14.9806
G01 X17.8924 Y-14.9645
G01 X17.8979 Y-14.9451
G01 X17.8994 Y-14.9343
G01 X17.9000 Y-14.9225
G01 X17.9000 Y-5.3975
G01 X17.8980 Y-5.3758
G01 X17.8927 Y-5.3563
G01 X17.8854 Y-5.3402
G01 X17.8759 Y-5.3253
G01 X17.8643 Y-5.3120
G01 X17.8508 Y-5.3006
G01 X17.8358 Y-5.2912
G01 X17.8196 Y-5.2842
G01 X17.8026 Y-5.2796
G01 X17.7850 Y-5.2776
G01 X15.7900 Y-5.2775
G01 X15.7900 Y-5.0616
G01 X15.7881 Y-5.0463
G01 X15.7847 Y-5.0357
G01 X15.7796 Y-5.0258
G01 X15.7730 Y-5.0168
G01 X15.7644 Y-5.0084
G01 X15.7545 Y-5.0016
G01 X15.7444 Y-4.9969
G01 X15.7328 Y-4.9937
G01 X15.7217 Y-4.9925
G01 X14.1200 Y-4.9925
G01 X14.1080 Y-4.9935
G01 X14.0980 Y-4.9960
G01 X14.0878 Y-5.0004
G01 X14.0790 Y-5.0058
G01 X14.0711 Y-5.0124
G01 X14.0638 Y-5.0208
G01 X14.0583 Y-5.0295
G01 X14.0541 Y-5.0389
G01 X14.0513 Y-5.0488
G01 X14.0500 Y-5.0625
G01 X14.0500 Y-5.2775
G01 X12.6150 Y-5.2775
G01 X12.6150 Y-5.0616
G01 X12.6131 Y-5.0463
G01 X12.6097 Y-5.0357
G01 X12.6046 Y-5.0258
G01 X12.5980 Y-5.0168
G01 X12.5894 Y-5.0084
G01 X12.5795 Y-5.0016
G01 X12.5694 Y-4.9969
G01 X12.5587 Y-4.9938
G01 X12.5476 Y-4.9925
G01 X10.9450 Y-4.9925
G01 X10.9330 Y-4.9935
G01 X10.9230 Y-4.9960
G01 X10.9128 Y-5.0004
G01 X10.9040 Y-5.0058
G01 X10.8961 Y-5.0124
G01 X10.8888 Y-5.0208
G01 X10.8833 Y-5.0295
G01 X10.8791 Y-5.0389
G01 X10.8763 Y-5.0488
G01 X10.8750 Y-5.0625
G01 X10.8750 Y-5.2775
G01 X9.4400 Y-5.2775
G01 X9.4400 Y-5.0616
G01 X9.4383 Y-5.0472
G01 X9.4350 Y-5.0365
G01 X9.4300 Y-5.0265
G01 X9.4236 Y-5.0174
G01 X9.4157 Y-5.0095
G01 X9.4067 Y-5.0029
G01 X9.3968 Y-4.9978
G01 X9.3862 Y-4.9944
G01 X9.3751 Y-4.9927
G01 X7.7674 Y-4.9925
G01 X7.7538 Y-4.9944
G01 X7.7416 Y-4.9985
G01 X7.7297 Y-5.0053
G01 X7.7199 Y-5.0136
G01 X7.7113 Y-5.0243
G01 X7.7050 Y-5.0365
G01 X7.7012 Y-5.0497
G01 X7.7000 Y-5.0625
G00 Z2.0000
G00 X9.5000 Y-4.5925
G01 F70.00
G01 Z-0.0700
G01 F60.00
G01 X9.5000 Y-4.0992
G01 X9.4400 Y-4.0992
G01 X9.4398 Y-4.4676
G01 X9.4367 Y-4.4836
G01 X9.4305 Y-4.4977
G01 X9.4207 Y-4.5108
G01 X9.4089 Y-4.5207
G01 X9.4007 Y-4.5254
G01 X9.3911 Y-4.5292
G01 X9.3811 Y-4.5316
G01 X9.3717 Y-4.5325
G01 X8.8566 Y-4.5325
G01 X8.8566 Y-4.5925
G01 X9.5000 Y-4.5925
G00 Z2.0000
G00 X9.5000 Y-3.5258
G01 F70.00
G01 Z-0.0700
G01 F60.00
G01 X9.5000 Y-3.0325
G01 X8.8566 Y-3.0325
G01 X8.8566 Y-3.0925
G01 X9.3717 Y-3.0925
G01 X9.3828 Y-3.0937
G01 X9.3936 Y-3.0966
G01 X9.4030 Y-3.1008
G01 X9.4124 Y-3.1068
G01 X9.4230 Y-3.1168
G01 X9.4317 Y-3.1295
G01 X9.4375 Y-3.1438
G01 X9.4399 Y-3.1582
G01 X9.4400 Y-3.5258
G01 X9.5000 Y-3.5258
G00 Z2.0000
G00 X8.2834 Y-3.0325
G01 F70.00
G01 Z-0.0700
G01 F60.00
G01 X7.6400 Y-3.0325
G01 X7.6400 Y-3.5258
G01 X7.7000 Y-3.5258
G01 X7.7001 Y-3.1582
G01 X7.7025 Y-3.1438
G01 X7.7083 Y-3.1295
G01 X7.7164 Y-3.1174
G01 X7.7276 Y-3.1068
G01 X7.7370 Y-3.1008
G01 X7.7472 Y-3.0963
G01 X7.7580 Y-3.0935
G01 X7.7683 Y-3.0925
G01 X8.2834 Y-3.0925
G01 X8.2834 Y-3.0325
G00 Z2.0000
G00 X10.8150 Y-4.0992
G01 F70.00
G01 Z-0.0700
G01 F60.00
G01 X10.8150 Y-4.5925
G01 X11.4584 Y-4.5925
G01 X11.4584 Y-4.5325
G01 X10.9433 Y-4.5325
G01 X10.9322 Y-4.5313
G01 X10.9214 Y-4.5284
G01 X10.9120 Y-4.5242
G01 X10.9026 Y-4.5182
G01 X10.8920 Y-4.5082
G01 X10.8833 Y-4.4955
G01 X10.8775 Y-4.4812
G01 X10.8751 Y-4.4668
G01 X10.8750 Y-4.0992
G01 X10.8150 Y-4.0992
G00 Z2.0000
G00 X10.8050 Y-5.1738
G01 F70.00
G01 Z-0.0700
G01 F60.00
G01 X10.7922 Y-5.1791
G01 X10.7773 Y-5.1835
G01 X10.7621 Y-5.1863
G01 X10.7467 Y-5.1873
G01 X9.5700 Y-5.1873
G01 X9.5546 Y-5.1865
G01 X9.5393 Y-5.1839
G01 X9.5245 Y-5.1797
G01 X9.5100 Y-5.1738
G01 X9.5100 Y-5.2075
G01 X10.8050 Y-5.2075
G01 X10.8050 Y-5.1738
G00 Z2.0000
G00 X12.6750 Y-4.5925
G01 F70.00
G01 Z-0.0700
G01 F60.00
G01 X12.6750 Y-4.0992
G01 X12.6150 Y-4.0992
G01 X12.6148 Y-4.4676
G01 X12.6117 Y-4.4836
G01 X12.6055 Y-4.4977
G01 X12.5957 Y-4.5108
G01 X12.5839 Y-4.5207
G01 X12.5757 Y-4.5254
G01 X12.5661 Y-4.5292
G01 X12.5561 Y-4.5316
G01 X12.5467 Y-4.5325
G01 X12.0316 Y-4.5325
G01 X12.0316 Y-4.5925
G01 X12.6750 Y-4.5925
G00 Z2.0000
G00 X12.6750 Y-3.5258
G01 F70.00
G01 Z-0.0700
G01 F60.00
G01 X12.6750 Y-3.0325
G01 X12.0316 Y-3.0325
G01 X12.0316 Y-3.0925
G01 X12.5467 Y-3.0925
G01 X12.5578 Y-3.0937
G01 X12.5686 Y-3.0966
G01 X12.5780 Y-3.1008
G01 X12.5874 Y-3.1068
G01 X12.5980 Y-3.1168
G01 X12.6067 Y-3.1295
G01 X12.6125 Y-3.1438
G01 X12.6149 Y-3.1582
G01 X12.6150 Y-3.5258
G01 X12.6750 Y-3.5258
G00 Z2.0000
G00 X11.4584 Y-3.0325
G01 F70.00
G01 Z-0.0700
G01 F60.00
G01 X10.8150 Y-3.0325
G01 X10.8150 Y-3.5258
G01 X10.8750 Y-3.5258
G01 X10.8751 Y-3.1582
G01 X10.8775 Y-3.1438
G01 X10.8833 Y-3.1295
G01 X10.8920 Y-3.1168
G01 X10.9026 Y-3.1068
G01 X10.9120 Y-3.1008
G01 X10.9222 Y-3.0963
G01 X10.9330 Y-3.0935
G01 X10.9433 Y-3.0925
G01 X11.4584 Y-3.0925
G01 X11.4584 Y-3.0325
G00 Z2.0000
G00 X13.9900 Y-4.0992
G01 F70.00
G01 Z-0.0700
G01 F60.00
G01 X13.9900 Y-4.5925
G01 X14.6334 Y-4.5925
G01 X14.6334 Y-4.5325
G01 X14.1183 Y-4.5325
G01 X14.1072 Y-4.5313
G01 X14.0964 Y-4.5284
G01 X14.0870 Y-4.5242
G01 X14.0776 Y-4.5182
G01 X14.0670 Y-4.5082
G01 X14.0583 Y-4.4955
G01 X14.0525 Y-4.4812
G01 X14.0501 Y-4.4668
G01 X14.0500 Y-4.0992
G01 X13.9900 Y-4.0992
G00 Z2.0000
G00 X13.9800 Y-5.1738
G01 F70.00
G01 Z-0.0700
G01 F60.00
G01 X13.9672 Y-5.1791
G01 X13.9523 Y-5.1835
G01 X13.9371 Y-5.1863
G01 X13.9217 Y-5.1873
G01 X12.7450 Y-5.1873
G01 X12.7296 Y-5.1865
G01 X12.7143 Y-5.1839
G01 X12.6995 Y-5.1797
G01 X12.6850 Y-5.1738
G01 X12.6850 Y-5.2075
G01 X13.9800 Y-5.2075
G01 X13.9800 Y-5.1738
G00 Z2.0000
G00 X15.8500 Y-4.5925
G01 F70.00
G01 Z-0.0700
G01 F60.00
G01 X15.8500 Y-4.0992
G01 X15.7900 Y-4.0992
G01 X15.7898 Y-4.4676
G01 X15.7867 Y-4.4836
G01 X15.7805 Y-4.4977
G01 X15.7707 Y-4.5108
G01 X15.7589 Y-4.5207
G01 X15.7507 Y-4.5254
G01 X15.7411 Y-4.5292
G01 X15.7311 Y-4.5316
G01 X15.7217 Y-4.5325
G01 X15.2066 Y-4.5325
G01 X15.2066 Y-4.5925
G01 X15.8500 Y-4.5925
G00 Z2.0000
G00 X15.8500 Y-3.5258
G01 F70.00
G01 Z-0.0700
G01 F60.00
G01 X15.8500 Y-3.0325
G01 X15.2066 Y-3.0325
G01 X15.2066 Y-3.0925
G01 X15.7217 Y-3.0925
G01 X15.7328 Y-3.0937
G01 X15.7436 Y-3.0966
G01 X15.7530 Y-3.1008
G01 X15.7624 Y-3.1068
G01 X15.7730 Y-3.1168
G01 X15.7817 Y-3.1295
G01 X15.7875 Y-3.1438
G01 X15.7899 Y-3.1582
G01 X15.7900 Y-3.5258
G01 X15.8500 Y-3.5258
G00 Z2.0000
G00 X14.6334 Y-3.0325
G01 F70.00
G01 Z-0.0700
G01 F60.00
G01 X13.9900 Y-3.0325
G01 X13.9900 Y-3.5258
G01 X14.0500 Y-3.5258
G01 X14.0501 Y-3.1582
G01 X14.0525 Y-3.1438
G01 X14.0583 Y-3.1295
G01 X14.0670 Y-3.1168
G01 X14.0776 Y-3.1068
G01 X14.0870 Y-3.1008
G01 X14.0972 Y-3.0963
G01 X14.1080 Y-3.0935
G01 X14.1183 Y-3.0925
G01 X14.6334 Y-3.0925
G01 X14.6334 Y-3.0325
G00 Z2.0000
G00 X20.9750 Y-4.0992
G01 F70.00
G01 Z-0.0700
G01 F60.00
G01 X20.9750 Y-4.5925
G01 X21.6184 Y-4.5925
G01 X21.6184 Y-4.5325
G01 X21.1033 Y-4.5325
G01 X21.0922 Y-4.5313
G01 X21.0814 Y-4.5284
G01 X21.0720 Y-4.5242
G01 X21.0626 Y-4.5182
G01 X21.0514 Y-4.5076
G01 X21.0433 Y-4.4955
G01 X21.0378 Y-4.4820
G01 X21.0351 Y-4.4668
G01 X21.0350 Y-4.0992
G01 X20.9750 Y-4.0992
G00 Z2.0000
G00 X21.6184 Y-3.0325
G01 F70.00
G01 Z-0.0700
G01 F60.00
G01 X20.9750 Y-3.0325
G01 X20.9750 Y-3.5258
G01 X21.0350 Y-3.5258
G01 X21.0351 Y-3.1582
G01 X21.0378 Y-3.1430
G01 X21.0433 Y-3.1295
G01 X21.0520 Y-3.1168
G01 X21.0626 Y-3.1068
G01 X21.0712 Y-3.1012
G01 X21.0814 Y-3.0966
G01 X21.0922 Y-3.0937
G01 X21.1033 Y-3.0925
G01 X21.6184 Y-3.0925
G01 X21.6184 Y-3.0325
G00 Z2.0000
G00 X22.8350 Y-3.5258
G01 F70.00
G01 Z-0.0700
G01 F60.00
G01 X22.8350 Y-3.0325
G01 X22.1916 Y-3.0325
G01 X22.1916 Y-3.0925
G01 X22.7067 Y-3.0925
G01 X22.7178 Y-3.0937
G01 X22.7286 Y-3.0966
G01 X22.7380 Y-3.1008
G01 X22.7474 Y-3.1068
G01 X22.7586 Y-3.1174
G01 X22.7667 Y-3.1295
G01 X22.7722 Y-3.1430
G01 X22.7749 Y-3.1582
G01 X22.7750 Y-3.5258
G01 X22.8350 Y-3.5258
G00 Z2.0000
G00 X22.8350 Y-4.5925
G01 F70.00
G01 Z-0.0700
G01 F60.00
G01 X22.8350 Y-4.0992
G01 X22.7750 Y-4.0992
G01 X22.7748 Y-4.4676
G01 X22.7720 Y-4.4828
G01 X22.7655 Y-4.4977
G01 X22.7563 Y-4.5101
G01 X22.7439 Y-4.5207
G01 X22.7349 Y-4.5258
G01 X22.7261 Y-4.5292
G01 X22.7170 Y-4.5315
G01 X22.7067 Y-4.5325
G01 X22.1916 Y-4.5325
G01 X22.1916 Y-4.5925
G01 X22.8350 Y-4.5925
G00 Z2.0000
G00 X24.1500 Y-4.0992
G01 F70.00
G01 Z-0.0700
G01 F60.00
G01 X24.1500 Y-4.5925
G01 X24.7934 Y-4.5925
G01 X24.7934 Y-4.5325
G01 X24.2783 Y-4.5325
G01 X24.2672 Y-4.5313
G01 X24.2564 Y-4.5284
G01 X24.2470 Y-4.5242
G01 X24.2376 Y-4.5182
G01 X24.2264 Y-4.5076
G01 X24.2183 Y-4.4955
G01 X24.2128 Y-4.4820
G01 X24.2101 Y-4.4668
G01 X24.2100 Y-4.0992
G01 X24.1500 Y-4.0992
G00 Z2.0000
G00 X24.1400 Y-5.1738
G01 F70.00
G01 Z-0.0700
G01 F60.00
G01 X24.1272 Y-5.1791
G01 X24.1123 Y-5.1835
G01 X24.0971 Y-5.1863
G01 X24.0817 Y-5.1873
G01 X22.9050 Y-5.1873
G01 X22.8896 Y-5.1865
G01 X22.8743 Y-5.1839
G01 X22.8595 Y-5.1797
G01 X22.8450 Y-5.1738
G01 X22.8450 Y-5.2075
G01 X24.1400 Y-5.2075
G01 X24.1400 Y-5.1738
G00 Z2.0000
G00 X26.0100 Y-4.5925
G01 F70.00
G01 Z-0.0700
G01 F60.00
G01 X26.0100 Y-4.0992
G01 X25.9500 Y-4.0992
G01 X25.9498 Y-4.4676
G01 X25.9470 Y-4.4828
G01 X25.9405 Y-4.4977
G01 X25.9313 Y-4.5101
G01 X25.9189 Y-4.5207
G01 X25.9099 Y-4.5258
G01 X25.9011 Y-4.5292
G01 X25.8920 Y-4.5315
G01 X25.8817 Y-4.5325
G01 X25.3666 Y-4.5325
G01 X25.3666 Y-4.5925
G01 X26.0100 Y-4.5925
G00 Z2.0000
G00 X26.0100 Y-3.5258
G01 F70.00
G01 Z-0.0700
G01 F60.00
G01 X26.0100 Y-3.0325
G01 X25.3666 Y-3.0325
G01 X25.3666 Y-3.0925
G01 X25.8817 Y-3.0925
G01 X25.8928 Y-3.0937
G01 X25.9036 Y-3.0966
G01 X25.9130 Y-3.1008
G01 X25.9224 Y-3.1068
G01 X25.9336 Y-3.1174
G01 X25.9417 Y-3.1295
G01 X25.9472 Y-3.1430
G01 X25.9499 Y-3.1582
G01 X25.9500 Y-3.5258
G01 X26.0100 Y-3.5258
G00 Z2.0000
G00 X24.7934 Y-3.0325
G01 F70.00
G01 Z-0.0700
G01 F60.00
G01 X24.1500 Y-3.0325
G01 X24.1500 Y-3.5258
G01 X24.2100 Y-3.5258
G01 X24.2101 Y-3.1582
G01 X24.2128 Y-3.1430
G01 X24.2183 Y-3.1295
G01 X24.2270 Y-3.1168
G01 X24.2376 Y-3.1068
G01 X24.2462 Y-3.1012
G01 X24.2564 Y-3.0966
G01 X24.2672 Y-3.0937
G01 X24.2783 Y-3.0925
G01 X24.7934 Y-3.0925
G01 X24.7934 Y-3.0325
G00 Z2.0000
G00 X27.3250 Y-4.0992
G01 F70.00
G01 Z-0.0700
G01 F60.00
G01 X27.3250 Y-4.5925
G01 X27.9684 Y-4.5925
G01 X27.9684 Y-4.5325
G01 X27.4533 Y-4.5325
G01 X27.4422 Y-4.5313
G01 X27.4314 Y-4.5284
G01 X27.4220 Y-4.5242
G01 X27.4126 Y-4.5182
G01 X27.4014 Y-4.5076
G01 X27.3933 Y-4.4955
G01 X27.3878 Y-4.4820
G01 X27.3851 Y-4.4668
G01 X27.3850 Y-4.0992
G01 X27.3250 Y-4.0992
G00 Z2.0000
G00 X27.3150 Y-5.1738
G01 F70.00
G01 Z-0.0700
G01 F60.00
G01 X27.3022 Y-5.1791
G01 X27.2873 Y-5.1835
G01 X27.2721 Y-5.1863
G01 X27.2567 Y-5.1873
G01 X26.0800 Y-5.1873
G01 X26.0646 Y-5.1865
G01 X26.0493 Y-5.1839
G01 X26.0345 Y-5.1797
G01 X26.0200 Y-5.1738
G01 X26.0200 Y-5.2075
G01 X27.3150 Y-5.2075
G01 X27.3150 Y-5.1738
G00 Z2.0000
G00 X29.1850 Y-4.5925
G01 F70.00
G01 Z-0.0700
G01 F60.00
G01 X29.1850 Y-4.0992
G01 X29.1250 Y-4.0992
G01 X29.1248 Y-4.4676
G01 X29.1220 Y-4.4828
G01 X29.1155 Y-4.4977
G01 X29.1063 Y-4.5101
G01 X29.0939 Y-4.5207
G01 X29.0849 Y-4.5258
G01 X29.0761 Y-4.5292
G01 X29.0670 Y-4.5315
G01 X29.0567 Y-4.5325
G01 X28.5416 Y-4.5325
G01 X28.5416 Y-4.5925
G01 X29.1850 Y-4.5925
G00 Z2.0000
G00 X29.1850 Y-3.5258
G01 F70.00
G01 Z-0.0700
G01 F60.00
G01 X29.1850 Y-3.0325
G01 X28.5416 Y-3.0325
G01 X28.5416 Y-3.0925
G01 X29.0567 Y-3.0925
G01 X29.0678 Y-3.0937
G01 X29.0786 Y-3.0966
G01 X29.0880 Y-3.1008
G01 X29.0974 Y-3.1068
G01 X29.1086 Y-3.1174
G01 X29.1167 Y-3.1295
G01 X29.1222 Y-3.1430
G01 X29.1249 Y-3.1582
G01 X29.1250 Y-3.5258
G01 X29.1850 Y-3.5258
G00 Z2.0000
G00 X27.9684 Y-3.0325
G01 F70.00
G01 Z-0.0700
G01 F60.00
G01 X27.3250 Y-3.0325
G01 X27.3250 Y-3.5258
G01 X27.3850 Y-3.5258
G01 X27.3851 Y-3.1582
G01 X27.3878 Y-3.1430
G01 X27.3933 Y-3.1295
G01 X27.4020 Y-3.1168
G01 X27.4126 Y-3.1068
G01 X27.4212 Y-3.1012
G01 X27.4314 Y-3.0966
G01 X27.4422 Y-3.0937
G01 X27.4533 Y-3.0925
G01 X27.9684 Y-3.0925
G01 X27.9684 Y-3.0325
G00 Z2.0000
G00 X34.0017 Y-2.3602
G01 F70.00
G01 Z-0.0700
G01 F60.00
G01 X34.0100 Y-2.3519
G01 X34.0017 Y-2.3436
G01 X33.9934 Y-2.3519
G01 X34.0017 Y-2.3602
G00 Z2.0000
G00 X34.0348 Y-2.6399
G01 F70.00
G01 Z-0.0700
G01 F60.00
G01 X34.0351 Y-2.4481
G01 X34.0378 Y-2.4346
G01 X34.0426 Y-2.4227
G01 X34.0501 Y-2.4112
G01 X34.0597 Y-2.4014
G01 X34.0688 Y-2.3949
G01 X34.0788 Y-2.3900
G01 X34.0894 Y-2.3867
G01 X34.1005 Y-2.3851
G01 X34.3531 Y-2.3846
G01 X34.3639 Y-2.3810
G01 X34.3693 Y-2.3774
G01 X34.3738 Y-2.3729
G01 X34.3794 Y-2.3630
G01 X34.3810 Y-2.3567
G01 X34.3813 Y-2.3503
G01 X34.3788 Y-2.3393
G01 X34.3728 Y-2.3297
G01 X34.3639 Y-2.3228
G01 X34.3531 Y-2.3192
G01 X34.1005 Y-2.3187
G01 X34.0894 Y-2.3171
G01 X34.0788 Y-2.3138
G01 X34.0688 Y-2.3089
G01 X34.0597 Y-2.3024
G01 X34.0501 Y-2.2926
G01 X34.0426 Y-2.2811
G01 X34.0378 Y-2.2692
G01 X34.0351 Y-2.2557
G01 X34.0348 Y-2.0640
G01 X34.0341 Y-2.0567
G01 X34.0322 Y-2.0505
G01 X34.0292 Y-2.0447
G01 X34.0214 Y-2.0366
G01 X34.0113 Y-2.0315
G01 X34.0001 Y-2.0301
G01 X33.9891 Y-2.0326
G01 X33.9795 Y-2.0386
G01 X33.9726 Y-2.0475
G01 X33.9693 Y-2.0567
G01 X33.9686 Y-2.0640
G01 X33.9683 Y-2.2557
G01 X33.9656 Y-2.2692
G01 X33.9608 Y-2.2811
G01 X33.9538 Y-2.2919
G01 X33.9444 Y-2.3019
G01 X33.9354 Y-2.3084
G01 X33.9246 Y-2.3138
G01 X33.9140 Y-2.3171
G01 X33.9029 Y-2.3187
G01 X33.6502 Y-2.3192
G01 X33.6439 Y-2.3208
G01 X33.6380 Y-2.3236
G01 X33.6295 Y-2.3309
G01 X33.6239 Y-2.3408
G01 X33.6223 Y-2.3471
G01 X33.6220 Y-2.3535
G01 X33.6245 Y-2.3645
G01 X33.6305 Y-2.3741
G01 X33.6394 Y-2.3810
G01 X33.6502 Y-2.3846
G01 X33.9021 Y-2.3850
G01 X33.9115 Y-2.3861
G01 X33.9206 Y-2.3885
G01 X33.9301 Y-2.3924
G01 X33.9382 Y-2.3972
G01 X33.9493 Y-2.4067
G01 X33.9582 Y-2.4182
G01 X33.9646 Y-2.4314
G01 X33.9681 Y-2.4464
G01 X33.9686 Y-2.4550
G01 X33.9686 Y-2.6399
G01 X33.9693 Y-2.6472
G01 X33.9712 Y-2.6534
G01 X33.9772 Y-2.6630
G01 X33.9861 Y-2.6699
G01 X33.9969 Y-2.6735
G01 X34.0081 Y-2.6732
G01 X34.0187 Y-2.6691
G01 X34.0272 Y-2.6618
G01 X34.0328 Y-2.6519
G01 X34.0344 Y-2.6456
G01 X34.0348 Y-2.6399
G00 Z2.0000
G00 X35.1235 Y-1.8167
G01 F70.00
G01 Z-0.0700
G01 F60.00
G01 X35.1365 Y-1.8214
G01 X35.1491 Y-1.8273
G01 X35.1491 Y-1.7911
G01 X35.1235 Y-1.8167
G00 Z2.0000
G00 X35.1620 Y-1.6791
G01 F70.00
G01 Z-0.0700
G01 F60.00
G01 X34.7299 Y-2.1113
G01 X34.7252 Y-2.1170
G01 X34.7222 Y-2.1227
G01 X34.7203 Y-2.1289
G01 X34.7197 Y-2.1353
G01 X34.7207 Y-2.1433
G01 X34.7244 Y-2.1523
G01 X34.7293 Y-2.1587
G01 X34.7371 Y-2.1644
G01 X34.7447 Y-2.1673
G01 X34.7543 Y-2.1683
G01 X34.7638 Y-2.1664
G01 X34.7724 Y-2.1618
G01 X35.0341 Y-1.9006
G01 X35.0419 Y-1.8940
G01 X35.0507 Y-1.8886
G01 X35.0626 Y-1.8837
G01 X35.0752 Y-1.8812
G01 X35.0889 Y-1.8810
G01 X35.1016 Y-1.8833
G01 X35.1144 Y-1.8882
G01 X35.1253 Y-1.8950
G01 X35.1348 Y-1.9037
G01 X35.1425 Y-1.9140
G01 X35.1469 Y-1.9224
G01 X35.1502 Y-1.9312
G01 X35.1522 Y-1.9405
G01 X35.1529 Y-1.9499
G01 X35.1530 Y-2.8591
G01 X35.1555 Y-2.8701
G01 X35.1585 Y-2.8759
G01 X35.1626 Y-2.8809
G01 X35.1676 Y-2.8850
G01 X35.1734 Y-2.8880
G01 X35.1796 Y-2.8899
G01 X35.1860 Y-2.8905
G01 X35.1971 Y-2.8886
G01 X35.2030 Y-2.8858
G01 X35.2082 Y-2.8820
G01 X35.2125 Y-2.8772
G01 X35.2159 Y-2.8716
G01 X35.2180 Y-2.8655
G01 X35.2190 Y-2.8591
G01 X35.2191 Y-1.7028
G01 X35.2176 Y-1.6923
G01 X35.2135 Y-1.6835
G01 X35.2070 Y-1.6764
G01 X35.1986 Y-1.6714
G01 X35.1892 Y-1.6690
G01 X35.1796 Y-1.6695
G01 X35.1704 Y-1.6728
G01 X35.1620 Y-1.6791
G00 Z2.0000
G00 X35.5913 Y-2.8906
G01 F70.00
G01 Z-0.0700
G01 F60.00
G01 X36.2828 Y-2.8906
G01 X36.2917 Y-2.8895
G01 X36.3007 Y-2.8858
G01 X36.3082 Y-2.8797
G01 X36.3128 Y-2.8731
G01 X36.3157 Y-2.8655
G01 X36.3167 Y-2.8575
G01 X36.3157 Y-2.8495
G01 X36.3128 Y-2.8419
G01 X36.3082 Y-2.8353
G01 X36.3021 Y-2.8300
G01 X36.2948 Y-2.8264
G01 X36.2869 Y-2.8246
G01 X35.7291 Y-2.8244
G01 X35.7171 Y-2.8234
G01 X35.7055 Y-2.8204
G01 X35.6953 Y-2.8158
G01 X35.6860 Y-2.8096
G01 X35.6772 Y-2.8014
G01 X35.6704 Y-2.7926
G01 X35.6651 Y-2.7828
G01 X35.6614 Y-2.7723
G01 X35.6593 Y-2.7604
G01 X35.6592 Y-2.7510
G01 X35.6603 Y-2.7416
G01 X35.6624 Y-2.7333
G01 X35.6658 Y-2.7245
G01 X35.6974 Y-2.6713
G01 X35.7025 Y-2.6643
G01 X35.7084 Y-2.6579
G01 X36.2206 Y-2.2307
G01 X36.2259 Y-2.2238
G01 X36.3128 Y-2.0787
G01 X36.3157 Y-2.0711
G01 X36.3168 Y-2.0622
G01 X36.3168 Y-1.9195
G01 X36.3153 Y-1.9090
G01 X36.3116 Y-1.9009
G01 X36.2259 Y-1.7579
G01 X36.2205 Y-1.7509
G01 X36.2127 Y-1.7451
G01 X36.0372 Y-1.6717
G01 X36.0302 Y-1.6695
G01 X36.0228 Y-1.6688
G01 X35.8513 Y-1.6688
G01 X35.8423 Y-1.6699
G01 X35.6652 Y-1.7434
G01 X35.6561 Y-1.7487
G01 X35.6516 Y-1.7532
G01 X35.6483 Y-1.7579
G01 X35.5613 Y-1.9030
G01 X35.5580 Y-1.9121
G01 X35.5575 Y-1.9218
G01 X35.5599 Y-1.9312
G01 X35.5649 Y-1.9395
G01 X35.5720 Y-1.9460
G01 X35.5808 Y-1.9502
G01 X35.5904 Y-1.9516
G01 X35.6015 Y-1.9497
G01 X35.6113 Y-1.9441
G01 X35.6178 Y-1.9370
G01 X35.6918 Y-1.8146
G01 X35.7029 Y-1.8028
G01 X35.7157 Y-1.7942
G01 X35.8449 Y-1.7400
G01 X35.8573 Y-1.7363
G01 X35.8702 Y-1.7350
G01 X36.0074 Y-1.7351
G01 X36.0193 Y-1.7369
G01 X36.0300 Y-1.7403
G01 X36.1547 Y-1.7923
G01 X36.1637 Y-1.7972
G01 X36.1719 Y-1.8033
G01 X36.1792 Y-1.8106
G01 X36.1853 Y-1.8188
G01 X36.2420 Y-1.9134
G01 X36.2456 Y-1.9211
G01 X36.2483 Y-1.9293
G01 X36.2506 Y-1.9454
G01 X36.2506 Y-2.0371
G01 X36.2495 Y-2.0474
G01 X36.2471 Y-2.0565
G01 X36.2407 Y-2.0706
G01 X36.1773 Y-2.1763
G01 X36.1700 Y-2.1860
G01 X36.1625 Y-2.1933
G01 X35.6566 Y-2.6149
G01 X35.6496 Y-2.6225
G01 X35.5625 Y-2.7676
G01 X35.5599 Y-2.7726
G01 X35.5580 Y-2.7789
G01 X35.5573 Y-2.7862
G01 X35.5573 Y-2.8566
G01 X35.5588 Y-2.8671
G01 X35.5629 Y-2.8759
G01 X35.5707 Y-2.8840
G01 X35.5808 Y-2.8891
G01 X35.5913 Y-2.8906
G00 Z2.0000
G00 X37.0345 Y-2.7785
G01 F70.00
G01 Z-0.0700
G01 F60.00
G01 X37.0348 Y-2.7790
G01 X37.0350 Y-2.7785
G01 X37.0345 Y-2.7785
G00 Z2.0000
G00 X37.0966 Y-2.6714
G01 F70.00
G01 Z-0.0700
G01 F60.00
G01 X37.0921 Y-2.6788
G01 X37.0867 Y-2.6855
G01 X37.0744 Y-2.6962
G01 X37.0600 Y-2.7038
G01 X37.0518 Y-2.7064
G01 X37.0434 Y-2.7080
G01 X37.0348 Y-2.7085
G01 X37.0262 Y-2.7080
G01 X37.0104 Y-2.7041
G01 X37.0025 Y-2.7006
G01 X36.9952 Y-2.6962
G01 X36.9884 Y-2.6909
G01 X36.9823 Y-2.6848
G01 X36.9730 Y-2.6715
G01 X36.7164 Y-2.1905
G01 X36.7126 Y-2.1853
G01 X36.7065 Y-2.1801
G01 X36.6993 Y-2.1764
G01 X36.6930 Y-2.1748
G01 X36.6849 Y-2.1746
G01 X36.6785 Y-2.1759
G01 X36.6711 Y-2.1792
G01 X36.6659 Y-2.1830
G01 X36.6590 Y-2.1919
G01 X36.6554 Y-2.2026
G01 X36.6557 Y-2.2139
G01 X36.6593 Y-2.2238
G01 X37.0052 Y-2.8723
G01 X37.0103 Y-2.8797
G01 X37.0178 Y-2.8858
G01 X37.0268 Y-2.8895
G01 X37.0348 Y-2.8905
G01 X37.0428 Y-2.8895
G01 X37.0518 Y-2.8858
G01 X37.0593 Y-2.8797
G01 X37.0644 Y-2.8723
G01 X37.4102 Y-2.2238
G01 X37.4138 Y-2.2139
G01 X37.4143 Y-2.2042
G01 X37.4112 Y-2.1933
G01 X37.4059 Y-2.1853
G01 X37.4010 Y-2.1810
G01 X37.3940 Y-2.1770
G01 X37.3862 Y-2.1748
G01 X37.3797 Y-2.1745
G01 X37.3718 Y-2.1759
G01 X37.3644 Y-2.1792
G01 X37.3580 Y-2.1842
G01 X37.3539 Y-2.1892
G01 X37.0966 Y-2.6714
G00 Z2.0000
G00 X36.2208 Y-7.0075
G01 F70.00
G01 Z-0.0700
G01 F60.00
G01 X35.7275 Y-7.0075
G01 X35.7275 Y-7.6508
G01 X35.7875 Y-7.6508
G01 X35.7875 Y-7.1358
G01 X35.7887 Y-7.1247
G01 X35.7913 Y-7.1147
G01 X35.7958 Y-7.1045
G01 X35.8018 Y-7.0951
G01 X35.8124 Y-7.0839
G01 X35.8245 Y-7.0758
G01 X35.8388 Y-7.0700
G01 X35.8532 Y-7.0676
G01 X36.2208 Y-7.0675
G01 X36.2208 Y-7.0075
G00 Z2.0000
G00 X37.2875 Y-7.6508
G01 F70.00
G01 Z-0.0700
G01 F60.00
G01 X37.2875 Y-7.0075
G01 X36.7942 Y-7.0075
G01 X36.7942 Y-7.0675
G01 X37.1618 Y-7.0676
G01 X37.1770 Y-7.0703
G01 X37.1905 Y-7.0758
G01 X37.2026 Y-7.0839
G01 X37.2132 Y-7.0951
G01 X37.2192 Y-7.1045
G01 X37.2234 Y-7.1139
G01 X37.2263 Y-7.1247
G01 X37.2275 Y-7.1358
G01 X37.2275 Y-7.6508
G01 X37.2875 Y-7.6508
G00 Z2.0000
G00 X37.2875 Y-8.8675
G01 F70.00
G01 Z-0.0700
G01 F60.00
G01 X37.2875 Y-8.2242
G01 X37.2275 Y-8.2242
G01 X37.2275 Y-8.7392
G01 X37.2265 Y-8.7495
G01 X37.2242 Y-8.7586
G01 X37.2204 Y-8.7682
G01 X37.2157 Y-8.7764
G01 X37.2051 Y-8.7888
G01 X37.1927 Y-8.7980
G01 X37.1786 Y-8.8042
G01 X37.1626 Y-8.8073
G01 X36.7942 Y-8.8075
G01 X36.7942 Y-8.8675
G01 X37.2875 Y-8.8675
G00 Z2.0000
G00 X35.7275 Y-8.2242
G01 F70.00
G01 Z-0.0700
G01 F60.00
G01 X35.7275 Y-8.8675
G01 X36.2208 Y-8.8675
G01 X36.2208 Y-8.8075
G01 X35.8532 Y-8.8074
G01 X35.8388 Y-8.8050
G01 X35.8245 Y-8.7992
G01 X35.8118 Y-8.7905
G01 X35.8018 Y-8.7799
G01 X35.7962 Y-8.7713
G01 X35.7916 Y-8.7611
G01 X35.7887 Y-8.7503
G01 X35.7875 Y-8.7392
G01 X35.7875 Y-8.2242
G01 X35.7275 Y-8.2242
G00 Z2.0000
G00 X36.2208 Y-10.1825
G01 F70.00
G01 Z-0.0700
G01 F60.00
G01 X35.7275 Y-10.1825
G01 X35.7275 Y-10.8258
G01 X35.7875 Y-10.8258
G01 X35.7875 Y-10.3108
G01 X35.7887 Y-10.2997
G01 X35.7913 Y-10.2897
G01 X35.7958 Y-10.2795
G01 X35.8018 Y-10.2701
G01 X35.8118 Y-10.2595
G01 X35.8245 Y-10.2508
G01 X35.8388 Y-10.2450
G01 X35.8532 Y-10.2426
G01 X36.2208 Y-10.2425
G01 X36.2208 Y-10.1825
G00 Z2.0000
G00 X35.1487 Y-10.1725
G01 F70.00
G01 Z-0.0700
G01 F60.00
G01 X35.1434 Y-10.1597
G01 X35.1390 Y-10.1448
G01 X35.1362 Y-10.1296
G01 X35.1352 Y-10.1142
G01 X35.1352 Y-8.9375
G01 X35.1360 Y-8.9221
G01 X35.1386 Y-8.9068
G01 X35.1428 Y-8.8920
G01 X35.1487 Y-8.8775
G01 X35.1150 Y-8.8775
G01 X35.1150 Y-10.1725
G01 X35.1487 Y-10.1725
G00 Z2.0000
G00 X35.7275 Y-11.3992
G01 F70.00
G01 Z-0.0700
G01 F60.00
G01 X35.7275 Y-12.0425
G01 X36.2208 Y-12.0425
G01 X36.2208 Y-11.9825
G01 X35.8532 Y-11.9824
G01 X35.8388 Y-11.9800
G01 X35.8245 Y-11.9742
G01 X35.8118 Y-11.9655
G01 X35.8018 Y-11.9549
G01 X35.7962 Y-11.9463
G01 X35.7916 Y-11.9361
G01 X35.7887 Y-11.9253
G01 X35.7875 Y-11.9142
G01 X35.7875 Y-11.3992
G01 X35.7275 Y-11.3992
G00 Z2.0000
G00 X37.2875 Y-10.8258
G01 F70.00
G01 Z-0.0700
G01 F60.00
G01 X37.2875 Y-10.1825
G01 X36.7942 Y-10.1825
G01 X36.7942 Y-10.2425
G01 X37.1618 Y-10.2426
G01 X37.1762 Y-10.2450
G01 X37.1905 Y-10.2508
G01 X37.2032 Y-10.2595
G01 X37.2132 Y-10.2701
G01 X37.2188 Y-10.2787
G01 X37.2234 Y-10.2889
G01 X37.2263 Y-10.2997
G01 X37.2275 Y-10.3108
G01 X37.2275 Y-10.8258
G01 X37.2875 Y-10.8258
G00 Z2.0000
G00 X37.2875 Y-12.0425
G01 F70.00
G01 Z-0.0700
G01 F60.00
G01 X37.2875 Y-11.3992
G01 X37.2275 Y-11.3992
G01 X37.2275 Y-11.9142
G01 X37.2265 Y-11.9245
G01 X37.2242 Y-11.9336
G01 X37.2204 Y-11.9432
G01 X37.2157 Y-11.9514
G01 X37.2051 Y-11.9638
G01 X37.1927 Y-11.9730
G01 X37.1786 Y-11.9792
G01 X37.1626 Y-11.9823
G01 X36.7942 Y-11.9825
G01 X36.7942 Y-12.0425
G01 X37.2875 Y-12.0425
G00 Z2.0000
G00 X36.2208 Y-13.3575
G01 F70.00
G01 Z-0.0700
G01 F60.00
G01 X35.7275 Y-13.3575
G01 X35.7275 Y-14.0008
G01 X35.7875 Y-14.0008
G01 X35.7875 Y-13.4858
G01 X35.7887 Y-13.4747
G01 X35.7913 Y-13.4647
G01 X35.7958 Y-13.4545
G01 X35.8018 Y-13.4451
G01 X35.8118 Y-13.4345
G01 X35.8245 Y-13.4258
G01 X35.8388 Y-13.4200
G01 X35.8532 Y-13.4176
G01 X36.2208 Y-13.4175
G01 X36.2208 Y-13.3575
G00 Z2.0000
G00 X35.1487 Y-13.3475
G01 F70.00
G01 Z-0.0700
G01 F60.00
G01 X35.1434 Y-13.3347
G01 X35.1390 Y-13.3198
G01 X35.1362 Y-13.3046
G01 X35.1352 Y-13.2892
G01 X35.1352 Y-12.1125
G01 X35.1360 Y-12.0971
G01 X35.1386 Y-12.0818
G01 X35.1428 Y-12.0670
G01 X35.1487 Y-12.0525
G01 X35.1150 Y-12.0525
G01 X35.1150 Y-13.3475
G01 X35.1487 Y-13.3475
G00 Z2.0000
G00 X35.7275 Y-14.5742
G01 F70.00
G01 Z-0.0700
G01 F60.00
G01 X35.7275 Y-15.2175
G01 X36.2208 Y-15.2175
G01 X36.2208 Y-15.1575
G01 X35.8532 Y-15.1574
G01 X35.8388 Y-15.1550
G01 X35.8245 Y-15.1492
G01 X35.8118 Y-15.1405
G01 X35.8018 Y-15.1299
G01 X35.7962 Y-15.1213
G01 X35.7916 Y-15.1111
G01 X35.7887 Y-15.1003
G01 X35.7875 Y-15.0892
G01 X35.7875 Y-14.5742
G01 X35.7275 Y-14.5742
G00 Z2.0000
G00 X37.2875 Y-14.0008
G01 F70.00
G01 Z-0.0700
G01 F60.00
G01 X37.2875 Y-13.3575
G01 X36.7942 Y-13.3575
G01 X36.7942 Y-13.4175
G01 X37.1618 Y-13.4176
G01 X37.1762 Y-13.4200
G01 X37.1905 Y-13.4258
G01 X37.2032 Y-13.4345
G01 X37.2132 Y-13.4451
G01 X37.2188 Y-13.4537
G01 X37.2234 Y-13.4639
G01 X37.2263 Y-13.4747
G01 X37.2275 Y-13.4858
G01 X37.2275 Y-14.0008
G01 X37.2875 Y-14.0008
G00 Z2.0000
G00 X37.2875 Y-15.2175
G01 F70.00
G01 Z-0.0700
G01 F60.00
G01 X37.2875 Y-14.5742
G01 X37.2275 Y-14.5742
G01 X37.2275 Y-15.0892
G01 X37.2265 Y-15.0995
G01 X37.2242 Y-15.1086
G01 X37.2204 Y-15.1182
G01 X37.2157 Y-15.1264
G01 X37.2051 Y-15.1388
G01 X37.1927 Y-15.1480
G01 X37.1786 Y-15.1542
G01 X37.1626 Y-15.1573
G01 X36.7942 Y-15.1575
G01 X36.7942 Y-15.2175
G01 X37.2875 Y-15.2175
G00 Z2.0000
G00 X31.3750 Y-14.9175
G01 F70.00
G01 Z-0.0700
G01 F60.00
G01 X31.3895 Y-14.9163
G01 X31.4050 Y-14.9161
G01 X31.4332 Y-14.9187
G01 X31.4483 Y-14.9217
G01 X31.4632 Y-14.9258
G01 X31.4900 Y-14.9364
G01 X31.4900 Y-5.4519
G01 X31.4760 Y-5.4554
G01 X31.4608 Y-5.4580
G01 X31.4325 Y-5.4599
G01 X31.4042 Y-5.4580
G01 X31.3890 Y-5.4554
G01 X31.3750 Y-5.4519
G01 X31.3750 Y-14.9175
G00 Z2.0000
G00 X31.2854 Y-15.0454
G01 F70.00
G01 Z-0.0700
G01 F60.00
G01 X31.2774 Y-15.0558
G01 X31.2636 Y-15.0711
G01 X31.2483 Y-15.0849
G01 X31.2258 Y-15.1024
G01 X31.2114 Y-15.1172
G01 X31.2031 Y-15.1281
G01 X31.1959 Y-15.1398
G01 X31.1906 Y-15.1506
G01 X31.1856 Y-15.1634
G01 X31.1812 Y-15.1800
G01 X31.1791 Y-15.1953
G01 X31.1786 Y-15.2125
G01 X31.1801 Y-15.2279
G01 X31.1836 Y-15.2447
G01 X31.1886 Y-15.2593
G01 X31.1959 Y-15.2748
G01 X31.2041 Y-15.2879
G01 X31.2137 Y-15.3001
G01 X31.2233 Y-15.3099
G01 X31.2351 Y-15.3198
G01 X31.2466 Y-15.3274
G01 X31.2587 Y-15.3339
G01 X31.2730 Y-15.3397
G01 X31.2862 Y-15.3435
G01 X31.3014 Y-15.3463
G01 X31.3168 Y-15.3473
G01 X31.3998 Y-15.3473
G01 X31.4187 Y-15.3461
G01 X31.4355 Y-15.3427
G01 X31.4502 Y-15.3379
G01 X31.4658 Y-15.3308
G01 X31.4804 Y-15.3218
G01 X31.4926 Y-15.3122
G01 X31.5024 Y-15.3026
G01 X31.5112 Y-15.2921
G01 X31.5199 Y-15.2793
G01 X31.5271 Y-15.2656
G01 X31.5322 Y-15.2529
G01 X31.5360 Y-15.2397
G01 X31.5388 Y-15.2245
G01 X31.5398 Y-15.2090
G01 X31.5398 Y-15.1260
G01 X31.5386 Y-15.1072
G01 X31.5352 Y-15.0904
G01 X31.5298 Y-15.0741
G01 X31.5225 Y-15.0585
G01 X31.5143 Y-15.0454
G01 X31.5047 Y-15.0333
G01 X31.4926 Y-15.0212
G01 X31.4790 Y-15.0106
G01 X31.4643 Y-15.0018
G01 X31.4502 Y-14.9954
G01 X31.4338 Y-14.9902
G01 X31.4170 Y-14.9871
G01 X31.3998 Y-14.9860
G01 X31.3844 Y-14.9869
G01 X31.3675 Y-14.9898
G01 X31.3510 Y-14.9948
G01 X31.3353 Y-15.0018
G01 X31.3206 Y-15.0106
G01 X31.3084 Y-15.0200
G01 X31.2961 Y-15.0320
G01 X31.2854 Y-15.0454
G00 Z2.0000
G00 X31.3426 Y-15.0857
G01 F70.00
G01 Z-0.0700
G01 F60.00
G01 X31.3316 Y-15.1002
G01 X31.3131 Y-15.1206
G01 X31.2927 Y-15.1391
G01 X31.2709 Y-15.1560
G01 X31.2639 Y-15.1636
G01 X31.2581 Y-15.1721
G01 X31.2542 Y-15.1797
G01 X31.2513 Y-15.1878
G01 X31.2494 Y-15.1962
G01 X31.2486 Y-15.2047
G01 X31.2499 Y-15.2210
G01 X31.2521 Y-15.2293
G01 X31.2553 Y-15.2373
G01 X31.2639 Y-15.2511
G01 X31.2755 Y-15.2625
G01 X31.2826 Y-15.2674
G01 X31.2902 Y-15.2713
G01 X31.3057 Y-15.2761
G01 X31.3177 Y-15.2773
G01 X31.4033 Y-15.2772
G01 X31.4168 Y-15.2752
G01 X31.4298 Y-15.2706
G01 X31.4436 Y-15.2620
G01 X31.4550 Y-15.2504
G01 X31.4599 Y-15.2433
G01 X31.4638 Y-15.2357
G01 X31.4686 Y-15.2201
G01 X31.4698 Y-15.2082
G01 X31.4697 Y-15.1226
G01 X31.4677 Y-15.1090
G01 X31.4631 Y-15.0961
G01 X31.4585 Y-15.0879
G01 X31.4534 Y-15.0810
G01 X31.4468 Y-15.0742
G01 X31.4401 Y-15.0688
G01 X31.4321 Y-15.0639
G01 X31.4242 Y-15.0604
G01 X31.4152 Y-15.0577
G01 X31.4058 Y-15.0563
G01 X31.3964 Y-15.0561
G01 X31.3870 Y-15.0572
G01 X31.3779 Y-15.0596
G01 X31.3699 Y-15.0628
G01 X31.3617 Y-15.0674
G01 X31.3548 Y-15.0725
G01 X31.3485 Y-15.0784
G01 X31.3426 Y-15.0857
G00 Z2.0000
G00 X31.1289 Y-15.2975
G01 F70.00
G01 Z-0.0700
G01 F60.00
G01 X31.1183 Y-15.2707
G01 X31.1142 Y-15.2558
G01 X31.1112 Y-15.2407
G01 X31.1086 Y-15.2125
G01 X31.1088 Y-15.1970
G01 X31.1100 Y-15.1825
G01 X26.6561 Y-15.1825
G01 X26.6667 Y-15.2093
G01 X26.6708 Y-15.2242
G01 X26.6738 Y-15.2393
G01 X26.6764 Y-15.2675
G01 X26.6762 Y-15.2830
G01 X26.6750 Y-15.2975
G01 X31.1289 Y-15.2975
G00 Z2.0000
G00 X26.4665 Y-15.2027
G01 F70.00
G01 Z-0.0700
G01 F60.00
G01 X26.3835 Y-15.2027
G01 X26.3673 Y-15.2050
G01 X26.3537 Y-15.2101
G01 X26.3414 Y-15.2180
G01 X26.3316 Y-15.2276
G01 X26.3234 Y-15.2397
G01 X26.3179 Y-15.2532
G01 X26.3153 Y-15.2684
G01 X26.3152 Y-15.3548
G01 X26.3161 Y-15.3651
G01 X26.3205 Y-15.3807
G01 X26.3284 Y-15.3950
G01 X26.3388 Y-15.4064
G01 X26.3522 Y-15.4157
G01 X26.3600 Y-15.4193
G01 X26.3690 Y-15.4221
G01 X26.3783 Y-15.4236
G01 X26.3878 Y-15.4239
G01 X26.3971 Y-15.4229
G01 X26.4055 Y-15.4209
G01 X26.4143 Y-15.4176
G01 X26.4226 Y-15.4131
G01 X26.4296 Y-15.4081
G01 X26.4365 Y-15.4016
G01 X26.4534 Y-15.3798
G01 X26.4719 Y-15.3594
G01 X26.4923 Y-15.3409
G01 X26.5102 Y-15.3273
G01 X26.5166 Y-15.3216
G01 X26.5232 Y-15.3137
G01 X26.5282 Y-15.3057
G01 X26.5321 Y-15.2971
G01 X26.5346 Y-15.2888
G01 X26.5360 Y-15.2804
G01 X26.5364 Y-15.2710
G01 X26.5357 Y-15.2624
G01 X26.5337 Y-15.2532
G01 X26.5308 Y-15.2451
G01 X26.5265 Y-15.2367
G01 X26.5216 Y-15.2296
G01 X26.5153 Y-15.2226
G01 X26.5082 Y-15.2165
G01 X26.5010 Y-15.2118
G01 X26.4932 Y-15.2080
G01 X26.4843 Y-15.2050
G01 X26.4759 Y-15.2033
G01 X26.4665 Y-15.2027
G00 Z2.0000
G00 X26.4665 Y-15.1327
G01 F70.00
G01 Z-0.0700
G01 F60.00
G01 X26.3732 Y-15.1332
G01 X26.3512 Y-15.1369
G01 X26.3300 Y-15.1440
G01 X26.3177 Y-15.1500
G01 X26.3060 Y-15.1572
G01 X26.2950 Y-15.1656
G01 X26.2838 Y-15.1761
G01 X26.2738 Y-15.1879
G01 X26.2660 Y-15.1992
G01 X26.2594 Y-15.2113
G01 X26.2539 Y-15.2239
G01 X26.2502 Y-15.2353
G01 X26.2475 Y-15.2470
G01 X26.2458 Y-15.2590
G01 X26.2452 Y-15.2710
G01 X26.2453 Y-15.3608
G01 X26.2475 Y-15.3796
G01 X26.2517 Y-15.3962
G01 X26.2572 Y-15.4107
G01 X26.2642 Y-15.4245
G01 X26.2738 Y-15.4387
G01 X26.2838 Y-15.4505
G01 X26.2950 Y-15.4611
G01 X26.3074 Y-15.4704
G01 X26.3222 Y-15.4790
G01 X26.3364 Y-15.4852
G01 X26.3512 Y-15.4898
G01 X26.3680 Y-15.4929
G01 X26.3835 Y-15.4939
G01 X26.4006 Y-15.4931
G01 X26.4158 Y-15.4906
G01 X26.4307 Y-15.4863
G01 X26.4466 Y-15.4798
G01 X26.4601 Y-15.4722
G01 X26.4727 Y-15.4633
G01 X26.4854 Y-15.4517
G01 X26.4945 Y-15.4414
G01 X26.5076 Y-15.4242
G01 X26.5214 Y-15.4089
G01 X26.5367 Y-15.3951
G01 X26.5579 Y-15.3787
G01 X26.5702 Y-15.3667
G01 X26.5779 Y-15.3574
G01 X26.5856 Y-15.3461
G01 X26.5923 Y-15.3341
G01 X26.5977 Y-15.3215
G01 X26.6027 Y-15.3050
G01 X26.6056 Y-15.2881
G01 X26.6064 Y-15.2710
G01 X26.6052 Y-15.2538
G01 X26.6018 Y-15.2370
G01 X26.5964 Y-15.2207
G01 X26.5891 Y-15.2052
G01 X26.5809 Y-15.1921
G01 X26.5713 Y-15.1799
G01 X26.5592 Y-15.1678
G01 X26.5457 Y-15.1572
G01 X26.5309 Y-15.1484
G01 X26.5152 Y-15.1414
G01 X26.5005 Y-15.1369
G01 X26.4836 Y-15.1337
G01 X26.4665 Y-15.1327
G00 Z2.0000
G00 X26.4100 Y-15.5625
G01 F70.00
G01 Z-0.0700
G01 F60.00
G01 X26.3955 Y-15.5637
G01 X26.3800 Y-15.5639
G01 X26.3518 Y-15.5613
G01 X26.3367 Y-15.5583
G01 X26.3218 Y-15.5542
G01 X26.2950 Y-15.5436
G01 X26.2950 Y-18.6781
G01 X26.3090 Y-18.6746
G01 X26.3242 Y-18.6720
G01 X26.3525 Y-18.6701
G01 X26.3808 Y-18.6720
G01 X26.3960 Y-18.6746
G01 X26.4100 Y-18.6781
G01 X26.4100 Y-15.5625
G00 Z2.0000
G00 X23.2725 Y-15.8150
G01 F70.00
G01 Z-0.0700
G01 F60.00
G01 X22.7792 Y-15.8150
G01 X22.7792 Y-15.9750
G01 X23.0425 Y-15.9750
G01 X23.0528 Y-15.9758
G01 X23.0620 Y-15.9778
G01 X23.0716 Y-15.9814
G01 X23.0807 Y-15.9863
G01 X23.0882 Y-15.9920
G01 X23.0949 Y-15.9986
G01 X23.1012 Y-16.0068
G01 X23.1061 Y-16.0159
G01 X23.1095 Y-16.0247
G01 X23.1117 Y-16.0347
G01 X23.1125 Y-16.0450
G01 X23.1125 Y-16.9084
G01 X23.2725 Y-16.9084
G01 X23.2725 Y-15.8150
G00 Z2.0000
G00 X23.2025 Y-15.8850
G01 F70.00
G01 Z-0.0700
G01 F60.00
G01 X22.8492 Y-15.8850
G01 X22.8492 Y-15.9050
G01 X23.0477 Y-15.9051
G01 X23.0681 Y-15.9074
G01 X23.0897 Y-15.9132
G01 X23.1039 Y-15.9192
G01 X23.1174 Y-15.9267
G01 X23.1300 Y-15.9357
G01 X23.1415 Y-15.9460
G01 X23.1518 Y-15.9575
G01 X23.1608 Y-15.9701
G01 X23.1683 Y-15.9836
G01 X23.1749 Y-15.9995
G01 X23.1804 Y-16.0211
G01 X23.1825 Y-16.0433
G01 X23.1825 Y-16.8384
G01 X23.2025 Y-16.8384
G01 X23.2025 Y-15.8850
G00 Z2.0000
G00 X22.3058 Y-15.8150
G01 F70.00
G01 Z-0.0700
G01 F60.00
G01 X21.8125 Y-15.8150
G01 X21.8125 Y-16.9084
G01 X21.9725 Y-16.9084
G01 X21.9725 Y-16.0441
G01 X21.9742 Y-16.0297
G01 X21.9789 Y-16.0159
G01 X21.9834 Y-16.0076
G01 X21.9884 Y-16.0006
G01 X21.9942 Y-15.9943
G01 X22.0015 Y-15.9883
G01 X22.0087 Y-15.9837
G01 X22.0173 Y-15.9797
G01 X22.0255 Y-15.9771
G01 X22.0339 Y-15.9755
G01 X22.0425 Y-15.9750
G01 X22.3058 Y-15.9750
G01 X22.3058 Y-15.8150
G00 Z2.0000
G00 X22.2358 Y-15.8850
G01 F70.00
G01 Z-0.0700
G01 F60.00
G01 X21.8825 Y-15.8850
G01 X21.8825 Y-16.8384
G01 X21.9025 Y-16.8384
G01 X21.9025 Y-16.0433
G01 X21.9032 Y-16.0313
G01 X21.9049 Y-16.0194
G01 X21.9076 Y-16.0077
G01 X21.9113 Y-15.9962
G01 X21.9174 Y-15.9821
G01 X21.9251 Y-15.9687
G01 X21.9343 Y-15.9562
G01 X21.9447 Y-15.9448
G01 X21.9564 Y-15.9346
G01 X21.9691 Y-15.9258
G01 X21.9826 Y-15.9184
G01 X21.9970 Y-15.9126
G01 X22.0169 Y-15.9074
G01 X22.0373 Y-15.9051
G01 X22.2358 Y-15.9050
G01 X22.2358 Y-15.8850
G00 Z2.0000
G00 X21.2352 Y-15.2727
G01 F70.00
G01 Z-0.0700
G01 F60.00
G01 X21.2365 Y-15.2590
G01 X21.2405 Y-15.2459
G01 X21.2470 Y-15.2338
G01 X21.2557 Y-15.2232
G01 X21.2656 Y-15.2150
G01 X21.2776 Y-15.2083
G01 X21.2907 Y-15.2042
G01 X21.3043 Y-15.2027
G01 X23.7807 Y-15.2027
G01 X23.7960 Y-15.2046
G01 X23.8113 Y-15.2101
G01 X23.8242 Y-15.2186
G01 X23.8355 Y-15.2303
G01 X23.8416 Y-15.2397
G01 X23.8460 Y-15.2499
G01 X23.8488 Y-15.2607
G01 X23.8498 Y-15.2727
G01 X23.8502 Y-18.7462
G01 X23.8512 Y-18.7600
G01 X23.8552 Y-18.7872
G01 X23.8619 Y-18.8138
G01 X23.8662 Y-18.8269
G01 X23.8767 Y-18.8523
G01 X23.8851 Y-18.8685
G01 X23.8971 Y-18.8881
G01 X23.9134 Y-18.9102
G01 X23.9319 Y-18.9306
G01 X23.9419 Y-18.9401
G01 X23.9631 Y-18.9575
G01 X23.9818 Y-18.9702
G01 X23.9979 Y-18.9796
G01 X24.0228 Y-18.9913
G01 X24.0356 Y-18.9963
G01 X24.0619 Y-19.0043
G01 X24.0889 Y-19.0096
G01 X24.1025 Y-19.0113
G01 X24.1309 Y-19.0127
G01 X26.0341 Y-19.0127
G01 X26.0625 Y-19.0113
G01 X26.0897 Y-19.0073
G01 X26.1031 Y-19.0043
G01 X26.1294 Y-18.9963
G01 X26.1548 Y-18.9858
G01 X26.1790 Y-18.9728
G01 X26.1906 Y-18.9654
G01 X26.2019 Y-18.9575
G01 X26.2231 Y-18.9401
G01 X26.2331 Y-18.9306
G01 X26.2516 Y-18.9102
G01 X26.2679 Y-18.8881
G01 X26.2753 Y-18.8765
G01 X26.2938 Y-18.8419
G01 X26.3042 Y-18.8294
G01 X26.3151 Y-18.8209
G01 X26.3265 Y-18.8151
G01 X26.3388 Y-18.8114
G01 X26.3525 Y-18.8101
G01 X26.3653 Y-18.8113
G01 X26.3785 Y-18.8151
G01 X26.3907 Y-18.8214
G01 X26.4008 Y-18.8294
G01 X26.4112 Y-18.8419
G01 X26.4297 Y-18.8765
G01 X26.4450 Y-18.8994
G01 X26.4534 Y-18.9102
G01 X26.4719 Y-18.9306
G01 X26.4819 Y-18.9401
G01 X26.4985 Y-18.9539
G01 X26.5144 Y-18.9654
G01 X26.5379 Y-18.9796
G01 X26.5502 Y-18.9858
G01 X26.5628 Y-18.9913
G01 X26.5887 Y-19.0006
G01 X26.6019 Y-19.0043
G01 X26.6289 Y-19.0096
G01 X26.6563 Y-19.0123
G01 X26.6709 Y-19.0127
G01 X34.9241 Y-19.0127
G01 X34.9387 Y-19.0123
G01 X34.9661 Y-19.0096
G01 X34.9797 Y-19.0073
G01 X35.0063 Y-19.0006
G01 X35.0322 Y-18.9913
G01 X35.0448 Y-18.9858
G01 X35.0690 Y-18.9728
G01 X35.0919 Y-18.9575
G01 X35.1131 Y-18.9401
G01 X35.1326 Y-18.9206
G01 X35.1500 Y-18.8994
G01 X35.1653 Y-18.8765
G01 X35.1721 Y-18.8646
G01 X35.1783 Y-18.8523
G01 X35.1888 Y-18.8269
G01 X35.1968 Y-18.8006
G01 X35.2021 Y-18.7736
G01 X35.2048 Y-18.7462
G01 X35.2054 Y-15.2824
G01 X35.2067 Y-15.2730
G01 X35.2096 Y-15.2631
G01 X35.2139 Y-15.2537
G01 X35.2195 Y-15.2451
G01 X35.2263 Y-15.2374
G01 X35.2342 Y-15.2308
G01 X35.2429 Y-15.2254
G01 X35.2516 Y-15.2216
G01 X35.2624 Y-15.2187
G01 X35.2735 Y-15.2175
G01 X35.3875 Y-15.2175
G01 X35.3875 Y-13.3575
G01 X35.2735 Y-13.3575
G01 X35.2632 Y-13.3565
G01 X35.2532 Y-13.3540
G01 X35.2437 Y-13.3500
G01 X35.2356 Y-13.3452
G01 X35.2282 Y-13.3394
G01 X35.2216 Y-13.3326
G01 X35.2160 Y-13.3249
G01 X35.2115 Y-13.3166
G01 X35.2082 Y-13.3078
G01 X35.2059 Y-13.2978
G01 X35.2052 Y-13.2875
G01 X35.2052 Y-12.1125
G01 X35.2059 Y-12.1022
G01 X35.2082 Y-12.0922
G01 X35.2119 Y-12.0826
G01 X35.2175 Y-12.0729
G01 X35.2239 Y-12.0649
G01 X35.2314 Y-12.0578
G01 X35.2399 Y-12.0520
G01 X35.2500 Y-12.0472
G01 X35.2615 Y-12.0438
G01 X35.2726 Y-12.0425
G01 X35.3875 Y-12.0425
G01 X35.3875 Y-10.1825
G01 X35.2735 Y-10.1825
G01 X35.2632 Y-10.1815
G01 X35.2532 Y-10.1790
G01 X35.2437 Y-10.1750
G01 X35.2356 Y-10.1702
G01 X35.2282 Y-10.1644
G01 X35.2216 Y-10.1576
G01 X35.2160 Y-10.1499
G01 X35.2115 Y-10.1416
G01 X35.2082 Y-10.1328
G01 X35.2059 Y-10.1228
G01 X35.2052 Y-10.1125
G01 X35.2052 Y-8.9375
G01 X35.2059 Y-8.9272
G01 X35.2082 Y-8.9172
G01 X35.2119 Y-8.9076
G01 X35.2175 Y-8.8979
G01 X35.2239 Y-8.8899
G01 X35.2314 Y-8.8828
G01 X35.2399 Y-8.8770
G01 X35.2500 Y-8.8722
G01 X35.2615 Y-8.8688
G01 X35.2726 Y-8.8675
G01 X35.3875 Y-8.8675
G01 X35.3875 Y-7.0075
G01 X35.2735 Y-7.0075
G01 X35.2632 Y-7.0065
G01 X35.2532 Y-7.0040
G01 X35.2437 Y-7.0000
G01 X35.2356 Y-6.9952
G01 X35.2282 Y-6.9894
G01 X35.2216 Y-6.9826
G01 X35.2160 Y-6.9749
G01 X35.2112 Y-6.9659
G01 X35.2077 Y-6.9562
G01 X35.2058 Y-6.9469
G01 X35.2052 Y-6.9375
G01 X35.2048 Y-5.3838
G01 X35.2038 Y-5.3700
G01 X35.1998 Y-5.3428
G01 X35.1968 Y-5.3294
G01 X35.1888 Y-5.3031
G01 X35.1783 Y-5.2777
G01 X35.1721 Y-5.2654
G01 X35.1579 Y-5.2419
G01 X35.1500 Y-5.2306
G01 X35.1416 Y-5.2198
G01 X35.1231 Y-5.1994
G01 X35.1027 Y-5.1809
G01 X35.0806 Y-5.1646
G01 X35.0571 Y-5.1504
G01 X35.0322 Y-5.1387
G01 X35.0063 Y-5.1294
G01 X34.9797 Y-5.1227
G01 X34.9661 Y-5.1204
G01 X34.9387 Y-5.1177
G01 X31.7509 Y-5.1173
G01 X31.7225 Y-5.1187
G01 X31.6953 Y-5.1227
G01 X31.6819 Y-5.1257
G01 X31.6687 Y-5.1294
G01 X31.6428 Y-5.1387
G01 X31.6302 Y-5.1442
G01 X31.6060 Y-5.1572
G01 X31.5831 Y-5.1725
G01 X31.5723 Y-5.1809
G01 X31.5619 Y-5.1899
G01 X31.5424 Y-5.2094
G01 X31.5334 Y-5.2198
G01 X31.5171 Y-5.2419
G01 X31.5029 Y-5.2654
G01 X31.4921 Y-5.2866
G01 X31.4866 Y-5.2943
G01 X31.4801 Y-5.3012
G01 X31.4692 Y-5.3095
G01 X31.4569 Y-5.3155
G01 X31.4436 Y-5.3190
G01 X31.4291 Y-5.3198
G01 X31.4172 Y-5.3182
G01 X31.4049 Y-5.3143
G01 X31.3936 Y-5.3081
G01 X31.3836 Y-5.3000
G01 X31.3778 Y-5.2937
G01 X31.3729 Y-5.2866
G01 X31.3621 Y-5.2654
G01 X31.3479 Y-5.2419
G01 X31.3316 Y-5.2198
G01 X31.3131 Y-5.1994
G01 X31.3031 Y-5.1899
G01 X31.2927 Y-5.1809
G01 X31.2706 Y-5.1646
G01 X31.2471 Y-5.1504
G01 X31.2222 Y-5.1387
G01 X31.2094 Y-5.1337
G01 X31.1963 Y-5.1294
G01 X31.1697 Y-5.1227
G01 X31.1425 Y-5.1187
G01 X31.1141 Y-5.1173
G01 X29.2550 Y-5.1173
G01 X29.2430 Y-5.1163
G01 X29.2339 Y-5.1141
G01 X29.2251 Y-5.1106
G01 X29.2168 Y-5.1060
G01 X29.2093 Y-5.1003
G01 X29.2020 Y-5.0930
G01 X29.1963 Y-5.0855
G01 X29.1917 Y-5.0773
G01 X29.1883 Y-5.0685
G01 X29.1860 Y-5.0593
G01 X29.1850 Y-5.0490
G01 X29.1850 Y-4.9325
G01 X27.3250 Y-4.9325
G01 X27.3250 Y-5.0490
G01 X27.3240 Y-5.0593
G01 X27.3215 Y-5.0693
G01 X27.3179 Y-5.0780
G01 X27.3132 Y-5.0862
G01 X27.3074 Y-5.0937
G01 X27.3001 Y-5.1009
G01 X27.2924 Y-5.1065
G01 X27.2841 Y-5.1110
G01 X27.2753 Y-5.1143
G01 X27.2653 Y-5.1166
G01 X27.2550 Y-5.1173
G01 X26.0800 Y-5.1173
G01 X26.0689 Y-5.1164
G01 X26.0589 Y-5.1141
G01 X26.0493 Y-5.1102
G01 X26.0404 Y-5.1050
G01 X26.0317 Y-5.0980
G01 X26.0248 Y-5.0904
G01 X26.0191 Y-5.0818
G01 X26.0147 Y-5.0725
G01 X26.0113 Y-5.0610
G01 X26.0100 Y-5.0499
G01 X26.0100 Y-4.9325
G01 X24.1500 Y-4.9325
G01 X24.1500 Y-5.0490
G01 X24.1490 Y-5.0593
G01 X24.1465 Y-5.0693
G01 X24.1429 Y-5.0780
G01 X24.1382 Y-5.0862
G01 X24.1324 Y-5.0937
G01 X24.1251 Y-5.1009
G01 X24.1174 Y-5.1065
G01 X24.1091 Y-5.1110
G01 X24.1003 Y-5.1143
G01 X24.0903 Y-5.1166
G01 X24.0800 Y-5.1173
G01 X22.9050 Y-5.1173
G01 X22.8939 Y-5.1164
G01 X22.8839 Y-5.1141
G01 X22.8743 Y-5.1102
G01 X22.8654 Y-5.1050
G01 X22.8567 Y-5.0980
G01 X22.8498 Y-5.0904
G01 X22.8441 Y-5.0818
G01 X22.8397 Y-5.0725
G01 X22.8363 Y-5.0610
G01 X22.8350 Y-5.0499
G01 X22.8350 Y-4.9325
G01 X20.9750 Y-4.9325
G01 X20.9750 Y-5.0490
G01 X20.9740 Y-5.0593
G01 X20.9715 Y-5.0693
G01 X20.9679 Y-5.0780
G01 X20.9627 Y-5.0869
G01 X20.9563 Y-5.0950
G01 X20.9494 Y-5.1014
G01 X20.9417 Y-5.1069
G01 X20.9334 Y-5.1113
G01 X20.9237 Y-5.1148
G01 X20.9144 Y-5.1167
G01 X20.9050 Y-5.1173
G01 X18.4013 Y-5.1177
G01 X18.3739 Y-5.1204
G01 X18.3603 Y-5.1227
G01 X18.3337 Y-5.1294
G01 X18.3078 Y-5.1387
G01 X18.2952 Y-5.1442
G01 X18.2710 Y-5.1572
G01 X18.2594 Y-5.1646
G01 X18.2481 Y-5.1725
G01 X18.2269 Y-5.1899
G01 X18.2169 Y-5.1994
G01 X18.1984 Y-5.2198
G01 X18.1821 Y-5.2419
G01 X18.1747 Y-5.2535
G01 X18.1562 Y-5.2881
G01 X18.1458 Y-5.3006
G01 X18.1357 Y-5.3086
G01 X18.1235 Y-5.3149
G01 X18.1103 Y-5.3187
G01 X18.0966 Y-5.3199
G01 X18.0838 Y-5.3186
G01 X18.0707 Y-5.3146
G01 X18.0586 Y-5.3081
G01 X18.0486 Y-5.3000
G01 X18.0428 Y-5.2937
G01 X18.0379 Y-5.2866
G01 X18.0271 Y-5.2654
G01 X18.0129 Y-5.2419
G01 X17.9966 Y-5.2198
G01 X17.9781 Y-5.1994
G01 X17.9681 Y-5.1899
G01 X17.9577 Y-5.1809
G01 X17.9356 Y-5.1646
G01 X17.9121 Y-5.1504
G01 X17.8872 Y-5.1387
G01 X17.8744 Y-5.1337
G01 X17.8613 Y-5.1294
G01 X17.8347 Y-5.1227
G01 X17.8075 Y-5.1187
G01 X17.7791 Y-5.1173
G01 X15.9200 Y-5.1173
G01 X15.9080 Y-5.1163
G01 X15.8989 Y-5.1141
G01 X15.8893 Y-5.1102
G01 X15.8811 Y-5.1055
G01 X15.8736 Y-5.0998
G01 X15.8670 Y-5.0930
G01 X15.8613 Y-5.0855
G01 X15.8567 Y-5.0773
G01 X15.8533 Y-5.0685
G01 X15.8510 Y-5.0593
G01 X15.8500 Y-5.0490
G01 X15.8500 Y-4.9325
G01 X13.9900 Y-4.9325
G01 X13.9900 Y-5.0490
G01 X13.9890 Y-5.0593
G01 X13.9865 Y-5.0693
G01 X13.9829 Y-5.0780
G01 X13.9782 Y-5.0862
G01 X13.9719 Y-5.0943
G01 X13.9651 Y-5.1009
G01 X13.9574 Y-5.1065
G01 X13.9491 Y-5.1110
G01 X13.9403 Y-5.1143
G01 X13.9303 Y-5.1166
G01 X13.9200 Y-5.1173
G01 X12.7450 Y-5.1173
G01 X12.7339 Y-5.1164
G01 X12.7239 Y-5.1141
G01 X12.7143 Y-5.1102
G01 X12.7054 Y-5.1050
G01 X12.6974 Y-5.0986
G01 X12.6898 Y-5.0904
G01 X12.6841 Y-5.0818
G01 X12.6797 Y-5.0725
G01 X12.6763 Y-5.0610
G01 X12.6750 Y-5.0499
G01 X12.6750 Y-4.9325
G01 X10.8150 Y-4.9325
G01 X10.8150 Y-5.0490
G01 X10.8140 Y-5.0593
G01 X10.8115 Y-5.0693
G01 X10.8079 Y-5.0780
G01 X10.8032 Y-5.0862
G01 X10.7969 Y-5.0943
G01 X10.7901 Y-5.1009
G01 X10.7824 Y-5.1065
G01 X10.7741 Y-5.1110
G01 X10.7653 Y-5.1143
G01 X10.7553 Y-5.1166
G01 X10.7450 Y-5.1173
G01 X9.5700 Y-5.1173
G01 X9.5589 Y-5.1164
G01 X9.5489 Y-5.1141
G01 X9.5393 Y-5.1102
G01 X9.5304 Y-5.1050
G01 X9.5224 Y-5.0986
G01 X9.5148 Y-5.0904
G01 X9.5091 Y-5.0818
G01 X9.5047 Y-5.0725
G01 X9.5013 Y-5.0610
G01 X9.5000 Y-5.0499
G01 X9.5000 Y-4.9325
G01 X7.6400 Y-4.9325
G01 X7.6400 Y-5.0490
G01 X7.6388 Y-5.0601
G01 X7.6362 Y-5.0701
G01 X7.6325 Y-5.0788
G01 X7.6272 Y-5.0876
G01 X7.6207 Y-5.0956
G01 X7.6137 Y-5.1020
G01 X7.6060 Y-5.1074
G01 X7.5968 Y-5.1120
G01 X7.5878 Y-5.1150
G01 X7.5777 Y-5.1169
G01 X5.0663 Y-5.1177
G01 X5.0389 Y-5.1204
G01 X5.0119 Y-5.1257
G01 X4.9987 Y-5.1294
G01 X4.9728 Y-5.1387
G01 X4.9602 Y-5.1442
G01 X4.9360 Y-5.1572
G01 X4.9131 Y-5.1725
G01 X4.9023 Y-5.1809
G01 X4.8819 Y-5.1994
G01 X4.8634 Y-5.2198
G01 X4.8550 Y-5.2306
G01 X4.8397 Y-5.2535
G01 X4.8267 Y-5.2777
G01 X4.8212 Y-5.2903
G01 X4.8162 Y-5.3031
G01 X4.8082 Y-5.3294
G01 X4.8052 Y-5.3428
G01 X4.8012 Y-5.3700
G01 X4.7998 Y-5.3984
G01 X4.7998 Y-14.9216
G01 X4.8012 Y-14.9500
G01 X4.8052 Y-14.9772
G01 X4.8119 Y-15.0038
G01 X4.8212 Y-15.0297
G01 X4.8329 Y-15.0546
G01 X4.8397 Y-15.0665
G01 X4.8471 Y-15.0781
G01 X4.8634 Y-15.1002
G01 X4.8819 Y-15.1206
G01 X4.8919 Y-15.1301
G01 X4.9023 Y-15.1391
G01 X4.9244 Y-15.1554
G01 X4.9360 Y-15.1628
G01 X4.9602 Y-15.1758
G01 X4.9856 Y-15.1863
G01 X5.0119 Y-15.1943
G01 X5.0253 Y-15.1973
G01 X5.0389 Y-15.1996
G01 X5.0663 Y-15.2023
G01 X10.4448 Y-15.2027
G01 X10.4551 Y-15.2034
G01 X10.4651 Y-15.2057
G01 X10.4748 Y-15.2094
G01 X10.4837 Y-15.2145
G01 X10.4961 Y-15.2250
G01 X10.5016 Y-15.2317
G01 X10.5061 Y-15.2389
G01 X10.5098 Y-15.2467
G01 X10.5125 Y-15.2548
G01 X10.5142 Y-15.2633
G01 X10.5148 Y-15.2718
G01 X10.5152 Y-18.7462
G01 X10.5179 Y-18.7736
G01 X10.5232 Y-18.8006
G01 X10.5269 Y-18.8138
G01 X10.5362 Y-18.8397
G01 X10.5417 Y-18.8523
G01 X10.5547 Y-18.8765
G01 X10.5700 Y-18.8994
G01 X10.5820 Y-18.9144
G01 X10.5969 Y-18.9306
G01 X10.6069 Y-18.9401
G01 X10.6242 Y-18.9545
G01 X10.6510 Y-18.9728
G01 X10.6629 Y-18.9796
G01 X10.6878 Y-18.9913
G01 X10.7006 Y-18.9963
G01 X10.7269 Y-19.0043
G01 X10.7403 Y-19.0073
G01 X10.7675 Y-19.0113
G01 X10.7959 Y-19.0127
G01 X12.7137 Y-19.0123
G01 X12.7411 Y-19.0096
G01 X12.7547 Y-19.0073
G01 X12.7813 Y-19.0006
G01 X12.7944 Y-18.9963
G01 X12.8198 Y-18.9858
G01 X12.8440 Y-18.9728
G01 X12.8556 Y-18.9654
G01 X12.8669 Y-18.9575
G01 X12.8881 Y-18.9401
G01 X12.8981 Y-18.9306
G01 X12.9166 Y-18.9102
G01 X12.9329 Y-18.8881
G01 X12.9403 Y-18.8765
G01 X12.9588 Y-18.8419
G01 X12.9692 Y-18.8294
G01 X12.9801 Y-18.8209
G01 X12.9915 Y-18.8151
G01 X13.0038 Y-18.8114
G01 X13.0175 Y-18.8101
G01 X13.0312 Y-18.8114
G01 X13.0435 Y-18.8151
G01 X13.0557 Y-18.8214
G01 X13.0658 Y-18.8294
G01 X13.0762 Y-18.8419
G01 X13.0947 Y-18.8765
G01 X13.1100 Y-18.8994
G01 X13.1184 Y-18.9102
G01 X13.1325 Y-18.9259
G01 X13.1469 Y-18.9401
G01 X13.1642 Y-18.9545
G01 X13.1794 Y-18.9654
G01 X13.1910 Y-18.9728
G01 X13.2152 Y-18.9858
G01 X13.2406 Y-18.9963
G01 X13.2537 Y-19.0006
G01 X13.2669 Y-19.0043
G01 X13.2939 Y-19.0096
G01 X13.3213 Y-19.0123
G01 X13.3359 Y-19.0127
G01 X20.9541 Y-19.0127
G01 X20.9687 Y-19.0123
G01 X20.9961 Y-19.0096
G01 X21.0231 Y-19.0043
G01 X21.0494 Y-18.9963
G01 X21.0748 Y-18.9858
G01 X21.0871 Y-18.9796
G01 X21.0990 Y-18.9728
G01 X21.1219 Y-18.9575
G01 X21.1431 Y-18.9401
G01 X21.1531 Y-18.9306
G01 X21.1626 Y-18.9206
G01 X21.1800 Y-18.8994
G01 X21.1879 Y-18.8881
G01 X21.2021 Y-18.8646
G01 X21.2138 Y-18.8397
G01 X21.2188 Y-18.8269
G01 X21.2268 Y-18.8006
G01 X21.2298 Y-18.7872
G01 X21.2321 Y-18.7736
G01 X21.2348 Y-18.7462
G01 X21.2352 Y-15.2727
G00 Z2.0000
G00 X21.8125 Y-17.3816
G01 F70.00
G01 Z-0.0700
G01 F60.00
G01 X21.8125 Y-18.4750
G01 X22.3058 Y-18.4750
G01 X22.3058 Y-18.3150
G01 X22.0425 Y-18.3150
G01 X22.0339 Y-18.3145
G01 X22.0247 Y-18.3127
G01 X22.0165 Y-18.3100
G01 X22.0087 Y-18.3063
G01 X22.0008 Y-18.3012
G01 X21.9942 Y-18.2957
G01 X21.9878 Y-18.2887
G01 X21.9829 Y-18.2817
G01 X21.9789 Y-18.2741
G01 X21.9742 Y-18.2603
G01 X21.9725 Y-18.2459
G01 X21.9725 Y-17.3816
G01 X21.8125 Y-17.3816
G00 Z2.0000
G00 X21.8825 Y-17.4516
G01 F70.00
G01 Z-0.0700
G01 F60.00
G01 X21.8825 Y-18.4050
G01 X22.2358 Y-18.4050
G01 X22.2358 Y-18.3850
G01 X22.0373 Y-18.3849
G01 X22.0169 Y-18.3826
G01 X21.9970 Y-18.3774
G01 X21.9826 Y-18.3716
G01 X21.9691 Y-18.3642
G01 X21.9564 Y-18.3554
G01 X21.9447 Y-18.3452
G01 X21.9343 Y-18.3338
G01 X21.9251 Y-18.3213
G01 X21.9174 Y-18.3079
G01 X21.9113 Y-18.2938
G01 X21.9076 Y-18.2823
G01 X21.9049 Y-18.2706
G01 X21.9032 Y-18.2587
G01 X21.9025 Y-18.2467
G01 X21.9025 Y-17.4516
G01 X21.8825 Y-17.4516
G00 Z2.0000
G00 X22.8492 Y-18.4050
G01 F70.00
G01 Z-0.0700
G01 F60.00
G01 X23.2025 Y-18.4050
G01 X23.2025 Y-17.4516
G01 X23.1825 Y-17.4516
G01 X23.1825 Y-18.2467
G01 X23.1818 Y-18.2587
G01 X23.1801 Y-18.2706
G01 X23.1774 Y-18.2823
G01 X23.1737 Y-18.2938
G01 X23.1676 Y-18.3079
G01 X23.1599 Y-18.3213
G01 X23.1507 Y-18.3338
G01 X23.1403 Y-18.3452
G01 X23.1286 Y-18.3554
G01 X23.1159 Y-18.3642
G01 X23.1024 Y-18.3716
G01 X23.0880 Y-18.3774
G01 X23.0681 Y-18.3826
G01 X23.0477 Y-18.3849
G01 X22.8492 Y-18.3850
G01 X22.8492 Y-18.4050
G00 Z2.0000
G00 X22.7792 Y-18.4750
G01 F70.00
G01 Z-0.0700
G01 F60.00
G01 X23.2725 Y-18.4750
G01 X23.2725 Y-17.3816
G01 X23.1125 Y-17.3816
G01 X23.1125 Y-18.2459
G01 X23.1108 Y-18.2603
G01 X23.1061 Y-18.2741
G01 X23.1016 Y-18.2824
G01 X23.0966 Y-18.2894
G01 X23.0908 Y-18.2957
G01 X23.0835 Y-18.3017
G01 X23.0763 Y-18.3063
G01 X23.0685 Y-18.3100
G01 X23.0603 Y-18.3127
G01 X23.0511 Y-18.3145
G01 X23.0425 Y-18.3150
G01 X22.7792 Y-18.3150
G01 X22.7792 Y-18.4750
G00 Z2.0000
G00 X26.5500 Y-18.7342
G01 F70.00
G01 Z-0.0700
G01 F60.00
G01 X26.5506 Y-18.7451
G01 X26.5525 Y-18.7568
G01 X26.5554 Y-18.7682
G01 X26.5594 Y-18.7792
G01 X26.5641 Y-18.7891
G01 X26.5702 Y-18.7992
G01 X26.5772 Y-18.8086
G01 X26.5851 Y-18.8174
G01 X26.5939 Y-18.8253
G01 X26.6033 Y-18.8323
G01 X26.6134 Y-18.8384
G01 X26.6241 Y-18.8434
G01 X26.6352 Y-18.8474
G01 X26.6466 Y-18.8502
G01 X26.6582 Y-18.8519
G01 X26.6691 Y-18.8525
G01 X34.9259 Y-18.8525
G01 X34.9418 Y-18.8513
G01 X34.9550 Y-18.8487
G01 X34.9701 Y-18.8437
G01 X34.9831 Y-18.8375
G01 X34.9958 Y-18.8294
G01 X35.0069 Y-18.8203
G01 X35.0178 Y-18.8086
G01 X35.0270 Y-18.7957
G01 X35.0342 Y-18.7823
G01 X35.0401 Y-18.7665
G01 X35.0437 Y-18.7501
G01 X35.0450 Y-18.7325
G01 X35.0450 Y-15.1575
G01 X35.2584 Y-15.1575
G01 X35.2745 Y-15.1554
G01 X35.2859 Y-15.1515
G01 X35.2957 Y-15.1462
G01 X35.3051 Y-15.1388
G01 X35.3127 Y-15.1306
G01 X35.3188 Y-15.1213
G01 X35.3237 Y-15.1103
G01 X35.3265 Y-15.0995
G01 X35.3275 Y-15.0875
G01 X35.3275 Y-13.4875
G01 X35.3265 Y-13.4755
G01 X35.3240 Y-13.4655
G01 X35.3200 Y-13.4560
G01 X35.3142 Y-13.4465
G01 X35.3076 Y-13.4386
G01 X35.2999 Y-13.4318
G01 X35.2913 Y-13.4262
G01 X35.2819 Y-13.4219
G01 X35.2720 Y-13.4190
G01 X35.2584 Y-13.4175
G01 X35.0450 Y-13.4175
G01 X35.0450 Y-11.9825
G01 X35.2584 Y-11.9825
G01 X35.2728 Y-11.9808
G01 X35.2835 Y-11.9775
G01 X35.2935 Y-11.9725
G01 X35.3026 Y-11.9661
G01 X35.3105 Y-11.9582
G01 X35.3171 Y-11.9492
G01 X35.3222 Y-11.9393
G01 X35.3256 Y-11.9287
G01 X35.3272 Y-11.9185
G01 X35.3274 Y-10.3091
G01 X35.3260 Y-10.2980
G01 X35.3228 Y-10.2873
G01 X35.3175 Y-10.2765
G01 X35.3111 Y-10.2674
G01 X35.3032 Y-10.2595
G01 X35.2942 Y-10.2529
G01 X35.2843 Y-10.2478
G01 X35.2737 Y-10.2444
G01 X35.2584 Y-10.2425
G01 X35.0450 Y-10.2425
G01 X35.0450 Y-8.8075
G01 X35.2584 Y-8.8075
G01 X35.2720 Y-8.8060
G01 X35.2819 Y-8.8031
G01 X35.2913 Y-8.7988
G01 X35.2999 Y-8.7932
G01 X35.3076 Y-8.7864
G01 X35.3142 Y-8.7785
G01 X35.3196 Y-8.7697
G01 X35.3237 Y-8.7603
G01 X35.3265 Y-8.7495
G01 X35.3275 Y-8.7375
G01 X35.3275 Y-7.1375
G01 X35.3266 Y-7.1264
G01 X35.3237 Y-7.1147
G01 X35.3192 Y-7.1045
G01 X35.3127 Y-7.0944
G01 X35.3045 Y-7.0856
G01 X35.2957 Y-7.0788
G01 X35.2851 Y-7.0732
G01 X35.2745 Y-7.0696
G01 X35.2584 Y-7.0675
G01 X35.0450 Y-7.0675
G01 X35.0449 Y-5.3925
G01 X35.0436 Y-5.3790
G01 X35.0401 Y-5.3635
G01 X35.0356 Y-5.3508
G01 X35.0284 Y-5.3365
G01 X35.0209 Y-5.3253
G01 X35.0105 Y-5.3132
G01 X35.0005 Y-5.3042
G01 X34.9882 Y-5.2955
G01 X34.9748 Y-5.2883
G01 X34.9590 Y-5.2824
G01 X34.9426 Y-5.2788
G01 X34.9250 Y-5.2775
G01 X31.7491 Y-5.2775
G01 X31.7332 Y-5.2787
G01 X31.7200 Y-5.2813
G01 X31.7049 Y-5.2863
G01 X31.6919 Y-5.2925
G01 X31.6792 Y-5.3006
G01 X31.6681 Y-5.3097
G01 X31.6572 Y-5.3214
G01 X31.6480 Y-5.3343
G01 X31.6408 Y-5.3477
G01 X31.6349 Y-5.3635
G01 X31.6313 Y-5.3799
G01 X31.6300 Y-5.3975
G01 X31.6300 Y-15.4375
G01 X26.6700 Y-15.4375
G01 X26.6524 Y-15.4388
G01 X26.6352 Y-15.4426
G01 X26.6187 Y-15.4490
G01 X26.6040 Y-15.4572
G01 X26.5932 Y-15.4653
G01 X26.5816 Y-15.4763
G01 X26.5731 Y-15.4867
G01 X26.5646 Y-15.5002
G01 X26.5588 Y-15.5124
G01 X26.5538 Y-15.5275
G01 X26.5512 Y-15.5407
G01 X26.5500 Y-15.5566
G01 X26.5500 Y-18.7342
G00 Z2.0000
G00 X17.9835 Y-15.3473
G01 F70.00
G01 Z-0.0700
G01 F60.00
G01 X18.0768 Y-15.3468
G01 X18.0988 Y-15.3431
G01 X18.1200 Y-15.3360
G01 X18.1323 Y-15.3300
G01 X18.1440 Y-15.3228
G01 X18.1550 Y-15.3144
G01 X18.1662 Y-15.3039
G01 X18.1762 Y-15.2921
G01 X18.1840 Y-15.2808
G01 X18.1906 Y-15.2687
G01 X18.1961 Y-15.2561
G01 X18.1998 Y-15.2447
G01 X18.2025 Y-15.2330
G01 X18.2042 Y-15.2210
G01 X18.2048 Y-15.2090
G01 X18.2047 Y-15.1192
G01 X18.2025 Y-15.1004
G01 X18.1983 Y-15.0838
G01 X18.1928 Y-15.0693
G01 X18.1858 Y-15.0555
G01 X18.1773 Y-15.0426
G01 X18.1662 Y-15.0295
G01 X18.1550 Y-15.0189
G01 X18.1426 Y-15.0096
G01 X18.1278 Y-15.0010
G01 X18.1136 Y-14.9948
G01 X18.0988 Y-14.9902
G01 X18.0820 Y-14.9871
G01 X18.0665 Y-14.9861
G01 X18.0494 Y-14.9869
G01 X18.0342 Y-14.9894
G01 X18.0193 Y-14.9937
G01 X18.0050 Y-14.9995
G01 X17.9899 Y-15.0078
G01 X17.9760 Y-15.0178
G01 X17.9646 Y-15.0283
G01 X17.9555 Y-15.0386
G01 X17.9424 Y-15.0558
G01 X17.9286 Y-15.0711
G01 X17.9133 Y-15.0849
G01 X17.8921 Y-15.1013
G01 X17.8798 Y-15.1133
G01 X17.8721 Y-15.1226
G01 X17.8644 Y-15.1339
G01 X17.8577 Y-15.1459
G01 X17.8523 Y-15.1585
G01 X17.8473 Y-15.1750
G01 X17.8444 Y-15.1919
G01 X17.8436 Y-15.2090
G01 X17.8448 Y-15.2262
G01 X17.8477 Y-15.2413
G01 X17.8529 Y-15.2577
G01 X17.8601 Y-15.2733
G01 X17.8691 Y-15.2879
G01 X17.8798 Y-15.3013
G01 X17.8921 Y-15.3133
G01 X17.9043 Y-15.3228
G01 X17.9191 Y-15.3316
G01 X17.9348 Y-15.3386
G01 X17.9495 Y-15.3431
G01 X17.9664 Y-15.3463
G01 X17.9835 Y-15.3473
G00 Z2.0000
G00 X17.9835 Y-15.2773
G01 F70.00
G01 Z-0.0700
G01 F60.00
G01 X18.0665 Y-15.2773
G01 X18.0827 Y-15.2750
G01 X18.0963 Y-15.2699
G01 X18.1086 Y-15.2620
G01 X18.1184 Y-15.2524
G01 X18.1266 Y-15.2403
G01 X18.1321 Y-15.2268
G01 X18.1347 Y-15.2116
G01 X18.1348 Y-15.1252
G01 X18.1339 Y-15.1149
G01 X18.1295 Y-15.0993
G01 X18.1221 Y-15.0857
G01 X18.1112 Y-15.0736
G01 X18.0978 Y-15.0643
G01 X18.0892 Y-15.0604
G01 X18.0810 Y-15.0579
G01 X18.0717 Y-15.0564
G01 X18.0622 Y-15.0561
G01 X18.0537 Y-15.0569
G01 X18.0445 Y-15.0591
G01 X18.0357 Y-15.0624
G01 X18.0274 Y-15.0669
G01 X18.0198 Y-15.0725
G01 X18.0135 Y-15.0784
G01 X17.9966 Y-15.1002
G01 X17.9781 Y-15.1206
G01 X17.9577 Y-15.1391
G01 X17.9398 Y-15.1527
G01 X17.9334 Y-15.1584
G01 X17.9268 Y-15.1663
G01 X17.9218 Y-15.1743
G01 X17.9179 Y-15.1829
G01 X17.9154 Y-15.1912
G01 X17.9140 Y-15.1996
G01 X17.9136 Y-15.2090
G01 X17.9143 Y-15.2176
G01 X17.9163 Y-15.2268
G01 X17.9192 Y-15.2349
G01 X17.9235 Y-15.2433
G01 X17.9284 Y-15.2504
G01 X17.9347 Y-15.2574
G01 X17.9418 Y-15.2635
G01 X17.9490 Y-15.2682
G01 X17.9568 Y-15.2720
G01 X17.9657 Y-15.2750
G01 X17.9741 Y-15.2767
G01 X17.9835 Y-15.2773
G00 Z2.0000
G00 X18.0400 Y-14.9175
G01 F70.00
G01 Z-0.0700
G01 F60.00
G01 X18.0545 Y-14.9163
G01 X18.0700 Y-14.9161
G01 X18.0982 Y-14.9187
G01 X18.1133 Y-14.9217
G01 X18.1282 Y-14.9258
G01 X18.1550 Y-14.9364
G01 X18.1550 Y-5.4519
G01 X18.1410 Y-5.4554
G01 X18.1258 Y-5.4580
G01 X18.0975 Y-5.4599
G01 X18.0692 Y-5.4580
G01 X18.0540 Y-5.4554
G01 X18.0400 Y-5.4519
G01 X18.0400 Y-14.9175
G00 Z2.0000
G00 X13.3211 Y-15.1825
G01 F70.00
G01 Z-0.0700
G01 F60.00
G01 X13.3317 Y-15.2093
G01 X13.3358 Y-15.2242
G01 X13.3388 Y-15.2393
G01 X13.3414 Y-15.2675
G01 X13.3412 Y-15.2830
G01 X13.3400 Y-15.2975
G01 X17.7939 Y-15.2975
G01 X17.7833 Y-15.2707
G01 X17.7792 Y-15.2558
G01 X17.7762 Y-15.2407
G01 X17.7736 Y-15.2125
G01 X17.7738 Y-15.1970
G01 X17.7750 Y-15.1825
G01 X13.3211 Y-15.1825
G00 Z2.0000
G00 X13.1646 Y-15.4346
G01 F70.00
G01 Z-0.0700
G01 F60.00
G01 X13.1726 Y-15.4242
G01 X13.1864 Y-15.4089
G01 X13.2017 Y-15.3951
G01 X13.2242 Y-15.3776
G01 X13.2386 Y-15.3628
G01 X13.2469 Y-15.3519
G01 X13.2541 Y-15.3402
G01 X13.2594 Y-15.3294
G01 X13.2644 Y-15.3166
G01 X13.2688 Y-15.3000
G01 X13.2709 Y-15.2847
G01 X13.2714 Y-15.2692
G01 X13.2699 Y-15.2521
G01 X13.2668 Y-15.2370
G01 X13.2614 Y-15.2207
G01 X13.2541 Y-15.2052
G01 X13.2459 Y-15.1921
G01 X13.2363 Y-15.1799
G01 X13.2267 Y-15.1701
G01 X13.2162 Y-15.1613
G01 X13.2034 Y-15.1526
G01 X13.1898 Y-15.1454
G01 X13.1770 Y-15.1403
G01 X13.1638 Y-15.1365
G01 X13.1486 Y-15.1337
G01 X13.1332 Y-15.1327
G01 X13.0502 Y-15.1327
G01 X13.0313 Y-15.1339
G01 X13.0145 Y-15.1373
G01 X12.9998 Y-15.1421
G01 X12.9842 Y-15.1492
G01 X12.9696 Y-15.1582
G01 X12.9574 Y-15.1678
G01 X12.9476 Y-15.1774
G01 X12.9377 Y-15.1893
G01 X12.9301 Y-15.2007
G01 X12.9229 Y-15.2144
G01 X12.9178 Y-15.2271
G01 X12.9140 Y-15.2403
G01 X12.9112 Y-15.2555
G01 X12.9102 Y-15.2710
G01 X12.9102 Y-15.3540
G01 X12.9114 Y-15.3728
G01 X12.9148 Y-15.3896
G01 X12.9202 Y-15.4059
G01 X12.9275 Y-15.4215
G01 X12.9357 Y-15.4346
G01 X12.9453 Y-15.4467
G01 X12.9574 Y-15.4588
G01 X12.9710 Y-15.4694
G01 X12.9857 Y-15.4782
G01 X13.0014 Y-15.4852
G01 X13.0178 Y-15.4902
G01 X13.0347 Y-15.4931
G01 X13.0502 Y-15.4940
G01 X13.0673 Y-15.4929
G01 X13.0842 Y-15.4898
G01 X13.0990 Y-15.4852
G01 X13.1147 Y-15.4782
G01 X13.1280 Y-15.4704
G01 X13.1416 Y-15.4600
G01 X13.1539 Y-15.4480
G01 X13.1646 Y-15.4346
G00 Z2.0000
G00 X13.1074 Y-15.3943
G01 F70.00
G01 Z-0.0700
G01 F60.00
G01 X13.1184 Y-15.3798
G01 X13.1369 Y-15.3594
G01 X13.1573 Y-15.3409
G01 X13.1791 Y-15.3240
G01 X13.1861 Y-15.3164
G01 X13.1919 Y-15.3079
G01 X13.1984 Y-15.2930
G01 X13.2004 Y-15.2846
G01 X13.2014 Y-15.2761
G01 X13.2013 Y-15.2675
G01 X13.2001 Y-15.2590
G01 X13.1979 Y-15.2507
G01 X13.1947 Y-15.2427
G01 X13.1861 Y-15.2289
G01 X13.1745 Y-15.2175
G01 X13.1674 Y-15.2126
G01 X13.1598 Y-15.2087
G01 X13.1443 Y-15.2039
G01 X13.1323 Y-15.2027
G01 X13.0467 Y-15.2028
G01 X13.0332 Y-15.2048
G01 X13.0202 Y-15.2094
G01 X13.0064 Y-15.2180
G01 X12.9950 Y-15.2296
G01 X12.9901 Y-15.2367
G01 X12.9862 Y-15.2443
G01 X12.9814 Y-15.2599
G01 X12.9802 Y-15.2718
G01 X12.9803 Y-15.3574
G01 X12.9823 Y-15.3710
G01 X12.9869 Y-15.3839
G01 X12.9915 Y-15.3921
G01 X12.9972 Y-15.3997
G01 X13.0032 Y-15.4058
G01 X13.0106 Y-15.4117
G01 X13.0187 Y-15.4165
G01 X13.0266 Y-15.4199
G01 X13.0357 Y-15.4224
G01 X13.0442 Y-15.4237
G01 X13.0536 Y-15.4239
G01 X13.0621 Y-15.4229
G01 X13.0705 Y-15.4209
G01 X13.0793 Y-15.4176
G01 X13.0869 Y-15.4136
G01 X13.0946 Y-15.4081
G01 X13.1015 Y-15.4016
G01 X13.1074 Y-15.3943
G00 Z2.0000
G00 X13.0750 Y-15.5625
G01 F70.00
G01 Z-0.0700
G01 F60.00
G01 X13.0605 Y-15.5637
G01 X13.0450 Y-15.5639
G01 X13.0168 Y-15.5613
G01 X13.0017 Y-15.5583
G01 X12.9868 Y-15.5542
G01 X12.9600 Y-15.5436
G01 X12.9600 Y-18.6781
G01 X12.9740 Y-18.6746
G01 X12.9892 Y-18.6720
G01 X13.0175 Y-18.6701
G01 X13.0458 Y-18.6720
G01 X13.0610 Y-18.6746
G01 X13.0750 Y-18.6781
G01 X13.0750 Y-15.5625
G00 Z2.0000
G00 X9.9375 Y-15.8150
G01 F70.00
G01 Z-0.0700
G01 F60.00
G01 X9.4442 Y-15.8150
G01 X9.4442 Y-15.9750
G01 X9.7075 Y-15.9750
G01 X9.7178 Y-15.9758
G01 X9.7270 Y-15.9778
G01 X9.7366 Y-15.9814
G01 X9.7457 Y-15.9863
G01 X9.7532 Y-15.9920
G01 X9.7599 Y-15.9986
G01 X9.7662 Y-16.0068
G01 X9.7711 Y-16.0159
G01 X9.7745 Y-16.0247
G01 X9.7767 Y-16.0347
G01 X9.7775 Y-16.0450
G01 X9.7775 Y-16.9084
G01 X9.9375 Y-16.9084
G01 X9.9375 Y-15.8150
G00 Z2.0000
G00 X9.8675 Y-15.8850
G01 F70.00
G01 Z-0.0700
G01 F60.00
G01 X9.5142 Y-15.8850
G01 X9.5142 Y-15.9050
G01 X9.7127 Y-15.9051
G01 X9.7331 Y-15.9074
G01 X9.7547 Y-15.9132
G01 X9.7689 Y-15.9192
G01 X9.7824 Y-15.9267
G01 X9.7950 Y-15.9357
G01 X9.8077 Y-15.9472
G01 X9.8179 Y-15.9589
G01 X9.8267 Y-15.9716
G01 X9.8341 Y-15.9851
G01 X9.8399 Y-15.9995
G01 X9.8454 Y-16.0211
G01 X9.8475 Y-16.0433
G01 X9.8475 Y-16.8384
G01 X9.8675 Y-16.8384
G01 X9.8675 Y-15.8850
G00 Z2.0000
G00 X8.9708 Y-15.8150
G01 F70.00
G01 Z-0.0700
G01 F60.00
G01 X8.4775 Y-15.8150
G01 X8.4775 Y-16.9084
G01 X8.6375 Y-16.9084
G01 X8.6375 Y-16.0441
G01 X8.6392 Y-16.0297
G01 X8.6439 Y-16.0159
G01 X8.6484 Y-16.0076
G01 X8.6534 Y-16.0006
G01 X8.6592 Y-15.9943
G01 X8.6665 Y-15.9883
G01 X8.6745 Y-15.9833
G01 X8.6823 Y-15.9797
G01 X8.6905 Y-15.9771
G01 X8.6989 Y-15.9755
G01 X8.7075 Y-15.9750
G01 X8.9708 Y-15.9750
G01 X8.9708 Y-15.8150
G00 Z2.0000
G00 X8.9008 Y-15.8850
G01 F70.00
G01 Z-0.0700
G01 F60.00
G01 X8.5475 Y-15.8850
G01 X8.5475 Y-16.8384
G01 X8.5675 Y-16.8384
G01 X8.5675 Y-16.0433
G01 X8.5682 Y-16.0313
G01 X8.5699 Y-16.0194
G01 X8.5726 Y-16.0077
G01 X8.5763 Y-15.9962
G01 X8.5824 Y-15.9821
G01 X8.5901 Y-15.9687
G01 X8.5993 Y-15.9562
G01 X8.6097 Y-15.9448
G01 X8.6214 Y-15.9346
G01 X8.6341 Y-15.9258
G01 X8.6476 Y-15.9184
G01 X8.6620 Y-15.9126
G01 X8.6819 Y-15.9074
G01 X8.7023 Y-15.9051
G01 X8.9008 Y-15.9050
G01 X8.9008 Y-15.8850
G00 Z2.0000
G00 X8.4775 Y-17.3816
G01 F70.00
G01 Z-0.0700
G01 F60.00
G01 X8.4775 Y-18.4750
G01 X8.9708 Y-18.4750
G01 X8.9708 Y-18.3150
G01 X8.7075 Y-18.3150
G01 X8.6989 Y-18.3145
G01 X8.6897 Y-18.3127
G01 X8.6815 Y-18.3100
G01 X8.6730 Y-18.3059
G01 X8.6658 Y-18.3012
G01 X8.6592 Y-18.2957
G01 X8.6528 Y-18.2887
G01 X8.6479 Y-18.2817
G01 X8.6439 Y-18.2741
G01 X8.6392 Y-18.2603
G01 X8.6375 Y-18.2459
G01 X8.6375 Y-17.3816
G01 X8.4775 Y-17.3816
G00 Z2.0000
G00 X8.5475 Y-17.4516
G01 F70.00
G01 Z-0.0700
G01 F60.00
G01 X8.5475 Y-18.4050
G01 X8.9008 Y-18.4050
G01 X8.9008 Y-18.3850
G01 X8.7023 Y-18.3849
G01 X8.6819 Y-18.3826
G01 X8.6620 Y-18.3774
G01 X8.6476 Y-18.3716
G01 X8.6341 Y-18.3642
G01 X8.6214 Y-18.3554
G01 X8.6097 Y-18.3452
G01 X8.5993 Y-18.3338
G01 X8.5901 Y-18.3213
G01 X8.5824 Y-18.3079
G01 X8.5763 Y-18.2938
G01 X8.5726 Y-18.2823
G01 X8.5699 Y-18.2706
G01 X8.5682 Y-18.2587
G01 X8.5675 Y-18.2467
G01 X8.5675 Y-17.4516
G01 X8.5475 Y-17.4516
G00 Z2.0000
G00 X9.5142 Y-18.4050
G01 F70.00
G01 Z-0.0700
G01 F60.00
G01 X9.8675 Y-18.4050
G01 X9.8675 Y-17.4516
G01 X9.8475 Y-17.4516
G01 X9.8475 Y-18.2467
G01 X9.8468 Y-18.2587
G01 X9.8451 Y-18.2706
G01 X9.8424 Y-18.2823
G01 X9.8387 Y-18.2938
G01 X9.8326 Y-18.3079
G01 X9.8249 Y-18.3213
G01 X9.8157 Y-18.3338
G01 X9.8053 Y-18.3452
G01 X9.7936 Y-18.3554
G01 X9.7809 Y-18.3642
G01 X9.7674 Y-18.3716
G01 X9.7530 Y-18.3774
G01 X9.7331 Y-18.3826
G01 X9.7127 Y-18.3849
G01 X9.5142 Y-18.3850
G01 X9.5142 Y-18.4050
G00 Z2.0000
G00 X9.4442 Y-18.4750
G01 F70.00
G01 Z-0.0700
G01 F60.00
G01 X9.9375 Y-18.4750
G01 X9.9375 Y-17.3816
G01 X9.7775 Y-17.3816
G01 X9.7775 Y-18.2459
G01 X9.7758 Y-18.2603
G01 X9.7711 Y-18.2741
G01 X9.7671 Y-18.2817
G01 X9.7622 Y-18.2887
G01 X9.7558 Y-18.2957
G01 X9.7492 Y-18.3012
G01 X9.7413 Y-18.3063
G01 X9.7335 Y-18.3100
G01 X9.7253 Y-18.3127
G01 X9.7161 Y-18.3145
G01 X9.7075 Y-18.3150
G01 X9.4442 Y-18.3150
G01 X9.4442 Y-18.4750
G00 Z2.0000
G00 X10.6097 Y-18.8316
G01 F70.00
G01 Z-0.0700
G01 F60.00
G01 X10.6202 Y-18.8491
G01 X10.6262 Y-18.8577
G01 X10.6393 Y-18.8736
G01 X10.6539 Y-18.8882
G01 X10.6617 Y-18.8949
G01 X10.6853 Y-18.9117
G01 X10.7052 Y-18.9225
G01 X10.7146 Y-18.9266
G01 X10.7340 Y-18.9336
G01 X10.7540 Y-18.9386
G01 X10.7642 Y-18.9404
G01 X10.7847 Y-18.9424
G01 X12.7103 Y-18.9424
G01 X12.7308 Y-18.9404
G01 X12.7410 Y-18.9386
G01 X12.7610 Y-18.9336
G01 X12.7708 Y-18.9303
G01 X12.7898 Y-18.9225
G01 X12.7991 Y-18.9178
G01 X12.8167 Y-18.9072
G01 X12.8333 Y-18.8949
G01 X12.8411 Y-18.8882
G01 X12.8557 Y-18.8736
G01 X12.8624 Y-18.8658
G01 X12.8688 Y-18.8577
G01 X12.8802 Y-18.8405
G01 X12.8949 Y-18.8126
G01 X12.9030 Y-18.7995
G01 X12.9149 Y-18.7848
G01 X12.9287 Y-18.7719
G01 X12.9383 Y-18.7646
G01 X12.9485 Y-18.7583
G01 X12.9608 Y-18.7521
G01 X12.9720 Y-18.7477
G01 X12.9835 Y-18.7443
G01 X12.9953 Y-18.7419
G01 X13.0072 Y-18.7405
G01 X13.0192 Y-18.7401
G01 X13.0312 Y-18.7408
G01 X13.0431 Y-18.7425
G01 X13.0548 Y-18.7452
G01 X13.0663 Y-18.7489
G01 X13.0774 Y-18.7535
G01 X13.0880 Y-18.7591
G01 X13.0981 Y-18.7656
G01 X13.1076 Y-18.7730
G01 X13.1201 Y-18.7848
G01 X13.1320 Y-18.7995
G01 X13.1401 Y-18.8126
G01 X13.1548 Y-18.8405
G01 X13.1662 Y-18.8577
G01 X13.1726 Y-18.8658
G01 X13.1832 Y-18.8777
G01 X13.1939 Y-18.8882
G01 X13.2072 Y-18.8993
G01 X13.2183 Y-18.9072
G01 X13.2270 Y-18.9127
G01 X13.2452 Y-18.9225
G01 X13.2546 Y-18.9266
G01 X13.2740 Y-18.9336
G01 X13.2839 Y-18.9363
G01 X13.3042 Y-18.9404
G01 X13.3247 Y-18.9424
G01 X13.3367 Y-18.9427
G01 X20.9533 Y-18.9427
G01 X20.9653 Y-18.9424
G01 X20.9858 Y-18.9404
G01 X20.9960 Y-18.9386
G01 X21.0160 Y-18.9336
G01 X21.0354 Y-18.9266
G01 X21.0448 Y-18.9225
G01 X21.0630 Y-18.9127
G01 X21.0717 Y-18.9072
G01 X21.0883 Y-18.8949
G01 X21.1036 Y-18.8811
G01 X21.1107 Y-18.8736
G01 X21.1238 Y-18.8577
G01 X21.1352 Y-18.8405
G01 X21.1403 Y-18.8316
G01 X21.1450 Y-18.8223
G01 X21.1528 Y-18.8033
G01 X21.1588 Y-18.7836
G01 X21.1611 Y-18.7735
G01 X21.1629 Y-18.7633
G01 X21.1649 Y-18.7428
G01 X21.1652 Y-15.2710
G01 X21.1670 Y-15.2504
G01 X21.1722 Y-15.2288
G01 X21.1801 Y-15.2097
G01 X21.1917 Y-15.1907
G01 X21.2014 Y-15.1787
G01 X21.2137 Y-15.1667
G01 X21.2274 Y-15.1563
G01 X21.2407 Y-15.1484
G01 X21.2548 Y-15.1421
G01 X21.2695 Y-15.1373
G01 X21.2846 Y-15.1342
G01 X21.3017 Y-15.1327
G01 X23.7798 Y-15.1327
G01 X23.7935 Y-15.1333
G01 X23.8055 Y-15.1350
G01 X23.8188 Y-15.1382
G01 X23.8302 Y-15.1421
G01 X23.8412 Y-15.1469
G01 X23.8533 Y-15.1535
G01 X23.8646 Y-15.1613
G01 X23.8751 Y-15.1701
G01 X23.8847 Y-15.1799
G01 X23.8923 Y-15.1893
G01 X23.8999 Y-15.2007
G01 X23.9056 Y-15.2113
G01 X23.9111 Y-15.2239
G01 X23.9148 Y-15.2353
G01 X23.9178 Y-15.2487
G01 X23.9194 Y-15.2624
G01 X23.9201 Y-18.7428
G01 X23.9209 Y-18.7531
G01 X23.9239 Y-18.7735
G01 X23.9289 Y-18.7935
G01 X23.9322 Y-18.8033
G01 X23.9400 Y-18.8223
G01 X23.9447 Y-18.8316
G01 X23.9536 Y-18.8465
G01 X23.9612 Y-18.8577
G01 X23.9676 Y-18.8658
G01 X23.9814 Y-18.8811
G01 X23.9889 Y-18.8882
G01 X24.0048 Y-18.9013
G01 X24.0192 Y-18.9110
G01 X24.0309 Y-18.9178
G01 X24.0402 Y-18.9225
G01 X24.0592 Y-18.9303
G01 X24.0789 Y-18.9363
G01 X24.0992 Y-18.9404
G01 X24.1197 Y-18.9424
G01 X24.1317 Y-18.9427
G01 X26.0333 Y-18.9427
G01 X26.0556 Y-18.9416
G01 X26.0760 Y-18.9386
G01 X26.0960 Y-18.9336
G01 X26.1058 Y-18.9303
G01 X26.1248 Y-18.9225
G01 X26.1430 Y-18.9127
G01 X26.1517 Y-18.9072
G01 X26.1683 Y-18.8949
G01 X26.1761 Y-18.8882
G01 X26.1907 Y-18.8736
G01 X26.1974 Y-18.8658
G01 X26.2038 Y-18.8577
G01 X26.2152 Y-18.8405
G01 X26.2299 Y-18.8126
G01 X26.2380 Y-18.7995
G01 X26.2499 Y-18.7848
G01 X26.2624 Y-18.7730
G01 X26.2719 Y-18.7656
G01 X26.2820 Y-18.7591
G01 X26.2926 Y-18.7535
G01 X26.3053 Y-18.7483
G01 X26.3168 Y-18.7447
G01 X26.3286 Y-18.7421
G01 X26.3405 Y-18.7406
G01 X26.3525 Y-18.7401
G01 X26.3645 Y-18.7406
G01 X26.3781 Y-18.7425
G01 X26.3898 Y-18.7452
G01 X26.4013 Y-18.7489
G01 X26.4124 Y-18.7535
G01 X26.4230 Y-18.7591
G01 X26.4331 Y-18.7656
G01 X26.4426 Y-18.7730
G01 X26.4562 Y-18.7861
G01 X26.4670 Y-18.7995
G01 X26.4751 Y-18.8126
G01 X26.4898 Y-18.8405
G01 X26.5012 Y-18.8577
G01 X26.5076 Y-18.8658
G01 X26.5214 Y-18.8811
G01 X26.5289 Y-18.8882
G01 X26.5416 Y-18.8988
G01 X26.5533 Y-18.9072
G01 X26.5709 Y-18.9178
G01 X26.5802 Y-18.9225
G01 X26.5992 Y-18.9303
G01 X26.6090 Y-18.9336
G01 X26.6189 Y-18.9363
G01 X26.6392 Y-18.9404
G01 X26.6597 Y-18.9424
G01 X26.6717 Y-18.9427
G01 X34.9233 Y-18.9427
G01 X34.9456 Y-18.9416
G01 X34.9660 Y-18.9386
G01 X34.9761 Y-18.9363
G01 X34.9958 Y-18.9303
G01 X35.0148 Y-18.9225
G01 X35.0241 Y-18.9178
G01 X35.0330 Y-18.9127
G01 X35.0502 Y-18.9013
G01 X35.0661 Y-18.8882
G01 X35.0807 Y-18.8736
G01 X35.0874 Y-18.8658
G01 X35.0938 Y-18.8577
G01 X35.1052 Y-18.8405
G01 X35.1150 Y-18.8223
G01 X35.1191 Y-18.8129
G01 X35.1261 Y-18.7935
G01 X35.1311 Y-18.7735
G01 X35.1341 Y-18.7531
G01 X35.1349 Y-18.7428
G01 X35.1352 Y-15.2875
G01 X35.1360 Y-15.2721
G01 X35.1386 Y-15.2568
G01 X35.1428 Y-15.2420
G01 X35.1487 Y-15.2275
G01 X35.1150 Y-15.2275
G01 X35.1147 Y-18.7435
G01 X35.1130 Y-18.7604
G01 X35.1093 Y-18.7787
G01 X35.1039 Y-18.7965
G01 X35.0975 Y-18.8122
G01 X35.0889 Y-18.8287
G01 X35.0796 Y-18.8429
G01 X35.0697 Y-18.8557
G01 X35.0581 Y-18.8681
G01 X35.0456 Y-18.8794
G01 X35.0306 Y-18.8905
G01 X35.0146 Y-18.9001
G01 X34.9993 Y-18.9074
G01 X34.9834 Y-18.9133
G01 X34.9678 Y-18.9176
G01 X34.9512 Y-18.9207
G01 X34.9326 Y-18.9224
G01 X26.6700 Y-18.9225
G01 X26.6514 Y-18.9216
G01 X26.6329 Y-18.9189
G01 X26.6148 Y-18.9143
G01 X26.5989 Y-18.9087
G01 X26.5872 Y-18.9035
G01 X26.5738 Y-18.8964
G01 X26.5521 Y-18.8815
G01 X26.5411 Y-18.8721
G01 X26.5315 Y-18.8626
G01 X26.5154 Y-18.8429
G01 X26.5016 Y-18.8206
G01 X26.4951 Y-18.8068
G01 X26.4905 Y-18.7949
G01 X26.4861 Y-18.7803
G01 X26.4833 Y-18.7679
G01 X26.4811 Y-18.7528
G01 X26.4801 Y-18.7401
G01 X26.4800 Y-15.5558
G01 X26.4809 Y-15.5389
G01 X26.4836 Y-15.5204
G01 X26.4882 Y-15.5023
G01 X26.4944 Y-15.4848
G01 X26.5024 Y-15.4679
G01 X26.5120 Y-15.4519
G01 X26.5231 Y-15.4369
G01 X26.5344 Y-15.4244
G01 X26.5481 Y-15.4117
G01 X26.5616 Y-15.4014
G01 X26.5774 Y-15.3916
G01 X26.5919 Y-15.3843
G01 X26.6076 Y-15.3780
G01 X26.6255 Y-15.3728
G01 X26.6438 Y-15.3693
G01 X26.6624 Y-15.3676
G01 X31.5600 Y-15.3675
G01 X31.5600 Y-5.3975
G01 X31.5607 Y-5.3806
G01 X31.5630 Y-5.3638
G01 X31.5661 Y-5.3497
G01 X31.5711 Y-5.3335
G01 X31.5824 Y-5.3079
G01 X31.5974 Y-5.2843
G01 X31.6156 Y-5.2631
G01 X31.6368 Y-5.2449
G01 X31.6604 Y-5.2299
G01 X31.6860 Y-5.2186
G01 X31.7129 Y-5.2111
G01 X31.7280 Y-5.2088
G01 X31.7424 Y-5.2076
G01 X34.9250 Y-5.2075
G01 X34.9453 Y-5.2086
G01 X34.9654 Y-5.2118
G01 X34.9858 Y-5.2175
G01 X35.0047 Y-5.2250
G01 X35.0256 Y-5.2363
G01 X35.0456 Y-5.2506
G01 X35.0646 Y-5.2686
G01 X35.0796 Y-5.2871
G01 X35.0926 Y-5.3079
G01 X35.1033 Y-5.3319
G01 X35.1107 Y-5.3571
G01 X35.1143 Y-5.3806
G01 X35.1150 Y-5.3975
G01 X35.1150 Y-6.9975
G01 X35.1487 Y-6.9975
G01 X35.1434 Y-6.9847
G01 X35.1390 Y-6.9698
G01 X35.1362 Y-6.9546
G01 X35.1352 Y-6.9392
G01 X35.1352 Y-5.3992
G01 X35.1341 Y-5.3769
G01 X35.1311 Y-5.3565
G01 X35.1288 Y-5.3464
G01 X35.1228 Y-5.3267
G01 X35.1150 Y-5.3077
G01 X35.1103 Y-5.2984
G01 X35.0997 Y-5.2808
G01 X35.0938 Y-5.2723
G01 X35.0874 Y-5.2642
G01 X35.0736 Y-5.2489
G01 X35.0583 Y-5.2351
G01 X35.0502 Y-5.2287
G01 X35.0330 Y-5.2173
G01 X35.0148 Y-5.2075
G01 X35.0054 Y-5.2034
G01 X34.9860 Y-5.1964
G01 X34.9660 Y-5.1914
G01 X34.9456 Y-5.1884
G01 X34.9353 Y-5.1876
G01 X31.7397 Y-5.1876
G01 X31.7192 Y-5.1896
G01 X31.6989 Y-5.1937
G01 X31.6890 Y-5.1964
G01 X31.6696 Y-5.2034
G01 X31.6602 Y-5.2075
G01 X31.6420 Y-5.2173
G01 X31.6333 Y-5.2228
G01 X31.6167 Y-5.2351
G01 X31.6089 Y-5.2418
G01 X31.5943 Y-5.2564
G01 X31.5876 Y-5.2642
G01 X31.5812 Y-5.2723
G01 X31.5698 Y-5.2895
G01 X31.5551 Y-5.3174
G01 X31.5470 Y-5.3305
G01 X31.5351 Y-5.3452
G01 X31.5213 Y-5.3581
G01 X31.5103 Y-5.3663
G01 X31.5000 Y-5.3726
G01 X31.4892 Y-5.3779
G01 X31.4780 Y-5.3823
G01 X31.4648 Y-5.3861
G01 X31.4530 Y-5.3884
G01 X31.4411 Y-5.3897
G01 X31.4291 Y-5.3899
G01 X31.4171 Y-5.3891
G01 X31.4052 Y-5.3872
G01 X31.3935 Y-5.3844
G01 X31.3821 Y-5.3805
G01 X31.3620 Y-5.3709
G01 X31.3519 Y-5.3644
G01 X31.3424 Y-5.3570
G01 X31.3288 Y-5.3439
G01 X31.3180 Y-5.3305
G01 X31.3099 Y-5.3174
G01 X31.2952 Y-5.2895
G01 X31.2838 Y-5.2723
G01 X31.2774 Y-5.2642
G01 X31.2707 Y-5.2564
G01 X31.2561 Y-5.2418
G01 X31.2402 Y-5.2287
G01 X31.2317 Y-5.2228
G01 X31.2230 Y-5.2173
G01 X31.2048 Y-5.2075
G01 X31.1858 Y-5.1997
G01 X31.1661 Y-5.1937
G01 X31.1458 Y-5.1896
G01 X31.1356 Y-5.1884
G01 X31.1133 Y-5.1873
G01 X29.2533 Y-5.1873
G01 X29.2379 Y-5.1863
G01 X29.2227 Y-5.1835
G01 X29.2078 Y-5.1791
G01 X29.1950 Y-5.1738
G01 X29.1950 Y-5.2075
G01 X31.1150 Y-5.2075
G01 X31.1319 Y-5.2082
G01 X31.1463 Y-5.2101
G01 X31.1612 Y-5.2132
G01 X31.1758 Y-5.2175
G01 X31.1893 Y-5.2226
G01 X31.2031 Y-5.2291
G01 X31.2156 Y-5.2363
G01 X31.2282 Y-5.2449
G01 X31.2413 Y-5.2556
G01 X31.2518 Y-5.2656
G01 X31.2619 Y-5.2769
G01 X31.2711 Y-5.2891
G01 X31.2789 Y-5.3013
G01 X31.2860 Y-5.3147
G01 X31.2918 Y-5.3280
G01 X31.2968 Y-5.3423
G01 X31.3010 Y-5.3587
G01 X31.3041 Y-5.3789
G01 X31.3050 Y-5.3975
G01 X31.3050 Y-14.9225
G01 X31.3039 Y-14.9428
G01 X31.3007 Y-14.9629
G01 X31.2968 Y-14.9777
G01 X31.2912 Y-14.9936
G01 X31.2853 Y-15.0068
G01 X31.2780 Y-15.0202
G01 X31.2686 Y-15.0343
G01 X31.2597 Y-15.0457
G01 X31.2494 Y-15.0569
G01 X31.2369 Y-15.0683
G01 X31.2254 Y-15.0771
G01 X31.2112 Y-15.0864
G01 X31.1962 Y-15.0943
G01 X31.1822 Y-15.1002
G01 X31.1685 Y-15.1048
G01 X31.1521 Y-15.1089
G01 X31.1353 Y-15.1114
G01 X31.1209 Y-15.1124
G01 X26.2250 Y-15.1125
G01 X26.2250 Y-18.7359
G01 X26.2232 Y-18.7587
G01 X26.2185 Y-18.7820
G01 X26.2106 Y-18.8052
G01 X26.1997 Y-18.8272
G01 X26.1866 Y-18.8471
G01 X26.1706 Y-18.8656
G01 X26.1542 Y-18.8805
G01 X26.1342 Y-18.8946
G01 X26.1131 Y-18.9057
G01 X26.0885 Y-18.9148
G01 X26.0629 Y-18.9205
G01 X26.0367 Y-18.9225
G01 X24.1241 Y-18.9224
G01 X24.1004 Y-18.9202
G01 X24.0765 Y-18.9148
G01 X24.0541 Y-18.9067
G01 X24.0323 Y-18.8955
G01 X24.0141 Y-18.8830
G01 X23.9956 Y-18.8669
G01 X23.9795 Y-18.8484
G01 X23.9661 Y-18.8287
G01 X23.9544 Y-18.8052
G01 X23.9465 Y-18.7820
G01 X23.9418 Y-18.7587
G01 X23.9400 Y-18.7342
G01 X23.9400 Y-15.1125
G01 X21.1450 Y-15.1125
G01 X21.1449 Y-18.7384
G01 X21.1424 Y-18.7638
G01 X21.1363 Y-18.7893
G01 X21.1268 Y-18.8137
G01 X21.1139 Y-18.8366
G01 X21.0997 Y-18.8557
G01 X21.0813 Y-18.8744
G01 X21.0606 Y-18.8905
G01 X21.0378 Y-18.9035
G01 X21.0190 Y-18.9114
G01 X20.9978 Y-18.9176
G01 X20.9753 Y-18.9214
G01 X20.9550 Y-18.9225
G01 X13.3350 Y-18.9225
G01 X13.3164 Y-18.9216
G01 X13.2996 Y-18.9192
G01 X13.2831 Y-18.9153
G01 X13.2694 Y-18.9108
G01 X13.2538 Y-18.9043
G01 X13.2388 Y-18.8964
G01 X13.2266 Y-18.8886
G01 X13.2131 Y-18.8783
G01 X13.2006 Y-18.8669
G01 X13.1892 Y-18.8544
G01 X13.1804 Y-18.8429
G01 X13.1711 Y-18.8287
G01 X13.1632 Y-18.8137
G01 X13.1567 Y-18.7981
G01 X13.1515 Y-18.7820
G01 X13.1483 Y-18.7679
G01 X13.1459 Y-18.7511
G01 X13.1450 Y-18.7359
G01 X13.1450 Y-15.5541
G01 X13.1468 Y-15.5313
G01 X13.1507 Y-15.5113
G01 X13.1573 Y-15.4903
G01 X13.1666 Y-15.4694
G01 X13.1780 Y-15.4505
G01 X13.1919 Y-15.4325
G01 X13.2074 Y-15.4167
G01 X13.2232 Y-15.4039
G01 X13.2358 Y-15.3954
G01 X13.2485 Y-15.3883
G01 X13.2623 Y-15.3819
G01 X13.2766 Y-15.3767
G01 X13.2905 Y-15.3728
G01 X13.3054 Y-15.3698
G01 X13.3181 Y-15.3682
G01 X13.3333 Y-15.3675
G01 X18.2250 Y-15.3675
G01 X18.2250 Y-5.3975
G01 X18.2266 Y-5.3730
G01 X18.2311 Y-5.3497
G01 X18.2355 Y-5.3351
G01 X18.2408 Y-5.3216
G01 X18.2474 Y-5.3079
G01 X18.2551 Y-5.2948
G01 X18.2634 Y-5.2829
G01 X18.2731 Y-5.2712
G01 X18.2831 Y-5.2607
G01 X18.2944 Y-5.2506
G01 X18.3066 Y-5.2414
G01 X18.3188 Y-5.2336
G01 X18.3338 Y-5.2257
G01 X18.3478 Y-5.2198
G01 X18.3615 Y-5.2152
G01 X18.3762 Y-5.2115
G01 X18.3905 Y-5.2091
G01 X18.4057 Y-5.2077
G01 X20.9650 Y-5.2075
G01 X20.9650 Y-5.1738
G01 X20.9505 Y-5.1797
G01 X20.9357 Y-5.1839
G01 X20.9204 Y-5.1865
G01 X20.9050 Y-5.1873
G01 X18.4047 Y-5.1876
G01 X18.3842 Y-5.1896
G01 X18.3639 Y-5.1937
G01 X18.3540 Y-5.1964
G01 X18.3346 Y-5.2034
G01 X18.3252 Y-5.2075
G01 X18.3070 Y-5.2173
G01 X18.2983 Y-5.2228
G01 X18.2817 Y-5.2351
G01 X18.2739 Y-5.2418
G01 X18.2593 Y-5.2564
G01 X18.2526 Y-5.2642
G01 X18.2462 Y-5.2723
G01 X18.2348 Y-5.2895
G01 X18.2201 Y-5.3174
G01 X18.2120 Y-5.3305
G01 X18.2001 Y-5.3452
G01 X18.1863 Y-5.3581
G01 X18.1767 Y-5.3654
G01 X18.1665 Y-5.3717
G01 X18.1558 Y-5.3772
G01 X18.1447 Y-5.3817
G01 X18.1332 Y-5.3853
G01 X18.1214 Y-5.3879
G01 X18.1095 Y-5.3894
G01 X18.0958 Y-5.3899
G01 X18.0838 Y-5.3892
G01 X18.0719 Y-5.3875
G01 X18.0602 Y-5.3848
G01 X18.0487 Y-5.3811
G01 X18.0376 Y-5.3765
G01 X18.0270 Y-5.3709
G01 X18.0169 Y-5.3644
G01 X18.0074 Y-5.3570
G01 X17.9938 Y-5.3439
G01 X17.9830 Y-5.3305
G01 X17.9749 Y-5.3174
G01 X17.9602 Y-5.2895
G01 X17.9488 Y-5.2723
G01 X17.9424 Y-5.2642
G01 X17.9357 Y-5.2564
G01 X17.9211 Y-5.2418
G01 X17.9052 Y-5.2287
G01 X17.8967 Y-5.2228
G01 X17.8880 Y-5.2173
G01 X17.8698 Y-5.2075
G01 X17.8508 Y-5.1997
G01 X17.8311 Y-5.1937
G01 X17.8108 Y-5.1896
G01 X17.8006 Y-5.1884
G01 X17.7783 Y-5.1873
G01 X15.9183 Y-5.1873
G01 X15.9029 Y-5.1863
G01 X15.8877 Y-5.1835
G01 X15.8728 Y-5.1791
G01 X15.8600 Y-5.1738
G01 X15.8600 Y-5.2075
G01 X17.7800 Y-5.2075
G01 X17.7969 Y-5.2082
G01 X17.8113 Y-5.2101
G01 X17.8262 Y-5.2132
G01 X17.8408 Y-5.2175
G01 X17.8543 Y-5.2226
G01 X17.8681 Y-5.2291
G01 X17.8806 Y-5.2363
G01 X17.8932 Y-5.2449
G01 X17.9063 Y-5.2556
G01 X17.9168 Y-5.2656
G01 X17.9269 Y-5.2769
G01 X17.9361 Y-5.2891
G01 X17.9439 Y-5.3013
G01 X17.9510 Y-5.3147
G01 X17.9568 Y-5.3280
G01 X17.9618 Y-5.3423
G01 X17.9660 Y-5.3587
G01 X17.9691 Y-5.3789
G01 X17.9700 Y-5.3975
G01 X17.9700 Y-14.9225
G01 X17.9693 Y-14.9394
G01 X17.9670 Y-14.9562
G01 X17.9635 Y-14.9720
G01 X17.9583 Y-14.9881
G01 X17.9525 Y-15.0022
G01 X17.9468 Y-15.0136
G01 X17.9389 Y-15.0266
G01 X17.9316 Y-15.0371
G01 X17.9219 Y-15.0488
G01 X17.9131 Y-15.0581
G01 X17.9019 Y-15.0683
G01 X17.8904 Y-15.0771
G01 X17.8777 Y-15.0855
G01 X17.8643 Y-15.0928
G01 X17.8511 Y-15.0987
G01 X17.8384 Y-15.1033
G01 X17.8245 Y-15.1072
G01 X17.8096 Y-15.1102
G01 X17.7834 Y-15.1125
G01 X12.8900 Y-15.1125
G01 X12.8900 Y-18.7342
G01 X12.8882 Y-18.7587
G01 X12.8839 Y-18.7803
G01 X12.8762 Y-18.8036
G01 X12.8668 Y-18.8236
G01 X12.8536 Y-18.8443
G01 X12.8385 Y-18.8626
G01 X12.8206 Y-18.8794
G01 X12.8006 Y-18.8937
G01 X12.7797 Y-18.9050
G01 X12.7568 Y-18.9138
G01 X12.7337 Y-18.9195
G01 X12.7093 Y-18.9223
G01 X10.7950 Y-18.9225
G01 X10.7764 Y-18.9216
G01 X10.7579 Y-18.9189
G01 X10.7398 Y-18.9143
G01 X10.7239 Y-18.9087
G01 X10.7069 Y-18.9009
G01 X10.6923 Y-18.8924
G01 X10.6771 Y-18.8815
G01 X10.6649 Y-18.8710
G01 X10.6531 Y-18.8588
G01 X10.6414 Y-18.8443
G01 X10.6311 Y-18.8287
G01 X10.6225 Y-18.8122
G01 X10.6161 Y-18.7965
G01 X10.6107 Y-18.7787
G01 X10.6070 Y-18.7604
G01 X10.6052 Y-18.7418
G01 X10.6050 Y-15.1125
G01 X5.0766 Y-15.1125
G01 X5.0504 Y-15.1102
G01 X5.0355 Y-15.1072
G01 X5.0232 Y-15.1038
G01 X4.9988 Y-15.0943
G01 X4.9744 Y-15.0805
G01 X4.9524 Y-15.0633
G01 X4.9331 Y-15.0431
G01 X4.9170 Y-15.0202
G01 X4.9051 Y-14.9968
G01 X4.8982 Y-14.9777
G01 X4.8936 Y-14.9596
G01 X4.8909 Y-14.9411
G01 X4.8900 Y-14.9225
G01 X4.8900 Y-5.3975
G01 X4.8918 Y-5.3713
G01 X4.8972 Y-5.3456
G01 X4.9017 Y-5.3319
G01 X4.9075 Y-5.3178
G01 X4.9141 Y-5.3049
G01 X4.9220 Y-5.2919
G01 X4.9392 Y-5.2699
G01 X4.9499 Y-5.2590
G01 X4.9608 Y-5.2495
G01 X4.9730 Y-5.2405
G01 X4.9838 Y-5.2336
G01 X4.9972 Y-5.2265
G01 X5.0105 Y-5.2207
G01 X5.0248 Y-5.2157
G01 X5.0396 Y-5.2118
G01 X5.0538 Y-5.2093
G01 X5.0690 Y-5.2078
G01 X7.6300 Y-5.2075
G01 X7.6300 Y-5.1738
G01 X7.6155 Y-5.1797
G01 X7.6007 Y-5.1839
G01 X7.5854 Y-5.1865
G01 X7.5700 Y-5.1873
G01 X5.0817 Y-5.1873
G01 X5.0594 Y-5.1884
G01 X5.0492 Y-5.1896
G01 X5.0289 Y-5.1937
G01 X5.0092 Y-5.1997
G01 X4.9996 Y-5.2034
G01 X4.9809 Y-5.2122
G01 X4.9720 Y-5.2173
G01 X4.9548 Y-5.2287
G01 X4.9389 Y-5.2418
G01 X4.9243 Y-5.2564
G01 X4.9176 Y-5.2642
G01 X4.9053 Y-5.2808
G01 X4.8998 Y-5.2895
G01 X4.8900 Y-5.3077
G01 X4.8859 Y-5.3171
G01 X4.8822 Y-5.3267
G01 X4.8762 Y-5.3464
G01 X4.8739 Y-5.3565
G01 X4.8709 Y-5.3769
G01 X4.8698 Y-5.3992
G01 X4.8698 Y-14.9208
G01 X4.8709 Y-14.9431
G01 X4.8739 Y-14.9635
G01 X4.8789 Y-14.9835
G01 X4.8859 Y-15.0029
G01 X4.8947 Y-15.0216
G01 X4.8998 Y-15.0305
G01 X4.9053 Y-15.0392
G01 X4.9176 Y-15.0558
G01 X4.9314 Y-15.0711
G01 X4.9389 Y-15.0782
G01 X4.9467 Y-15.0849
G01 X4.9633 Y-15.0972
G01 X4.9809 Y-15.1078
G01 X4.9902 Y-15.1125
G01 X5.0092 Y-15.1203
G01 X5.0190 Y-15.1236
G01 X5.0390 Y-15.1286
G01 X5.0492 Y-15.1304
G01 X5.0697 Y-15.1324
G01 X10.4448 Y-15.1327
G01 X10.4654 Y-15.1342
G01 X10.4855 Y-15.1387
G01 X10.5047 Y-15.1461
G01 X10.5226 Y-15.1563
G01 X10.5350 Y-15.1656
G01 X10.5474 Y-15.1774
G01 X10.5583 Y-15.1907
G01 X10.5675 Y-15.2052
G01 X10.5748 Y-15.2207
G01 X10.5802 Y-15.2370
G01 X10.5836 Y-15.2538
G01 X10.5848 Y-15.2692
G01 X10.5848 Y-18.7308
G01 X10.5859 Y-18.7531
G01 X10.5889 Y-18.7735
G01 X10.5912 Y-18.7836
G01 X10.5972 Y-18.8033
G01 X10.6009 Y-18.8129
G01 X10.6097 Y-18.8316
G00 Z2.0000
G00 X13.2150 Y-18.7342
G01 F70.00
G01 Z-0.0700
G01 F60.00
G01 X13.2156 Y-18.7451
G01 X13.2175 Y-18.7568
G01 X13.2204 Y-18.7682
G01 X13.2244 Y-18.7792
G01 X13.2291 Y-18.7891
G01 X13.2352 Y-18.7992
G01 X13.2422 Y-18.8086
G01 X13.2501 Y-18.8174
G01 X13.2589 Y-18.8253
G01 X13.2683 Y-18.8323
G01 X13.2784 Y-18.8384
G01 X13.2891 Y-18.8434
G01 X13.3002 Y-18.8474
G01 X13.3116 Y-18.8502
G01 X13.3232 Y-18.8519
G01 X13.3341 Y-18.8525
G01 X20.9550 Y-18.8525
G01 X20.9743 Y-18.8510
G01 X20.9946 Y-18.8458
G01 X21.0116 Y-18.8384
G01 X21.0265 Y-18.8289
G01 X21.0399 Y-18.8174
G01 X21.0519 Y-18.8033
G01 X21.0613 Y-18.7883
G01 X21.0686 Y-18.7713
G01 X21.0735 Y-18.7518
G01 X21.0750 Y-18.7342
G01 X21.0750 Y-15.0425
G01 X24.0100 Y-15.0425
G01 X24.0100 Y-18.7325
G01 X24.0107 Y-18.7460
G01 X24.0136 Y-18.7617
G01 X24.0185 Y-18.7768
G01 X24.0246 Y-18.7898
G01 X24.0336 Y-18.8040
G01 X24.0439 Y-18.8161
G01 X24.0545 Y-18.8258
G01 X24.0683 Y-18.8354
G01 X24.0825 Y-18.8427
G01 X24.0960 Y-18.8476
G01 X24.1124 Y-18.8512
G01 X24.1283 Y-18.8525
G01 X26.0359 Y-18.8525
G01 X26.0543 Y-18.8510
G01 X26.0738 Y-18.8461
G01 X26.0908 Y-18.8388
G01 X26.1065 Y-18.8289
G01 X26.1169 Y-18.8203
G01 X26.1272 Y-18.8093
G01 X26.1348 Y-18.7992
G01 X26.1416 Y-18.7876
G01 X26.1477 Y-18.7737
G01 X26.1514 Y-18.7617
G01 X26.1540 Y-18.7484
G01 X26.1550 Y-18.7334
G01 X26.1550 Y-15.0425
G01 X31.1159 Y-15.0425
G01 X31.1335 Y-15.0411
G01 X31.1507 Y-15.0371
G01 X31.1671 Y-15.0306
G01 X31.1831 Y-15.0213
G01 X31.1969 Y-15.0103
G01 X31.2104 Y-14.9954
G01 X31.2204 Y-14.9798
G01 X31.2277 Y-14.9637
G01 X31.2330 Y-14.9442
G01 X31.2350 Y-14.9225
G01 X31.2350 Y-5.3975
G01 X31.2336 Y-5.3790
G01 X31.2293 Y-5.3610
G01 X31.2213 Y-5.3417
G01 X31.2114 Y-5.3260
G01 X31.2034 Y-5.3163
G01 X31.1925 Y-5.3058
G01 X31.1817 Y-5.2977
G01 X31.1708 Y-5.2912
G01 X31.1570 Y-5.2851
G01 X31.1442 Y-5.2811
G01 X31.1318 Y-5.2787
G01 X31.1167 Y-5.2775
G01 X29.1250 Y-5.2775
G01 X29.1250 Y-5.0616
G01 X29.1229 Y-5.0455
G01 X29.1190 Y-5.0341
G01 X29.1137 Y-5.0243
G01 X29.1069 Y-5.0155
G01 X29.0981 Y-5.0073
G01 X29.0888 Y-5.0012
G01 X29.0778 Y-4.9963
G01 X29.0670 Y-4.9935
G01 X29.0550 Y-4.9925
G01 X27.4550 Y-4.9925
G01 X27.4430 Y-4.9935
G01 X27.4330 Y-4.9960
G01 X27.4235 Y-5.0000
G01 X27.4140 Y-5.0058
G01 X27.4061 Y-5.0124
G01 X27.3993 Y-5.0201
G01 X27.3937 Y-5.0287
G01 X27.3894 Y-5.0381
G01 X27.3863 Y-5.0488
G01 X27.3850 Y-5.0625
G01 X27.3850 Y-5.2775
G01 X25.9500 Y-5.2775
G01 X25.9500 Y-5.0616
G01 X25.9481 Y-5.0463
G01 X25.9447 Y-5.0357
G01 X25.9396 Y-5.0258
G01 X25.9330 Y-5.0168
G01 X25.9244 Y-5.0084
G01 X25.9152 Y-5.0020
G01 X25.9052 Y-4.9972
G01 X25.8945 Y-4.9940
G01 X25.8834 Y-4.9926
G01 X24.2740 Y-4.9928
G01 X24.2630 Y-4.9946
G01 X24.2524 Y-4.9982
G01 X24.2426 Y-5.0034
G01 X24.2336 Y-5.0101
G01 X24.2264 Y-5.0174
G01 X24.2200 Y-5.0265
G01 X24.2150 Y-5.0365
G01 X24.2117 Y-5.0472
G01 X24.2100 Y-5.0616
G01 X24.2100 Y-5.2775
G01 X22.7750 Y-5.2775
G01 X22.7750 Y-5.0625
G01 X22.7737 Y-5.0488
G01 X22.7709 Y-5.0389
G01 X22.7663 Y-5.0287
G01 X22.7607 Y-5.0201
G01 X22.7539 Y-5.0124
G01 X22.7460 Y-5.0058
G01 X22.7365 Y-5.0000
G01 X22.7270 Y-4.9960
G01 X22.7170 Y-4.9935
G01 X22.7050 Y-4.9925
G01 X21.1050 Y-4.9925
G01 X21.0939 Y-4.9934
G01 X21.0822 Y-4.9963
G01 X21.0712 Y-5.0012
G01 X21.0619 Y-5.0073
G01 X21.0531 Y-5.0155
G01 X21.0463 Y-5.0243
G01 X21.0407 Y-5.0349
G01 X21.0371 Y-5.0455
G01 X21.0350 Y-5.0616
G01 X21.0350 Y-5.2775
G01 X18.4141 Y-5.2775
G01 X18.3957 Y-5.2790
G01 X18.3762 Y-5.2839
G01 X18.3592 Y-5.2912
G01 X18.3435 Y-5.3011
G01 X18.3331 Y-5.3097
G01 X18.3228 Y-5.3207
G01 X18.3147 Y-5.3315
G01 X18.3073 Y-5.3446
G01 X18.3020 Y-5.3571
G01 X18.2984 Y-5.3692
G01 X18.2957 Y-5.3840
G01 X18.2950 Y-5.3975
G01 X18.2950 Y-15.4375
G01 X13.3350 Y-15.4375
G01 X13.3174 Y-15.4388
G01 X13.3002 Y-15.4426
G01 X13.2837 Y-15.4490
G01 X13.2690 Y-15.4572
G01 X13.2582 Y-15.4653
G01 X13.2466 Y-15.4763
G01 X13.2381 Y-15.4867
G01 X13.2296 Y-15.5002
G01 X13.2238 Y-15.5124
G01 X13.2188 Y-15.5275
G01 X13.2162 Y-15.5407
G01 X13.2150 Y-15.5566
G01 X13.2150 Y-18.7342
G00 Z2.0000
G00 X15.2692 Y-20.7752
G01 F70.00
G01 Z-0.0700
G01 F60.00
G01 X15.2775 Y-20.7669
G01 X15.2692 Y-20.7586
G01 X15.2609 Y-20.7669
G01 X15.2692 Y-20.7752
G00 Z2.0000
G00 X15.3023 Y-21.0549
G01 F70.00
G01 Z-0.0700
G01 F60.00
G01 X15.3026 Y-20.8631
G01 X15.3053 Y-20.8496
G01 X15.3105 Y-20.8370
G01 X15.3181 Y-20.8255
G01 X15.3272 Y-20.8164
