(G-CODE GENERATED BY FLATCAM v8.993 - www.flatcam.org - Version Date: 2020/06/05)

(Name: Power Stab AMS1117-5 AMS1117-3_Ф1_верх.gbr_cutout_cnc)
(Type: G-code from Geometry)
(Units: MM)

(Created on Monday, 28 September 2020 at 20:41)

(This preprocessor is the default preprocessor used by FlatCAM.)
(It is made to work with MACH3 compatible motion controllers.)

(TOOL DIAMETER: 0.8 mm)
(Feedrate_XY: 60.0 mm/min)
(Feedrate_Z: 70.0 mm/min)
(Feedrate rapids 1500.0 mm/min)

(Z_Cut: -1.8 mm)
(DepthPerCut: 0.1 mm <=>18 passes)
(Z_Move: 2.0 mm)
(Z Start: None mm)
(Z End: 25.0 mm)
(Steps per circle: 128)
(Preprocessor Geometry: default)

(X range:   -0.5000 ...   40.5000  mm)
(Y range:  -25.5000 ...    0.5000  mm)

(Spindle Speed: None RPM)
G21
G90
G94



G01 F60.00
G00 Z2.0000

M03
G00 X40.0000 Y-25.5000
G01 F70.00
G01 Z-0.1000
G01 F60.00
G01 X0.0000 Y-25.5000
G01 X-0.0490 Y-25.4976
G01 X-0.0975 Y-25.4904
G01 X-0.1451 Y-25.4785
G01 X-0.1913 Y-25.4619
G01 X-0.2357 Y-25.4410
G01 X-0.2778 Y-25.4157
G01 X-0.3172 Y-25.3865
G01 X-0.3536 Y-25.3536
G01 X-0.3865 Y-25.3172
G01 X-0.4157 Y-25.2778
G01 X-0.4410 Y-25.2357
G01 X-0.4619 Y-25.1913
G01 X-0.4785 Y-25.1451
G01 X-0.4904 Y-25.0975
G01 X-0.4976 Y-25.0490
G01 X-0.5000 Y-25.0000
G01 X-0.5000 Y-0.0000
G01 X-0.4976 Y0.0490
G01 X-0.4904 Y0.0975
G01 X-0.4785 Y0.1451
G01 X-0.4619 Y0.1913
G01 X-0.4410 Y0.2357
G01 X-0.4157 Y0.2778
G01 X-0.3865 Y0.3172
G01 X-0.3536 Y0.3536
G01 X-0.3172 Y0.3865
G01 X-0.2778 Y0.4157
G01 X-0.2357 Y0.4410
G01 X-0.1913 Y0.4619
G01 X-0.1451 Y0.4785
G01 X-0.0975 Y0.4904
G01 X-0.0490 Y0.4976
G01 X0.0000 Y0.5000
G01 X40.0000 Y0.5000
G01 X40.0490 Y0.4976
G01 X40.0975 Y0.4904
G01 X40.1451 Y0.4785
G01 X40.1913 Y0.4619
G01 X40.2357 Y0.4410
G01 X40.2778 Y0.4157
G01 X40.3172 Y0.3865
G01 X40.3536 Y0.3536
G01 X40.3865 Y0.3172
G01 X40.4157 Y0.2778
G01 X40.4410 Y0.2357
G01 X40.4619 Y0.1913
G01 X40.4785 Y0.1451
G01 X40.4904 Y0.0975
G01 X40.4976 Y0.0490
G01 X40.5000 Y-0.0000
G01 X40.5000 Y-25.0000
G01 X40.4976 Y-25.0490
G01 X40.4904 Y-25.0975
G01 X40.4785 Y-25.1451
G01 X40.4619 Y-25.1913
G01 X40.4410 Y-25.2357
G01 X40.4157 Y-25.2778
G01 X40.3865 Y-25.3172
G01 X40.3536 Y-25.3536
G01 X40.3172 Y-25.3865
G01 X40.2778 Y-25.4157
G01 X40.2357 Y-25.4410
G01 X40.1913 Y-25.4619
G01 X40.1451 Y-25.4785
G01 X40.0975 Y-25.4904
G01 X40.0490 Y-25.4976
G01 X40.0000 Y-25.5000
G00 X40.0000 Y-25.5000
G01 F70.00
G01 Z-0.2000
G01 F60.00
G01 X40.0490 Y-25.4976
G01 X40.0975 Y-25.4904
G01 X40.1451 Y-25.4785
G01 X40.1913 Y-25.4619
G01 X40.2357 Y-25.4410
G01 X40.2778 Y-25.4157
G01 X40.3172 Y-25.3865
G01 X40.3536 Y-25.3536
G01 X40.3865 Y-25.3172
G01 X40.4157 Y-25.2778
G01 X40.4410 Y-25.2357
G01 X40.4619 Y-25.1913
G01 X40.4785 Y-25.1451
G01 X40.4904 Y-25.0975
G01 X40.4976 Y-25.0490
G01 X40.5000 Y-25.0000
G01 X40.5000 Y-0.0000
G01 X40.4976 Y0.0490
G01 X40.4904 Y0.0975
G01 X40.4785 Y0.1451
G01 X40.4619 Y0.1913
G01 X40.4410 Y0.2357
G01 X40.4157 Y0.2778
G01 X40.3865 Y0.3172
G01 X40.3536 Y0.3536
G01 X40.3172 Y0.3865
G01 X40.2778 Y0.4157
G01 X40.2357 Y0.4410
G01 X40.1913 Y0.4619
G01 X40.1451 Y0.4785
G01 X40.0975 Y0.4904
G01 X40.0490 Y0.4976
G01 X40.0000 Y0.5000
G01 X0.0000 Y0.5000
G01 X-0.0490 Y0.4976
G01 X-0.0975 Y0.4904
G01 X-0.1451 Y0.4785
G01 X-0.1913 Y0.4619
G01 X-0.2357 Y0.4410
G01 X-0.2778 Y0.4157
G01 X-0.3172 Y0.3865
G01 X-0.3536 Y0.3536
G01 X-0.3865 Y0.3172
G01 X-0.4157 Y0.2778
G01 X-0.4410 Y0.2357
G01 X-0.4619 Y0.1913
G01 X-0.4785 Y0.1451
G01 X-0.4904 Y0.0975
G01 X-0.4976 Y0.0490
G01 X-0.5000 Y-0.0000
G01 X-0.5000 Y-25.0000
G01 X-0.4976 Y-25.0490
G01 X-0.4904 Y-25.0975
G01 X-0.4785 Y-25.1451
G01 X-0.4619 Y-25.1913
G01 X-0.4410 Y-25.2357
G01 X-0.4157 Y-25.2778
G01 X-0.3865 Y-25.3172
G01 X-0.3536 Y-25.3536
G01 X-0.3172 Y-25.3865
G01 X-0.2778 Y-25.4157
G01 X-0.2357 Y-25.4410
G01 X-0.1913 Y-25.4619
G01 X-0.1451 Y-25.4785
G01 X-0.0975 Y-25.4904
G01 X-0.0490 Y-25.4976
G01 X0.0000 Y-25.5000
G01 X40.0000 Y-25.5000
G00 X40.0000 Y-25.5000
G01 F70.00
G01 Z-0.3000
G01 F60.00
G01 X0.0000 Y-25.5000
G01 X-0.0490 Y-25.4976
G01 X-0.0975 Y-25.4904
G01 X-0.1451 Y-25.4785
G01 X-0.1913 Y-25.4619
G01 X-0.2357 Y-25.4410
G01 X-0.2778 Y-25.4157
G01 X-0.3172 Y-25.3865
G01 X-0.3536 Y-25.3536
G01 X-0.3865 Y-25.3172
G01 X-0.4157 Y-25.2778
G01 X-0.4410 Y-25.2357
G01 X-0.4619 Y-25.1913
G01 X-0.4785 Y-25.1451
G01 X-0.4904 Y-25.0975
G01 X-0.4976 Y-25.0490
G01 X-0.5000 Y-25.0000
G01 X-0.5000 Y-0.0000
G01 X-0.4976 Y0.0490
G01 X-0.4904 Y0.0975
G01 X-0.4785 Y0.1451
G01 X-0.4619 Y0.1913
G01 X-0.4410 Y0.2357
G01 X-0.4157 Y0.2778
G01 X-0.3865 Y0.3172
G01 X-0.3536 Y0.3536
G01 X-0.3172 Y0.3865
G01 X-0.2778 Y0.4157
G01 X-0.2357 Y0.4410
G01 X-0.1913 Y0.4619
G01 X-0.1451 Y0.4785
G01 X-0.0975 Y0.4904
G01 X-0.0490 Y0.4976
G01 X0.0000 Y0.5000
G01 X40.0000 Y0.5000
G01 X40.0490 Y0.4976
G01 X40.0975 Y0.4904
G01 X40.1451 Y0.4785
G01 X40.1913 Y0.4619
G01 X40.2357 Y0.4410
G01 X40.2778 Y0.4157
G01 X40.3172 Y0.3865
G01 X40.3536 Y0.3536
G01 X40.3865 Y0.3172
G01 X40.4157 Y0.2778
G01 X40.4410 Y0.2357
G01 X40.4619 Y0.1913
G01 X40.4785 Y0.1451
G01 X40.4904 Y0.0975
G01 X40.4976 Y0.0490
G01 X40.5000 Y-0.0000
G01 X40.5000 Y-25.0000
G01 X40.4976 Y-25.0490
G01 X40.4904 Y-25.0975
G01 X40.4785 Y-25.1451
G01 X40.4619 Y-25.1913
G01 X40.4410 Y-25.2357
G01 X40.4157 Y-25.2778
G01 X40.3865 Y-25.3172
G01 X40.3536 Y-25.3536
G01 X40.3172 Y-25.3865
G01 X40.2778 Y-25.4157
G01 X40.2357 Y-25.4410
G01 X40.1913 Y-25.4619
G01 X40.1451 Y-25.4785
G01 X40.0975 Y-25.4904
G01 X40.0490 Y-25.4976
G01 X40.0000 Y-25.5000
G00 X40.0000 Y-25.5000
G01 F70.00
G01 Z-0.4000
G01 F60.00
G01 X40.0490 Y-25.4976
G01 X40.0975 Y-25.4904
G01 X40.1451 Y-25.4785
G01 X40.1913 Y-25.4619
G01 X40.2357 Y-25.4410
G01 X40.2778 Y-25.4157
G01 X40.3172 Y-25.3865
G01 X40.3536 Y-25.3536
G01 X40.3865 Y-25.3172
G01 X40.4157 Y-25.2778
G01 X40.4410 Y-25.2357
G01 X40.4619 Y-25.1913
G01 X40.4785 Y-25.1451
G01 X40.4904 Y-25.0975
G01 X40.4976 Y-25.0490
G01 X40.5000 Y-25.0000
G01 X40.5000 Y-0.0000
G01 X40.4976 Y0.0490
G01 X40.4904 Y0.0975
G01 X40.4785 Y0.1451
G01 X40.4619 Y0.1913
G01 X40.4410 Y0.2357
G01 X40.4157 Y0.2778
G01 X40.3865 Y0.3172
G01 X40.3536 Y0.3536
G01 X40.3172 Y0.3865
G01 X40.2778 Y0.4157
G01 X40.2357 Y0.4410
G01 X40.1913 Y0.4619
G01 X40.1451 Y0.4785
G01 X40.0975 Y0.4904
G01 X40.0490 Y0.4976
G01 X40.0000 Y0.5000
G01 X0.0000 Y0.5000
G01 X-0.0490 Y0.4976
G01 X-0.0975 Y0.4904
G01 X-0.1451 Y0.4785
G01 X-0.1913 Y0.4619
G01 X-0.2357 Y0.4410
G01 X-0.2778 Y0.4157
G01 X-0.3172 Y0.3865
G01 X-0.3536 Y0.3536
G01 X-0.3865 Y0.3172
G01 X-0.4157 Y0.2778
G01 X-0.4410 Y0.2357
G01 X-0.4619 Y0.1913
G01 X-0.4785 Y0.1451
G01 X-0.4904 Y0.0975
G01 X-0.4976 Y0.0490
G01 X-0.5000 Y-0.0000
G01 X-0.5000 Y-25.0000
G01 X-0.4976 Y-25.0490
G01 X-0.4904 Y-25.0975
G01 X-0.4785 Y-25.1451
G01 X-0.4619 Y-25.1913
G01 X-0.4410 Y-25.2357
G01 X-0.4157 Y-25.2778
G01 X-0.3865 Y-25.3172
G01 X-0.3536 Y-25.3536
G01 X-0.3172 Y-25.3865
G01 X-0.2778 Y-25.4157
G01 X-0.2357 Y-25.4410
G01 X-0.1913 Y-25.4619
G01 X-0.1451 Y-25.4785
G01 X-0.0975 Y-25.4904
G01 X-0.0490 Y-25.4976
G01 X0.0000 Y-25.5000
G01 X40.0000 Y-25.5000
G00 X40.0000 Y-25.5000
G01 F70.00
G01 Z-0.5000
G01 F60.00
G01 X0.0000 Y-25.5000
G01 X-0.0490 Y-25.4976
G01 X-0.0975 Y-25.4904
G01 X-0.1451 Y-25.4785
G01 X-0.1913 Y-25.4619
G01 X-0.2357 Y-25.4410
G01 X-0.2778 Y-25.4157
G01 X-0.3172 Y-25.3865
G01 X-0.3536 Y-25.3536
G01 X-0.3865 Y-25.3172
G01 X-0.4157 Y-25.2778
G01 X-0.4410 Y-25.2357
G01 X-0.4619 Y-25.1913
G01 X-0.4785 Y-25.1451
G01 X-0.4904 Y-25.0975
G01 X-0.4976 Y-25.0490
G01 X-0.5000 Y-25.0000
G01 X-0.5000 Y-0.0000
G01 X-0.4976 Y0.0490
G01 X-0.4904 Y0.0975
G01 X-0.4785 Y0.1451
G01 X-0.4619 Y0.1913
G01 X-0.4410 Y0.2357
G01 X-0.4157 Y0.2778
G01 X-0.3865 Y0.3172
G01 X-0.3536 Y0.3536
G01 X-0.3172 Y0.3865
G01 X-0.2778 Y0.4157
G01 X-0.2357 Y0.4410
G01 X-0.1913 Y0.4619
G01 X-0.1451 Y0.4785
G01 X-0.0975 Y0.4904
G01 X-0.0490 Y0.4976
G01 X0.0000 Y0.5000
G01 X40.0000 Y0.5000
G01 X40.0490 Y0.4976
G01 X40.0975 Y0.4904
G01 X40.1451 Y0.4785
G01 X40.1913 Y0.4619
G01 X40.2357 Y0.4410
G01 X40.2778 Y0.4157
G01 X40.3172 Y0.3865
G01 X40.3536 Y0.3536
G01 X40.3865 Y0.3172
G01 X40.4157 Y0.2778
G01 X40.4410 Y0.2357
G01 X40.4619 Y0.1913
G01 X40.4785 Y0.1451
G01 X40.4904 Y0.0975
G01 X40.4976 Y0.0490
G01 X40.5000 Y-0.0000
G01 X40.5000 Y-25.0000
G01 X40.4976 Y-25.0490
G01 X40.4904 Y-25.0975
G01 X40.4785 Y-25.1451
G01 X40.4619 Y-25.1913
G01 X40.4410 Y-25.2357
G01 X40.4157 Y-25.2778
G01 X40.3865 Y-25.3172
G01 X40.3536 Y-25.3536
G01 X40.3172 Y-25.3865
G01 X40.2778 Y-25.4157
G01 X40.2357 Y-25.4410
G01 X40.1913 Y-25.4619
G01 X40.1451 Y-25.4785
G01 X40.0975 Y-25.4904
G01 X40.0490 Y-25.4976
G01 X40.0000 Y-25.5000
G00 X40.0000 Y-25.5000
G01 F70.00
G01 Z-0.6000
G01 F60.00
G01 X40.0490 Y-25.4976
G01 X40.0975 Y-25.4904
G01 X40.1451 Y-25.4785
G01 X40.1913 Y-25.4619
G01 X40.2357 Y-25.4410
G01 X40.2778 Y-25.4157
G01 X40.3172 Y-25.3865
G01 X40.3536 Y-25.3536
G01 X40.3865 Y-25.3172
G01 X40.4157 Y-25.2778
G01 X40.4410 Y-25.2357
G01 X40.4619 Y-25.1913
G01 X40.4785 Y-25.1451
G01 X40.4904 Y-25.0975
G01 X40.4976 Y-25.0490
G01 X40.5000 Y-25.0000
G01 X40.5000 Y-0.0000
G01 X40.4976 Y0.0490
G01 X40.4904 Y0.0975
G01 X40.4785 Y0.1451
G01 X40.4619 Y0.1913
G01 X40.4410 Y0.2357
G01 X40.4157 Y0.2778
G01 X40.3865 Y0.3172
G01 X40.3536 Y0.3536
G01 X40.3172 Y0.3865
G01 X40.2778 Y0.4157
G01 X40.2357 Y0.4410
G01 X40.1913 Y0.4619
G01 X40.1451 Y0.4785
G01 X40.0975 Y0.4904
G01 X40.0490 Y0.4976
G01 X40.0000 Y0.5000
G01 X0.0000 Y0.5000
G01 X-0.0490 Y0.4976
G01 X-0.0975 Y0.4904
G01 X-0.1451 Y0.4785
G01 X-0.1913 Y0.4619
G01 X-0.2357 Y0.4410
G01 X-0.2778 Y0.4157
G01 X-0.3172 Y0.3865
G01 X-0.3536 Y0.3536
G01 X-0.3865 Y0.3172
G01 X-0.4157 Y0.2778
G01 X-0.4410 Y0.2357
G01 X-0.4619 Y0.1913
G01 X-0.4785 Y0.1451
G01 X-0.4904 Y0.0975
G01 X-0.4976 Y0.0490
G01 X-0.5000 Y-0.0000
G01 X-0.5000 Y-25.0000
G01 X-0.4976 Y-25.0490
G01 X-0.4904 Y-25.0975
G01 X-0.4785 Y-25.1451
G01 X-0.4619 Y-25.1913
G01 X-0.4410 Y-25.2357
G01 X-0.4157 Y-25.2778
G01 X-0.3865 Y-25.3172
G01 X-0.3536 Y-25.3536
G01 X-0.3172 Y-25.3865
G01 X-0.2778 Y-25.4157
G01 X-0.2357 Y-25.4410
G01 X-0.1913 Y-25.4619
G01 X-0.1451 Y-25.4785
G01 X-0.0975 Y-25.4904
G01 X-0.0490 Y-25.4976
G01 X0.0000 Y-25.5000
G01 X40.0000 Y-25.5000
G00 X40.0000 Y-25.5000
G01 F70.00
G01 Z-0.7000
G01 F60.00
G01 X0.0000 Y-25.5000
G01 X-0.0490 Y-25.4976
G01 X-0.0975 Y-25.4904
G01 X-0.1451 Y-25.4785
G01 X-0.1913 Y-25.4619
G01 X-0.2357 Y-25.4410
G01 X-0.2778 Y-25.4157
G01 X-0.3172 Y-25.3865
G01 X-0.3536 Y-25.3536
G01 X-0.3865 Y-25.3172
G01 X-0.4157 Y-25.2778
G01 X-0.4410 Y-25.2357
G01 X-0.4619 Y-25.1913
G01 X-0.4785 Y-25.1451
G01 X-0.4904 Y-25.0975
G01 X-0.4976 Y-25.0490
G01 X-0.5000 Y-25.0000
G01 X-0.5000 Y-0.0000
G01 X-0.4976 Y0.0490
G01 X-0.4904 Y0.0975
G01 X-0.4785 Y0.1451
G01 X-0.4619 Y0.1913
G01 X-0.4410 Y0.2357
G01 X-0.4157 Y0.2778
G01 X-0.3865 Y0.3172
G01 X-0.3536 Y0.3536
G01 X-0.3172 Y0.3865
G01 X-0.2778 Y0.4157
G01 X-0.2357 Y0.4410
G01 X-0.1913 Y0.4619
G01 X-0.1451 Y0.4785
G01 X-0.0975 Y0.4904
G01 X-0.0490 Y0.4976
G01 X0.0000 Y0.5000
G01 X40.0000 Y0.5000
G01 X40.0490 Y0.4976
G01 X40.0975 Y0.4904
G01 X40.1451 Y0.4785
G01 X40.1913 Y0.4619
G01 X40.2357 Y0.4410
G01 X40.2778 Y0.4157
G01 X40.3172 Y0.3865
G01 X40.3536 Y0.3536
G01 X40.3865 Y0.3172
G01 X40.4157 Y0.2778
G01 X40.4410 Y0.2357
G01 X40.4619 Y0.1913
G01 X40.4785 Y0.1451
G01 X40.4904 Y0.0975
G01 X40.4976 Y0.0490
G01 X40.5000 Y-0.0000
G01 X40.5000 Y-25.0000
G01 X40.4976 Y-25.0490
G01 X40.4904 Y-25.0975
G01 X40.4785 Y-25.1451
G01 X40.4619 Y-25.1913
G01 X40.4410 Y-25.2357
G01 X40.4157 Y-25.2778
G01 X40.3865 Y-25.3172
G01 X40.3536 Y-25.3536
G01 X40.3172 Y-25.3865
G01 X40.2778 Y-25.4157
G01 X40.2357 Y-25.4410
G01 X40.1913 Y-25.4619
G01 X40.1451 Y-25.4785
G01 X40.0975 Y-25.4904
G01 X40.0490 Y-25.4976
G01 X40.0000 Y-25.5000
G00 X40.0000 Y-25.5000
G01 F70.00
G01 Z-0.8000
G01 F60.00
G01 X40.0490 Y-25.4976
G01 X40.0975 Y-25.4904
G01 X40.1451 Y-25.4785
G01 X40.1913 Y-25.4619
G01 X40.2357 Y-25.4410
G01 X40.2778 Y-25.4157
G01 X40.3172 Y-25.3865
G01 X40.3536 Y-25.3536
G01 X40.3865 Y-25.3172
G01 X40.4157 Y-25.2778
G01 X40.4410 Y-25.2357
G01 X40.4619 Y-25.1913
G01 X40.4785 Y-25.1451
G01 X40.4904 Y-25.0975
G01 X40.4976 Y-25.0490
G01 X40.5000 Y-25.0000
G01 X40.5000 Y-0.0000
G01 X40.4976 Y0.0490
G01 X40.4904 Y0.0975
G01 X40.4785 Y0.1451
G01 X40.4619 Y0.1913
G01 X40.4410 Y0.2357
G01 X40.4157 Y0.2778
G01 X40.3865 Y0.3172
G01 X40.3536 Y0.3536
G01 X40.3172 Y0.3865
G01 X40.2778 Y0.4157
G01 X40.2357 Y0.4410
G01 X40.1913 Y0.4619
G01 X40.1451 Y0.4785
G01 X40.0975 Y0.4904
G01 X40.0490 Y0.4976
G01 X40.0000 Y0.5000
G01 X0.0000 Y0.5000
G01 X-0.0490 Y0.4976
G01 X-0.0975 Y0.4904
G01 X-0.1451 Y0.4785
G01 X-0.1913 Y0.4619
G01 X-0.2357 Y0.4410
G01 X-0.2778 Y0.4157
G01 X-0.3172 Y0.3865
G01 X-0.3536 Y0.3536
G01 X-0.3865 Y0.3172
G01 X-0.4157 Y0.2778
G01 X-0.4410 Y0.2357
G01 X-0.4619 Y0.1913
G01 X-0.4785 Y0.1451
G01 X-0.4904 Y0.0975
G01 X-0.4976 Y0.0490
G01 X-0.5000 Y-0.0000
G01 X-0.5000 Y-25.0000
G01 X-0.4976 Y-25.0490
G01 X-0.4904 Y-25.0975
G01 X-0.4785 Y-25.1451
G01 X-0.4619 Y-25.1913
G01 X-0.4410 Y-25.2357
G01 X-0.4157 Y-25.2778
G01 X-0.3865 Y-25.3172
G01 X-0.3536 Y-25.3536
G01 X-0.3172 Y-25.3865
G01 X-0.2778 Y-25.4157
G01 X-0.2357 Y-25.4410
G01 X-0.1913 Y-25.4619
G01 X-0.1451 Y-25.4785
G01 X-0.0975 Y-25.4904
G01 X-0.0490 Y-25.4976
G01 X0.0000 Y-25.5000
G01 X40.0000 Y-25.5000
G00 X40.0000 Y-25.5000
G01 F70.00
G01 Z-0.9000
G01 F60.00
G01 X0.0000 Y-25.5000
G01 X-0.0490 Y-25.4976
G01 X-0.0975 Y-25.4904
G01 X-0.1451 Y-25.4785
G01 X-0.1913 Y-25.4619
G01 X-0.2357 Y-25.4410
G01 X-0.2778 Y-25.4157
G01 X-0.3172 Y-25.3865
G01 X-0.3536 Y-25.3536
G01 X-0.3865 Y-25.3172
G01 X-0.4157 Y-25.2778
G01 X-0.4410 Y-25.2357
G01 X-0.4619 Y-25.1913
G01 X-0.4785 Y-25.1451
G01 X-0.4904 Y-25.0975
G01 X-0.4976 Y-25.0490
G01 X-0.5000 Y-25.0000
G01 X-0.5000 Y-0.0000
G01 X-0.4976 Y0.0490
G01 X-0.4904 Y0.0975
G01 X-0.4785 Y0.1451
G01 X-0.4619 Y0.1913
G01 X-0.4410 Y0.2357
G01 X-0.4157 Y0.2778
G01 X-0.3865 Y0.3172
G01 X-0.3536 Y0.3536
G01 X-0.3172 Y0.3865
G01 X-0.2778 Y0.4157
G01 X-0.2357 Y0.4410
G01 X-0.1913 Y0.4619
G01 X-0.1451 Y0.4785
G01 X-0.0975 Y0.4904
G01 X-0.0490 Y0.4976
G01 X0.0000 Y0.5000
G01 X40.0000 Y0.5000
G01 X40.0490 Y0.4976
G01 X40.0975 Y0.4904
G01 X40.1451 Y0.4785
G01 X40.1913 Y0.4619
G01 X40.2357 Y0.4410
G01 X40.2778 Y0.4157
G01 X40.3172 Y0.3865
G01 X40.3536 Y0.3536
G01 X40.3865 Y0.3172
G01 X40.4157 Y0.2778
G01 X40.4410 Y0.2357
G01 X40.4619 Y0.1913
G01 X40.4785 Y0.1451
G01 X40.4904 Y0.0975
G01 X40.4976 Y0.0490
G01 X40.5000 Y-0.0000
G01 X40.5000 Y-25.0000
G01 X40.4976 Y-25.0490
G01 X40.4904 Y-25.0975
G01 X40.4785 Y-25.1451
G01 X40.4619 Y-25.1913
G01 X40.4410 Y-25.2357
G01 X40.4157 Y-25.2778
G01 X40.3865 Y-25.3172
G01 X40.3536 Y-25.3536
G01 X40.3172 Y-25.3865
G01 X40.2778 Y-25.4157
G01 X40.2357 Y-25.4410
G01 X40.1913 Y-25.4619
G01 X40.1451 Y-25.4785
G01 X40.0975 Y-25.4904
G01 X40.0490 Y-25.4976
G01 X40.0000 Y-25.5000
G00 X40.0000 Y-25.5000
G01 F70.00
G01 Z-1.0000
G01 F60.00
G01 X40.0490 Y-25.4976
G01 X40.0975 Y-25.4904
G01 X40.1451 Y-25.4785
G01 X40.1913 Y-25.4619
G01 X40.2357 Y-25.4410
G01 X40.2778 Y-25.4157
G01 X40.3172 Y-25.3865
G01 X40.3536 Y-25.3536
G01 X40.3865 Y-25.3172
G01 X40.4157 Y-25.2778
G01 X40.4410 Y-25.2357
G01 X40.4619 Y-25.1913
G01 X40.4785 Y-25.1451
G01 X40.4904 Y-25.0975
G01 X40.4976 Y-25.0490
G01 X40.5000 Y-25.0000
G01 X40.5000 Y-0.0000
G01 X40.4976 Y0.0490
G01 X40.4904 Y0.0975
G01 X40.4785 Y0.1451
G01 X40.4619 Y0.1913
G01 X40.4410 Y0.2357
G01 X40.4157 Y0.2778
G01 X40.3865 Y0.3172
G01 X40.3536 Y0.3536
G01 X40.3172 Y0.3865
G01 X40.2778 Y0.4157
G01 X40.2357 Y0.4410
G01 X40.1913 Y0.4619
G01 X40.1451 Y0.4785
G01 X40.0975 Y0.4904
G01 X40.0490 Y0.4976
G01 X40.0000 Y0.5000
G01 X0.0000 Y0.5000
G01 X-0.0490 Y0.4976
G01 X-0.0975 Y0.4904
G01 X-0.1451 Y0.4785
G01 X-0.1913 Y0.4619
G01 X-0.2357 Y0.4410
G01 X-0.2778 Y0.4157
G01 X-0.3172 Y0.3865
G01 X-0.3536 Y0.3536
G01 X-0.3865 Y0.3172
G01 X-0.4157 Y0.2778
G01 X-0.4410 Y0.2357
G01 X-0.4619 Y0.1913
G01 X-0.4785 Y0.1451
G01 X-0.4904 Y0.0975
G01 X-0.4976 Y0.0490
G01 X-0.5000 Y-0.0000
G01 X-0.5000 Y-25.0000
G01 X-0.4976 Y-25.0490
G01 X-0.4904 Y-25.0975
G01 X-0.4785 Y-25.1451
G01 X-0.4619 Y-25.1913
G01 X-0.4410 Y-25.2357
G01 X-0.4157 Y-25.2778
G01 X-0.3865 Y-25.3172
G01 X-0.3536 Y-25.3536
G01 X-0.3172 Y-25.3865
G01 X-0.2778 Y-25.4157
G01 X-0.2357 Y-25.4410
G01 X-0.1913 Y-25.4619
G01 X-0.1451 Y-25.4785
G01 X-0.0975 Y-25.4904
G01 X-0.0490 Y-25.4976
G01 X0.0000 Y-25.5000
G01 X40.0000 Y-25.5000
G00 X40.0000 Y-25.5000
G01 F70.00
G01 Z-1.1000
G01 F60.00
G01 X0.0000 Y-25.5000
G01 X-0.0490 Y-25.4976
G01 X-0.0975 Y-25.4904
G01 X-0.1451 Y-25.4785
G01 X-0.1913 Y-25.4619
G01 X-0.2357 Y-25.4410
G01 X-0.2778 Y-25.4157
G01 X-0.3172 Y-25.3865
G01 X-0.3536 Y-25.3536
G01 X-0.3865 Y-25.3172
G01 X-0.4157 Y-25.2778
G01 X-0.4410 Y-25.2357
G01 X-0.4619 Y-25.1913
G01 X-0.4785 Y-25.1451
G01 X-0.4904 Y-25.0975
G01 X-0.4976 Y-25.0490
G01 X-0.5000 Y-25.0000
G01 X-0.5000 Y-0.0000
G01 X-0.4976 Y0.0490
G01 X-0.4904 Y0.0975
G01 X-0.4785 Y0.1451
G01 X-0.4619 Y0.1913
G01 X-0.4410 Y0.2357
G01 X-0.4157 Y0.2778
G01 X-0.3865 Y0.3172
G01 X-0.3536 Y0.3536
G01 X-0.3172 Y0.3865
G01 X-0.2778 Y0.4157
G01 X-0.2357 Y0.4410
G01 X-0.1913 Y0.4619
G01 X-0.1451 Y0.4785
G01 X-0.0975 Y0.4904
G01 X-0.0490 Y0.4976
G01 X0.0000 Y0.5000
G01 X40.0000 Y0.5000
G01 X40.0490 Y0.4976
G01 X40.0975 Y0.4904
G01 X40.1451 Y0.4785
G01 X40.1913 Y0.4619
G01 X40.2357 Y0.4410
G01 X40.2778 Y0.4157
G01 X40.3172 Y0.3865
G01 X40.3536 Y0.3536
G01 X40.3865 Y0.3172
G01 X40.4157 Y0.2778
G01 X40.4410 Y0.2357
G01 X40.4619 Y0.1913
G01 X40.4785 Y0.1451
G01 X40.4904 Y0.0975
G01 X40.4976 Y0.0490
G01 X40.5000 Y-0.0000
G01 X40.5000 Y-25.0000
G01 X40.4976 Y-25.0490
G01 X40.4904 Y-25.0975
G01 X40.4785 Y-25.1451
G01 X40.4619 Y-25.1913
G01 X40.4410 Y-25.2357
G01 X40.4157 Y-25.2778
G01 X40.3865 Y-25.3172
G01 X40.3536 Y-25.3536
G01 X40.3172 Y-25.3865
G01 X40.2778 Y-25.4157
G01 X40.2357 Y-25.4410
G01 X40.1913 Y-25.4619
G01 X40.1451 Y-25.4785
G01 X40.0975 Y-25.4904
G01 X40.0490 Y-25.4976
G01 X40.0000 Y-25.5000
G00 X40.0000 Y-25.5000
G01 F70.00
G01 Z-1.2000
G01 F60.00
G01 X40.0490 Y-25.4976
G01 X40.0975 Y-25.4904
G01 X40.1451 Y-25.4785
G01 X40.1913 Y-25.4619
G01 X40.2357 Y-25.4410
G01 X40.2778 Y-25.4157
G01 X40.3172 Y-25.3865
G01 X40.3536 Y-25.3536
G01 X40.3865 Y-25.3172
G01 X40.4157 Y-25.2778
G01 X40.4410 Y-25.2357
G01 X40.4619 Y-25.1913
G01 X40.4785 Y-25.1451
G01 X40.4904 Y-25.0975
G01 X40.4976 Y-25.0490
G01 X40.5000 Y-25.0000
G01 X40.5000 Y-0.0000
G01 X40.4976 Y0.0490
G01 X40.4904 Y0.0975
G01 X40.4785 Y0.1451
G01 X40.4619 Y0.1913
G01 X40.4410 Y0.2357
G01 X40.4157 Y0.2778
G01 X40.3865 Y0.3172
G01 X40.3536 Y0.3536
G01 X40.3172 Y0.3865
G01 X40.2778 Y0.4157
G01 X40.2357 Y0.4410
G01 X40.1913 Y0.4619
G01 X40.1451 Y0.4785
G01 X40.0975 Y0.4904
G01 X40.0490 Y0.4976
G01 X40.0000 Y0.5000
G01 X0.0000 Y0.5000
G01 X-0.0490 Y0.4976
G01 X-0.0975 Y0.4904
G01 X-0.1451 Y0.4785
G01 X-0.1913 Y0.4619
G01 X-0.2357 Y0.4410
G01 X-0.2778 Y0.4157
G01 X-0.3172 Y0.3865
G01 X-0.3536 Y0.3536
G01 X-0.3865 Y0.3172
G01 X-0.4157 Y0.2778
G01 X-0.4410 Y0.2357
G01 X-0.4619 Y0.1913
G01 X-0.4785 Y0.1451
G01 X-0.4904 Y0.0975
G01 X-0.4976 Y0.0490
G01 X-0.5000 Y-0.0000
G01 X-0.5000 Y-25.0000
G01 X-0.4976 Y-25.0490
G01 X-0.4904 Y-25.0975
G01 X-0.4785 Y-25.1451
G01 X-0.4619 Y-25.1913
G01 X-0.4410 Y-25.2357
G01 X-0.4157 Y-25.2778
G01 X-0.3865 Y-25.3172
G01 X-0.3536 Y-25.3536
G01 X-0.3172 Y-25.3865
G01 X-0.2778 Y-25.4157
G01 X-0.2357 Y-25.4410
G01 X-0.1913 Y-25.4619
G01 X-0.1451 Y-25.4785
G01 X-0.0975 Y-25.4904
G01 X-0.0490 Y-25.4976
G01 X0.0000 Y-25.5000
G01 X40.0000 Y-25.5000
G00 X40.0000 Y-25.5000
G01 F70.00
G01 Z-1.3000
G01 F60.00
G01 X0.0000 Y-25.5000
G01 X-0.0490 Y-25.4976
G01 X-0.0975 Y-25.4904
G01 X-0.1451 Y-25.4785
G01 X-0.1913 Y-25.4619
G01 X-0.2357 Y-25.4410
G01 X-0.2778 Y-25.4157
G01 X-0.3172 Y-25.3865
G01 X-0.3536 Y-25.3536
G01 X-0.3865 Y-25.3172
G01 X-0.4157 Y-25.2778
G01 X-0.4410 Y-25.2357
G01 X-0.4619 Y-25.1913
G01 X-0.4785 Y-25.1451
G01 X-0.4904 Y-25.0975
G01 X-0.4976 Y-25.0490
G01 X-0.5000 Y-25.0000
G01 X-0.5000 Y-0.0000
G01 X-0.4976 Y0.0490
G01 X-0.4904 Y0.0975
G01 X-0.4785 Y0.1451
G01 X-0.4619 Y0.1913
G01 X-0.4410 Y0.2357
G01 X-0.4157 Y0.2778
G01 X-0.3865 Y0.3172
G01 X-0.3536 Y0.3536
G01 X-0.3172 Y0.3865
G01 X-0.2778 Y0.4157
G01 X-0.2357 Y0.4410
G01 X-0.1913 Y0.4619
G01 X-0.1451 Y0.4785
G01 X-0.0975 Y0.4904
G01 X-0.0490 Y0.4976
G01 X0.0000 Y0.5000
G01 X40.0000 Y0.5000
G01 X40.0490 Y0.4976
G01 X40.0975 Y0.4904
G01 X40.1451 Y0.4785
G01 X40.1913 Y0.4619
G01 X40.2357 Y0.4410
G01 X40.2778 Y0.4157
G01 X40.3172 Y0.3865
G01 X40.3536 Y0.3536
G01 X40.3865 Y0.3172
G01 X40.4157 Y0.2778
G01 X40.4410 Y0.2357
G01 X40.4619 Y0.1913
G01 X40.4785 Y0.1451
G01 X40.4904 Y0.0975
G01 X40.4976 Y0.0490
G01 X40.5000 Y-0.0000
G01 X40.5000 Y-25.0000
G01 X40.4976 Y-25.0490
G01 X40.4904 Y-25.0975
G01 X40.4785 Y-25.1451
G01 X40.4619 Y-25.1913
G01 X40.4410 Y-25.2357
G01 X40.4157 Y-25.2778
G01 X40.3865 Y-25.3172
G01 X40.3536 Y-25.3536
G01 X40.3172 Y-25.3865
G01 X40.2778 Y-25.4157
G01 X40.2357 Y-25.4410
G01 X40.1913 Y-25.4619
G01 X40.1451 Y-25.4785
G01 X40.0975 Y-25.4904
G01 X40.0490 Y-25.4976
G01 X40.0000 Y-25.5000
G00 X40.0000 Y-25.5000
G01 F70.00
G01 Z-1.4000
G01 F60.00
G01 X40.0490 Y-25.4976
G01 X40.0975 Y-25.4904
G01 X40.1451 Y-25.4785
G01 X40.1913 Y-25.4619
G01 X40.2357 Y-25.4410
G01 X40.2778 Y-25.4157
G01 X40.3172 Y-25.3865
G01 X40.3536 Y-25.3536
G01 X40.3865 Y-25.3172
G01 X40.4157 Y-25.2778
G01 X40.4410 Y-25.2357
G01 X40.4619 Y-25.1913
G01 X40.4785 Y-25.1451
G01 X40.4904 Y-25.0975
G01 X40.4976 Y-25.0490
G01 X40.5000 Y-25.0000
G01 X40.5000 Y-0.0000
G01 X40.4976 Y0.0490
G01 X40.4904 Y0.0975
G01 X40.4785 Y0.1451
G01 X40.4619 Y0.1913
G01 X40.4410 Y0.2357
G01 X40.4157 Y0.2778
G01 X40.3865 Y0.3172
G01 X40.3536 Y0.3536
G01 X40.3172 Y0.3865
G01 X40.2778 Y0.4157
G01 X40.2357 Y0.4410
G01 X40.1913 Y0.4619
G01 X40.1451 Y0.4785
G01 X40.0975 Y0.4904
G01 X40.0490 Y0.4976
G01 X40.0000 Y0.5000
G01 X0.0000 Y0.5000
G01 X-0.0490 Y0.4976
G01 X-0.0975 Y0.4904
G01 X-0.1451 Y0.4785
G01 X-0.1913 Y0.4619
G01 X-0.2357 Y0.4410
G01 X-0.2778 Y0.4157
G01 X-0.3172 Y0.3865
G01 X-0.3536 Y0.3536
G01 X-0.3865 Y0.3172
G01 X-0.4157 Y0.2778
G01 X-0.4410 Y0.2357
G01 X-0.4619 Y0.1913
G01 X-0.4785 Y0.1451
G01 X-0.4904 Y0.0975
G01 X-0.4976 Y0.0490
G01 X-0.5000 Y-0.0000
G01 X-0.5000 Y-25.0000
G01 X-0.4976 Y-25.0490
G01 X-0.4904 Y-25.0975
G01 X-0.4785 Y-25.1451
G01 X-0.4619 Y-25.1913
G01 X-0.4410 Y-25.2357
G01 X-0.4157 Y-25.2778
G01 X-0.3865 Y-25.3172
G01 X-0.3536 Y-25.3536
G01 X-0.3172 Y-25.3865
G01 X-0.2778 Y-25.4157
G01 X-0.2357 Y-25.4410
G01 X-0.1913 Y-25.4619
G01 X-0.1451 Y-25.4785
G01 X-0.0975 Y-25.4904
G01 X-0.0490 Y-25.4976
G01 X0.0000 Y-25.5000
G01 X40.0000 Y-25.5000
G00 X40.0000 Y-25.5000
G01 F70.00
G01 Z-1.5000
G01 F60.00
G01 X0.0000 Y-25.5000
G01 X-0.0490 Y-25.4976
G01 X-0.0975 Y-25.4904
G01 X-0.1451 Y-25.4785
G01 X-0.1913 Y-25.4619
G01 X-0.2357 Y-25.4410
G01 X-0.2778 Y-25.4157
G01 X-0.3172 Y-25.3865
G01 X-0.3536 Y-25.3536
G01 X-0.3865 Y-25.3172
G01 X-0.4157 Y-25.2778
G01 X-0.4410 Y-25.2357
G01 X-0.4619 Y-25.1913
G01 X-0.4785 Y-25.1451
G01 X-0.4904 Y-25.0975
G01 X-0.4976 Y-25.0490
G01 X-0.5000 Y-25.0000
G01 X-0.5000 Y-0.0000
G01 X-0.4976 Y0.0490
G01 X-0.4904 Y0.0975
G01 X-0.4785 Y0.1451
G01 X-0.4619 Y0.1913
G01 X-0.4410 Y0.2357
G01 X-0.4157 Y0.2778
G01 X-0.3865 Y0.3172
G01 X-0.3536 Y0.3536
G01 X-0.3172 Y0.3865
G01 X-0.2778 Y0.4157
G01 X-0.2357 Y0.4410
G01 X-0.1913 Y0.4619
G01 X-0.1451 Y0.4785
G01 X-0.0975 Y0.4904
G01 X-0.0490 Y0.4976
G01 X0.0000 Y0.5000
G01 X40.0000 Y0.5000
G01 X40.0490 Y0.4976
G01 X40.0975 Y0.4904
G01 X40.1451 Y0.4785
G01 X40.1913 Y0.4619
G01 X40.2357 Y0.4410
G01 X40.2778 Y0.4157
G01 X40.3172 Y0.3865
G01 X40.3536 Y0.3536
G01 X40.3865 Y0.3172
G01 X40.4157 Y0.2778
G01 X40.4410 Y0.2357
G01 X40.4619 Y0.1913
G01 X40.4785 Y0.1451
G01 X40.4904 Y0.0975
G01 X40.4976 Y0.0490
G01 X40.5000 Y-0.0000
G01 X40.5000 Y-25.0000
G01 X40.4976 Y-25.0490
G01 X40.4904 Y-25.0975
G01 X40.4785 Y-25.1451
G01 X40.4619 Y-25.1913
G01 X40.4410 Y-25.2357
G01 X40.4157 Y-25.2778
G01 X40.3865 Y-25.3172
G01 X40.3536 Y-25.3536
G01 X40.3172 Y-25.3865
G01 X40.2778 Y-25.4157
G01 X40.2357 Y-25.4410
G01 X40.1913 Y-25.4619
G01 X40.1451 Y-25.4785
G01 X40.0975 Y-25.4904
G01 X40.0490 Y-25.4976
G01 X40.0000 Y-25.5000
G00 X40.0000 Y-25.5000
G01 F70.00
G01 Z-1.6000
G01 F60.00
G01 X40.0490 Y-25.4976
G01 X40.0975 Y-25.4904
G01 X40.1451 Y-25.4785
G01 X40.1913 Y-25.4619
G01 X40.2357 Y-25.4410
G01 X40.2778 Y-25.4157
G01 X40.3172 Y-25.3865
G01 X40.3536 Y-25.3536
G01 X40.3865 Y-25.3172
G01 X40.4157 Y-25.2778
G01 X40.4410 Y-25.2357
G01 X40.4619 Y-25.1913
G01 X40.4785 Y-25.1451
G01 X40.4904 Y-25.0975
G01 X40.4976 Y-25.0490
G01 X40.5000 Y-25.0000
G01 X40.5000 Y-0.0000
G01 X40.4976 Y0.0490
G01 X40.4904 Y0.0975
G01 X40.4785 Y0.1451
G01 X40.4619 Y0.1913
G01 X40.4410 Y0.2357
G01 X40.4157 Y0.2778
G01 X40.3865 Y0.3172
G01 X40.3536 Y0.3536
G01 X40.3172 Y0.3865
G01 X40.2778 Y0.4157
G01 X40.2357 Y0.4410
G01 X40.1913 Y0.4619
G01 X40.1451 Y0.4785
G01 X40.0975 Y0.4904
G01 X40.0490 Y0.4976
G01 X40.0000 Y0.5000
G01 X0.0000 Y0.5000
G01 X-0.0490 Y0.4976
G01 X-0.0975 Y0.4904
G01 X-0.1451 Y0.4785
G01 X-0.1913 Y0.4619
G01 X-0.2357 Y0.4410
G01 X-0.2778 Y0.4157
G01 X-0.3172 Y0.3865
G01 X-0.3536 Y0.3536
G01 X-0.3865 Y0.3172
G01 X-0.4157 Y0.2778
G01 X-0.4410 Y0.2357
G01 X-0.4619 Y0.1913
G01 X-0.4785 Y0.1451
G01 X-0.4904 Y0.0975
G01 X-0.4976 Y0.0490
G01 X-0.5000 Y-0.0000
G01 X-0.5000 Y-25.0000
G01 X-0.4976 Y-25.0490
G01 X-0.4904 Y-25.0975
G01 X-0.4785 Y-25.1451
G01 X-0.4619 Y-25.1913
G01 X-0.4410 Y-25.2357
G01 X-0.4157 Y-25.2778
G01 X-0.3865 Y-25.3172
G01 X-0.3536 Y-25.3536
G01 X-0.3172 Y-25.3865
G01 X-0.2778 Y-25.4157
G01 X-0.2357 Y-25.4410
G01 X-0.1913 Y-25.4619
G01 X-0.1451 Y-25.4785
G01 X-0.0975 Y-25.4904
G01 X-0.0490 Y-25.4976
G01 X0.0000 Y-25.5000
G01 X40.0000 Y-25.5000
G00 X40.0000 Y-25.5000
G01 F70.00
G01 Z-1.7000
G01 F60.00
G01 X0.0000 Y-25.5000
G01 X-0.0490 Y-25.4976
G01 X-0.0975 Y-25.4904
G01 X-0.1451 Y-25.4785
G01 X-0.1913 Y-25.4619
G01 X-0.2357 Y-25.4410
G01 X-0.2778 Y-25.4157
G01 X-0.3172 Y-25.3865
G01 X-0.3536 Y-25.3536
G01 X-0.3865 Y-25.3172
G01 X-0.4157 Y-25.2778
G01 X-0.4410 Y-25.2357
G01 X-0.4619 Y-25.1913
G01 X-0.4785 Y-25.1451
G01 X-0.4904 Y-25.0975
G01 X-0.4976 Y-25.0490
G01 X-0.5000 Y-25.0000
G01 X-0.5000 Y-0.0000
G01 X-0.4976 Y0.0490
G01 X-0.4904 Y0.0975
G01 X-0.4785 Y0.1451
G01 X-0.4619 Y0.1913
G01 X-0.4410 Y0.2357
G01 X-0.4157 Y0.2778
G01 X-0.3865 Y0.3172
G01 X-0.3536 Y0.3536
G01 X-0.3172 Y0.3865
G01 X-0.2778 Y0.4157
G01 X-0.2357 Y0.4410
G01 X-0.1913 Y0.4619
G01 X-0.1451 Y0.4785
G01 X-0.0975 Y0.4904
G01 X-0.0490 Y0.4976
G01 X0.0000 Y0.5000
G01 X40.0000 Y0.5000
G01 X40.0490 Y0.4976
G01 X40.0975 Y0.4904
G01 X40.1451 Y0.4785
G01 X40.1913 Y0.4619
G01 X40.2357 Y0.4410
G01 X40.2778 Y0.4157
G01 X40.3172 Y0.3865
G01 X40.3536 Y0.3536
G01 X40.3865 Y0.3172
G01 X40.4157 Y0.2778
G01 X40.4410 Y0.2357
G01 X40.4619 Y0.1913
G01 X40.4785 Y0.1451
G01 X40.4904 Y0.0975
G01 X40.4976 Y0.0490
G01 X40.5000 Y-0.0000
G01 X40.5000 Y-25.0000
G01 X40.4976 Y-25.0490
G01 X40.4904 Y-25.0975
G01 X40.4785 Y-25.1451
G01 X40.4619 Y-25.1913
G01 X40.4410 Y-25.2357
G01 X40.4157 Y-25.2778
G01 X40.3865 Y-25.3172
G01 X40.3536 Y-25.3536
G01 X40.3172 Y-25.3865
G01 X40.2778 Y-25.4157
G01 X40.2357 Y-25.4410
G01 X40.1913 Y-25.4619
G01 X40.1451 Y-25.4785
G01 X40.0975 Y-25.4904
G01 X40.0490 Y-25.4976
G01 X40.0000 Y-25.5000
G00 X40.0000 Y-25.5000
G01 F70.00
G01 Z-1.8000
G01 F60.00
G01 X40.0490 Y-25.4976
G01 X40.0975 Y-25.4904
G01 X40.1451 Y-25.4785
G01 X40.1913 Y-25.4619
G01 X40.2357 Y-25.4410
G01 X40.2778 Y-25.4157
G01 X40.3172 Y-25.3865
G01 X40.3536 Y-25.3536
G01 X40.3865 Y-25.3172
G01 X40.4157 Y-25.2778
G01 X40.4410 Y-25.2357
G01 X40.4619 Y-25.1913
G01 X40.4785 Y-25.1451
G01 X40.4904 Y-25.0975
G01 X40.4976 Y-25.0490
G01 X40.5000 Y-25.0000
G01 X40.5000 Y-0.0000
G01 X40.4976 Y0.0490
G01 X40.4904 Y0.0975
G01 X40.4785 Y0.1451
G01 X40.4619 Y0.1913
G01 X40.4410 Y0.2357
G01 X40.4157 Y0.2778
G01 X40.3865 Y0.3172
G01 X40.3536 Y0.3536
G01 X40.3172 Y0.3865
G01 X40.2778 Y0.4157
G01 X40.2357 Y0.4410
G01 X40.1913 Y0.4619
G01 X40.1451 Y0.4785
G01 X40.0975 Y0.4904
G01 X40.0490 Y0.4976
G01 X40.0000 Y0.5000
G01 X0.0000 Y0.5000
G01 X-0.0490 Y0.4976
G01 X-0.0975 Y0.4904
G01 X-0.1451 Y0.4785
G01 X-0.1913 Y0.4619
G01 X-0.2357 Y0.4410
G01 X-0.2778 Y0.4157
G01 X-0.3172 Y0.3865
G01 X-0.3536 Y0.3536
G01 X-0.3865 Y0.3172
G01 X-0.4157 Y0.2778
G01 X-0.4410 Y0.2357
G01 X-0.4619 Y0.1913
G01 X-0.4785 Y0.1451
G01 X-0.4904 Y0.0975
G01 X-0.4976 Y0.0490
G01 X-0.5000 Y-0.0000
G01 X-0.5000 Y-25.0000
G01 X-0.4976 Y-25.0490
G01 X-0.4904 Y-25.0975
G01 X-0.4785 Y-25.1451
G01 X-0.4619 Y-25.1913
G01 X-0.4410 Y-25.2357
G01 X-0.4157 Y-25.2778
G01 X-0.3865 Y-25.3172
G01 X-0.3536 Y-25.3536
G01 X-0.3172 Y-25.3865
G01 X-0.2778 Y-25.4157
G01 X-0.2357 Y-25.4410
G01 X-0.1913 Y-25.4619
G01 X-0.1451 Y-25.4785
G01 X-0.0975 Y-25.4904
G01 X-0.0490 Y-25.4976
G01 X0.0000 Y-25.5000
G01 X40.0000 Y-25.5000
G00 Z2.0000
M05
G00 Z2.0000
G00 Z25.00

