(G-CODE GENERATED BY FLATCAM v8.993 - www.flatcam.org - Version Date: 2020/06/05)

(Name: RX_frontend_Ф1_верх.gbr_iso_combined_cnc)
(Type: G-code from Geometry)
(Units: MM)

(Created on Saturday, 24 October 2020 at 20:29)

(This preprocessor is the default preprocessor used by FlatCAM.)
(It is made to work with MACH3 compatible motion controllers.)

(TOOL DIAMETER: 0.14 mm)
(Feedrate_XY: 120.0 mm/min)
(Feedrate_Z: 70.0 mm/min)
(Feedrate rapids 1500.0 mm/min)

(Z_Cut: -0.06 mm)
(Z_Move: 2.0 mm)
(Z Start: None mm)
(Z End: 25.0 mm)
(Steps per circle: 128)
(Preprocessor Geometry: default)

(X range:    2.2658 ...   58.1141  mm)
(Y range:  -38.4331 ...   -3.4865  mm)

(Spindle Speed: 10000 RPM)
G21
G90
G94



G01 F120.00
G00 Z2.0000

M03 S10000
G00 X4.8209 Y-4.9824
G01 F70.00
G01 Z-0.0600
G01 F120.00
G01 X4.8235 Y-4.9649
G01 X4.8278 Y-4.9478
G01 X4.8337 Y-4.9311
G01 X4.8413 Y-4.9152
G01 X4.8504 Y-4.9000
G01 X4.8609 Y-4.8858
G01 X4.8727 Y-4.8727
G01 X4.8858 Y-4.8609
G01 X4.9000 Y-4.8504
G01 X4.9152 Y-4.8413
G01 X4.9311 Y-4.8337
G01 X4.9478 Y-4.8278
G01 X4.9649 Y-4.8235
G01 X4.9824 Y-4.8209
G01 X5.0000 Y-4.8200
G01 X5.0176 Y-4.8209
G01 X5.0351 Y-4.8235
G01 X5.0522 Y-4.8278
G01 X5.0689 Y-4.8337
G01 X5.0848 Y-4.8413
G01 X5.1000 Y-4.8504
G01 X5.1142 Y-4.8609
G01 X5.1273 Y-4.8727
G01 X5.1391 Y-4.8858
G01 X5.1496 Y-4.9000
G01 X5.1587 Y-4.9152
G01 X5.1663 Y-4.9311
G01 X5.1722 Y-4.9478
G01 X5.1765 Y-4.9649
G01 X5.1791 Y-4.9824
G01 X5.1800 Y-5.0000
G01 X5.1791 Y-5.0176
G01 X5.1765 Y-5.0351
G01 X5.1722 Y-5.0522
G01 X5.1663 Y-5.0689
G01 X5.1587 Y-5.0848
G01 X5.1496 Y-5.1000
G01 X5.1391 Y-5.1142
G01 X5.1273 Y-5.1273
G01 X5.1142 Y-5.1391
G01 X5.1000 Y-5.1496
G01 X5.0848 Y-5.1587
G01 X5.0689 Y-5.1663
G01 X5.0522 Y-5.1722
G01 X5.0351 Y-5.1765
G01 X5.0176 Y-5.1791
G01 X5.0000 Y-5.1800
G01 X4.9824 Y-5.1791
G01 X4.9649 Y-5.1765
G01 X4.9478 Y-5.1722
G01 X4.9311 Y-5.1663
G01 X4.9152 Y-5.1587
G01 X4.9000 Y-5.1496
G01 X4.8858 Y-5.1391
G01 X4.8727 Y-5.1273
G01 X4.8609 Y-5.1142
G01 X4.8504 Y-5.1000
G01 X4.8413 Y-5.0848
G01 X4.8337 Y-5.0689
G01 X4.8278 Y-5.0522
G01 X4.8235 Y-5.0351
G01 X4.8209 Y-5.0176
G01 X4.8200 Y-5.0000
G01 X4.8209 Y-4.9824
G00 Z2.0000
G00 X4.8906 Y-4.9892
G01 F70.00
G01 Z-0.0600
G01 F120.00
G01 X4.8922 Y-4.9785
G01 X4.8948 Y-4.9681
G01 X4.8984 Y-4.9579
G01 X4.9030 Y-4.9482
G01 X4.9086 Y-4.9389
G01 X4.9150 Y-4.9302
G01 X4.9222 Y-4.9222
G01 X4.9302 Y-4.9150
G01 X4.9389 Y-4.9086
G01 X4.9482 Y-4.9030
G01 X4.9579 Y-4.8984
G01 X4.9681 Y-4.8948
G01 X4.9785 Y-4.8922
G01 X4.9892 Y-4.8906
G01 X5.0000 Y-4.8900
G01 X5.0108 Y-4.8906
G01 X5.0215 Y-4.8922
G01 X5.0319 Y-4.8948
G01 X5.0421 Y-4.8984
G01 X5.0518 Y-4.9030
G01 X5.0611 Y-4.9086
G01 X5.0698 Y-4.9150
G01 X5.0778 Y-4.9222
G01 X5.0850 Y-4.9302
G01 X5.0914 Y-4.9389
G01 X5.0970 Y-4.9482
G01 X5.1016 Y-4.9579
G01 X5.1052 Y-4.9681
G01 X5.1078 Y-4.9785
G01 X5.1094 Y-4.9892
G01 X5.1100 Y-5.0000
G01 X5.1094 Y-5.0108
G01 X5.1078 Y-5.0215
G01 X5.1052 Y-5.0319
G01 X5.1016 Y-5.0421
G01 X5.0970 Y-5.0518
G01 X5.0914 Y-5.0611
G01 X5.0850 Y-5.0698
G01 X5.0778 Y-5.0778
G01 X5.0698 Y-5.0850
G01 X5.0611 Y-5.0914
G01 X5.0518 Y-5.0970
G01 X5.0421 Y-5.1016
G01 X5.0319 Y-5.1052
G01 X5.0215 Y-5.1078
G01 X5.0108 Y-5.1094
G01 X5.0000 Y-5.1100
G01 X4.9892 Y-5.1094
G01 X4.9785 Y-5.1078
G01 X4.9681 Y-5.1052
G01 X4.9579 Y-5.1016
G01 X4.9482 Y-5.0970
G01 X4.9389 Y-5.0914
G01 X4.9302 Y-5.0850
G01 X4.9222 Y-5.0778
G01 X4.9150 Y-5.0698
G01 X4.9086 Y-5.0611
G01 X4.9030 Y-5.0518
G01 X4.8984 Y-5.0421
G01 X4.8948 Y-5.0319
G01 X4.8922 Y-5.0215
G01 X4.8906 Y-5.0108
G01 X4.8900 Y-5.0000
G01 X4.8906 Y-4.9892
G00 Z2.0000
G00 X4.9865 Y-5.0376
G01 F70.00
G01 Z-0.0600
G01 F120.00
G01 X4.9795 Y-5.0343
G01 X4.9732 Y-5.0296
G01 X4.9679 Y-5.0238
G01 X4.9639 Y-5.0171
G01 X4.9613 Y-5.0097
G01 X4.9601 Y-5.0020
G01 X4.9605 Y-4.9941
G01 X4.9624 Y-4.9865
G01 X4.9657 Y-4.9795
G01 X4.9704 Y-4.9732
G01 X4.9762 Y-4.9679
G01 X4.9829 Y-4.9639
G01 X4.9903 Y-4.9613
G01 X4.9980 Y-4.9601
G01 X5.0059 Y-4.9605
G01 X5.0135 Y-4.9624
G01 X5.0205 Y-4.9657
G01 X5.0268 Y-4.9704
G01 X5.0321 Y-4.9762
G01 X5.0361 Y-4.9829
G01 X5.0387 Y-4.9903
G01 X5.0399 Y-4.9980
G01 X5.0395 Y-5.0059
G01 X5.0376 Y-5.0135
G01 X5.0343 Y-5.0205
G01 X5.0296 Y-5.0268
G01 X5.0238 Y-5.0321
G01 X5.0171 Y-5.0361
G01 X5.0097 Y-5.0387
G01 X5.0020 Y-5.0399
G01 X4.9941 Y-5.0395
G01 X4.9865 Y-5.0376
G00 Z2.0000
G00 X7.2822 Y-6.0265
G01 F70.00
G01 Z-0.0600
G01 F120.00
G01 X7.8071 Y-6.0262
G01 X7.8181 Y-6.0242
G01 X7.8286 Y-6.0205
G01 X7.8384 Y-6.0152
G01 X7.8473 Y-6.0084
G01 X7.8549 Y-6.0002
G01 X7.8611 Y-5.9910
G01 X7.8659 Y-5.9809
G01 X7.8689 Y-5.9702
G01 X7.8702 Y-5.9548
G01 X7.8681 Y-5.9395
G01 X7.8628 Y-5.9250
G01 X7.8544 Y-5.9121
G01 X7.8433 Y-5.9013
G01 X7.8199 Y-5.8847
G01 X7.7685 Y-5.8446
G01 X7.7190 Y-5.8019
G01 X7.6718 Y-5.7569
G01 X7.6268 Y-5.7097
G01 X7.5841 Y-5.6602
G01 X7.5440 Y-5.6088
G01 X7.5064 Y-5.5554
G01 X7.4714 Y-5.5002
G01 X7.4393 Y-5.4434
G01 X7.4099 Y-5.3851
G01 X7.3835 Y-5.3255
G01 X7.3600 Y-5.2646
G01 X7.3395 Y-5.2026
G01 X7.3221 Y-5.1397
G01 X7.3078 Y-5.0760
G01 X7.2966 Y-5.0116
G01 X7.2886 Y-4.9469
G01 X7.2838 Y-4.8818
G01 X7.2822 Y-4.8165
G01 X7.2838 Y-4.7512
G01 X7.2886 Y-4.6861
G01 X7.2966 Y-4.6214
G01 X7.3078 Y-4.5570
G01 X7.3221 Y-4.4933
G01 X7.3395 Y-4.4304
G01 X7.3600 Y-4.3684
G01 X7.3835 Y-4.3075
G01 X7.4099 Y-4.2479
G01 X7.4393 Y-4.1896
G01 X7.4714 Y-4.1328
G01 X7.5064 Y-4.0776
G01 X7.5440 Y-4.0242
G01 X7.5841 Y-3.9728
G01 X7.6268 Y-3.9233
G01 X7.6718 Y-3.8761
G01 X7.7190 Y-3.8311
G01 X7.7685 Y-3.7884
G01 X7.8199 Y-3.7483
G01 X7.8733 Y-3.7107
G01 X7.9285 Y-3.6757
G01 X7.9853 Y-3.6436
G01 X8.0436 Y-3.6142
G01 X8.1032 Y-3.5878
G01 X8.1641 Y-3.5643
G01 X8.2261 Y-3.5438
G01 X8.2890 Y-3.5264
G01 X8.3527 Y-3.5121
G01 X8.4171 Y-3.5009
G01 X8.4818 Y-3.4929
G01 X8.5469 Y-3.4881
G01 X8.6122 Y-3.4865
G01 X8.6775 Y-3.4881
G01 X8.7426 Y-3.4929
G01 X8.8073 Y-3.5009
G01 X8.8717 Y-3.5121
G01 X8.9354 Y-3.5264
G01 X8.9983 Y-3.5438
G01 X9.0603 Y-3.5643
G01 X9.1212 Y-3.5878
G01 X9.1808 Y-3.6142
G01 X9.2391 Y-3.6436
G01 X9.2959 Y-3.6757
G01 X9.3511 Y-3.7107
G01 X9.4045 Y-3.7483
G01 X9.4559 Y-3.7884
G01 X9.5054 Y-3.8311
G01 X9.5526 Y-3.8761
G01 X9.5976 Y-3.9233
G01 X9.6403 Y-3.9728
G01 X9.6804 Y-4.0242
G01 X9.7180 Y-4.0776
G01 X9.7530 Y-4.1328
G01 X9.7851 Y-4.1896
G01 X9.8145 Y-4.2479
G01 X9.8409 Y-4.3075
G01 X9.8644 Y-4.3684
G01 X9.8849 Y-4.4304
G01 X9.9023 Y-4.4933
G01 X9.9166 Y-4.5570
G01 X9.9278 Y-4.6214
G01 X9.9358 Y-4.6861
G01 X9.9406 Y-4.7512
G01 X9.9422 Y-4.8165
G01 X9.9406 Y-4.8818
G01 X9.9358 Y-4.9469
G01 X9.9278 Y-5.0116
G01 X9.9166 Y-5.0760
G01 X9.9023 Y-5.1397
G01 X9.8849 Y-5.2026
G01 X9.8644 Y-5.2646
G01 X9.8409 Y-5.3255
G01 X9.8145 Y-5.3851
G01 X9.7851 Y-5.4434
G01 X9.7530 Y-5.5002
G01 X9.7180 Y-5.5554
G01 X9.6804 Y-5.6088
G01 X9.6403 Y-5.6602
G01 X9.5976 Y-5.7097
G01 X9.5526 Y-5.7569
G01 X9.5054 Y-5.8019
G01 X9.4559 Y-5.8446
G01 X9.4045 Y-5.8847
G01 X9.3811 Y-5.9013
G01 X9.3712 Y-5.9108
G01 X9.3628 Y-5.9227
G01 X9.3574 Y-5.9354
G01 X9.3545 Y-5.9496
G01 X9.3546 Y-5.9642
G01 X9.3569 Y-5.9760
G01 X9.3613 Y-5.9872
G01 X9.3674 Y-5.9975
G01 X9.3747 Y-6.0060
G01 X9.3839 Y-6.0137
G01 X9.3942 Y-6.0198
G01 X9.4055 Y-6.0240
G01 X9.4164 Y-6.0261
G01 X9.9422 Y-6.0265
G01 X9.9422 Y-6.9531
G01 X9.6822 Y-6.9531
G01 X9.6818 Y-6.3488
G01 X9.6792 Y-6.3362
G01 X9.6743 Y-6.3243
G01 X9.6674 Y-6.3134
G01 X9.6586 Y-6.3041
G01 X9.6489 Y-6.2969
G01 X9.6374 Y-6.2912
G01 X9.6250 Y-6.2877
G01 X9.6122 Y-6.2865
G01 X7.6122 Y-6.2865
G01 X7.6019 Y-6.2873
G01 X7.5927 Y-6.2893
G01 X7.5830 Y-6.2929
G01 X7.5733 Y-6.2983
G01 X7.5646 Y-6.3052
G01 X7.5575 Y-6.3128
G01 X7.5517 Y-6.3213
G01 X7.5472 Y-6.3305
G01 X7.5439 Y-6.3412
G01 X7.5424 Y-6.3514
G01 X7.5422 Y-6.9531
G01 X7.2822 Y-6.9531
G01 X7.2822 Y-6.0265
G00 Z2.0000
G00 X7.3522 Y-6.0965
G01 F70.00
G01 Z-0.0600
G01 F120.00
G01 X7.8002 Y-6.0965
G01 X7.8140 Y-6.0958
G01 X7.8276 Y-6.0938
G01 X7.8474 Y-6.0883
G01 X7.8677 Y-6.0791
G01 X7.8850 Y-6.0679
G01 X7.9004 Y-6.0543
G01 X7.9137 Y-6.0385
G01 X7.9245 Y-6.0210
G01 X7.9326 Y-6.0020
G01 X7.9382 Y-5.9804
G01 X7.9399 Y-5.9668
G01 X7.9402 Y-5.9531
G01 X7.9392 Y-5.9394
G01 X7.9365 Y-5.9242
G01 X7.9321 Y-5.9093
G01 X7.9268 Y-5.8966
G01 X7.9203 Y-5.8845
G01 X7.9117 Y-5.8717
G01 X7.9016 Y-5.8600
G01 X7.8904 Y-5.8494
G01 X7.8616 Y-5.8285
G01 X7.8129 Y-5.7905
G01 X7.7661 Y-5.7501
G01 X7.7213 Y-5.7074
G01 X7.6786 Y-5.6626
G01 X7.6382 Y-5.6158
G01 X7.6002 Y-5.5671
G01 X7.5646 Y-5.5165
G01 X7.5315 Y-5.4642
G01 X7.5010 Y-5.4104
G01 X7.4732 Y-5.3552
G01 X7.4482 Y-5.2987
G01 X7.4259 Y-5.2410
G01 X7.4065 Y-5.1822
G01 X7.3900 Y-5.1226
G01 X7.3765 Y-5.0623
G01 X7.3659 Y-5.0014
G01 X7.3583 Y-4.9400
G01 X7.3538 Y-4.8783
G01 X7.3522 Y-4.8165
G01 X7.3538 Y-4.7547
G01 X7.3583 Y-4.6930
G01 X7.3659 Y-4.6316
G01 X7.3765 Y-4.5707
G01 X7.3900 Y-4.5104
G01 X7.4065 Y-4.4508
G01 X7.4259 Y-4.3920
G01 X7.4482 Y-4.3343
G01 X7.4732 Y-4.2778
G01 X7.5010 Y-4.2226
G01 X7.5315 Y-4.1688
G01 X7.5646 Y-4.1165
G01 X7.6002 Y-4.0659
G01 X7.6382 Y-4.0172
G01 X7.6786 Y-3.9704
G01 X7.7213 Y-3.9256
G01 X7.7661 Y-3.8829
G01 X7.8129 Y-3.8425
G01 X7.8616 Y-3.8045
G01 X7.9122 Y-3.7689
G01 X7.9645 Y-3.7358
G01 X8.0183 Y-3.7053
G01 X8.0735 Y-3.6775
G01 X8.1300 Y-3.6525
G01 X8.1877 Y-3.6302
G01 X8.2465 Y-3.6108
G01 X8.3061 Y-3.5943
G01 X8.3664 Y-3.5808
G01 X8.4273 Y-3.5702
G01 X8.4887 Y-3.5626
G01 X8.5504 Y-3.5581
G01 X8.6122 Y-3.5565
G01 X8.6740 Y-3.5581
G01 X8.7357 Y-3.5626
G01 X8.7971 Y-3.5702
G01 X8.8580 Y-3.5808
G01 X8.9183 Y-3.5943
G01 X8.9779 Y-3.6108
G01 X9.0367 Y-3.6302
G01 X9.0944 Y-3.6525
G01 X9.1509 Y-3.6775
G01 X9.2061 Y-3.7053
G01 X9.2599 Y-3.7358
G01 X9.3122 Y-3.7689
G01 X9.3628 Y-3.8045
G01 X9.4115 Y-3.8425
G01 X9.4583 Y-3.8829
G01 X9.5031 Y-3.9256
G01 X9.5458 Y-3.9704
G01 X9.5862 Y-4.0172
G01 X9.6242 Y-4.0659
G01 X9.6598 Y-4.1165
G01 X9.6929 Y-4.1688
G01 X9.7234 Y-4.2226
G01 X9.7512 Y-4.2778
G01 X9.7762 Y-4.3343
G01 X9.7985 Y-4.3920
G01 X9.8179 Y-4.4508
G01 X9.8344 Y-4.5104
G01 X9.8479 Y-4.5707
G01 X9.8585 Y-4.6316
G01 X9.8661 Y-4.6930
G01 X9.8706 Y-4.7547
G01 X9.8722 Y-4.8165
G01 X9.8706 Y-4.8783
G01 X9.8661 Y-4.9400
G01 X9.8585 Y-5.0014
G01 X9.8479 Y-5.0623
G01 X9.8344 Y-5.1226
G01 X9.8179 Y-5.1822
G01 X9.7985 Y-5.2410
G01 X9.7762 Y-5.2987
G01 X9.7512 Y-5.3552
G01 X9.7234 Y-5.4104
G01 X9.6929 Y-5.4642
G01 X9.6598 Y-5.5165
G01 X9.6242 Y-5.5671
G01 X9.5862 Y-5.6158
G01 X9.5458 Y-5.6626
G01 X9.5031 Y-5.7074
G01 X9.4583 Y-5.7501
G01 X9.4115 Y-5.7905
G01 X9.3628 Y-5.8285
G01 X9.3340 Y-5.8494
G01 X9.3240 Y-5.8587
G01 X9.3138 Y-5.8704
G01 X9.3059 Y-5.8816
G01 X9.2991 Y-5.8936
G01 X9.2935 Y-5.9061
G01 X9.2892 Y-5.9192
G01 X9.2862 Y-5.9326
G01 X9.2845 Y-5.9462
G01 X9.2842 Y-5.9599
G01 X9.2852 Y-5.9736
G01 X9.2897 Y-5.9955
G01 X9.2969 Y-6.0148
G01 X9.3078 Y-6.0343
G01 X9.3204 Y-6.0505
G01 X9.3367 Y-6.0658
G01 X9.3552 Y-6.0783
G01 X9.3738 Y-6.0871
G01 X9.3952 Y-6.0935
G01 X9.4087 Y-6.0956
G01 X9.4224 Y-6.0965
G01 X9.8722 Y-6.0965
G01 X9.8722 Y-6.8831
G01 X9.7522 Y-6.8831
G01 X9.7522 Y-6.3565
G01 X9.7513 Y-6.3411
G01 X9.7492 Y-6.3275
G01 X9.7462 Y-6.3159
G01 X9.7422 Y-6.3045
G01 X9.7373 Y-6.2936
G01 X9.7314 Y-6.2831
G01 X9.7246 Y-6.2731
G01 X9.7171 Y-6.2638
G01 X9.7010 Y-6.2483
G01 X9.6914 Y-6.2411
G01 X9.6812 Y-6.2347
G01 X9.6705 Y-6.2292
G01 X9.6594 Y-6.2247
G01 X9.6479 Y-6.2211
G01 X9.6361 Y-6.2186
G01 X9.6242 Y-6.2170
G01 X9.6122 Y-6.2165
G01 X7.6122 Y-6.2165
G01 X7.5917 Y-6.2180
G01 X7.5732 Y-6.2220
G01 X7.5539 Y-6.2292
G01 X7.5359 Y-6.2391
G01 X7.5208 Y-6.2505
G01 X7.5062 Y-6.2651
G01 X7.4948 Y-6.2802
G01 X7.4849 Y-6.2982
G01 X7.4777 Y-6.3175
G01 X7.4737 Y-6.3360
G01 X7.4722 Y-6.3565
G01 X7.4722 Y-6.8831
G01 X7.3522 Y-6.8831
G01 X7.3522 Y-6.0965
G00 Z2.0000
G00 X7.4222 Y-6.2671
G01 F70.00
G01 Z-0.0600
G01 F120.00
G01 X7.4222 Y-6.1665
G01 X7.5228 Y-6.1665
G01 X7.5065 Y-6.1751
G01 X7.4913 Y-6.1848
G01 X7.4770 Y-6.1958
G01 X7.4637 Y-6.2080
G01 X7.4515 Y-6.2213
G01 X7.4405 Y-6.2356
G01 X7.4308 Y-6.2508
G01 X7.4222 Y-6.2671
G00 Z2.0000
G00 X7.8897 Y-6.1465
G01 F70.00
G01 Z-0.0600
G01 F120.00
G01 X7.9082 Y-6.1366
G01 X7.9274 Y-6.1236
G01 X7.9432 Y-6.1104
G01 X7.9593 Y-6.0937
G01 X7.9719 Y-6.0774
G01 X7.9842 Y-6.0578
G01 X7.9933 Y-6.0392
G01 X8.0012 Y-6.0175
G01 X8.0067 Y-5.9949
G01 X8.0095 Y-5.9745
G01 X8.0102 Y-5.9513
G01 X8.0087 Y-5.9308
G01 X8.0051 Y-5.9105
G01 X7.9988 Y-5.8882
G01 X7.9901 Y-5.8667
G01 X7.9801 Y-5.8481
G01 X8.0418 Y-5.8836
G01 X8.0995 Y-5.9125
G01 X8.1492 Y-5.9344
G01 X8.1997 Y-5.9540
G01 X8.2659 Y-5.9758
G01 X8.3182 Y-5.9902
G01 X8.3711 Y-6.0022
G01 X8.4347 Y-6.0134
G01 X8.4987 Y-6.0211
G01 X8.5528 Y-6.0250
G01 X8.6122 Y-6.0265
G01 X8.6716 Y-6.0250
G01 X8.7257 Y-6.0211
G01 X8.7897 Y-6.0134
G01 X8.8533 Y-6.0022
G01 X8.9062 Y-5.9902
G01 X8.9585 Y-5.9758
G01 X9.0247 Y-5.9540
G01 X9.0752 Y-5.9344
G01 X9.1249 Y-5.9125
G01 X9.1826 Y-5.8836
G01 X9.2443 Y-5.8481
G01 X9.2343 Y-5.8667
G01 X9.2256 Y-5.8882
G01 X9.2193 Y-5.9105
G01 X9.2157 Y-5.9308
G01 X9.2142 Y-5.9513
G01 X9.2149 Y-5.9745
G01 X9.2182 Y-5.9975
G01 X9.2232 Y-6.0175
G01 X9.2311 Y-6.0392
G01 X9.2402 Y-6.0578
G01 X9.2510 Y-6.0753
G01 X9.2651 Y-6.0937
G01 X9.2812 Y-6.1104
G01 X9.2970 Y-6.1236
G01 X9.3162 Y-6.1366
G01 X9.3347 Y-6.1465
G01 X7.8897 Y-6.1465
G00 Z2.0000
G00 X8.0532 Y-6.0765
G01 F70.00
G01 Z-0.0600
G01 F120.00
G01 X8.0627 Y-6.0541
G01 X8.0710 Y-6.0279
G01 X8.0761 Y-6.0044
G01 X8.0792 Y-5.9800
G01 X8.1224 Y-5.9991
G01 X8.1745 Y-6.0193
G01 X8.2374 Y-6.0404
G01 X8.3045 Y-6.0590
G01 X8.3591 Y-6.0712
G01 X8.3885 Y-6.0765
G01 X8.0532 Y-6.0765
G00 Z2.0000
G00 X8.8359 Y-6.0765
G01 F70.00
G01 Z-0.0600
G01 F120.00
G01 X8.8653 Y-6.0712
G01 X8.9199 Y-6.0590
G01 X8.9870 Y-6.0404
G01 X9.0499 Y-6.0193
G01 X9.1020 Y-5.9991
G01 X9.1452 Y-5.9800
G01 X9.1483 Y-6.0044
G01 X9.1534 Y-6.0279
G01 X9.1617 Y-6.0541
G01 X9.1712 Y-6.0765
G01 X8.8359 Y-6.0765
G00 Z2.0000
G00 X9.7016 Y-6.1665
G01 F70.00
G01 Z-0.0600
G01 F120.00
G01 X9.8022 Y-6.1665
G01 X9.8022 Y-6.2671
G01 X9.7936 Y-6.2508
G01 X9.7839 Y-6.2356
G01 X9.7729 Y-6.2213
G01 X9.7607 Y-6.2080
G01 X9.7474 Y-6.1958
G01 X9.7331 Y-6.1848
G01 X9.7179 Y-6.1751
G01 X9.7016 Y-6.1665
G00 Z2.0000
G00 X9.6822 Y-4.8148
G01 F70.00
G01 Z-0.0600
G01 F120.00
G01 X9.6809 Y-4.7640
G01 X9.6770 Y-4.7116
G01 X9.6706 Y-4.6595
G01 X9.6616 Y-4.6078
G01 X9.6501 Y-4.5565
G01 X9.6361 Y-4.5059
G01 X9.6197 Y-4.4560
G01 X9.6008 Y-4.4070
G01 X9.5795 Y-4.3590
G01 X9.5559 Y-4.3121
G01 X9.5300 Y-4.2664
G01 X9.5019 Y-4.2220
G01 X9.4716 Y-4.1791
G01 X9.4393 Y-4.1377
G01 X9.4050 Y-4.0979
G01 X9.3688 Y-4.0599
G01 X9.3308 Y-4.0237
G01 X9.2910 Y-3.9894
G01 X9.2496 Y-3.9571
G01 X9.2067 Y-3.9268
G01 X9.1623 Y-3.8987
G01 X9.1166 Y-3.8728
G01 X9.0697 Y-3.8492
G01 X9.0217 Y-3.8279
G01 X8.9727 Y-3.8090
G01 X8.9228 Y-3.7926
G01 X8.8722 Y-3.7786
G01 X8.8209 Y-3.7671
G01 X8.7692 Y-3.7581
G01 X8.7171 Y-3.7517
G01 X8.6647 Y-3.7478
G01 X8.6122 Y-3.7465
G01 X8.5597 Y-3.7478
G01 X8.5073 Y-3.7517
G01 X8.4552 Y-3.7581
G01 X8.4035 Y-3.7671
G01 X8.3522 Y-3.7786
G01 X8.3016 Y-3.7926
G01 X8.2517 Y-3.8090
G01 X8.2027 Y-3.8279
G01 X8.1547 Y-3.8492
G01 X8.1078 Y-3.8728
G01 X8.0621 Y-3.8987
G01 X8.0177 Y-3.9268
G01 X7.9748 Y-3.9571
G01 X7.9334 Y-3.9894
G01 X7.8936 Y-4.0237
G01 X7.8556 Y-4.0599
G01 X7.8194 Y-4.0979
G01 X7.7851 Y-4.1377
G01 X7.7528 Y-4.1791
G01 X7.7225 Y-4.2220
G01 X7.6944 Y-4.2664
G01 X7.6685 Y-4.3121
G01 X7.6449 Y-4.3590
G01 X7.6236 Y-4.4070
G01 X7.6047 Y-4.4560
G01 X7.5883 Y-4.5059
G01 X7.5743 Y-4.5565
G01 X7.5628 Y-4.6078
G01 X7.5538 Y-4.6595
G01 X7.5474 Y-4.7116
G01 X7.5435 Y-4.7640
G01 X7.5422 Y-4.8165
G01 X7.5435 Y-4.8690
G01 X7.5474 Y-4.9214
G01 X7.5538 Y-4.9735
G01 X7.5628 Y-5.0252
G01 X7.5743 Y-5.0765
G01 X7.5883 Y-5.1271
G01 X7.6047 Y-5.1770
G01 X7.6236 Y-5.2260
G01 X7.6449 Y-5.2740
G01 X7.6685 Y-5.3209
G01 X7.6944 Y-5.3666
G01 X7.7225 Y-5.4110
G01 X7.7528 Y-5.4539
G01 X7.7851 Y-5.4953
G01 X7.8194 Y-5.5351
G01 X7.8556 Y-5.5731
G01 X7.8936 Y-5.6093
G01 X7.9334 Y-5.6436
G01 X7.9748 Y-5.6759
G01 X8.0177 Y-5.7062
G01 X8.0621 Y-5.7343
G01 X8.1078 Y-5.7602
G01 X8.1547 Y-5.7838
G01 X8.2027 Y-5.8051
G01 X8.2517 Y-5.8240
G01 X8.3016 Y-5.8404
G01 X8.3522 Y-5.8544
G01 X8.4035 Y-5.8659
G01 X8.4552 Y-5.8749
G01 X8.5073 Y-5.8813
G01 X8.5597 Y-5.8852
G01 X8.6122 Y-5.8865
G01 X8.6647 Y-5.8852
G01 X8.7171 Y-5.8813
G01 X8.7692 Y-5.8749
G01 X8.8209 Y-5.8659
G01 X8.8722 Y-5.8544
G01 X8.9228 Y-5.8404
G01 X8.9727 Y-5.8240
G01 X9.0217 Y-5.8051
G01 X9.0697 Y-5.7838
G01 X9.1166 Y-5.7602
G01 X9.1623 Y-5.7343
G01 X9.2067 Y-5.7062
G01 X9.2496 Y-5.6759
G01 X9.2910 Y-5.6436
G01 X9.3308 Y-5.6093
G01 X9.3688 Y-5.5731
G01 X9.4050 Y-5.5351
G01 X9.4393 Y-5.4953
G01 X9.4716 Y-5.4539
G01 X9.5019 Y-5.4110
G01 X9.5300 Y-5.3666
G01 X9.5559 Y-5.3209
G01 X9.5795 Y-5.2740
G01 X9.6008 Y-5.2260
G01 X9.6197 Y-5.1770
G01 X9.6361 Y-5.1271
G01 X9.6501 Y-5.0765
G01 X9.6616 Y-5.0252
G01 X9.6706 Y-4.9735
G01 X9.6770 Y-4.9214
G01 X9.6809 Y-4.8690
G01 X9.6822 Y-4.8148
G00 Z2.0000
G00 X9.7522 Y-4.8131
G01 F70.00
G01 Z-0.0600
G01 F120.00
G01 X9.7508 Y-4.7606
G01 X9.7467 Y-4.7048
G01 X9.7399 Y-4.6492
G01 X9.7303 Y-4.5941
G01 X9.7180 Y-4.5395
G01 X9.7031 Y-4.4856
G01 X9.6856 Y-4.4324
G01 X9.6654 Y-4.3802
G01 X9.6427 Y-4.3291
G01 X9.6176 Y-4.2791
G01 X9.5900 Y-4.2304
G01 X9.5601 Y-4.1831
G01 X9.5279 Y-4.1374
G01 X9.4934 Y-4.0933
G01 X9.4569 Y-4.0509
G01 X9.4183 Y-4.0104
G01 X9.3778 Y-3.9718
G01 X9.3354 Y-3.9353
G01 X9.2913 Y-3.9008
G01 X9.2456 Y-3.8686
G01 X9.1983 Y-3.8387
G01 X9.1496 Y-3.8111
G01 X9.0996 Y-3.7860
G01 X9.0485 Y-3.7633
G01 X8.9963 Y-3.7431
G01 X8.9431 Y-3.7256
G01 X8.8892 Y-3.7107
G01 X8.8346 Y-3.6984
G01 X8.7795 Y-3.6888
G01 X8.7239 Y-3.6820
G01 X8.6681 Y-3.6779
G01 X8.6122 Y-3.6765
G01 X8.5563 Y-3.6779
G01 X8.5005 Y-3.6820
G01 X8.4449 Y-3.6888
G01 X8.3898 Y-3.6984
G01 X8.3352 Y-3.7107
G01 X8.2813 Y-3.7256
G01 X8.2281 Y-3.7431
G01 X8.1759 Y-3.7633
G01 X8.1248 Y-3.7860
G01 X8.0748 Y-3.8111
G01 X8.0261 Y-3.8387
G01 X7.9788 Y-3.8686
G01 X7.9331 Y-3.9008
G01 X7.8890 Y-3.9353
G01 X7.8466 Y-3.9718
G01 X7.8061 Y-4.0104
G01 X7.7675 Y-4.0509
G01 X7.7310 Y-4.0933
G01 X7.6965 Y-4.1374
G01 X7.6643 Y-4.1831
G01 X7.6344 Y-4.2304
G01 X7.6068 Y-4.2791
G01 X7.5817 Y-4.3291
G01 X7.5590 Y-4.3802
G01 X7.5388 Y-4.4324
G01 X7.5213 Y-4.4856
G01 X7.5064 Y-4.5395
G01 X7.4941 Y-4.5941
G01 X7.4845 Y-4.6492
G01 X7.4777 Y-4.7048
G01 X7.4736 Y-4.7606
G01 X7.4722 Y-4.8165
G01 X7.4736 Y-4.8724
G01 X7.4777 Y-4.9282
G01 X7.4845 Y-4.9838
G01 X7.4941 Y-5.0389
G01 X7.5064 Y-5.0935
G01 X7.5213 Y-5.1474
G01 X7.5388 Y-5.2006
G01 X7.5590 Y-5.2528
G01 X7.5817 Y-5.3039
G01 X7.6068 Y-5.3539
G01 X7.6344 Y-5.4026
G01 X7.6643 Y-5.4499
G01 X7.6965 Y-5.4956
G01 X7.7310 Y-5.5397
G01 X7.7675 Y-5.5821
G01 X7.8061 Y-5.6226
G01 X7.8466 Y-5.6612
G01 X7.8890 Y-5.6977
G01 X7.9331 Y-5.7322
G01 X7.9788 Y-5.7644
G01 X8.0261 Y-5.7943
G01 X8.0748 Y-5.8219
G01 X8.1248 Y-5.8470
G01 X8.1759 Y-5.8697
G01 X8.2281 Y-5.8899
G01 X8.2813 Y-5.9074
G01 X8.3352 Y-5.9223
G01 X8.3898 Y-5.9346
G01 X8.4449 Y-5.9442
G01 X8.5005 Y-5.9510
G01 X8.5563 Y-5.9551
G01 X8.6122 Y-5.9565
G01 X8.6681 Y-5.9551
G01 X8.7239 Y-5.9510
G01 X8.7795 Y-5.9442
G01 X8.8346 Y-5.9346
G01 X8.8892 Y-5.9223
G01 X8.9431 Y-5.9074
G01 X8.9963 Y-5.8899
G01 X9.0485 Y-5.8697
G01 X9.0996 Y-5.8470
G01 X9.1496 Y-5.8219
G01 X9.1983 Y-5.7943
G01 X9.2456 Y-5.7644
G01 X9.2913 Y-5.7322
G01 X9.3354 Y-5.6977
G01 X9.3778 Y-5.6612
G01 X9.4183 Y-5.6226
G01 X9.4569 Y-5.5821
G01 X9.4934 Y-5.5397
G01 X9.5279 Y-5.4956
G01 X9.5601 Y-5.4499
G01 X9.5900 Y-5.4026
G01 X9.6176 Y-5.3539
G01 X9.6427 Y-5.3039
G01 X9.6654 Y-5.2528
G01 X9.6856 Y-5.2006
G01 X9.7031 Y-5.1474
G01 X9.7180 Y-5.0935
G01 X9.7303 Y-5.0389
G01 X9.7399 Y-4.9838
G01 X9.7467 Y-4.9282
G01 X9.7508 Y-4.8724
G01 X9.7522 Y-4.8131
G00 Z2.0000
G00 X8.5456 Y-4.9162
G01 F70.00
G01 Z-0.0600
G01 F120.00
G01 X8.5361 Y-4.9092
G01 X8.5274 Y-4.9013
G01 X8.5195 Y-4.8926
G01 X8.5125 Y-4.8831
G01 X8.5064 Y-4.8730
G01 X8.5014 Y-4.8624
G01 X8.4974 Y-4.8513
G01 X8.4946 Y-4.8399
G01 X8.4929 Y-4.8283
G01 X8.4923 Y-4.8165
G01 X8.4929 Y-4.8047
G01 X8.4946 Y-4.7931
G01 X8.4974 Y-4.7817
G01 X8.5014 Y-4.7706
G01 X8.5064 Y-4.7600
G01 X8.5125 Y-4.7499
G01 X8.5195 Y-4.7404
G01 X8.5274 Y-4.7317
G01 X8.5361 Y-4.7238
G01 X8.5456 Y-4.7168
G01 X8.5557 Y-4.7107
G01 X8.5663 Y-4.7057
G01 X8.5774 Y-4.7017
G01 X8.5888 Y-4.6989
G01 X8.6004 Y-4.6972
G01 X8.6122 Y-4.6966
G01 X8.6240 Y-4.6972
G01 X8.6356 Y-4.6989
G01 X8.6470 Y-4.7017
G01 X8.6581 Y-4.7057
G01 X8.6687 Y-4.7107
G01 X8.6788 Y-4.7168
G01 X8.6883 Y-4.7238
G01 X8.6970 Y-4.7317
G01 X8.7049 Y-4.7404
G01 X8.7119 Y-4.7499
G01 X8.7180 Y-4.7600
G01 X8.7230 Y-4.7706
G01 X8.7270 Y-4.7817
G01 X8.7298 Y-4.7931
G01 X8.7315 Y-4.8047
G01 X8.7321 Y-4.8165
G01 X8.7315 Y-4.8283
G01 X8.7298 Y-4.8399
G01 X8.7270 Y-4.8513
G01 X8.7230 Y-4.8624
G01 X8.7180 Y-4.8730
G01 X8.7119 Y-4.8831
G01 X8.7049 Y-4.8926
G01 X8.6970 Y-4.9013
G01 X8.6883 Y-4.9092
G01 X8.6788 Y-4.9162
G01 X8.6687 Y-4.9223
G01 X8.6581 Y-4.9273
G01 X8.6470 Y-4.9313
G01 X8.6356 Y-4.9341
G01 X8.6240 Y-4.9358
G01 X8.6122 Y-4.9364
G01 X8.6004 Y-4.9358
G01 X8.5888 Y-4.9341
G01 X8.5774 Y-4.9313
G01 X8.5663 Y-4.9273
G01 X8.5557 Y-4.9223
G01 X8.5456 Y-4.9162
G00 Z2.0000
G00 X8.4225 Y-4.8072
G01 F70.00
G01 Z-0.0600
G01 F120.00
G01 X8.4243 Y-4.7886
G01 X8.4280 Y-4.7703
G01 X8.4334 Y-4.7525
G01 X8.4405 Y-4.7353
G01 X8.4493 Y-4.7189
G01 X8.4596 Y-4.7034
G01 X8.4715 Y-4.6889
G01 X8.4846 Y-4.6758
G01 X8.4991 Y-4.6639
G01 X8.5146 Y-4.6536
G01 X8.5310 Y-4.6448
G01 X8.5482 Y-4.6377
G01 X8.5660 Y-4.6323
G01 X8.5843 Y-4.6286
G01 X8.6029 Y-4.6268
G01 X8.6215 Y-4.6268
G01 X8.6401 Y-4.6286
G01 X8.6584 Y-4.6323
G01 X8.6762 Y-4.6377
G01 X8.6934 Y-4.6448
G01 X8.7098 Y-4.6536
G01 X8.7253 Y-4.6639
G01 X8.7398 Y-4.6758
G01 X8.7529 Y-4.6889
G01 X8.7648 Y-4.7034
G01 X8.7751 Y-4.7189
G01 X8.7839 Y-4.7353
G01 X8.7910 Y-4.7525
G01 X8.7964 Y-4.7703
G01 X8.8001 Y-4.7886
G01 X8.8019 Y-4.8072
G01 X8.8019 Y-4.8258
G01 X8.8001 Y-4.8444
G01 X8.7964 Y-4.8627
G01 X8.7910 Y-4.8805
G01 X8.7839 Y-4.8977
G01 X8.7751 Y-4.9141
G01 X8.7648 Y-4.9296
G01 X8.7529 Y-4.9441
G01 X8.7398 Y-4.9572
G01 X8.7253 Y-4.9691
G01 X8.7098 Y-4.9794
G01 X8.6934 Y-4.9882
G01 X8.6762 Y-4.9953
G01 X8.6584 Y-5.0007
G01 X8.6401 Y-5.0044
G01 X8.6215 Y-5.0062
G01 X8.6029 Y-5.0062
G01 X8.5843 Y-5.0044
G01 X8.5660 Y-5.0007
G01 X8.5482 Y-4.9953
G01 X8.5310 Y-4.9882
G01 X8.5146 Y-4.9794
G01 X8.4991 Y-4.9691
G01 X8.4846 Y-4.9572
G01 X8.4715 Y-4.9441
G01 X8.4596 Y-4.9296
G01 X8.4493 Y-4.9141
G01 X8.4405 Y-4.8977
G01 X8.4334 Y-4.8805
G01 X8.4280 Y-4.8627
G01 X8.4243 Y-4.8444
G01 X8.4225 Y-4.8258
G01 X8.4225 Y-4.8072
G00 Z2.0000
G00 X8.3526 Y-4.8037
G01 F70.00
G01 Z-0.0600
G01 F120.00
G01 X8.3551 Y-4.7784
G01 X8.3600 Y-4.7533
G01 X8.3674 Y-4.7289
G01 X8.3772 Y-4.7054
G01 X8.3892 Y-4.6829
G01 X8.4034 Y-4.6616
G01 X8.4196 Y-4.6419
G01 X8.4376 Y-4.6239
G01 X8.4573 Y-4.6077
G01 X8.4786 Y-4.5935
G01 X8.5011 Y-4.5815
G01 X8.5246 Y-4.5717
G01 X8.5490 Y-4.5643
G01 X8.5741 Y-4.5594
G01 X8.5994 Y-4.5569
G01 X8.6250 Y-4.5569
G01 X8.6503 Y-4.5594
G01 X8.6754 Y-4.5643
G01 X8.6998 Y-4.5717
G01 X8.7233 Y-4.5815
G01 X8.7458 Y-4.5935
G01 X8.7671 Y-4.6077
G01 X8.7868 Y-4.6239
G01 X8.8048 Y-4.6419
G01 X8.8210 Y-4.6616
G01 X8.8352 Y-4.6829
G01 X8.8472 Y-4.7054
G01 X8.8570 Y-4.7289
G01 X8.8644 Y-4.7533
G01 X8.8693 Y-4.7784
G01 X8.8718 Y-4.8037
G01 X8.8718 Y-4.8293
G01 X8.8693 Y-4.8546
G01 X8.8644 Y-4.8797
G01 X8.8570 Y-4.9041
G01 X8.8472 Y-4.9276
G01 X8.8352 Y-4.9501
G01 X8.8210 Y-4.9714
G01 X8.8048 Y-4.9911
G01 X8.7868 Y-5.0091
G01 X8.7671 Y-5.0253
G01 X8.7458 Y-5.0395
G01 X8.7233 Y-5.0515
G01 X8.6998 Y-5.0613
G01 X8.6754 Y-5.0687
G01 X8.6503 Y-5.0736
G01 X8.6250 Y-5.0761
G01 X8.5994 Y-5.0761
G01 X8.5741 Y-5.0736
G01 X8.5490 Y-5.0687
G01 X8.5246 Y-5.0613
G01 X8.5011 Y-5.0515
G01 X8.4786 Y-5.0395
G01 X8.4573 Y-5.0253
G01 X8.4376 Y-5.0091
G01 X8.4196 Y-4.9911
G01 X8.4034 Y-4.9714
G01 X8.3892 Y-4.9501
G01 X8.3772 Y-4.9276
G01 X8.3674 Y-4.9041
G01 X8.3600 Y-4.8797
G01 X8.3551 Y-4.8546
G01 X8.3526 Y-4.8293
G01 X8.3526 Y-4.8037
G00 Z2.0000
G00 X8.2826 Y-4.8003
G01 F70.00
G01 Z-0.0600
G01 F120.00
G01 X8.2858 Y-4.7681
G01 X8.2921 Y-4.7363
G01 X8.3015 Y-4.7053
G01 X8.3139 Y-4.6754
G01 X8.3292 Y-4.6469
G01 X8.3472 Y-4.6199
G01 X8.3677 Y-4.5949
G01 X8.3906 Y-4.5720
G01 X8.4156 Y-4.5515
G01 X8.4426 Y-4.5335
G01 X8.4711 Y-4.5182
G01 X8.5010 Y-4.5058
G01 X8.5320 Y-4.4964
G01 X8.5638 Y-4.4901
G01 X8.5960 Y-4.4869
G01 X8.6284 Y-4.4869
G01 X8.6606 Y-4.4901
G01 X8.6924 Y-4.4964
G01 X8.7234 Y-4.5058
G01 X8.7533 Y-4.5182
G01 X8.7818 Y-4.5335
G01 X8.8088 Y-4.5515
G01 X8.8338 Y-4.5720
G01 X8.8567 Y-4.5949
G01 X8.8772 Y-4.6199
G01 X8.8952 Y-4.6469
G01 X8.9105 Y-4.6754
G01 X8.9229 Y-4.7053
G01 X8.9323 Y-4.7363
G01 X8.9386 Y-4.7681
G01 X8.9418 Y-4.8003
G01 X8.9418 Y-4.8327
G01 X8.9386 Y-4.8649
G01 X8.9323 Y-4.8967
G01 X8.9229 Y-4.9277
G01 X8.9105 Y-4.9576
G01 X8.8952 Y-4.9861
G01 X8.8772 Y-5.0131
G01 X8.8567 Y-5.0381
G01 X8.8338 Y-5.0610
G01 X8.8088 Y-5.0815
G01 X8.7818 Y-5.0995
G01 X8.7533 Y-5.1148
G01 X8.7234 Y-5.1272
G01 X8.6924 Y-5.1366
G01 X8.6606 Y-5.1429
G01 X8.6284 Y-5.1461
G01 X8.5960 Y-5.1461
G01 X8.5638 Y-5.1429
G01 X8.5320 Y-5.1366
G01 X8.5010 Y-5.1272
G01 X8.4711 Y-5.1148
G01 X8.4426 Y-5.0995
G01 X8.4156 Y-5.0815
G01 X8.3906 Y-5.0610
G01 X8.3677 Y-5.0381
G01 X8.3472 Y-5.0131
G01 X8.3292 Y-4.9861
G01 X8.3139 Y-4.9576
G01 X8.3015 Y-4.9277
G01 X8.2921 Y-4.8967
G01 X8.2858 Y-4.8649
G01 X8.2826 Y-4.8327
G01 X8.2826 Y-4.8003
G00 Z2.0000
G00 X8.2826 Y-7.3403
G01 F70.00
G01 Z-0.0600
G01 F120.00
G01 X8.2858 Y-7.3081
G01 X8.2921 Y-7.2763
G01 X8.3015 Y-7.2453
G01 X8.3139 Y-7.2154
G01 X8.3292 Y-7.1869
G01 X8.3472 Y-7.1599
G01 X8.3677 Y-7.1349
G01 X8.3906 Y-7.1120
G01 X8.4156 Y-7.0915
G01 X8.4426 Y-7.0735
G01 X8.4711 Y-7.0582
G01 X8.5010 Y-7.0458
G01 X8.5320 Y-7.0364
G01 X8.5638 Y-7.0301
G01 X8.5960 Y-7.0269
G01 X8.6284 Y-7.0269
G01 X8.6606 Y-7.0301
G01 X8.6924 Y-7.0364
G01 X8.7234 Y-7.0458
G01 X8.7533 Y-7.0582
G01 X8.7818 Y-7.0735
G01 X8.8088 Y-7.0915
G01 X8.8338 Y-7.1120
G01 X8.8567 Y-7.1349
G01 X8.8772 Y-7.1599
G01 X8.8952 Y-7.1869
G01 X8.9105 Y-7.2154
G01 X8.9229 Y-7.2453
G01 X8.9323 Y-7.2763
G01 X8.9386 Y-7.3081
G01 X8.9418 Y-7.3403
G01 X8.9418 Y-7.3727
G01 X8.9386 Y-7.4049
G01 X8.9323 Y-7.4367
G01 X8.9229 Y-7.4677
G01 X8.9105 Y-7.4976
G01 X8.8952 Y-7.5261
G01 X8.8772 Y-7.5531
G01 X8.8567 Y-7.5781
G01 X8.8338 Y-7.6010
G01 X8.8088 Y-7.6215
G01 X8.7818 Y-7.6395
G01 X8.7533 Y-7.6548
G01 X8.7234 Y-7.6672
G01 X8.6924 Y-7.6766
G01 X8.6606 Y-7.6829
G01 X8.6284 Y-7.6861
G01 X8.5960 Y-7.6861
G01 X8.5638 Y-7.6829
G01 X8.5320 Y-7.6766
G01 X8.5010 Y-7.6672
G01 X8.4711 Y-7.6548
G01 X8.4426 Y-7.6395
G01 X8.4156 Y-7.6215
G01 X8.3906 Y-7.6010
G01 X8.3677 Y-7.5781
G01 X8.3472 Y-7.5531
G01 X8.3292 Y-7.5261
G01 X8.3139 Y-7.4976
G01 X8.3015 Y-7.4677
G01 X8.2921 Y-7.4367
G01 X8.2858 Y-7.4049
G01 X8.2826 Y-7.3727
G01 X8.2826 Y-7.3403
G00 Z2.0000
G00 X8.3526 Y-7.3437
G01 F70.00
G01 Z-0.0600
G01 F120.00
G01 X8.3551 Y-7.3184
G01 X8.3600 Y-7.2933
G01 X8.3674 Y-7.2689
G01 X8.3772 Y-7.2454
G01 X8.3892 Y-7.2229
G01 X8.4034 Y-7.2016
G01 X8.4196 Y-7.1819
G01 X8.4376 Y-7.1639
G01 X8.4573 Y-7.1477
G01 X8.4786 Y-7.1335
G01 X8.5011 Y-7.1215
G01 X8.5246 Y-7.1117
G01 X8.5490 Y-7.1043
G01 X8.5741 Y-7.0994
G01 X8.5994 Y-7.0969
G01 X8.6250 Y-7.0969
G01 X8.6503 Y-7.0994
G01 X8.6754 Y-7.1043
G01 X8.6998 Y-7.1117
G01 X8.7233 Y-7.1215
G01 X8.7458 Y-7.1335
G01 X8.7671 Y-7.1477
G01 X8.7868 Y-7.1639
G01 X8.8048 Y-7.1819
G01 X8.8210 Y-7.2016
G01 X8.8352 Y-7.2229
G01 X8.8472 Y-7.2454
G01 X8.8570 Y-7.2689
G01 X8.8644 Y-7.2933
G01 X8.8693 Y-7.3184
G01 X8.8718 Y-7.3437
G01 X8.8718 Y-7.3693
G01 X8.8693 Y-7.3946
G01 X8.8644 Y-7.4197
G01 X8.8570 Y-7.4441
G01 X8.8472 Y-7.4676
G01 X8.8352 Y-7.4901
G01 X8.8210 Y-7.5114
G01 X8.8048 Y-7.5311
G01 X8.7868 Y-7.5491
G01 X8.7671 Y-7.5653
G01 X8.7458 Y-7.5795
G01 X8.7233 Y-7.5915
G01 X8.6998 Y-7.6013
G01 X8.6754 Y-7.6087
G01 X8.6503 Y-7.6136
G01 X8.6250 Y-7.6161
G01 X8.5994 Y-7.6161
G01 X8.5741 Y-7.6136
G01 X8.5490 Y-7.6087
G01 X8.5246 Y-7.6013
G01 X8.5011 Y-7.5915
G01 X8.4786 Y-7.5795
G01 X8.4573 Y-7.5653
G01 X8.4376 Y-7.5491
G01 X8.4196 Y-7.5311
G01 X8.4034 Y-7.5114
G01 X8.3892 Y-7.4901
G01 X8.3772 Y-7.4676
G01 X8.3674 Y-7.4441
G01 X8.3600 Y-7.4197
G01 X8.3551 Y-7.3946
G01 X8.3526 Y-7.3693
G01 X8.3526 Y-7.3437
G00 Z2.0000
G00 X8.4225 Y-7.3472
G01 F70.00
G01 Z-0.0600
G01 F120.00
G01 X8.4243 Y-7.3286
G01 X8.4280 Y-7.3103
G01 X8.4334 Y-7.2925
G01 X8.4405 Y-7.2753
G01 X8.4493 Y-7.2589
G01 X8.4596 Y-7.2434
G01 X8.4715 Y-7.2289
G01 X8.4846 Y-7.2158
G01 X8.4991 Y-7.2039
G01 X8.5146 Y-7.1936
G01 X8.5310 Y-7.1848
G01 X8.5482 Y-7.1777
G01 X8.5660 Y-7.1723
G01 X8.5843 Y-7.1686
G01 X8.6029 Y-7.1668
G01 X8.6215 Y-7.1668
G01 X8.6401 Y-7.1686
G01 X8.6584 Y-7.1723
G01 X8.6762 Y-7.1777
G01 X8.6934 Y-7.1848
G01 X8.7098 Y-7.1936
G01 X8.7253 Y-7.2039
G01 X8.7398 Y-7.2158
G01 X8.7529 Y-7.2289
G01 X8.7648 Y-7.2434
G01 X8.7751 Y-7.2589
G01 X8.7839 Y-7.2753
G01 X8.7910 Y-7.2925
G01 X8.7964 Y-7.3103
G01 X8.8001 Y-7.3286
G01 X8.8019 Y-7.3472
G01 X8.8019 Y-7.3658
G01 X8.8001 Y-7.3844
G01 X8.7964 Y-7.4027
G01 X8.7910 Y-7.4205
G01 X8.7839 Y-7.4377
G01 X8.7751 Y-7.4541
G01 X8.7648 Y-7.4696
G01 X8.7529 Y-7.4841
G01 X8.7398 Y-7.4972
G01 X8.7253 Y-7.5091
G01 X8.7098 Y-7.5194
G01 X8.6934 Y-7.5282
G01 X8.6762 Y-7.5353
G01 X8.6584 Y-7.5407
G01 X8.6401 Y-7.5444
G01 X8.6215 Y-7.5462
G01 X8.6029 Y-7.5462
G01 X8.5843 Y-7.5444
G01 X8.5660 Y-7.5407
G01 X8.5482 Y-7.5353
G01 X8.5310 Y-7.5282
G01 X8.5146 Y-7.5194
G01 X8.4991 Y-7.5091
G01 X8.4846 Y-7.4972
G01 X8.4715 Y-7.4841
G01 X8.4596 Y-7.4696
G01 X8.4493 Y-7.4541
G01 X8.4405 Y-7.4377
G01 X8.4334 Y-7.4205
G01 X8.4280 Y-7.4027
G01 X8.4243 Y-7.3844
G01 X8.4225 Y-7.3658
G01 X8.4225 Y-7.3472
G00 Z2.0000
G00 X8.5456 Y-7.4562
G01 F70.00
G01 Z-0.0600
G01 F120.00
G01 X8.5361 Y-7.4492
G01 X8.5274 Y-7.4413
G01 X8.5195 Y-7.4326
G01 X8.5125 Y-7.4231
G01 X8.5064 Y-7.4130
G01 X8.5014 Y-7.4024
G01 X8.4974 Y-7.3913
G01 X8.4946 Y-7.3799
G01 X8.4929 Y-7.3683
G01 X8.4923 Y-7.3565
G01 X8.4929 Y-7.3447
G01 X8.4946 Y-7.3331
G01 X8.4974 Y-7.3217
G01 X8.5014 Y-7.3106
G01 X8.5064 Y-7.3000
G01 X8.5125 Y-7.2899
G01 X8.5195 Y-7.2804
G01 X8.5274 Y-7.2717
G01 X8.5361 Y-7.2638
G01 X8.5456 Y-7.2568
G01 X8.5557 Y-7.2507
G01 X8.5663 Y-7.2457
G01 X8.5774 Y-7.2417
G01 X8.5888 Y-7.2389
G01 X8.6004 Y-7.2372
G01 X8.6122 Y-7.2366
G01 X8.6240 Y-7.2372
G01 X8.6356 Y-7.2389
G01 X8.6470 Y-7.2417
G01 X8.6581 Y-7.2457
G01 X8.6687 Y-7.2507
G01 X8.6788 Y-7.2568
G01 X8.6883 Y-7.2638
G01 X8.6970 Y-7.2717
G01 X8.7049 Y-7.2804
G01 X8.7119 Y-7.2899
G01 X8.7180 Y-7.3000
G01 X8.7230 Y-7.3106
G01 X8.7270 Y-7.3217
G01 X8.7298 Y-7.3331
G01 X8.7315 Y-7.3447
G01 X8.7321 Y-7.3565
G01 X8.7315 Y-7.3683
G01 X8.7298 Y-7.3799
G01 X8.7270 Y-7.3913
G01 X8.7230 Y-7.4024
G01 X8.7180 Y-7.4130
G01 X8.7119 Y-7.4231
G01 X8.7049 Y-7.4326
G01 X8.6970 Y-7.4413
G01 X8.6883 Y-7.4492
G01 X8.6788 Y-7.4562
G01 X8.6687 Y-7.4623
G01 X8.6581 Y-7.4673
G01 X8.6470 Y-7.4713
G01 X8.6356 Y-7.4741
G01 X8.6240 Y-7.4758
G01 X8.6122 Y-7.4764
G01 X8.6004 Y-7.4758
G01 X8.5888 Y-7.4741
G01 X8.5774 Y-7.4713
G01 X8.5663 Y-7.4673
G01 X8.5557 Y-7.4623
G01 X8.5456 Y-7.4562
G00 Z2.0000
G00 X7.3522 Y-7.8298
G01 F70.00
G01 Z-0.0600
G01 F120.00
G01 X7.4722 Y-7.8298
G01 X7.4725 Y-8.3651
G01 X7.4737 Y-8.3770
G01 X7.4764 Y-8.3905
G01 X7.4798 Y-8.4020
G01 X7.4842 Y-8.4132
G01 X7.4904 Y-8.4255
G01 X7.4968 Y-8.4357
G01 X7.5040 Y-8.4453
G01 X7.5132 Y-8.4555
G01 X7.5234 Y-8.4647
G01 X7.5330 Y-8.4719
G01 X7.5447 Y-8.4791
G01 X7.5555 Y-8.4845
G01 X7.5667 Y-8.4889
G01 X7.5782 Y-8.4923
G01 X7.5917 Y-8.4950
G01 X7.6036 Y-8.4962
G01 X8.1388 Y-8.4965
G01 X8.1388 Y-8.6165
G01 X7.3522 Y-8.6165
G01 X7.3522 Y-7.8298
G00 Z2.0000
G00 X7.2822 Y-7.7598
G01 F70.00
G01 Z-0.0600
G01 F120.00
G01 X7.5422 Y-7.7598
G01 X7.5422 Y-8.3591
G01 X7.5439 Y-8.3718
G01 X7.5482 Y-8.3849
G01 X7.5545 Y-8.3961
G01 X7.5627 Y-8.4060
G01 X7.5726 Y-8.4142
G01 X7.5838 Y-8.4205
G01 X7.5960 Y-8.4246
G01 X7.6096 Y-8.4265
G01 X8.2088 Y-8.4265
G01 X8.2088 Y-8.6865
G01 X7.2822 Y-8.6865
G01 X7.2822 Y-7.7598
G00 Z2.0000
G00 X7.4222 Y-8.4459
G01 F70.00
G01 Z-0.0600
G01 F120.00
G01 X7.4308 Y-8.4622
G01 X7.4405 Y-8.4774
G01 X7.4515 Y-8.4917
G01 X7.4637 Y-8.5050
G01 X7.4770 Y-8.5172
G01 X7.4913 Y-8.5282
G01 X7.5065 Y-8.5379
G01 X7.5228 Y-8.5465
G01 X7.4222 Y-8.5465
G01 X7.4222 Y-8.4459
G00 Z2.0000
G00 X7.5230 Y-10.0536
G01 F70.00
G01 Z-0.0600
G01 F120.00
G01 X7.5230 Y-11.5088
G01 X7.5224 Y-11.5122
G01 X7.5199 Y-11.5135
G01 X7.5174 Y-11.5122
G01 X7.5168 Y-11.5088
G01 X7.5168 Y-10.0536
G01 X7.5153 Y-10.0330
G01 X7.5108 Y-10.0129
G01 X7.5041 Y-9.9953
G01 X7.4951 Y-9.9787
G01 X7.4840 Y-9.9634
G01 X7.4721 Y-9.9510
G01 X7.4574 Y-9.9391
G01 X7.4413 Y-9.9293
G01 X7.4240 Y-9.9218
G01 X7.4058 Y-9.9166
G01 X7.3923 Y-9.9144
G01 X7.3785 Y-9.9136
G01 X7.0416 Y-9.9136
G01 X7.0380 Y-9.9128
G01 X7.0370 Y-9.9114
G01 X7.0370 Y-9.9096
G01 X7.0386 Y-9.9078
G01 X7.0416 Y-9.9074
G01 X7.9982 Y-9.9074
G01 X8.0012 Y-9.9078
G01 X8.0028 Y-9.9096
G01 X8.0028 Y-9.9114
G01 X8.0018 Y-9.9128
G01 X7.9982 Y-9.9136
G01 X7.6595 Y-9.9136
G01 X7.6407 Y-9.9153
G01 X7.6223 Y-9.9196
G01 X7.6016 Y-9.9278
G01 X7.5824 Y-9.9391
G01 X7.5652 Y-9.9534
G01 X7.5505 Y-9.9702
G01 X7.5387 Y-9.9891
G01 X7.5300 Y-10.0097
G01 X7.5247 Y-10.0313
G01 X7.5230 Y-10.0536
G00 Z2.0000
G00 X7.5930 Y-10.0536
G01 F70.00
G01 Z-0.0600
G01 F120.00
G01 X7.5929 Y-11.5141
G01 X7.5908 Y-11.5282
G01 X7.5859 Y-11.5417
G01 X7.5786 Y-11.5540
G01 X7.5690 Y-11.5646
G01 X7.5575 Y-11.5732
G01 X7.5445 Y-11.5793
G01 X7.5306 Y-11.5828
G01 X7.5163 Y-11.5835
G01 X7.5056 Y-11.5821
G01 X7.4919 Y-11.5780
G01 X7.4793 Y-11.5712
G01 X7.4682 Y-11.5622
G01 X7.4592 Y-11.5511
G01 X7.4524 Y-11.5385
G01 X7.4483 Y-11.5248
G01 X7.4469 Y-11.5141
G01 X7.4468 Y-10.0536
G01 X7.4459 Y-10.0425
G01 X7.4433 Y-10.0316
G01 X7.4394 Y-10.0221
G01 X7.4345 Y-10.0140
G01 X7.4281 Y-10.0059
G01 X7.4212 Y-9.9995
G01 X7.4128 Y-9.9935
G01 X7.4044 Y-9.9892
G01 X7.3947 Y-9.9859
G01 X7.3854 Y-9.9841
G01 X7.3768 Y-9.9836
G01 X7.0408 Y-9.9836
G01 X7.0292 Y-9.9828
G01 X7.0187 Y-9.9804
G01 X7.0087 Y-9.9765
G01 X6.9964 Y-9.9692
G01 X6.9858 Y-9.9596
G01 X6.9772 Y-9.9481
G01 X6.9711 Y-9.9351
G01 X6.9676 Y-9.9212
G01 X6.9669 Y-9.9069
G01 X6.9690 Y-9.8928
G01 X6.9724 Y-9.8825
G01 X6.9792 Y-9.8699
G01 X6.9882 Y-9.8588
G01 X6.9964 Y-9.8518
G01 X7.0087 Y-9.8445
G01 X7.0187 Y-9.8406
G01 X7.0292 Y-9.8382
G01 X7.0408 Y-9.8374
G01 X8.0035 Y-9.8375
G01 X8.0142 Y-9.8389
G01 X8.0245 Y-9.8417
G01 X8.0343 Y-9.8461
G01 X8.0434 Y-9.8518
G01 X8.0516 Y-9.8588
G01 X8.0586 Y-9.8670
G01 X8.0643 Y-9.8761
G01 X8.0687 Y-9.8859
G01 X8.0722 Y-9.8998
G01 X8.0729 Y-9.9141
G01 X8.0708 Y-9.9282
G01 X8.0659 Y-9.9417
G01 X8.0586 Y-9.9540
G01 X8.0490 Y-9.9646
G01 X8.0375 Y-9.9732
G01 X8.0245 Y-9.9793
G01 X8.0106 Y-9.9828
G01 X7.9990 Y-9.9836
G01 X7.6630 Y-9.9836
G01 X7.6510 Y-9.9846
G01 X7.6394 Y-9.9877
G01 X7.6277 Y-9.9931
G01 X7.6179 Y-10.0000
G01 X7.6094 Y-10.0085
G01 X7.6021 Y-10.0191
G01 X7.5971 Y-10.0300
G01 X7.5940 Y-10.0416
G01 X7.5930 Y-10.0536
G00 Z2.0000
G00 X6.3722 Y-11.2010
G01 F70.00
G01 Z-0.0600
G01 F120.00
G01 X6.3929 Y-11.1963
G01 X6.4130 Y-11.1897
G01 X6.4130 Y-11.2689
G01 X6.3722 Y-11.2010
G00 Z2.0000
G00 X5.5868 Y-10.2313
G01 F70.00
G01 Z-0.0600
G01 F120.00
G01 X5.5868 Y-10.1521
G01 X5.6276 Y-10.2200
G01 X5.6069 Y-10.2247
G01 X5.5868 Y-10.2313
G00 Z2.0000
G00 X5.5168 Y-9.9122
G01 F70.00
G01 Z-0.0600
G01 F120.00
G01 X5.5172 Y-9.9092
G01 X5.5190 Y-9.9076
G01 X5.5216 Y-9.9080
G01 X5.5234 Y-9.9104
G01 X6.2205 Y-11.0718
G01 X6.2309 Y-11.0855
G01 X6.2429 Y-11.0977
G01 X6.2563 Y-11.1085
G01 X6.2709 Y-11.1175
G01 X6.2865 Y-11.1246
G01 X6.3029 Y-11.1298
G01 X6.3197 Y-11.1329
G01 X6.3369 Y-11.1340
G01 X6.3489 Y-11.1334
G01 X6.3625 Y-11.1316
G01 X6.3759 Y-11.1284
G01 X6.3872 Y-11.1246
G01 X6.3983 Y-11.1198
G01 X6.4088 Y-11.1140
G01 X6.4189 Y-11.1074
G01 X6.4296 Y-11.0988
G01 X6.4394 Y-11.0892
G01 X6.4472 Y-11.0801
G01 X6.4542 Y-11.0703
G01 X6.4611 Y-11.0584
G01 X6.4668 Y-11.0459
G01 X6.4708 Y-11.0346
G01 X6.4738 Y-11.0230
G01 X6.4758 Y-11.0111
G01 X6.4768 Y-10.9940
G01 X6.4768 Y-9.9122
G01 X6.4770 Y-9.9095
G01 X6.4783 Y-9.9079
G01 X6.4806 Y-9.9076
G01 X6.4825 Y-9.9089
G01 X6.4830 Y-11.5088
G01 X6.4828 Y-11.5115
G01 X6.4815 Y-11.5131
G01 X6.4786 Y-11.5132
G01 X6.4764 Y-11.5106
G01 X5.7793 Y-10.3492
G01 X5.7689 Y-10.3355
G01 X5.7569 Y-10.3233
G01 X5.7435 Y-10.3125
G01 X5.7289 Y-10.3035
G01 X5.7133 Y-10.2964
G01 X5.6969 Y-10.2912
G01 X5.6801 Y-10.2881
G01 X5.6629 Y-10.2870
G01 X5.6509 Y-10.2876
G01 X5.6373 Y-10.2894
G01 X5.6239 Y-10.2926
G01 X5.6126 Y-10.2964
G01 X5.6015 Y-10.3012
G01 X5.5910 Y-10.3070
G01 X5.5809 Y-10.3136
G01 X5.5702 Y-10.3222
G01 X5.5604 Y-10.3318
G01 X5.5526 Y-10.3409
G01 X5.5456 Y-10.3507
G01 X5.5387 Y-10.3626
G01 X5.5330 Y-10.3751
G01 X5.5290 Y-10.3864
G01 X5.5260 Y-10.3980
G01 X5.5240 Y-10.4099
G01 X5.5230 Y-10.4270
G01 X5.5230 Y-11.5088
G01 X5.5228 Y-11.5115
G01 X5.5215 Y-11.5131
G01 X5.5192 Y-11.5134
G01 X5.5173 Y-11.5121
G01 X5.5168 Y-9.9122
G00 Z2.0000
G00 X5.4468 Y-9.9114
G01 F70.00
G01 Z-0.0600
G01 F120.00
G01 X5.4476 Y-9.8998
G01 X5.4500 Y-9.8893
G01 X5.4539 Y-9.8793
G01 X5.4592 Y-9.8699
G01 X5.4658 Y-9.8614
G01 X5.4764 Y-9.8518
G01 X5.4855 Y-9.8461
G01 X5.4953 Y-9.8417
G01 X5.5056 Y-9.8389
G01 X5.5199 Y-9.8374
G01 X5.5306 Y-9.8382
G01 X5.5411 Y-9.8406
G01 X5.5511 Y-9.8445
G01 X5.5605 Y-9.8497
G01 X5.5715 Y-9.8588
G01 X5.5786 Y-9.8670
G01 X6.2777 Y-11.0314
G01 X6.2833 Y-11.0391
G01 X6.2892 Y-11.0453
G01 X6.2965 Y-11.0512
G01 X6.3039 Y-11.0557
G01 X6.3117 Y-11.0593
G01 X6.3207 Y-11.0621
G01 X6.3300 Y-11.0636
G01 X6.3394 Y-11.0639
G01 X6.3522 Y-11.0623
G01 X6.3644 Y-11.0583
G01 X6.3757 Y-11.0522
G01 X6.3857 Y-11.0441
G01 X6.3941 Y-11.0343
G01 X6.4005 Y-11.0231
G01 X6.4047 Y-11.0110
G01 X6.4067 Y-10.9983
G01 X6.4068 Y-9.9114
G01 X6.4076 Y-9.8998
G01 X6.4100 Y-9.8893
G01 X6.4139 Y-9.8793
G01 X6.4192 Y-9.8699
G01 X6.4258 Y-9.8614
G01 X6.4336 Y-9.8540
G01 X6.4423 Y-9.8478
G01 X6.4519 Y-9.8430
G01 X6.4656 Y-9.8389
G01 X6.4763 Y-9.8375
G01 X6.4871 Y-9.8378
G01 X6.4976 Y-9.8396
G01 X6.5079 Y-9.8430
G01 X6.5175 Y-9.8478
G01 X6.5262 Y-9.8540
G01 X6.5340 Y-9.8614
G01 X6.5406 Y-9.8699
G01 X6.5459 Y-9.8793
G01 X6.5498 Y-9.8893
G01 X6.5522 Y-9.8998
G01 X6.5530 Y-9.9114
G01 X6.5530 Y-11.5096
G01 X6.5526 Y-11.5177
G01 X6.5508 Y-11.5282
G01 X6.5474 Y-11.5385
G01 X6.5443 Y-11.5449
G01 X6.5386 Y-11.5540
G01 X6.5340 Y-11.5596
G01 X6.5263 Y-11.5670
G01 X6.5205 Y-11.5712
G01 X6.5079 Y-11.5780
G01 X6.4942 Y-11.5821
G01 X6.4799 Y-11.5836
G01 X6.4657 Y-11.5822
G01 X6.4520 Y-11.5780
G01 X6.4393 Y-11.5713
G01 X6.4283 Y-11.5622
G01 X6.4192 Y-11.5511
G01 X5.7221 Y-10.3896
G01 X5.7171 Y-10.3826
G01 X5.7112 Y-10.3763
G01 X5.7046 Y-10.3708
G01 X5.6975 Y-10.3661
G01 X5.6897 Y-10.3624
G01 X5.6816 Y-10.3596
G01 X5.6732 Y-10.3578
G01 X5.6647 Y-10.3571
G01 X5.6510 Y-10.3581
G01 X5.6386 Y-10.3614
G01 X5.6270 Y-10.3670
G01 X5.6160 Y-10.3752
G01 X5.6073 Y-10.3847
G01 X5.6001 Y-10.3963
G01 X5.5953 Y-10.4092
G01 X5.5931 Y-10.4227
G01 X5.5930 Y-11.5096
G01 X5.5922 Y-11.5212
G01 X5.5898 Y-11.5317
G01 X5.5859 Y-11.5417
G01 X5.5806 Y-11.5511
G01 X5.5740 Y-11.5596
G01 X5.5662 Y-11.5670
G01 X5.5575 Y-11.5732
G01 X5.5479 Y-11.5780
G01 X5.5342 Y-11.5821
G01 X5.5235 Y-11.5835
G01 X5.5127 Y-11.5832
G01 X5.5022 Y-11.5814
G01 X5.4919 Y-11.5780
G01 X5.4823 Y-11.5732
G01 X5.4736 Y-11.5670
G01 X5.4658 Y-11.5596
G01 X5.4592 Y-11.5511
G01 X5.4539 Y-11.5417
G01 X5.4500 Y-11.5317
G01 X5.4476 Y-11.5212
G01 X5.4468 Y-11.5096
G01 X5.4468 Y-9.9114
G00 Z2.0000
G00 X4.3625 Y-10.1080
G01 F70.00
G01 Z-0.0600
G01 F120.00
G01 X4.3573 Y-10.1080
G01 X4.3599 Y-10.1011
G01 X4.3625 Y-10.1080
G00 Z2.0000
G00 X4.1914 Y-10.8374
G01 F70.00
G01 Z-0.0600
G01 F120.00
G01 X4.5284 Y-10.8374
G01 X4.5370 Y-10.8369
G01 X4.5471 Y-10.8349
G01 X4.5561 Y-10.8317
G01 X4.5645 Y-10.8274
G01 X4.5729 Y-10.8215
G01 X4.5804 Y-10.8144
G01 X4.5862 Y-10.8069
G01 X4.5910 Y-10.7988
G01 X4.5950 Y-10.7893
G01 X4.5976 Y-10.7784
G01 X4.5984 Y-10.7664
G01 X4.5974 Y-10.7553
G01 X4.5946 Y-10.7445
G01 X4.4248 Y-10.2918
G01 X4.4175 Y-10.2782
G01 X4.4081 Y-10.2672
G01 X4.3958 Y-10.2579
G01 X4.3818 Y-10.2515
G01 X4.3693 Y-10.2486
G01 X4.3573 Y-10.2480
G01 X4.3454 Y-10.2495
G01 X4.3340 Y-10.2529
G01 X4.3225 Y-10.2588
G01 X4.3130 Y-10.2660
G01 X4.3048 Y-10.2748
G01 X4.2978 Y-10.2856
G01 X4.2944 Y-10.2934
G01 X4.1247 Y-10.7461
G01 X4.1216 Y-10.7621
G01 X4.1222 Y-10.7784
G01 X4.1266 Y-10.7941
G01 X4.1346 Y-10.8084
G01 X4.1456 Y-10.8204
G01 X4.1591 Y-10.8295
G01 X4.1669 Y-10.8330
G01 X4.1752 Y-10.8355
G01 X4.1914 Y-10.8374
G00 Z2.0000
G00 X4.1914 Y-10.9074
G01 F70.00
G01 Z-0.0600
G01 F120.00
G01 X4.5302 Y-10.9074
G01 X4.5439 Y-10.9066
G01 X4.5575 Y-10.9044
G01 X4.5757 Y-10.8992
G01 X4.5930 Y-10.8917
G01 X4.6092 Y-10.8818
G01 X4.6238 Y-10.8699
G01 X4.6368 Y-10.8561
G01 X4.6477 Y-10.8407
G01 X4.6565 Y-10.8239
G01 X4.6630 Y-10.8062
G01 X4.6672 Y-10.7860
G01 X4.6684 Y-10.7654
G01 X4.6666 Y-10.7448
G01 X4.6618 Y-10.7248
G01 X4.4891 Y-10.2640
G01 X4.4824 Y-10.2502
G01 X4.4742 Y-10.2371
G01 X4.4634 Y-10.2237
G01 X4.4525 Y-10.2129
G01 X4.4403 Y-10.2034
G01 X4.4273 Y-10.1952
G01 X4.4134 Y-10.1886
G01 X4.3988 Y-10.1835
G01 X4.3770 Y-10.1790
G01 X4.3650 Y-10.1781
G01 X4.3530 Y-10.1781
G01 X4.3310 Y-10.1810
G01 X4.3096 Y-10.1873
G01 X4.2986 Y-10.1921
G01 X4.2881 Y-10.1978
G01 X4.2699 Y-10.2107
G01 X4.2541 Y-10.2263
G01 X4.2409 Y-10.2442
G01 X4.2342 Y-10.2562
G01 X4.2288 Y-10.2688
G01 X4.0570 Y-10.7281
G01 X4.0535 Y-10.7431
G01 X4.0516 Y-10.7585
G01 X4.0516 Y-10.7757
G01 X4.0534 Y-10.7911
G01 X4.0573 Y-10.8078
G01 X4.0626 Y-10.8224
G01 X4.0694 Y-10.8362
G01 X4.0788 Y-10.8507
G01 X4.0887 Y-10.8626
G01 X4.1011 Y-10.8745
G01 X4.1135 Y-10.8838
G01 X4.1283 Y-10.8924
G01 X4.1425 Y-10.8986
G01 X4.1590 Y-10.9036
G01 X4.1759 Y-10.9066
G01 X4.1914 Y-10.9074
G00 Z2.0000
G00 X4.6358 Y-10.9136
G01 F70.00
G01 Z-0.0600
G01 F120.00
G01 X4.0789 Y-10.9137
G01 X4.0585 Y-10.9159
G01 X4.0402 Y-10.9206
G01 X4.0212 Y-10.9285
G01 X4.0050 Y-10.9380
G01 X3.9889 Y-10.9508
G01 X3.9760 Y-10.9645
G01 X3.9641 Y-10.9813
G01 X3.9555 Y-10.9981
G01 X3.7634 Y-11.5100
G01 X3.7623 Y-11.5123
G01 X3.7609 Y-11.5134
G01 X3.7590 Y-11.5134
G01 X3.7574 Y-11.5121
G01 X3.7569 Y-11.5103
G01 X3.7576 Y-11.5078
G01 X4.3564 Y-9.9110
G01 X4.3575 Y-9.9087
G01 X4.3591 Y-9.9076
G01 X4.3618 Y-9.9081
G01 X4.3634 Y-9.9110
G01 X4.9622 Y-11.5078
G01 X4.9629 Y-11.5109
G01 X4.9614 Y-11.5131
G01 X4.9583 Y-11.5130
G01 X4.9564 Y-11.5100
G01 X4.7668 Y-11.0044
G01 X4.7591 Y-10.9873
G01 X4.7490 Y-10.9713
G01 X4.7370 Y-10.9568
G01 X4.7231 Y-10.9441
G01 X4.7076 Y-10.9334
G01 X4.6908 Y-10.9248
G01 X4.6730 Y-10.9186
G01 X4.6545 Y-10.9148
G01 X4.6358 Y-10.9136
G00 Z2.0000
G00 X4.6358 Y-10.9836
G01 F70.00
G01 Z-0.0600
G01 F120.00
G01 X4.0832 Y-10.9836
G01 X4.0738 Y-10.9843
G01 X4.0654 Y-10.9861
G01 X4.0565 Y-10.9892
G01 X4.0481 Y-10.9935
G01 X4.0391 Y-10.9999
G01 X4.0311 Y-11.0077
G01 X4.0241 Y-11.0174
G01 X4.0191 Y-11.0274
G01 X3.8286 Y-11.5354
G01 X3.8220 Y-11.5490
G01 X3.8157 Y-11.5577
G01 X3.8108 Y-11.5629
G01 X3.8025 Y-11.5698
G01 X3.7965 Y-11.5737
G01 X3.7868 Y-11.5784
G01 X3.7766 Y-11.5816
G01 X3.7695 Y-11.5829
G01 X3.7588 Y-11.5835
G01 X3.7481 Y-11.5826
G01 X3.7376 Y-11.5801
G01 X3.7309 Y-11.5776
G01 X3.7214 Y-11.5726
G01 X3.7127 Y-11.5663
G01 X3.7075 Y-11.5614
G01 X3.7006 Y-11.5531
G01 X3.6967 Y-11.5471
G01 X3.6908 Y-11.5341
G01 X3.6888 Y-11.5272
G01 X3.6871 Y-11.5166
G01 X3.6869 Y-11.5094
G01 X3.6878 Y-11.4987
G01 X3.6918 Y-11.4840
G01 X4.2912 Y-9.8857
G01 X4.2979 Y-9.8719
G01 X4.3043 Y-9.8632
G01 X4.3092 Y-9.8579
G01 X4.3176 Y-9.8510
G01 X4.3236 Y-9.8471
G01 X4.3301 Y-9.8438
G01 X4.3403 Y-9.8401
G01 X4.3509 Y-9.8380
G01 X4.3653 Y-9.8377
G01 X4.3795 Y-9.8401
G01 X4.3930 Y-9.8454
G01 X4.4051 Y-9.8531
G01 X4.4155 Y-9.8632
G01 X4.4238 Y-9.8750
G01 X4.4286 Y-9.8857
G01 X5.0295 Y-11.4882
G01 X5.0320 Y-11.4987
G01 X5.0329 Y-11.5094
G01 X5.0318 Y-11.5237
G01 X5.0290 Y-11.5341
G01 X5.0231 Y-11.5471
G01 X5.0171 Y-11.5560
G01 X5.0071 Y-11.5663
G01 X4.9984 Y-11.5726
G01 X4.9855 Y-11.5789
G01 X4.9717 Y-11.5826
G01 X4.9574 Y-11.5835
G01 X4.9432 Y-11.5816
G01 X4.9297 Y-11.5770
G01 X4.9173 Y-11.5698
G01 X4.9065 Y-11.5604
G01 X4.8978 Y-11.5490
G01 X4.8912 Y-11.5354
G01 X4.6993 Y-11.0242
G01 X4.6948 Y-11.0160
G01 X4.6887 Y-11.0077
G01 X4.6814 Y-11.0005
G01 X4.6738 Y-10.9948
G01 X4.6648 Y-10.9899
G01 X4.6560 Y-10.9866
G01 X4.6460 Y-10.9843
G01 X4.6358 Y-10.9836
G00 Z2.0000
G00 X4.5583 Y-13.3548
G01 F70.00
G01 Z-0.0600
G01 F120.00
G01 X4.5585 Y-13.3521
G01 X4.5600 Y-13.3504
G01 X4.5623 Y-13.3502
G01 X4.5641 Y-13.3517
G01 X4.5645 Y-14.0716
G01 X4.5650 Y-14.0836
G01 X4.5665 Y-14.0955
G01 X4.5695 Y-14.1088
G01 X4.5732 Y-14.1202
G01 X4.5779 Y-14.1313
G01 X4.5834 Y-14.1419
G01 X4.5909 Y-14.1534
G01 X4.5983 Y-14.1628
G01 X4.6065 Y-14.1716
G01 X4.6154 Y-14.1796
G01 X4.6250 Y-14.1868
G01 X4.6352 Y-14.1932
G01 X4.6458 Y-14.1987
G01 X4.6569 Y-14.2033
G01 X4.6684 Y-14.2068
G01 X4.6801 Y-14.2094
G01 X4.6920 Y-14.2110
G01 X4.7057 Y-14.2116
G01 X4.7193 Y-14.2108
G01 X4.7329 Y-14.2087
G01 X4.7462 Y-14.2052
G01 X4.7590 Y-14.2005
G01 X4.7714 Y-14.1946
G01 X4.7831 Y-14.1874
G01 X4.7953 Y-14.1781
G01 X4.8053 Y-14.1687
G01 X5.5180 Y-13.3524
G01 X5.5209 Y-13.3501
G01 X5.5226 Y-13.3503
G01 X5.5240 Y-13.3515
G01 X5.5243 Y-13.3539
G01 X5.5226 Y-13.3564
G01 X4.9512 Y-14.0113
G01 X4.9440 Y-14.0209
G01 X4.9377 Y-14.0312
G01 X4.9323 Y-14.0419
G01 X4.9279 Y-14.0531
G01 X4.9244 Y-14.0646
G01 X4.9219 Y-14.0763
G01 X4.9200 Y-14.0985
G01 X4.9214 Y-14.1191
G01 X4.9262 Y-14.1408
G01 X4.9345 Y-14.1615
G01 X4.9459 Y-14.1806
G01 X5.5228 Y-14.9499
G01 X5.5244 Y-14.9531
G01 X5.5230 Y-14.9557
G01 X5.5203 Y-14.9559
G01 X5.5179 Y-14.9536
G01 X4.9742 Y-14.2291
G01 X4.9636 Y-14.2179
G01 X4.9531 Y-14.2090
G01 X4.9404 Y-14.2002
G01 X4.9267 Y-14.1929
G01 X4.9124 Y-14.1872
G01 X4.8992 Y-14.1834
G01 X4.8839 Y-14.1808
G01 X4.8685 Y-14.1798
G01 X4.8548 Y-14.1804
G01 X4.8411 Y-14.1824
G01 X4.8278 Y-14.1856
G01 X4.8164 Y-14.1895
G01 X4.8039 Y-14.1952
G01 X4.7934 Y-14.2011
G01 X4.7821 Y-14.2090
G01 X4.7717 Y-14.2179
G01 X4.7621 Y-14.2278
G01 X4.5967 Y-14.4173
G01 X4.5847 Y-14.4343
G01 X4.5746 Y-14.4544
G01 X4.5706 Y-14.4658
G01 X4.5676 Y-14.4775
G01 X4.5655 Y-14.4895
G01 X4.5646 Y-14.5016
G01 X4.5645 Y-14.9514
G01 X4.5643 Y-14.9541
G01 X4.5630 Y-14.9557
G01 X4.5607 Y-14.9560
G01 X4.5588 Y-14.9547
G01 X4.5583 Y-13.3548
G00 Z2.0000
G00 X4.4883 Y-13.3540
G01 F70.00
G01 Z-0.0600
G01 F120.00
G01 X4.4891 Y-13.3424
G01 X4.4926 Y-13.3285
G01 X4.4987 Y-13.3155
G01 X4.5049 Y-13.3068
G01 X4.5123 Y-13.2990
G01 X4.5238 Y-13.2904
G01 X4.5368 Y-13.2843
G01 X4.5507 Y-13.2808
G01 X4.5614 Y-13.2800
G01 X4.5757 Y-13.2815
G01 X4.5894 Y-13.2856
G01 X4.6020 Y-13.2924
G01 X4.6131 Y-13.3014
G01 X4.6201 Y-13.3096
G01 X4.6274 Y-13.3219
G01 X4.6313 Y-13.3319
G01 X4.6337 Y-13.3424
G01 X4.6345 Y-13.3540
G01 X4.6348 Y-14.0784
G01 X4.6375 Y-14.0918
G01 X4.6423 Y-14.1037
G01 X4.6492 Y-14.1146
G01 X4.6586 Y-14.1245
G01 X4.6691 Y-14.1320
G01 X4.6807 Y-14.1374
G01 X4.6931 Y-14.1406
G01 X4.7068 Y-14.1415
G01 X4.7204 Y-14.1398
G01 X4.7333 Y-14.1354
G01 X4.7459 Y-14.1280
G01 X4.7561 Y-14.1189
G01 X5.4713 Y-13.2999
G01 X5.4768 Y-13.2953
G01 X5.4858 Y-13.2893
G01 X5.4989 Y-13.2836
G01 X5.5129 Y-13.2805
G01 X5.5236 Y-13.2801
G01 X5.5308 Y-13.2807
G01 X5.5447 Y-13.2839
G01 X5.5546 Y-13.2880
G01 X5.5608 Y-13.2916
G01 X5.5721 Y-13.3005
G01 X5.5792 Y-13.3085
G01 X5.5833 Y-13.3144
G01 X5.5884 Y-13.3239
G01 X5.5919 Y-13.3340
G01 X5.5940 Y-13.3446
G01 X5.5942 Y-13.3589
G01 X5.5926 Y-13.3695
G01 X5.5894 Y-13.3798
G01 X5.5848 Y-13.3895
G01 X5.5787 Y-13.3984
G01 X5.0061 Y-14.0547
G01 X4.9993 Y-14.0645
G01 X4.9942 Y-14.0754
G01 X4.9911 Y-14.0870
G01 X4.9900 Y-14.0990
G01 X4.9908 Y-14.1101
G01 X4.9934 Y-14.1209
G01 X4.9976 Y-14.1312
G01 X5.0035 Y-14.1407
G01 X5.5839 Y-14.9152
G01 X5.5887 Y-14.9248
G01 X5.5930 Y-14.9385
G01 X5.5944 Y-14.9527
G01 X5.5931 Y-14.9670
G01 X5.5890 Y-14.9807
G01 X5.5824 Y-14.9934
G01 X5.5733 Y-15.0045
G01 X5.5623 Y-15.0136
G01 X5.5530 Y-15.0190
G01 X5.5395 Y-15.0239
G01 X5.5254 Y-15.0260
G01 X5.5146 Y-15.0258
G01 X5.5006 Y-15.0231
G01 X5.4873 Y-15.0177
G01 X5.4754 Y-15.0098
G01 X5.4675 Y-15.0024
G01 X4.9226 Y-14.2765
G01 X4.9117 Y-14.2655
G01 X4.8987 Y-14.2571
G01 X4.8842 Y-14.2518
G01 X4.8689 Y-14.2498
G01 X4.8544 Y-14.2511
G01 X4.8412 Y-14.2550
G01 X4.8291 Y-14.2614
G01 X4.8178 Y-14.2707
G01 X4.6506 Y-14.4620
G01 X4.6433 Y-14.4727
G01 X4.6381 Y-14.4846
G01 X4.6354 Y-14.4955
G01 X4.6345 Y-14.5059
G01 X4.6345 Y-14.9522
G01 X4.6330 Y-14.9674
G01 X4.6313 Y-14.9743
G01 X4.6274 Y-14.9843
G01 X4.6221 Y-14.9937
G01 X4.6179 Y-14.9994
G01 X4.6105 Y-15.0072
G01 X4.6020 Y-15.0138
G01 X4.5926 Y-15.0191
G01 X4.5860 Y-15.0219
G01 X4.5757 Y-15.0247
G01 X4.5686 Y-15.0258
G01 X4.5614 Y-15.0262
G01 X4.5507 Y-15.0254
G01 X4.5402 Y-15.0230
G01 X4.5302 Y-15.0191
G01 X4.5208 Y-15.0138
G01 X4.5151 Y-15.0096
G01 X4.5073 Y-15.0022
G01 X4.5007 Y-14.9937
G01 X4.4954 Y-14.9843
G01 X4.4915 Y-14.9743
G01 X4.4891 Y-14.9638
G01 X4.4883 Y-14.9522
G01 X4.4883 Y-13.3540
G00 Z2.0000
G00 X4.6283 Y-14.2746
G01 F70.00
G01 Z-0.0600
G01 F120.00
G01 X4.6283 Y-14.2673
G01 X4.6332 Y-14.2691
G01 X4.6283 Y-14.2746
G00 Z2.0000
G00 X6.6042 Y-14.5143
G01 F70.00
G01 Z-0.0600
G01 F120.00
G01 X6.4521 Y-14.4890
G01 X6.4393 Y-14.4882
G01 X6.4299 Y-14.4891
G01 X6.2761 Y-14.5148
G01 X6.2630 Y-14.5188
G01 X6.2503 Y-14.5257
G01 X6.2393 Y-14.5352
G01 X6.2305 Y-14.5466
G01 X6.1729 Y-14.6428
G01 X6.1685 Y-14.6522
G01 X6.1655 Y-14.6630
G01 X6.1642 Y-14.6775
G01 X6.1659 Y-14.6921
G01 X6.1861 Y-14.7760
G01 X6.1901 Y-14.7863
G01 X6.1956 Y-14.7960
G01 X6.2009 Y-14.8027
G01 X6.2069 Y-14.8087
G01 X6.2136 Y-14.8140
G01 X6.2210 Y-14.8184
G01 X6.3272 Y-14.8736
G01 X6.3410 Y-14.8783
G01 X6.3556 Y-14.8800
G01 X6.4561 Y-14.8800
G01 X6.4647 Y-14.8793
G01 X6.4739 Y-14.8772
G01 X6.4867 Y-14.8721
G01 X6.6192 Y-14.8025
G01 X6.6296 Y-14.7937
G01 X6.6377 Y-14.7838
G01 X6.6959 Y-14.6869
G01 X6.6999 Y-14.6783
G01 X6.7027 Y-14.6693
G01 X6.7043 Y-14.6591
G01 X6.7045 Y-14.6497
G01 X6.7022 Y-14.6352
G01 X6.6967 Y-14.6208
G01 X6.6489 Y-14.5417
G01 X6.6398 Y-14.5316
G01 X6.6289 Y-14.5234
G01 X6.6174 Y-14.5179
G01 X6.6042 Y-14.5143
G00 Z2.0000
G00 X6.6157 Y-14.4453
G01 F70.00
G01 Z-0.0600
G01 F120.00
G01 X6.4610 Y-14.4195
G01 X6.4457 Y-14.4182
G01 X6.4303 Y-14.4186
G01 X6.4184 Y-14.4200
G01 X6.2554 Y-14.4477
G01 X6.2392 Y-14.4530
G01 X6.2252 Y-14.4593
G01 X6.2106 Y-14.4681
G01 X6.1985 Y-14.4775
G01 X6.1851 Y-14.4907
G01 X6.1737 Y-14.5056
G01 X6.1124 Y-14.6075
G01 X6.1062 Y-14.6198
G01 X6.1012 Y-14.6327
G01 X6.0979 Y-14.6443
G01 X6.0954 Y-14.6579
G01 X6.0942 Y-14.6785
G01 X6.0960 Y-14.6991
G01 X6.1185 Y-14.7940
G01 X6.1234 Y-14.8085
G01 X6.1299 Y-14.8225
G01 X6.1379 Y-14.8356
G01 X6.1473 Y-14.8478
G01 X6.1631 Y-14.8634
G01 X6.1812 Y-14.8763
G01 X6.2948 Y-14.9358
G01 X6.3091 Y-14.9418
G01 X6.3257 Y-14.9466
G01 X6.3409 Y-14.9492
G01 X6.3564 Y-14.9500
G01 X6.4613 Y-14.9499
G01 X6.4801 Y-14.9476
G01 X6.4968 Y-14.9434
G01 X6.5175 Y-14.9350
G01 X6.6457 Y-14.8682
G01 X6.6588 Y-14.8602
G01 X6.6710 Y-14.8508
G01 X6.6844 Y-14.8376
G01 X6.6968 Y-14.8212
G01 X6.7546 Y-14.7251
G01 X6.7611 Y-14.7130
G01 X6.7685 Y-14.6938
G01 X6.7730 Y-14.6737
G01 X6.7746 Y-14.6531
G01 X6.7733 Y-14.6342
G01 X6.7711 Y-14.6224
G01 X6.7680 Y-14.6108
G01 X6.7639 Y-14.5995
G01 X6.7588 Y-14.5886
G01 X6.7119 Y-14.5099
G01 X6.6999 Y-14.4933
G01 X6.6918 Y-14.4845
G01 X6.6817 Y-14.4753
G01 X6.6722 Y-14.4681
G01 X6.6621 Y-14.4618
G01 X6.6515 Y-14.4563
G01 X6.6404 Y-14.4518
G01 X6.6291 Y-14.4482
G01 X6.6157 Y-14.4453
G00 Z2.0000
G00 X6.6094 Y-14.8941
G01 F70.00
G01 Z-0.0600
G01 F120.00
G01 X6.4900 Y-14.9561
G01 X6.3201 Y-14.9559
G01 X6.1271 Y-14.8550
G01 X6.0785 Y-14.6524
G01 X6.1979 Y-14.4530
G01 X6.2003 Y-14.4503
G01 X6.4412 Y-14.4101
G01 X6.6279 Y-14.4411
G01 X6.6450 Y-14.4429
G01 X6.6656 Y-14.4422
G01 X6.6858 Y-14.4386
G01 X6.7053 Y-14.4320
G01 X6.7251 Y-14.4217
G01 X6.7377 Y-14.4128
G01 X6.7481 Y-14.4038
G01 X6.7575 Y-14.3938
G01 X6.7668 Y-14.3815
G01 X6.7740 Y-14.3698
G01 X6.7799 Y-14.3575
G01 X6.7851 Y-14.3429
G01 X6.7884 Y-14.3296
G01 X6.7904 Y-14.3160
G01 X6.7910 Y-14.3023
G01 X6.7900 Y-14.2869
G01 X6.7878 Y-14.2733
G01 X6.7842 Y-14.2601
G01 X6.7794 Y-14.2472
G01 X6.7725 Y-14.2334
G01 X6.7651 Y-14.2219
G01 X6.7520 Y-14.2060
G01 X6.6482 Y-14.0980
G01 X6.6369 Y-14.0876
G01 X6.6201 Y-14.0759
G01 X6.6017 Y-14.0667
G01 X6.5823 Y-14.0603
G01 X6.5621 Y-14.0568
G01 X6.5484 Y-14.0562
G01 X6.3483 Y-14.0562
G01 X6.3345 Y-14.0570
G01 X6.3226 Y-14.0589
G01 X6.3092 Y-14.0623
G01 X6.2978 Y-14.0663
G01 X6.0824 Y-14.1560
G01 X6.0802 Y-14.1559
G01 X6.0787 Y-14.1545
G01 X6.0784 Y-14.1525
G01 X6.0796 Y-14.1507
G01 X6.3208 Y-14.0501
G01 X6.6099 Y-14.0501
G01 X6.6128 Y-14.0522
G01 X6.8039 Y-14.2513
G01 X6.8045 Y-14.2548
G01 X6.8043 Y-14.9540
G01 X6.8021 Y-14.9560
G01 X6.7993 Y-14.9552
G01 X6.7914 Y-14.9419
G01 X6.7823 Y-14.9294
G01 X6.7718 Y-14.9180
G01 X6.7601 Y-14.9078
G01 X6.7503 Y-14.9008
G01 X6.7385 Y-14.8939
G01 X6.7260 Y-14.8882
G01 X6.7146 Y-14.8842
G01 X6.7012 Y-14.8809
G01 X6.6876 Y-14.8789
G01 X6.6756 Y-14.8782
G01 X6.6619 Y-14.8788
G01 X6.6483 Y-14.8806
G01 X6.6349 Y-14.8838
G01 X6.6219 Y-14.8883
G01 X6.6094 Y-14.8941
G00 Z2.0000
G00 X6.6417 Y-14.9562
G01 F70.00
G01 Z-0.0600
G01 F120.00
G01 X6.5239 Y-15.0175
G01 X6.5135 Y-15.0221
G01 X6.5033 Y-15.0248
G01 X6.4886 Y-15.0262
G01 X6.3179 Y-15.0261
G01 X6.3075 Y-15.0248
G01 X6.3006 Y-15.0231
G01 X6.2869 Y-15.0175
G01 X6.0924 Y-14.9161
G01 X6.0806 Y-14.9075
G01 X6.0707 Y-14.8966
G01 X6.0632 Y-14.8840
G01 X6.0581 Y-14.8693
G01 X6.0105 Y-14.6710
G01 X6.0086 Y-14.6597
G01 X6.0087 Y-14.6455
G01 X6.0116 Y-14.6317
G01 X6.0170 Y-14.6186
G01 X6.1383 Y-14.4162
G01 X6.1427 Y-14.4097
G01 X6.1495 Y-14.4017
G01 X6.1574 Y-14.3948
G01 X6.1663 Y-14.3890
G01 X6.1792 Y-14.3835
G01 X6.1902 Y-14.3809
G01 X6.4286 Y-14.3412
G01 X6.4397 Y-14.3401
G01 X6.4542 Y-14.3412
G01 X6.6411 Y-14.3723
G01 X6.6540 Y-14.3729
G01 X6.6667 Y-14.3712
G01 X6.6749 Y-14.3687
G01 X6.6828 Y-14.3653
G01 X6.6902 Y-14.3610
G01 X6.6970 Y-14.3557
G01 X6.7031 Y-14.3497
G01 X6.7084 Y-14.3430
G01 X6.7129 Y-14.3356
G01 X6.7164 Y-14.3278
G01 X6.7189 Y-14.3196
G01 X6.7205 Y-14.3112
G01 X6.7210 Y-14.3026
G01 X6.7204 Y-14.2941
G01 X6.7165 Y-14.2783
G01 X6.7129 Y-14.2705
G01 X6.7085 Y-14.2631
G01 X6.7015 Y-14.2545
G01 X6.5946 Y-14.1436
G01 X6.5850 Y-14.1365
G01 X6.5751 Y-14.1314
G01 X6.5637 Y-14.1279
G01 X6.5527 Y-14.1263
G01 X6.3500 Y-14.1262
G01 X6.3363 Y-14.1275
G01 X6.3231 Y-14.1316
G01 X6.1062 Y-14.2218
G01 X6.0958 Y-14.2247
G01 X6.0851 Y-14.2261
G01 X6.0744 Y-14.2258
G01 X6.0638 Y-14.2240
G01 X6.0536 Y-14.2206
G01 X6.0440 Y-14.2158
G01 X6.0352 Y-14.2097
G01 X6.0274 Y-14.2023
G01 X6.0207 Y-14.1938
G01 X6.0154 Y-14.1845
G01 X6.0115 Y-14.1745
G01 X6.0092 Y-14.1640
G01 X6.0083 Y-14.1533
G01 X6.0091 Y-14.1425
G01 X6.0115 Y-14.1320
G01 X6.0139 Y-14.1253
G01 X6.0187 Y-14.1157
G01 X6.0248 Y-14.1069
G01 X6.0322 Y-14.0991
G01 X6.0407 Y-14.0924
G01 X6.0541 Y-14.0853
G01 X6.2925 Y-13.9860
G01 X6.3071 Y-13.9815
G01 X6.3223 Y-13.9800
G01 X6.6085 Y-13.9800
G01 X6.6204 Y-13.9809
G01 X6.6311 Y-13.9834
G01 X6.6414 Y-13.9874
G01 X6.6509 Y-13.9930
G01 X6.6595 Y-13.9999
G01 X6.8535 Y-14.2019
G01 X6.8608 Y-14.2106
G01 X6.8678 Y-14.2226
G01 X6.8715 Y-14.2324
G01 X6.8737 Y-14.2427
G01 X6.8745 Y-14.2539
G01 X6.8745 Y-14.9522
G01 X6.8737 Y-14.9638
G01 X6.8713 Y-14.9743
G01 X6.8674 Y-14.9843
G01 X6.8601 Y-14.9966
G01 X6.8531 Y-15.0048
G01 X6.8420 Y-15.0138
G01 X6.8294 Y-15.0206
G01 X6.8191 Y-15.0240
G01 X6.8086 Y-15.0258
G01 X6.7942 Y-15.0258
G01 X6.7837 Y-15.0240
G01 X6.7734 Y-15.0206
G01 X6.7638 Y-15.0158
G01 X6.7551 Y-15.0096
G01 X6.7473 Y-15.0022
G01 X6.7427 Y-14.9966
G01 X6.7323 Y-14.9793
G01 X6.7247 Y-14.9700
G01 X6.7150 Y-14.9615
G01 X6.7032 Y-14.9546
G01 X6.6877 Y-14.9496
G01 X6.6723 Y-14.9483
G01 X6.6561 Y-14.9506
G01 X6.6417 Y-14.9562
G00 Z2.0000
G00 X7.2883 Y-14.0540
G01 F70.00
G01 Z-0.0600
G01 F120.00
G01 X7.2898 Y-14.0388
G01 X7.2939 Y-14.0251
G01 X7.3007 Y-14.0125
G01 X7.3097 Y-14.0014
G01 X7.3208 Y-13.9924
G01 X7.3334 Y-13.9856
G01 X7.3471 Y-13.9815
G01 X7.3614 Y-13.9800
G01 X7.3721 Y-13.9808
G01 X7.3791 Y-13.9822
G01 X7.3894 Y-13.9856
G01 X7.3958 Y-13.9887
G01 X7.4020 Y-13.9924
G01 X7.4105 Y-13.9990
G01 X7.4282 Y-14.0194
G01 X7.4402 Y-14.0290
G01 X7.4485 Y-14.0335
G01 X7.4581 Y-14.0371
G01 X7.4673 Y-14.0391
G01 X7.4776 Y-14.0399
G01 X7.4861 Y-14.0394
G01 X7.4945 Y-14.0379
G01 X7.5027 Y-14.0353
G01 X7.5105 Y-14.0318
G01 X7.5206 Y-14.0253
G01 X7.5540 Y-13.9975
G01 X7.5635 Y-13.9907
G01 X7.5765 Y-13.9844
G01 X7.5906 Y-13.9809
G01 X7.6023 Y-13.9800
G01 X7.8486 Y-13.9804
G01 X7.8626 Y-13.9832
G01 X7.8726 Y-13.9871
G01 X7.8820 Y-13.9924
G01 X7.8931 Y-14.0014
G01 X7.9021 Y-14.0125
G01 X7.9074 Y-14.0219
G01 X7.9113 Y-14.0319
G01 X7.9141 Y-14.0459
G01 X7.9141 Y-14.0603
G01 X7.9123 Y-14.0708
G01 X7.9089 Y-14.0811
G01 X7.9021 Y-14.0937
G01 X7.8931 Y-14.1048
G01 X7.8849 Y-14.1118
G01 X7.8726 Y-14.1191
G01 X7.8626 Y-14.1230
G01 X7.8521 Y-14.1254
G01 X7.8405 Y-14.1262
G01 X7.6498 Y-14.1263
G01 X7.6355 Y-14.1285
G01 X7.6212 Y-14.1339
G01 X7.6090 Y-14.1419
G01 X7.4590 Y-14.2669
G01 X7.4505 Y-14.2755
G01 X7.4432 Y-14.2862
G01 X7.4395 Y-14.2940
G01 X7.4368 Y-14.3022
G01 X7.4351 Y-14.3106
G01 X7.4345 Y-14.3192
G01 X7.4341 Y-14.9603
G01 X7.4313 Y-14.9743
G01 X7.4274 Y-14.9843
G01 X7.4221 Y-14.9937
G01 X7.4131 Y-15.0048
G01 X7.4020 Y-15.0138
G01 X7.3926 Y-15.0191
G01 X7.3826 Y-15.0230
G01 X7.3686 Y-15.0258
G01 X7.3542 Y-15.0258
G01 X7.3402 Y-15.0230
G01 X7.3270 Y-15.0175
G01 X7.3151 Y-15.0096
G01 X7.3049 Y-14.9994
G01 X7.2970 Y-14.9875
G01 X7.2915 Y-14.9743
G01 X7.2887 Y-14.9603
G01 X7.2883 Y-14.0540
G00 Z2.0000
G00 X7.3583 Y-14.0548
G01 F70.00
G01 Z-0.0600
G01 F120.00
G01 X7.3594 Y-14.0509
G01 X7.3611 Y-14.0501
G01 X7.3631 Y-14.0506
G01 X7.3751 Y-14.0652
G01 X7.3888 Y-14.0781
G01 X7.4027 Y-14.0881
G01 X7.4193 Y-14.0971
G01 X7.4336 Y-14.1028
G01 X7.4485 Y-14.1068
G01 X7.4637 Y-14.1092
G01 X7.4791 Y-14.1099
G01 X7.4945 Y-14.1089
G01 X7.5096 Y-14.1062
G01 X7.5244 Y-14.1019
G01 X7.5386 Y-14.0960
G01 X7.5492 Y-14.0903
G01 X7.5606 Y-14.0827
G01 X7.6010 Y-14.0501
G01 X7.8397 Y-14.0500
G01 X7.8431 Y-14.0506
G01 X7.8444 Y-14.0531
G01 X7.8431 Y-14.0556
G01 X7.8397 Y-14.0562
G01 X7.6447 Y-14.0564
G01 X7.6311 Y-14.0579
G01 X7.6194 Y-14.0603
G01 X7.6080 Y-14.0637
G01 X7.5968 Y-14.0680
G01 X7.5802 Y-14.0767
G01 X7.5662 Y-14.0865
G01 X7.4135 Y-14.2137
G01 X7.4047 Y-14.2219
G01 X7.3955 Y-14.2322
G01 X7.3874 Y-14.2434
G01 X7.3812 Y-14.2538
G01 X7.3746 Y-14.2679
G01 X7.3691 Y-14.2842
G01 X7.3660 Y-14.2995
G01 X7.3645 Y-14.3167
G01 X7.3645 Y-14.9514
G01 X7.3639 Y-14.9548
G01 X7.3614 Y-14.9561
G01 X7.3589 Y-14.9548
G01 X7.3583 Y-14.9514
G01 X7.3583 Y-14.0548
G00 Z2.0000
G00 X8.9357 Y-14.4453
G01 F70.00
G01 Z-0.0600
G01 F120.00
G01 X8.7810 Y-14.4195
G01 X8.7657 Y-14.4182
G01 X8.7503 Y-14.4186
G01 X8.7384 Y-14.4200
G01 X8.5754 Y-14.4477
G01 X8.5592 Y-14.4530
G01 X8.5452 Y-14.4593
G01 X8.5320 Y-14.4672
G01 X8.5185 Y-14.4775
G01 X8.5051 Y-14.4907
G01 X8.4937 Y-14.5056
G01 X8.4324 Y-14.6075
G01 X8.4262 Y-14.6198
G01 X8.4212 Y-14.6327
G01 X8.4175 Y-14.6460
G01 X8.4154 Y-14.6579
G01 X8.4142 Y-14.6785
G01 X8.4160 Y-14.6991
G01 X8.4385 Y-14.7940
G01 X8.4434 Y-14.8085
G01 X8.4499 Y-14.8225
G01 X8.4579 Y-14.8356
G01 X8.4673 Y-14.8478
G01 X8.4831 Y-14.8634
G01 X8.5012 Y-14.8763
G01 X8.6148 Y-14.9358
G01 X8.6291 Y-14.9418
G01 X8.6457 Y-14.9466
G01 X8.6609 Y-14.9492
G01 X8.6764 Y-14.9500
G01 X8.7813 Y-14.9499
G01 X8.7984 Y-14.9480
G01 X8.8168 Y-14.9434
G01 X8.8375 Y-14.9350
G01 X8.9657 Y-14.8682
G01 X8.9788 Y-14.8602
G01 X8.9910 Y-14.8508
G01 X9.0044 Y-14.8376
G01 X9.0168 Y-14.8212
G01 X9.0746 Y-14.7251
G01 X9.0811 Y-14.7130
G01 X9.0880 Y-14.6954
G01 X9.0928 Y-14.6754
G01 X9.0945 Y-14.6548
G01 X9.0933 Y-14.6342
G01 X9.0911 Y-14.6224
G01 X9.0880 Y-14.6108
G01 X9.0839 Y-14.5995
G01 X9.0788 Y-14.5886
G01 X9.0319 Y-14.5099
G01 X9.0199 Y-14.4933
G01 X9.0118 Y-14.4845
G01 X9.0017 Y-14.4753
G01 X8.9922 Y-14.4681
G01 X8.9821 Y-14.4618
G01 X8.9715 Y-14.4563
G01 X8.9604 Y-14.4518
G01 X8.9474 Y-14.4477
G01 X8.9357 Y-14.4453
G00 Z2.0000
G00 X8.9242 Y-14.5143
G01 F70.00
G01 Z-0.0600
G01 F120.00
G01 X8.7721 Y-14.4890
G01 X8.7593 Y-14.4882
G01 X8.7499 Y-14.4891
G01 X8.5961 Y-14.5148
G01 X8.5830 Y-14.5188
G01 X8.5703 Y-14.5257
G01 X8.5593 Y-14.5352
G01 X8.5505 Y-14.5466
G01 X8.4929 Y-14.6428
G01 X8.4885 Y-14.6522
G01 X8.4855 Y-14.6630
G01 X8.4842 Y-14.6775
G01 X8.4859 Y-14.6921
G01 X8.5061 Y-14.7760
G01 X8.5101 Y-14.7863
G01 X8.5156 Y-14.7960
G01 X8.5209 Y-14.8027
G01 X8.5269 Y-14.8087
G01 X8.5336 Y-14.8140
G01 X8.5410 Y-14.8184
G01 X8.6472 Y-14.8736
G01 X8.6610 Y-14.8783
G01 X8.6756 Y-14.8800
G01 X8.7761 Y-14.8800
G01 X8.7847 Y-14.8793
G01 X8.7939 Y-14.8772
G01 X8.8067 Y-14.8721
G01 X8.9392 Y-14.8025
G01 X8.9496 Y-14.7937
G01 X8.9577 Y-14.7838
G01 X9.0159 Y-14.6869
G01 X9.0199 Y-14.6783
G01 X9.0227 Y-14.6693
G01 X9.0242 Y-14.6600
G01 X9.0245 Y-14.6497
G01 X9.0222 Y-14.6352
G01 X9.0167 Y-14.6208
G01 X8.9689 Y-14.5417
G01 X8.9604 Y-14.5321
G01 X8.9496 Y-14.5239
G01 X8.9374 Y-14.5179
G01 X8.9242 Y-14.5143
G00 Z2.0000
G00 X8.9294 Y-14.8941
G01 F70.00
G01 Z-0.0600
G01 F120.00
G01 X8.8100 Y-14.9561
G01 X8.6401 Y-14.9559
G01 X8.4471 Y-14.8550
G01 X8.3985 Y-14.6524
G01 X8.5179 Y-14.4530
G01 X8.5203 Y-14.4503
G01 X8.7612 Y-14.4101
G01 X8.9479 Y-14.4411
G01 X8.9650 Y-14.4429
G01 X8.9856 Y-14.4422
G01 X9.0058 Y-14.4386
G01 X9.0253 Y-14.4320
G01 X9.0451 Y-14.4217
G01 X9.0564 Y-14.4139
G01 X9.0681 Y-14.4038
G01 X9.0775 Y-14.3938
G01 X9.0859 Y-14.3830
G01 X9.0931 Y-14.3713
G01 X9.0992 Y-14.3590
G01 X9.1046 Y-14.3446
G01 X9.1081 Y-14.3313
G01 X9.1104 Y-14.3160
G01 X9.1110 Y-14.3023
G01 X9.1102 Y-14.2886
G01 X9.1078 Y-14.2733
G01 X9.1037 Y-14.2585
G01 X9.0987 Y-14.2457
G01 X9.0925 Y-14.2334
G01 X9.0851 Y-14.2219
G01 X9.0720 Y-14.2060
G01 X8.9682 Y-14.0980
G01 X8.9569 Y-14.0876
G01 X8.9401 Y-14.0759
G01 X8.9217 Y-14.0667
G01 X8.9023 Y-14.0603
G01 X8.8821 Y-14.0568
G01 X8.8684 Y-14.0562
G01 X8.6683 Y-14.0562
G01 X8.6545 Y-14.0570
G01 X8.6426 Y-14.0589
G01 X8.6292 Y-14.0623
G01 X8.6178 Y-14.0663
G01 X8.4024 Y-14.1560
G01 X8.4002 Y-14.1559
G01 X8.3987 Y-14.1545
G01 X8.3984 Y-14.1525
G01 X8.3996 Y-14.1507
G01 X8.6408 Y-14.0501
G01 X8.9299 Y-14.0501
G01 X8.9328 Y-14.0522
G01 X9.1239 Y-14.2513
G01 X9.1245 Y-14.2548
G01 X9.1243 Y-14.9540
G01 X9.1221 Y-14.9560
G01 X9.1193 Y-14.9552
G01 X9.1114 Y-14.9419
G01 X9.1023 Y-14.9294
G01 X9.0918 Y-14.9180
G01 X9.0801 Y-14.9078
G01 X9.0703 Y-14.9008
G01 X9.0585 Y-14.8939
G01 X9.0475 Y-14.8889
G01 X9.0346 Y-14.8842
G01 X9.0212 Y-14.8809
G01 X9.0076 Y-14.8789
G01 X8.9956 Y-14.8782
G01 X8.9819 Y-14.8788
G01 X8.9683 Y-14.8806
G01 X8.9549 Y-14.8838
G01 X8.9419 Y-14.8883
G01 X8.9294 Y-14.8941
G00 Z2.0000
G00 X8.9617 Y-14.9562
G01 F70.00
G01 Z-0.0600
G01 F120.00
G01 X8.8439 Y-15.0175
G01 X8.8335 Y-15.0221
G01 X8.8233 Y-15.0248
G01 X8.8086 Y-15.0262
G01 X8.6379 Y-15.0261
G01 X8.6275 Y-15.0248
G01 X8.6206 Y-15.0231
G01 X8.6069 Y-15.0175
G01 X8.4124 Y-14.9161
G01 X8.4006 Y-14.9075
G01 X8.3907 Y-14.8966
G01 X8.3832 Y-14.8840
G01 X8.3781 Y-14.8693
G01 X8.3305 Y-14.6710
G01 X8.3286 Y-14.6597
G01 X8.3287 Y-14.6455
G01 X8.3316 Y-14.6317
G01 X8.3370 Y-14.6186
G01 X8.4583 Y-14.4162
G01 X8.4627 Y-14.4097
G01 X8.4695 Y-14.4017
G01 X8.4774 Y-14.3948
G01 X8.4863 Y-14.3890
G01 X8.4992 Y-14.3835
G01 X8.5102 Y-14.3809
G01 X8.7486 Y-14.3412
G01 X8.7597 Y-14.3401
G01 X8.7742 Y-14.3412
G01 X8.9611 Y-14.3723
G01 X8.9740 Y-14.3729
G01 X8.9867 Y-14.3712
G01 X8.9949 Y-14.3687
G01 X9.0028 Y-14.3653
G01 X9.0102 Y-14.3610
G01 X9.0170 Y-14.3557
G01 X9.0231 Y-14.3497
G01 X9.0284 Y-14.3430
G01 X9.0361 Y-14.3286
G01 X9.0387 Y-14.3205
G01 X9.0404 Y-14.3121
G01 X9.0410 Y-14.3035
G01 X9.0405 Y-14.2949
G01 X9.0390 Y-14.2865
G01 X9.0365 Y-14.2783
G01 X9.0329 Y-14.2705
G01 X9.0285 Y-14.2631
G01 X9.0215 Y-14.2545
G01 X8.9146 Y-14.1436
G01 X8.9050 Y-14.1365
G01 X8.8951 Y-14.1314
G01 X8.8837 Y-14.1279
G01 X8.8727 Y-14.1263
G01 X8.6700 Y-14.1262
G01 X8.6563 Y-14.1275
G01 X8.6431 Y-14.1316
G01 X8.4262 Y-14.2218
G01 X8.4158 Y-14.2247
G01 X8.4051 Y-14.2261
G01 X8.3944 Y-14.2258
G01 X8.3838 Y-14.2240
G01 X8.3736 Y-14.2206
G01 X8.3640 Y-14.2158
G01 X8.3552 Y-14.2097
G01 X8.3474 Y-14.2023
G01 X8.3407 Y-14.1938
G01 X8.3354 Y-14.1845
G01 X8.3315 Y-14.1745
G01 X8.3292 Y-14.1640
G01 X8.3283 Y-14.1533
G01 X8.3291 Y-14.1425
G01 X8.3315 Y-14.1320
G01 X8.3339 Y-14.1253
G01 X8.3387 Y-14.1157
G01 X8.3448 Y-14.1069
G01 X8.3522 Y-14.0991
G01 X8.3607 Y-14.0924
G01 X8.3741 Y-14.0853
G01 X8.6125 Y-13.9860
G01 X8.6271 Y-13.9815
G01 X8.6423 Y-13.9800
G01 X8.9285 Y-13.9800
G01 X8.9404 Y-13.9809
G01 X8.9511 Y-13.9834
G01 X8.9614 Y-13.9874
G01 X8.9709 Y-13.9930
G01 X8.9795 Y-13.9999
G01 X9.1735 Y-14.2019
G01 X9.1808 Y-14.2106
G01 X9.1878 Y-14.2226
G01 X9.1915 Y-14.2324
G01 X9.1937 Y-14.2427
G01 X9.1945 Y-14.2539
G01 X9.1945 Y-14.9522
G01 X9.1937 Y-14.9638
G01 X9.1913 Y-14.9743
G01 X9.1874 Y-14.9843
G01 X9.1801 Y-14.9966
G01 X9.1731 Y-15.0048
G01 X9.1620 Y-15.0138
G01 X9.1494 Y-15.0206
G01 X9.1391 Y-15.0240
G01 X9.1286 Y-15.0258
G01 X9.1142 Y-15.0258
G01 X9.1037 Y-15.0240
G01 X9.0934 Y-15.0206
G01 X9.0838 Y-15.0158
G01 X9.0751 Y-15.0096
G01 X9.0673 Y-15.0022
G01 X9.0627 Y-14.9966
G01 X9.0523 Y-14.9793
G01 X9.0447 Y-14.9700
G01 X9.0350 Y-14.9615
G01 X9.0232 Y-14.9546
G01 X9.0077 Y-14.9496
G01 X8.9923 Y-14.9483
G01 X8.9761 Y-14.9506
G01 X8.9617 Y-14.9562
G00 Z2.0000
G00 X9.9748 Y-14.8936
G01 F70.00
G01 Z-0.0600
G01 F120.00
G01 X9.9945 Y-14.9089
G01 X10.0140 Y-14.9197
G01 X10.0350 Y-14.9272
G01 X10.0568 Y-14.9314
G01 X10.0757 Y-14.9321
G01 X10.0944 Y-14.9303
G01 X10.1128 Y-14.9260
G01 X10.1607 Y-14.9101
G01 X10.1634 Y-14.9108
G01 X10.1644 Y-14.9135
G01 X10.1634 Y-14.9154
G01 X10.1607 Y-14.9166
G01 X10.0440 Y-14.9555
G01 X10.0406 Y-14.9560
G01 X9.9188 Y-14.8546
G01 X9.9183 Y-14.1945
G01 X9.9168 Y-14.1756
G01 X9.9123 Y-14.1555
G01 X9.9070 Y-14.1410
G01 X9.9001 Y-14.1272
G01 X9.8928 Y-14.1156
G01 X9.8832 Y-14.1034
G01 X9.8723 Y-14.0924
G01 X9.8603 Y-14.0827
G01 X9.8473 Y-14.0744
G01 X9.8351 Y-14.0682
G01 X9.8140 Y-14.0608
G01 X9.7921 Y-14.0568
G01 X9.7800 Y-14.0562
G01 X9.6813 Y-14.0561
G01 X9.6793 Y-14.0552
G01 X9.6784 Y-14.0532
G01 X9.6792 Y-14.0511
G01 X9.6813 Y-14.0501
G01 X9.7903 Y-14.0495
G01 X9.8123 Y-14.0458
G01 X9.8319 Y-14.0394
G01 X9.8458 Y-14.0327
G01 X9.8589 Y-14.0245
G01 X9.8711 Y-14.0149
G01 X9.8809 Y-14.0053
G01 X9.8908 Y-13.9934
G01 X9.8984 Y-13.9820
G01 X9.9056 Y-13.9683
G01 X9.9107 Y-13.9556
G01 X9.9163 Y-13.9340
G01 X9.9183 Y-13.9117
G01 X9.9183 Y-13.3548
G01 X9.9188 Y-13.3515
G01 X9.9213 Y-13.3501
G01 X9.9239 Y-13.3514
G01 X9.9245 Y-13.3548
G01 X9.9245 Y-13.9117
G01 X9.9265 Y-13.9340
G01 X9.9321 Y-13.9556
G01 X9.9372 Y-13.9683
G01 X9.9444 Y-13.9820
G01 X9.9520 Y-13.9934
G01 X9.9619 Y-14.0053
G01 X9.9730 Y-14.0160
G01 X9.9853 Y-14.0255
G01 X9.9985 Y-14.0335
G01 X10.0109 Y-14.0394
G01 X10.0305 Y-14.0458
G01 X10.0525 Y-14.0495
G01 X10.1615 Y-14.0501
G01 X10.1635 Y-14.0510
G01 X10.1644 Y-14.0530
G01 X10.1636 Y-14.0551
G01 X10.1615 Y-14.0561
G01 X10.0628 Y-14.0562
G01 X10.0507 Y-14.0568
G01 X10.0388 Y-14.0585
G01 X10.0271 Y-14.0612
G01 X10.0157 Y-14.0649
G01 X10.0046 Y-14.0696
G01 X9.9896 Y-14.0779
G01 X9.9770 Y-14.0869
G01 X9.9655 Y-14.0972
G01 X9.9552 Y-14.1087
G01 X9.9453 Y-14.1227
G01 X9.9379 Y-14.1363
G01 X9.9321 Y-14.1506
G01 X9.9279 Y-14.1655
G01 X9.9253 Y-14.1807
G01 X9.9245 Y-14.1962
G01 X9.9247 Y-14.7947
G01 X9.9266 Y-14.8102
G01 X9.9296 Y-14.8236
G01 X9.9340 Y-14.8367
G01 X9.9396 Y-14.8494
G01 X9.9464 Y-14.8614
G01 X9.9544 Y-14.8726
G01 X9.9647 Y-14.8843
G01 X9.9748 Y-14.8936
G00 Z2.0000
G00 X10.0197 Y-14.8399
G01 F70.00
G01 Z-0.0600
G01 F120.00
G01 X10.0317 Y-14.8496
G01 X10.0429 Y-14.8559
G01 X10.0559 Y-14.8603
G01 X10.0686 Y-14.8621
G01 X10.0788 Y-14.8618
G01 X10.0890 Y-14.8600
G01 X10.1375 Y-14.8440
G01 X10.1523 Y-14.8406
G01 X10.1630 Y-14.8401
G01 X10.1737 Y-14.8411
G01 X10.1841 Y-14.8437
G01 X10.1941 Y-14.8478
G01 X10.2062 Y-14.8554
G01 X10.2166 Y-14.8652
G01 X10.2249 Y-14.8769
G01 X10.2307 Y-14.8900
G01 X10.2339 Y-14.9040
G01 X10.2343 Y-14.9183
G01 X10.2319 Y-14.9324
G01 X10.2267 Y-14.9458
G01 X10.2191 Y-14.9579
G01 X10.2119 Y-14.9659
G01 X10.2006 Y-14.9747
G01 X10.1879 Y-14.9812
G01 X10.0611 Y-15.0234
G01 X10.0542 Y-15.0250
G01 X10.0437 Y-15.0261
G01 X10.0296 Y-15.0252
G01 X10.0227 Y-15.0237
G01 X10.0127 Y-15.0203
G01 X10.0032 Y-15.0154
G01 X9.9974 Y-15.0114
G01 X9.8753 Y-14.9098
G01 X9.8670 Y-14.9018
G01 X9.8605 Y-14.8934
G01 X9.8552 Y-14.8841
G01 X9.8514 Y-14.8741
G01 X9.8491 Y-14.8637
G01 X9.8483 Y-14.8522
G01 X9.8483 Y-14.1962
G01 X9.8476 Y-14.1859
G01 X9.8453 Y-14.1759
G01 X9.8423 Y-14.1678
G01 X9.8384 Y-14.1602
G01 X9.8335 Y-14.1531
G01 X9.8278 Y-14.1467
G01 X9.8214 Y-14.1410
G01 X9.8143 Y-14.1361
G01 X9.8067 Y-14.1322
G01 X9.7978 Y-14.1289
G01 X9.7894 Y-14.1271
G01 X9.7800 Y-14.1262
G01 X9.6778 Y-14.1261
G01 X9.6637 Y-14.1240
G01 X9.6502 Y-14.1191
G01 X9.6408 Y-14.1138
G01 X9.6351 Y-14.1096
G01 X9.6273 Y-14.1022
G01 X9.6207 Y-14.0937
G01 X9.6154 Y-14.0843
G01 X9.6115 Y-14.0743
G01 X9.6091 Y-14.0638
G01 X9.6084 Y-14.0567
G01 X9.6087 Y-14.0459
G01 X9.6105 Y-14.0354
G01 X9.6139 Y-14.0251
G01 X9.6187 Y-14.0155
G01 X9.6249 Y-14.0068
G01 X9.6323 Y-13.9990
G01 X9.6408 Y-13.9924
G01 X9.6470 Y-13.9887
G01 X9.6602 Y-13.9832
G01 X9.6707 Y-13.9808
G01 X9.6778 Y-13.9801
G01 X9.7800 Y-13.9800
G01 X9.7962 Y-13.9777
G01 X9.8113 Y-13.9718
G01 X9.8247 Y-13.9625
G01 X9.8356 Y-13.9503
G01 X9.8433 Y-13.9360
G01 X9.8470 Y-13.9237
G01 X9.8483 Y-13.9109
G01 X9.8487 Y-13.3459
G01 X9.8515 Y-13.3319
G01 X9.8554 Y-13.3219
G01 X9.8627 Y-13.3096
G01 X9.8723 Y-13.2990
G01 X9.8808 Y-13.2924
G01 X9.8934 Y-13.2856
G01 X9.9071 Y-13.2815
G01 X9.9178 Y-13.2801
G01 X9.9286 Y-13.2804
G01 X9.9426 Y-13.2832
G01 X9.9558 Y-13.2887
G01 X9.9677 Y-13.2966
G01 X9.9755 Y-13.3040
G01 X9.9841 Y-13.3155
G01 X9.9902 Y-13.3285
G01 X9.9937 Y-13.3424
G01 X9.9945 Y-13.3540
G01 X9.9945 Y-13.9109
G01 X9.9958 Y-13.9237
G01 X9.9998 Y-13.9368
G01 X10.0077 Y-13.9510
G01 X10.0187 Y-13.9630
G01 X10.0315 Y-13.9718
G01 X10.0466 Y-13.9777
G01 X10.0628 Y-13.9800
G01 X10.1650 Y-13.9801
G01 X10.1791 Y-13.9822
G01 X10.1926 Y-13.9871
G01 X10.2020 Y-13.9924
G01 X10.2077 Y-13.9966
G01 X10.2155 Y-14.0040
G01 X10.2221 Y-14.0125
G01 X10.2274 Y-14.0219
G01 X10.2313 Y-14.0319
G01 X10.2337 Y-14.0424
G01 X10.2344 Y-14.0495
G01 X10.2341 Y-14.0603
G01 X10.2323 Y-14.0708
G01 X10.2289 Y-14.0811
G01 X10.2241 Y-14.0907
G01 X10.2179 Y-14.0994
G01 X10.2105 Y-14.1072
G01 X10.2020 Y-14.1138
G01 X10.1958 Y-14.1175
G01 X10.1826 Y-14.1230
G01 X10.1686 Y-14.1258
G01 X10.0628 Y-14.1262
G01 X10.0534 Y-14.1271
G01 X10.0442 Y-14.1292
G01 X10.0361 Y-14.1322
G01 X10.0285 Y-14.1361
G01 X10.0214 Y-14.1410
G01 X10.0144 Y-14.1473
G01 X10.0082 Y-14.1545
G01 X10.0036 Y-14.1617
G01 X9.9998 Y-14.1694
G01 X9.9970 Y-14.1775
G01 X9.9951 Y-14.1868
G01 X9.9945 Y-14.1962
G01 X9.9945 Y-14.7887
G01 X9.9966 Y-14.8032
G01 X10.0016 Y-14.8169
G01 X10.0094 Y-14.8294
G01 X10.0197 Y-14.8399
G00 Z2.0000
G00 X11.6797 Y-14.2500
G01 F70.00
G01 Z-0.0600
G01 F120.00
G01 X11.6824 Y-14.2502
G01 X11.6841 Y-14.2517
G01 X11.6843 Y-14.2540
G01 X11.6828 Y-14.2558
G01 X10.7231 Y-14.2562
G01 X10.7197 Y-14.2556
G01 X10.7184 Y-14.2531
G01 X10.7197 Y-14.2506
G01 X10.7231 Y-14.2500
G01 X11.6797 Y-14.2500
G00 Z2.0000
G00 X11.6805 Y-14.1800
G01 F70.00
G01 Z-0.0600
G01 F120.00
G01 X11.6921 Y-14.1808
G01 X11.7060 Y-14.1843
G01 X11.7190 Y-14.1904
G01 X11.7305 Y-14.1990
G01 X11.7401 Y-14.2096
G01 X11.7474 Y-14.2219
G01 X11.7523 Y-14.2354
G01 X11.7544 Y-14.2495
G01 X11.7537 Y-14.2638
G01 X11.7502 Y-14.2777
G01 X11.7441 Y-14.2907
G01 X11.7355 Y-14.3022
G01 X11.7249 Y-14.3118
G01 X11.7126 Y-14.3191
G01 X11.7026 Y-14.3230
G01 X11.6886 Y-14.3258
G01 X10.7178 Y-14.3261
G01 X10.7071 Y-14.3247
G01 X10.6934 Y-14.3206
G01 X10.6808 Y-14.3138
G01 X10.6723 Y-14.3072
G01 X10.6627 Y-14.2966
G01 X10.6554 Y-14.2843
G01 X10.6515 Y-14.2743
G01 X10.6487 Y-14.2603
G01 X10.6487 Y-14.2459
G01 X10.6515 Y-14.2319
G01 X10.6570 Y-14.2187
G01 X10.6649 Y-14.2068
G01 X10.6751 Y-14.1966
G01 X10.6870 Y-14.1887
G01 X10.7002 Y-14.1832
G01 X10.7142 Y-14.1804
G01 X11.6805 Y-14.1800
G00 Z2.0000
G00 X12.2983 Y-13.4162
G01 F70.00
G01 Z-0.0600
G01 F120.00
G01 X12.3049 Y-13.4068
G01 X12.3123 Y-13.3990
G01 X12.3207 Y-13.3924
G01 X12.3300 Y-13.3871
G01 X12.5725 Y-13.2860
G01 X12.5836 Y-13.2823
G01 X12.5942 Y-13.2804
G01 X12.6023 Y-13.2800
G01 X12.8405 Y-13.2800
G01 X12.8557 Y-13.2815
G01 X12.8703 Y-13.2860
G01 X13.1087 Y-13.3853
G01 X13.1190 Y-13.3905
G01 X13.1278 Y-13.3967
G01 X13.1379 Y-13.4068
G01 X13.1445 Y-13.4162
G01 X13.2658 Y-13.6186
G01 X13.2689 Y-13.6251
G01 X13.2723 Y-13.6353
G01 X13.2741 Y-13.6459
G01 X13.2745 Y-13.6540
G01 X13.2745 Y-13.8522
G01 X13.2737 Y-13.8638
G01 X13.2713 Y-13.8743
G01 X13.2674 Y-13.8844
G01 X13.2636 Y-13.8914
G01 X13.1445 Y-14.0900
G01 X13.1379 Y-14.0994
G01 X13.1280 Y-14.1107
G01 X13.1228 Y-14.1186
G01 X13.1187 Y-14.1271
G01 X13.1158 Y-14.1361
G01 X13.1141 Y-14.1454
G01 X13.1137 Y-14.1540
G01 X13.1143 Y-14.1625
G01 X13.1160 Y-14.1709
G01 X13.1190 Y-14.1799
G01 X13.1228 Y-14.1876
G01 X13.1280 Y-14.1955
G01 X13.1379 Y-14.2068
G01 X13.1445 Y-14.2162
G01 X13.2636 Y-14.4148
G01 X13.2674 Y-14.4218
G01 X13.2713 Y-14.4319
G01 X13.2737 Y-14.4424
G01 X13.2745 Y-14.4540
G01 X13.2741 Y-14.6603
G01 X13.2713 Y-14.6743
G01 X13.2658 Y-14.6876
G01 X13.1445 Y-14.8900
G01 X13.1401 Y-14.8966
G01 X13.1331 Y-14.9047
G01 X13.1250 Y-14.9117
G01 X13.1159 Y-14.9175
G01 X12.8703 Y-15.0202
G01 X12.8557 Y-15.0247
G01 X12.8405 Y-15.0262
G01 X12.6023 Y-15.0262
G01 X12.5942 Y-15.0258
G01 X12.5836 Y-15.0239
G01 X12.5725 Y-15.0202
G01 X12.3341 Y-14.9209
G01 X12.3238 Y-14.9157
G01 X12.3150 Y-14.9095
G01 X12.3049 Y-14.8994
G01 X12.2983 Y-14.8900
G01 X12.1770 Y-14.6876
G01 X12.1726 Y-14.6777
G01 X12.1698 Y-14.6674
G01 X12.1684 Y-14.6567
G01 X12.1687 Y-14.6460
G01 X12.1705 Y-14.6354
G01 X12.1739 Y-14.6252
G01 X12.1787 Y-14.6156
G01 X12.1849 Y-14.6068
G01 X12.1923 Y-14.5990
G01 X12.2008 Y-14.5924
G01 X12.2101 Y-14.5871
G01 X12.2202 Y-14.5832
G01 X12.2306 Y-14.5808
G01 X12.2414 Y-14.5800
G01 X12.2521 Y-14.5808
G01 X12.2626 Y-14.5832
G01 X12.2726 Y-14.5870
G01 X12.2849 Y-14.5944
G01 X12.2930 Y-14.6014
G01 X12.3001 Y-14.6096
G01 X12.4017 Y-14.7780
G01 X12.4069 Y-14.7848
G01 X12.4128 Y-14.7910
G01 X12.4195 Y-14.7963
G01 X12.4268 Y-14.8008
G01 X12.6031 Y-14.8746
G01 X12.6163 Y-14.8787
G01 X12.6300 Y-14.8800
G01 X12.8180 Y-14.8798
G01 X12.8290 Y-14.8781
G01 X12.8397 Y-14.8746
G01 X13.0106 Y-14.8034
G01 X13.0197 Y-14.7987
G01 X13.0280 Y-14.7927
G01 X13.0359 Y-14.7848
G01 X13.0421 Y-14.7766
G01 X13.1188 Y-14.6487
G01 X13.1248 Y-14.6354
G01 X13.1280 Y-14.6203
G01 X13.1283 Y-14.4919
G01 X13.1274 Y-14.4816
G01 X13.1253 Y-14.4724
G01 X13.1188 Y-14.4575
G01 X13.0381 Y-14.3240
G01 X13.0267 Y-14.3125
G01 X13.0197 Y-14.3075
G01 X13.0122 Y-14.3035
G01 X12.8141 Y-14.2209
G01 X12.8037 Y-14.2157
G01 X12.7978 Y-14.2117
G01 X12.7897 Y-14.2047
G01 X12.7827 Y-14.1965
G01 X12.7787 Y-14.1906
G01 X12.7753 Y-14.1843
G01 X12.7715 Y-14.1743
G01 X12.7687 Y-14.1602
G01 X12.7684 Y-14.1495
G01 X12.7697 Y-14.1389
G01 X12.7715 Y-14.1319
G01 X12.7753 Y-14.1219
G01 X12.7806 Y-14.1126
G01 X12.7872 Y-14.1041
G01 X12.7923 Y-14.0990
G01 X12.8007 Y-14.0924
G01 X12.8141 Y-14.0853
G01 X13.0114 Y-14.0031
G01 X13.0212 Y-13.9978
G01 X13.0300 Y-13.9910
G01 X13.0370 Y-13.9835
G01 X13.0425 Y-13.9759
G01 X13.1184 Y-13.8495
G01 X13.1227 Y-13.8411
G01 X13.1268 Y-13.8280
G01 X13.1283 Y-13.8152
G01 X13.1283 Y-13.6919
G01 X13.1277 Y-13.6833
G01 X13.1260 Y-13.6749
G01 X13.1230 Y-13.6659
G01 X13.1188 Y-13.6575
G01 X13.0406 Y-13.5275
G01 X13.0348 Y-13.5201
G01 X13.0280 Y-13.5135
G01 X13.0205 Y-13.5080
G01 X13.0130 Y-13.5038
G01 X12.8397 Y-13.4316
G01 X12.8290 Y-13.4281
G01 X12.8128 Y-13.4262
G01 X12.6292 Y-13.4262
G01 X12.6138 Y-13.4281
G01 X12.6031 Y-13.4316
G01 X12.4322 Y-13.5028
G01 X12.4245 Y-13.5066
G01 X12.4174 Y-13.5114
G01 X12.4086 Y-13.5194
G01 X12.4007 Y-13.5296
G01 X12.3045 Y-13.6900
G01 X12.2955 Y-13.7022
G01 X12.2877 Y-13.7096
G01 X12.2820 Y-13.7139
G01 X12.2726 Y-13.7192
G01 X12.2626 Y-13.7230
G01 X12.2521 Y-13.7254
G01 X12.2450 Y-13.7261
G01 X12.2342 Y-13.7258
G01 X12.2236 Y-13.7240
G01 X12.2101 Y-13.7191
G01 X12.1979 Y-13.7118
G01 X12.1873 Y-13.7021
G01 X12.1787 Y-13.6906
G01 X12.1726 Y-13.6777
G01 X12.1691 Y-13.6638
G01 X12.1684 Y-13.6495
G01 X12.1705 Y-13.6353
G01 X12.1739 Y-13.6251
G01 X12.1792 Y-13.6148
G01 X12.2983 Y-13.4162
G00 Z2.0000
G00 X12.3579 Y-13.4530
G01 F70.00
G01 Z-0.0600
G01 F120.00
G01 X12.3595 Y-13.4508
G01 X12.3618 Y-13.4496
G01 X12.6008 Y-13.3501
G01 X12.8421 Y-13.3502
G01 X13.0833 Y-13.4508
G01 X13.2043 Y-13.6522
G01 X13.2043 Y-13.8540
G01 X13.0849 Y-14.0532
G01 X13.0702 Y-14.0711
G01 X13.0602 Y-14.0871
G01 X13.0531 Y-14.1027
G01 X13.0479 Y-14.1191
G01 X13.0447 Y-14.1360
G01 X13.0437 Y-14.1531
G01 X13.0447 Y-14.1702
G01 X13.0479 Y-14.1871
G01 X13.0531 Y-14.2035
G01 X13.0602 Y-14.2191
G01 X13.0702 Y-14.2351
G01 X13.0849 Y-14.2530
G01 X13.2043 Y-14.4522
G01 X13.2043 Y-14.6540
G01 X13.0833 Y-14.8554
G01 X12.8423 Y-14.9560
G01 X12.6008 Y-14.9561
G01 X12.3601 Y-14.8558
G01 X12.3579 Y-14.8532
G01 X12.2397 Y-14.6562
G01 X12.2385 Y-14.6524
G01 X12.2408 Y-14.6501
G01 X12.2426 Y-14.6503
G01 X12.2439 Y-14.6514
G01 X12.3444 Y-14.8184
G01 X12.3573 Y-14.8344
G01 X12.3710 Y-14.8473
G01 X12.3863 Y-14.8582
G01 X12.4044 Y-14.8677
G01 X12.5778 Y-14.9399
G01 X12.5892 Y-14.9439
G01 X12.6009 Y-14.9470
G01 X12.6145 Y-14.9492
G01 X12.6283 Y-14.9500
G01 X12.8128 Y-14.9500
G01 X12.8283 Y-14.9492
G01 X12.8436 Y-14.9466
G01 X12.8650 Y-14.9399
G01 X13.0415 Y-14.8663
G01 X13.0536 Y-14.8600
G01 X13.0651 Y-14.8525
G01 X13.0745 Y-14.8451
G01 X13.0844 Y-14.8356
G01 X13.0933 Y-14.8253
G01 X13.1012 Y-14.8141
G01 X13.1793 Y-14.6840
G01 X13.1870 Y-14.6687
G01 X13.1932 Y-14.6508
G01 X13.1965 Y-14.6357
G01 X13.1982 Y-14.6186
G01 X13.1983 Y-14.4910
G01 X13.1963 Y-14.4688
G01 X13.1937 Y-14.4570
G01 X13.1901 Y-14.4455
G01 X13.1849 Y-14.4328
G01 X13.1793 Y-14.4222
G01 X13.1012 Y-14.2921
G01 X13.0878 Y-14.2744
G01 X13.0718 Y-14.2589
G01 X13.0580 Y-14.2489
G01 X13.0415 Y-14.2399
G01 X12.8418 Y-14.1566
G01 X12.8392 Y-14.1551
G01 X12.8384 Y-14.1528
G01 X12.8394 Y-14.1509
G01 X12.8418 Y-14.1496
G01 X13.0476 Y-14.0633
G01 X13.0623 Y-14.0545
G01 X13.0745 Y-14.0451
G01 X13.0867 Y-14.0331
G01 X13.0974 Y-14.0198
G01 X13.1801 Y-13.8825
G01 X13.1883 Y-13.8655
G01 X13.1941 Y-13.8475
G01 X13.1971 Y-13.8323
G01 X13.1983 Y-13.8169
G01 X13.1983 Y-13.6910
G01 X13.1965 Y-13.6705
G01 X13.1918 Y-13.6504
G01 X13.1870 Y-13.6375
G01 X13.1801 Y-13.6237
G01 X13.0984 Y-13.4878
G01 X13.0878 Y-13.4744
G01 X13.0757 Y-13.4623
G01 X13.0623 Y-13.4517
G01 X13.0476 Y-13.4429
G01 X12.8650 Y-13.3663
G01 X12.8536 Y-13.3623
G01 X12.8419 Y-13.3592
G01 X12.8283 Y-13.3570
G01 X12.8145 Y-13.3562
G01 X12.6300 Y-13.3562
G01 X12.6162 Y-13.3569
G01 X12.6043 Y-13.3586
G01 X12.5925 Y-13.3613
G01 X12.5794 Y-13.3657
G01 X12.4029 Y-13.4392
G01 X12.3877 Y-13.4471
G01 X12.3750 Y-13.4557
G01 X12.3584 Y-13.4706
G01 X12.3506 Y-13.4796
G01 X12.3435 Y-13.4893
G01 X12.2449 Y-13.6532
G01 X12.2427 Y-13.6558
G01 X12.2398 Y-13.6557
G01 X12.2384 Y-13.6532
G01 X12.2397 Y-13.6500
G01 X12.3579 Y-13.4530
G00 Z2.0000
G00 X14.7205 Y-14.1800
G01 F70.00
G01 Z-0.0600
G01 F120.00
G01 X14.7321 Y-14.1808
G01 X14.7460 Y-14.1843
G01 X14.7590 Y-14.1904
G01 X14.7705 Y-14.1990
G01 X14.7801 Y-14.2096
G01 X14.7874 Y-14.2219
G01 X14.7923 Y-14.2354
G01 X14.7944 Y-14.2495
G01 X14.7937 Y-14.2638
G01 X14.7902 Y-14.2777
G01 X14.7841 Y-14.2907
G01 X14.7755 Y-14.3022
G01 X14.7649 Y-14.3118
G01 X14.7526 Y-14.3191
G01 X14.7426 Y-14.3230
G01 X14.7286 Y-14.3258
G01 X13.7578 Y-14.3261
G01 X13.7471 Y-14.3247
G01 X13.7334 Y-14.3206
G01 X13.7208 Y-14.3138
G01 X13.7123 Y-14.3072
G01 X13.7027 Y-14.2966
G01 X13.6954 Y-14.2843
G01 X13.6915 Y-14.2743
G01 X13.6887 Y-14.2603
G01 X13.6887 Y-14.2459
G01 X13.6915 Y-14.2319
G01 X13.6970 Y-14.2187
G01 X13.7049 Y-14.2068
G01 X13.7151 Y-14.1966
G01 X13.7270 Y-14.1887
G01 X13.7402 Y-14.1832
G01 X13.7542 Y-14.1804
G01 X14.7205 Y-14.1800
G00 Z2.0000
G00 X14.7197 Y-14.2500
G01 F70.00
G01 Z-0.0600
G01 F120.00
G01 X14.7224 Y-14.2502
G01 X14.7241 Y-14.2517
G01 X14.7243 Y-14.2540
G01 X14.7228 Y-14.2558
G01 X13.7631 Y-14.2562
G01 X13.7597 Y-14.2556
G01 X13.7584 Y-14.2531
G01 X13.7597 Y-14.2506
G01 X13.7631 Y-14.2500
G01 X14.7197 Y-14.2500
G00 Z2.0000
G00 X15.2083 Y-13.3540
G01 F70.00
G01 Z-0.0600
G01 F120.00
G01 X15.2098 Y-13.3388
G01 X15.2139 Y-13.3251
G01 X15.2207 Y-13.3125
G01 X15.2297 Y-13.3014
G01 X15.2408 Y-13.2924
G01 X15.2534 Y-13.2856
G01 X15.2671 Y-13.2815
G01 X15.2823 Y-13.2800
G01 X16.1286 Y-13.2804
G01 X16.1426 Y-13.2832
G01 X16.1526 Y-13.2871
G01 X16.1649 Y-13.2944
G01 X16.1755 Y-13.3040
G01 X16.1821 Y-13.3125
G01 X16.1889 Y-13.3251
G01 X16.1930 Y-13.3388
G01 X16.1944 Y-13.3495
G01 X16.1941 Y-13.3603
G01 X16.1913 Y-13.3743
G01 X16.1858 Y-13.3875
G01 X16.1779 Y-13.3994
G01 X16.1705 Y-13.4072
G01 X16.1590 Y-13.4158
G01 X16.1460 Y-13.4219
G01 X16.1321 Y-13.4254
G01 X16.1205 Y-13.4262
G01 X15.4210 Y-13.4263
G01 X15.4117 Y-13.4274
G01 X15.4033 Y-13.4294
G01 X15.3953 Y-13.4325
G01 X15.3870 Y-13.4370
G01 X15.3801 Y-13.4421
G01 X15.3732 Y-13.4485
G01 X15.3677 Y-13.4552
G01 X15.3627 Y-13.4632
G01 X15.3568 Y-13.4783
G01 X15.3551 Y-13.4868
G01 X15.3545 Y-13.4953
G01 X15.3545 Y-14.0117
G01 X15.3564 Y-14.0262
G01 X15.3616 Y-14.0407
G01 X15.3693 Y-14.0531
G01 X15.3794 Y-14.0636
G01 X15.3885 Y-14.0701
G01 X15.3993 Y-14.0753
G01 X15.4108 Y-14.0787
G01 X15.4228 Y-14.0800
G01 X16.1286 Y-14.0804
G01 X16.1426 Y-14.0832
G01 X16.1526 Y-14.0871
G01 X16.1649 Y-14.0944
G01 X16.1755 Y-14.1040
G01 X16.1841 Y-14.1155
G01 X16.1902 Y-14.1285
G01 X16.1937 Y-14.1424
G01 X16.1944 Y-14.1567
G01 X16.1930 Y-14.1674
G01 X16.1889 Y-14.1811
G01 X16.1821 Y-14.1937
G01 X16.1755 Y-14.2022
G01 X16.1649 Y-14.2118
G01 X16.1526 Y-14.2191
G01 X16.1426 Y-14.2230
G01 X16.1286 Y-14.2258
G01 X15.4228 Y-14.2262
G01 X15.4100 Y-14.2277
G01 X15.3977 Y-14.2315
G01 X15.3863 Y-14.2375
G01 X15.3762 Y-14.2455
G01 X15.3672 Y-14.2559
G01 X15.3605 Y-14.2678
G01 X15.3564 Y-14.2800
G01 X15.3545 Y-14.2936
G01 X15.3541 Y-14.9603
G01 X15.3513 Y-14.9743
G01 X15.3474 Y-14.9843
G01 X15.3401 Y-14.9966
G01 X15.3305 Y-15.0072
G01 X15.3220 Y-15.0138
G01 X15.3094 Y-15.0206
G01 X15.2957 Y-15.0247
G01 X15.2850 Y-15.0261
G01 X15.2707 Y-15.0254
G01 X15.2568 Y-15.0219
G01 X15.2438 Y-15.0158
G01 X15.2323 Y-15.0072
G01 X15.2227 Y-14.9966
G01 X15.2154 Y-14.9843
G01 X15.2105 Y-14.9708
G01 X15.2084 Y-14.9567
G01 X15.2083 Y-13.3540
G00 Z2.0000
G00 X15.2783 Y-13.3548
G01 F70.00
G01 Z-0.0600
G01 F120.00
G01 X15.2793 Y-13.3510
G01 X15.2831 Y-13.3500
G01 X16.1197 Y-13.3500
G01 X16.1231 Y-13.3506
G01 X16.1244 Y-13.3531
G01 X16.1231 Y-13.3556
G01 X16.1197 Y-13.3562
G01 X15.4245 Y-13.3562
G01 X15.4107 Y-13.3568
G01 X15.3921 Y-13.3600
G01 X15.3757 Y-13.3649
G01 X15.3600 Y-13.3719
G01 X15.3453 Y-13.3807
G01 X15.3317 Y-13.3913
G01 X15.3196 Y-13.4034
G01 X15.3090 Y-13.4170
G01 X15.3002 Y-13.4317
G01 X15.2939 Y-13.4458
G01 X15.2891 Y-13.4605
G01 X15.2860 Y-13.4756
G01 X15.2845 Y-13.4927
G01 X15.2846 Y-14.0169
G01 X15.2860 Y-14.0306
G01 X15.2887 Y-14.0440
G01 X15.2927 Y-14.0572
G01 X15.2979 Y-14.0699
G01 X15.3044 Y-14.0820
G01 X15.3120 Y-14.0934
G01 X15.3219 Y-14.1053
G01 X15.3317 Y-14.1149
G01 X15.3411 Y-14.1225
G01 X15.3510 Y-14.1292
G01 X15.3615 Y-14.1351
G01 X15.3725 Y-14.1400
G01 X15.3838 Y-14.1440
G01 X15.3955 Y-14.1470
G01 X15.4176 Y-14.1499
G01 X16.1197 Y-14.1500
G01 X16.1231 Y-14.1506
G01 X16.1244 Y-14.1531
G01 X16.1231 Y-14.1556
G01 X16.1197 Y-14.1562
G01 X15.4176 Y-14.1563
G01 X15.4056 Y-14.1574
G01 X15.3938 Y-14.1596
G01 X15.3806 Y-14.1632
G01 X15.3693 Y-14.1675
G01 X15.3585 Y-14.1727
G01 X15.3481 Y-14.1788
G01 X15.3370 Y-14.1869
G01 X15.3279 Y-14.1948
G01 X15.3196 Y-14.2034
G01 X15.3110 Y-14.2142
G01 X15.3035 Y-14.2257
G01 X15.2972 Y-14.2379
G01 X15.2927 Y-14.2490
G01 X15.2887 Y-14.2622
G01 X15.2860 Y-14.2756
G01 X15.2847 Y-14.2876
G01 X15.2845 Y-14.9514
G01 X15.2839 Y-14.9548
G01 X15.2814 Y-14.9561
G01 X15.2789 Y-14.9548
G01 X15.2783 Y-14.9514
G01 X15.2783 Y-13.3548
G00 Z2.0000
G00 X16.6083 Y-13.3540
G01 F70.00
G01 Z-0.0600
G01 F120.00
G01 X16.6091 Y-13.3424
G01 X16.6115 Y-13.3319
G01 X16.6154 Y-13.3219
G01 X16.6207 Y-13.3125
G01 X16.6273 Y-13.3040
G01 X16.6379 Y-13.2944
G01 X16.6470 Y-13.2887
G01 X16.6568 Y-13.2843
G01 X16.6671 Y-13.2815
G01 X16.6778 Y-13.2801
G01 X16.6885 Y-13.2804
G01 X16.6991 Y-13.2822
G01 X16.7126 Y-13.2871
G01 X16.7220 Y-13.2923
G01 X16.7304 Y-13.2990
G01 X16.7378 Y-13.3067
G01 X16.7445 Y-13.3162
G01 X17.2227 Y-14.1132
G01 X17.2284 Y-14.1208
G01 X17.2344 Y-14.1269
G01 X17.2418 Y-14.1328
G01 X17.2492 Y-14.1372
G01 X17.2570 Y-14.1406
G01 X17.2661 Y-14.1433
G01 X17.2754 Y-14.1448
G01 X17.2840 Y-14.1450
G01 X17.3001 Y-14.1425
G01 X17.3082 Y-14.1397
G01 X17.3159 Y-14.1359
G01 X17.3290 Y-14.1263
G01 X17.3349 Y-14.1201
G01 X17.3401 Y-14.1132
G01 X17.8227 Y-13.3096
G01 X17.8298 Y-13.3014
G01 X17.8351 Y-13.2966
G01 X17.8439 Y-13.2904
G01 X17.8502 Y-13.2871
G01 X17.8637 Y-13.2822
G01 X17.8707 Y-13.2808
G01 X17.8814 Y-13.2800
G01 X17.8957 Y-13.2815
G01 X17.9060 Y-13.2843
G01 X17.9126 Y-13.2871
G01 X17.9249 Y-13.2944
G01 X17.9305 Y-13.2990
G01 X17.9379 Y-13.3068
G01 X17.9441 Y-13.3156
G01 X17.9502 Y-13.3285
G01 X17.9537 Y-13.3424
G01 X17.9545 Y-13.3540
G01 X17.9545 Y-14.9522
G01 X17.9530 Y-14.9674
G01 X17.9513 Y-14.9743
G01 X17.9474 Y-14.9843
G01 X17.9401 Y-14.9966
G01 X17.9355 Y-15.0022
G01 X17.9277 Y-15.0096
G01 X17.9190 Y-15.0158
G01 X17.9094 Y-15.0206
G01 X17.9026 Y-15.0230
G01 X17.8921 Y-15.0254
G01 X17.8814 Y-15.0262
G01 X17.8742 Y-15.0258
G01 X17.8637 Y-15.0240
G01 X17.8534 Y-15.0206
G01 X17.8438 Y-15.0158
G01 X17.8379 Y-15.0118
G01 X17.8297 Y-15.0048
G01 X17.8227 Y-14.9966
G01 X17.8187 Y-14.9907
G01 X17.8139 Y-14.9811
G01 X17.8115 Y-14.9743
G01 X17.8091 Y-14.9638
G01 X17.8083 Y-14.9522
G01 X17.8082 Y-13.8653
G01 X17.8062 Y-13.8526
G01 X17.8020 Y-13.8405
G01 X17.7956 Y-13.8293
G01 X17.7866 Y-13.8189
G01 X17.7765 Y-13.8110
G01 X17.7651 Y-13.8050
G01 X17.7520 Y-13.8010
G01 X17.7392 Y-13.7996
G01 X17.7306 Y-13.8001
G01 X17.7222 Y-13.8015
G01 X17.7140 Y-13.8040
G01 X17.7061 Y-13.8075
G01 X17.6987 Y-13.8119
G01 X17.6920 Y-13.8172
G01 X17.6853 Y-13.8239
G01 X17.6801 Y-13.8307
G01 X17.3401 Y-14.3966
G01 X17.3304 Y-14.4072
G01 X17.3249 Y-14.4118
G01 X17.3158 Y-14.4175
G01 X17.3060 Y-14.4219
G01 X17.2991 Y-14.4240
G01 X17.2921 Y-14.4254
G01 X17.2814 Y-14.4262
G01 X17.2707 Y-14.4254
G01 X17.2637 Y-14.4240
G01 X17.2568 Y-14.4219
G01 X17.2470 Y-14.4175
G01 X17.2379 Y-14.4118
G01 X17.2324 Y-14.4072
G01 X17.2249 Y-14.3995
G01 X17.2207 Y-14.3937
G01 X16.8845 Y-13.8336
G01 X16.8780 Y-13.8245
G01 X16.8675 Y-13.8144
G01 X16.8552 Y-13.8067
G01 X16.8415 Y-13.8017
G01 X16.8262 Y-13.7997
G01 X16.8116 Y-13.8008
G01 X16.7977 Y-13.8050
G01 X16.7842 Y-13.8124
G01 X16.7732 Y-13.8220
G01 X16.7653 Y-13.8322
G01 X16.7595 Y-13.8436
G01 X16.7558 Y-13.8560
G01 X16.7545 Y-13.8688
G01 X16.7545 Y-14.9522
G01 X16.7537 Y-14.9638
G01 X16.7513 Y-14.9743
G01 X16.7489 Y-14.9811
G01 X16.7441 Y-14.9907
G01 X16.7379 Y-14.9994
G01 X16.7305 Y-15.0072
G01 X16.7220 Y-15.0138
G01 X16.7126 Y-15.0191
G01 X16.7026 Y-15.0230
G01 X16.6921 Y-15.0254
G01 X16.6814 Y-15.0262
G01 X16.6707 Y-15.0254
G01 X16.6602 Y-15.0230
G01 X16.6502 Y-15.0191
G01 X16.6408 Y-15.0138
G01 X16.6323 Y-15.0072
G01 X16.6249 Y-14.9994
G01 X16.6187 Y-14.9907
G01 X16.6126 Y-14.9777
G01 X16.6091 Y-14.9638
G01 X16.6083 Y-14.9522
G01 X16.6083 Y-13.3540
G00 Z2.0000
G00 X16.6783 Y-13.3548
G01 F70.00
G01 Z-0.0600
G01 F120.00
G01 X16.6787 Y-13.3518
G01 X16.6805 Y-13.3502
G01 X16.6831 Y-13.3506
G01 X16.6849 Y-13.3530
G01 X17.1670 Y-14.1557
G01 X17.1766 Y-14.1678
G01 X17.1887 Y-14.1799
G01 X17.2022 Y-14.1905
G01 X17.2170 Y-14.1993
G01 X17.2310 Y-14.2056
G01 X17.2474 Y-14.2108
G01 X17.2643 Y-14.2140
G01 X17.2814 Y-14.2150
G01 X17.2985 Y-14.2140
G01 X17.3154 Y-14.2108
G01 X17.3318 Y-14.2056
G01 X17.3458 Y-14.1993
G01 X17.3606 Y-14.1905
G01 X17.3741 Y-14.1799
G01 X17.3862 Y-14.1678
G01 X17.3958 Y-14.1557
G01 X17.8779 Y-13.3530
G01 X17.8805 Y-13.3502
G01 X17.8823 Y-13.3502
G01 X17.8838 Y-13.3513
G01 X17.8845 Y-13.3548
G01 X17.8845 Y-14.9514
G01 X17.8843 Y-14.9540
G01 X17.8832 Y-14.9555
G01 X17.8813 Y-14.9561
G01 X17.8795 Y-14.9554
G01 X17.8785 Y-14.9540
G01 X17.8783 Y-14.9514
G01 X17.8783 Y-13.8696
G01 X17.8773 Y-13.8525
G01 X17.8753 Y-13.8406
G01 X17.8723 Y-13.8290
G01 X17.8677 Y-13.8161
G01 X17.8626 Y-13.8052
G01 X17.8557 Y-13.7933
G01 X17.8487 Y-13.7835
G01 X17.8409 Y-13.7744
G01 X17.8311 Y-13.7648
G01 X17.8204 Y-13.7562
G01 X17.8103 Y-13.7496
G01 X17.7998 Y-13.7438
G01 X17.7871 Y-13.7384
G01 X17.7757 Y-13.7347
G01 X17.7640 Y-13.7320
G01 X17.7504 Y-13.7302
G01 X17.7384 Y-13.7296
G01 X17.7212 Y-13.7307
G01 X17.7044 Y-13.7338
G01 X17.6880 Y-13.7390
G01 X17.6739 Y-13.7453
G01 X17.6606 Y-13.7532
G01 X17.6469 Y-13.7636
G01 X17.6358 Y-13.7743
G01 X17.6249 Y-13.7876
G01 X17.6183 Y-13.7976
G01 X17.2849 Y-14.3532
G01 X17.2834 Y-14.3553
G01 X17.2815 Y-14.3561
G01 X17.2795 Y-14.3554
G01 X17.2779 Y-14.3532
G01 X16.9436 Y-13.7961
G01 X16.9348 Y-13.7835
G01 X16.9246 Y-13.7718
G01 X16.9146 Y-13.7625
G01 X16.9036 Y-13.7542
G01 X16.8904 Y-13.7461
G01 X16.8780 Y-13.7403
G01 X16.8651 Y-13.7356
G01 X16.8501 Y-13.7320
G01 X16.8364 Y-13.7301
G01 X16.8210 Y-13.7297
G01 X16.8056 Y-13.7309
G01 X16.7921 Y-13.7334
G01 X16.7773 Y-13.7378
G01 X16.7646 Y-13.7431
G01 X16.7510 Y-13.7505
G01 X16.7397 Y-13.7582
G01 X16.7292 Y-13.7671
G01 X16.7185 Y-13.7782
G01 X16.7110 Y-13.7876
G01 X16.7044 Y-13.7977
G01 X16.6987 Y-13.8082
G01 X16.6938 Y-13.8193
G01 X16.6875 Y-13.8406
G01 X16.6855 Y-13.8525
G01 X16.6846 Y-13.8645
G01 X16.6845 Y-14.9514
G01 X16.6843 Y-14.9540
G01 X16.6831 Y-14.9556
G01 X16.6808 Y-14.9561
G01 X16.6790 Y-14.9549
G01 X16.6783 Y-14.9514
G01 X16.6783 Y-13.3548
G00 Z2.0000
G00 X16.7483 Y-13.6739
G01 F70.00
G01 Z-0.0600
G01 F120.00
G01 X16.7483 Y-13.5947
G01 X16.7891 Y-13.6626
G01 X16.7684 Y-13.6673
G01 X16.7483 Y-13.6739
G00 Z2.0000
G00 X17.7737 Y-13.6626
G01 F70.00
G01 Z-0.0600
G01 F120.00
G01 X17.8145 Y-13.5947
G01 X17.8145 Y-13.6739
G01 X17.7944 Y-13.6673
G01 X17.7737 Y-13.6626
G00 Z2.0000
G00 X18.3000 Y-10.1919
G01 F70.00
G01 Z-0.0600
G01 F120.00
G01 X18.2906 Y-10.2067
G01 X18.2558 Y-10.2561
G01 X18.2187 Y-10.3037
G01 X18.1793 Y-10.3494
G01 X18.1376 Y-10.3931
G01 X18.0939 Y-10.4348
G01 X18.0482 Y-10.4742
G01 X18.0006 Y-10.5113
G01 X17.9512 Y-10.5461
G01 X17.9002 Y-10.5784
G01 X17.8477 Y-10.6081
G01 X17.7938 Y-10.6353
G01 X17.7386 Y-10.6598
G01 X17.6823 Y-10.6815
G01 X17.6249 Y-10.7004
G01 X17.5668 Y-10.7165
G01 X17.5079 Y-10.7297
G01 X17.4484 Y-10.7401
G01 X17.3885 Y-10.7475
G01 X17.3283 Y-10.7519
G01 X17.2679 Y-10.7534
G01 X17.2075 Y-10.7519
G01 X17.1473 Y-10.7475
G01 X17.0874 Y-10.7401
G01 X17.0279 Y-10.7297
G01 X16.9690 Y-10.7165
G01 X16.9109 Y-10.7004
G01 X16.8535 Y-10.6815
G01 X16.7972 Y-10.6598
G01 X16.7420 Y-10.6353
G01 X16.6881 Y-10.6081
G01 X16.6356 Y-10.5784
G01 X16.5846 Y-10.5461
G01 X16.5352 Y-10.5113
G01 X16.4876 Y-10.4742
G01 X16.4419 Y-10.4348
G01 X16.3982 Y-10.3931
G01 X16.3565 Y-10.3494
G01 X16.3171 Y-10.3037
G01 X16.2800 Y-10.2561
G01 X16.2452 Y-10.2067
G01 X16.2129 Y-10.1557
G01 X16.1832 Y-10.1032
G01 X16.1560 Y-10.0493
G01 X16.1315 Y-9.9941
G01 X16.1098 Y-9.9378
G01 X16.0909 Y-9.8804
G01 X16.0748 Y-9.8223
G01 X16.0616 Y-9.7634
G01 X16.0512 Y-9.7039
G01 X16.0438 Y-9.6440
G01 X16.0394 Y-9.5838
G01 X16.0379 Y-9.5234
G01 X16.0394 Y-9.4630
G01 X16.0438 Y-9.4028
G01 X16.0512 Y-9.3429
G01 X16.0616 Y-9.2834
G01 X16.0748 Y-9.2245
G01 X16.0909 Y-9.1664
G01 X16.1098 Y-9.1090
G01 X16.1315 Y-9.0527
G01 X16.1560 Y-8.9975
G01 X16.1832 Y-8.9436
G01 X16.2129 Y-8.8911
G01 X16.2452 Y-8.8401
G01 X16.2800 Y-8.7907
G01 X16.3171 Y-8.7431
G01 X16.3565 Y-8.6974
G01 X16.3982 Y-8.6537
G01 X16.4419 Y-8.6120
G01 X16.4876 Y-8.5726
G01 X16.5352 Y-8.5355
G01 X16.5846 Y-8.5007
G01 X16.6356 Y-8.4684
G01 X16.6881 Y-8.4387
G01 X16.7420 Y-8.4115
G01 X16.7972 Y-8.3870
G01 X16.8535 Y-8.3653
G01 X16.9109 Y-8.3464
G01 X16.9690 Y-8.3303
G01 X17.0279 Y-8.3171
G01 X17.0874 Y-8.3067
G01 X17.1473 Y-8.2993
G01 X17.2075 Y-8.2949
G01 X17.2679 Y-8.2934
G01 X17.3283 Y-8.2949
G01 X17.3885 Y-8.2993
G01 X17.4484 Y-8.3067
G01 X17.5079 Y-8.3171
G01 X17.5668 Y-8.3303
G01 X17.6249 Y-8.3464
G01 X17.6823 Y-8.3653
G01 X17.7386 Y-8.3870
G01 X17.7938 Y-8.4115
G01 X17.8477 Y-8.4387
G01 X17.9002 Y-8.4684
G01 X17.9512 Y-8.5007
G01 X18.0006 Y-8.5355
G01 X18.0482 Y-8.5726
G01 X18.0939 Y-8.6120
G01 X18.1376 Y-8.6537
G01 X18.1793 Y-8.6974
G01 X18.2187 Y-8.7431
G01 X18.2558 Y-8.7907
G01 X18.2906 Y-8.8401
G01 X18.3019 Y-8.8578
G01 X18.3085 Y-8.8658
G01 X18.3161 Y-8.8727
G01 X18.3254 Y-8.8788
G01 X18.3348 Y-8.8831
G01 X18.3455 Y-8.8861
G01 X18.3617 Y-8.8874
G01 X18.3703 Y-8.8866
G01 X18.3786 Y-8.8847
G01 X18.3867 Y-8.8818
G01 X18.3944 Y-8.8780
G01 X18.4015 Y-8.8732
G01 X18.4080 Y-8.8676
G01 X18.4164 Y-8.8578
G01 X18.4277 Y-8.8401
G01 X18.4625 Y-8.7907
G01 X18.4996 Y-8.7431
G01 X18.5390 Y-8.6974
G01 X18.5807 Y-8.6537
G01 X18.6244 Y-8.6120
G01 X18.6364 Y-8.6017
G01 X18.6364 Y-8.9963
G01 X18.6184 Y-9.0247
G01 X18.5958 Y-9.0646
G01 X18.5732 Y-9.1095
G01 X18.5542 Y-9.1522
G01 X18.5377 Y-9.1950
G01 X18.5219 Y-9.2426
G01 X18.5095 Y-9.2877
G01 X18.4994 Y-9.3325
G01 X18.4909 Y-9.3811
G01 X18.4851 Y-9.4283
G01 X18.4817 Y-9.4741
G01 X18.4804 Y-9.5234
G01 X18.4817 Y-9.5727
G01 X18.4851 Y-9.6185
G01 X18.4909 Y-9.6657
G01 X18.4994 Y-9.7143
G01 X18.5095 Y-9.7591
G01 X18.5219 Y-9.8042
G01 X18.5377 Y-9.8518
G01 X18.5542 Y-9.8946
G01 X18.5732 Y-9.9373
G01 X18.5958 Y-9.9822
G01 X18.6184 Y-10.0221
G01 X18.6364 Y-10.0505
G01 X18.6364 Y-10.4451
G01 X18.6244 Y-10.4348
G01 X18.5807 Y-10.3931
G01 X18.5390 Y-10.3494
G01 X18.4996 Y-10.3037
G01 X18.4625 Y-10.2561
G01 X18.4277 Y-10.2067
G01 X18.4149 Y-10.1869
G01 X18.4086 Y-10.1798
G01 X18.4015 Y-10.1736
G01 X18.3891 Y-10.1660
G01 X18.3753 Y-10.1612
G01 X18.3617 Y-10.1594
G01 X18.3472 Y-10.1603
G01 X18.3332 Y-10.1643
G01 X18.3203 Y-10.1711
G01 X18.3090 Y-10.1804
G01 X18.3000 Y-10.1919
G00 Z2.0000
G00 X18.2409 Y-10.1544
G01 F70.00
G01 Z-0.0600
G01 F120.00
G01 X18.2324 Y-10.1678
G01 X18.1996 Y-10.2144
G01 X18.1646 Y-10.2593
G01 X18.1274 Y-10.3024
G01 X18.0881 Y-10.3436
G01 X18.0469 Y-10.3829
G01 X18.0038 Y-10.4201
G01 X17.9589 Y-10.4551
G01 X17.9123 Y-10.4879
G01 X17.8642 Y-10.5183
G01 X17.8147 Y-10.5464
G01 X17.7638 Y-10.5720
G01 X17.7118 Y-10.5951
G01 X17.6587 Y-10.6156
G01 X17.6046 Y-10.6334
G01 X17.5497 Y-10.6486
G01 X17.4942 Y-10.6611
G01 X17.4381 Y-10.6708
G01 X17.3816 Y-10.6778
G01 X17.3248 Y-10.6820
G01 X17.2679 Y-10.6834
G01 X17.2110 Y-10.6820
G01 X17.1542 Y-10.6778
G01 X17.0977 Y-10.6708
G01 X17.0416 Y-10.6611
G01 X16.9861 Y-10.6486
G01 X16.9312 Y-10.6334
G01 X16.8771 Y-10.6156
G01 X16.8240 Y-10.5951
G01 X16.7720 Y-10.5720
G01 X16.7211 Y-10.5464
G01 X16.6716 Y-10.5183
G01 X16.6235 Y-10.4879
G01 X16.5769 Y-10.4551
G01 X16.5320 Y-10.4201
G01 X16.4889 Y-10.3829
G01 X16.4477 Y-10.3436
G01 X16.4084 Y-10.3024
G01 X16.3712 Y-10.2593
G01 X16.3362 Y-10.2144
G01 X16.3034 Y-10.1678
G01 X16.2730 Y-10.1197
G01 X16.2449 Y-10.0702
G01 X16.2193 Y-10.0193
G01 X16.1962 Y-9.9673
G01 X16.1757 Y-9.9142
G01 X16.1579 Y-9.8601
G01 X16.1427 Y-9.8052
G01 X16.1302 Y-9.7497
G01 X16.1205 Y-9.6936
G01 X16.1135 Y-9.6371
G01 X16.1093 Y-9.5803
G01 X16.1079 Y-9.5234
G01 X16.1093 Y-9.4665
G01 X16.1135 Y-9.4097
G01 X16.1205 Y-9.3532
G01 X16.1302 Y-9.2971
G01 X16.1427 Y-9.2416
G01 X16.1579 Y-9.1867
G01 X16.1757 Y-9.1326
G01 X16.1962 Y-9.0795
G01 X16.2193 Y-9.0275
G01 X16.2449 Y-8.9766
G01 X16.2730 Y-8.9271
G01 X16.3034 Y-8.8790
G01 X16.3362 Y-8.8324
G01 X16.3712 Y-8.7875
G01 X16.4084 Y-8.7444
G01 X16.4477 Y-8.7032
G01 X16.4889 Y-8.6639
G01 X16.5320 Y-8.6267
G01 X16.5769 Y-8.5917
G01 X16.6235 Y-8.5589
G01 X16.6716 Y-8.5285
G01 X16.7211 Y-8.5004
G01 X16.7720 Y-8.4748
G01 X16.8240 Y-8.4517
G01 X16.8771 Y-8.4312
G01 X16.9312 Y-8.4134
G01 X16.9861 Y-8.3982
G01 X17.0416 Y-8.3857
G01 X17.0977 Y-8.3760
G01 X17.1542 Y-8.3690
G01 X17.2110 Y-8.3648
G01 X17.2679 Y-8.3634
G01 X17.3248 Y-8.3648
G01 X17.3816 Y-8.3690
G01 X17.4381 Y-8.3760
G01 X17.4942 Y-8.3857
G01 X17.5497 Y-8.3982
G01 X17.6046 Y-8.4134
G01 X17.6587 Y-8.4312
G01 X17.7118 Y-8.4517
G01 X17.7638 Y-8.4748
G01 X17.8147 Y-8.5004
G01 X17.8642 Y-8.5285
G01 X17.9123 Y-8.5589
G01 X17.9589 Y-8.5917
G01 X18.0038 Y-8.6267
G01 X18.0469 Y-8.6639
G01 X18.0881 Y-8.7032
G01 X18.1274 Y-8.7444
G01 X18.1646 Y-8.7875
G01 X18.1996 Y-8.8324
G01 X18.2324 Y-8.8790
G01 X18.2447 Y-8.8981
G01 X18.2578 Y-8.9140
G01 X18.2717 Y-8.9268
G01 X18.2857 Y-8.9367
G01 X18.3008 Y-8.9448
G01 X18.3185 Y-8.9515
G01 X18.3335 Y-8.9551
G01 X18.3506 Y-8.9572
G01 X18.3660 Y-8.9573
G01 X18.3814 Y-8.9557
G01 X18.3981 Y-8.9519
G01 X18.4127 Y-8.9468
G01 X18.4267 Y-8.9401
G01 X18.4412 Y-8.9310
G01 X18.4557 Y-8.9189
G01 X18.4685 Y-8.9050
G01 X18.5187 Y-8.8324
G01 X18.5537 Y-8.7875
G01 X18.5664 Y-8.7729
G01 X18.5664 Y-8.9760
G01 X18.5575 Y-8.9902
G01 X18.5340 Y-9.0316
G01 X18.5095 Y-9.0803
G01 X18.4896 Y-9.1254
G01 X18.4724 Y-9.1698
G01 X18.4547 Y-9.2232
G01 X18.4416 Y-9.2707
G01 X18.4311 Y-9.3171
G01 X18.4217 Y-9.3708
G01 X18.4154 Y-9.4215
G01 X18.4119 Y-9.4689
G01 X18.4104 Y-9.5234
G01 X18.4119 Y-9.5779
G01 X18.4154 Y-9.6253
G01 X18.4217 Y-9.6760
G01 X18.4311 Y-9.7297
G01 X18.4416 Y-9.7761
G01 X18.4547 Y-9.8236
G01 X18.4724 Y-9.8770
G01 X18.4896 Y-9.9214
G01 X18.5095 Y-9.9665
G01 X18.5340 Y-10.0152
G01 X18.5575 Y-10.0566
G01 X18.5664 Y-10.0708
G01 X18.5664 Y-10.2739
G01 X18.5537 Y-10.2593
G01 X18.5187 Y-10.2144
G01 X18.4859 Y-10.1678
G01 X18.4736 Y-10.1487
G01 X18.4629 Y-10.1353
G01 X18.4506 Y-10.1233
G01 X18.4369 Y-10.1129
G01 X18.4221 Y-10.1043
G01 X18.4079 Y-10.0981
G01 X18.3965 Y-10.0944
G01 X18.3848 Y-10.0917
G01 X18.3729 Y-10.0900
G01 X18.3609 Y-10.0893
G01 X18.3489 Y-10.0897
G01 X18.3369 Y-10.0911
G01 X18.3251 Y-10.0935
G01 X18.3136 Y-10.0969
G01 X18.3024 Y-10.1013
G01 X18.2916 Y-10.1067
G01 X18.2814 Y-10.1129
G01 X18.2717 Y-10.1200
G01 X18.2626 Y-10.1279
G01 X18.2543 Y-10.1366
G01 X18.2409 Y-10.1544
G00 Z2.0000
G00 X18.2423 Y-10.0549
G01 F70.00
G01 Z-0.0600
G01 F120.00
G01 X18.2735 Y-9.9933
G01 X18.2934 Y-9.9482
G01 X18.3130 Y-9.8973
G01 X18.3301 Y-9.8456
G01 X18.3440 Y-9.7956
G01 X18.3561 Y-9.7425
G01 X18.3592 Y-9.7255
G01 X18.3622 Y-9.7425
G01 X18.3743 Y-9.7956
G01 X18.3882 Y-9.8456
G01 X18.4053 Y-9.8973
G01 X18.4249 Y-9.9482
G01 X18.4448 Y-9.9933
G01 X18.4760 Y-10.0549
G01 X18.4627 Y-10.0466
G01 X18.4489 Y-10.0395
G01 X18.4347 Y-10.0334
G01 X18.4201 Y-10.0284
G01 X18.4052 Y-10.0244
G01 X18.3900 Y-10.0216
G01 X18.3746 Y-10.0199
G01 X18.3591 Y-10.0193
G01 X18.3437 Y-10.0199
G01 X18.3283 Y-10.0216
G01 X18.3131 Y-10.0244
G01 X18.2982 Y-10.0284
G01 X18.2836 Y-10.0334
G01 X18.2694 Y-10.0395
G01 X18.2556 Y-10.0466
G01 X18.2423 Y-10.0549
G00 Z2.0000
G00 X18.2379 Y-9.5217
G01 F70.00
G01 Z-0.0600
G01 F120.00
G01 X18.2367 Y-9.4758
G01 X18.2332 Y-9.4283
G01 X18.2274 Y-9.3811
G01 X18.2193 Y-9.3342
G01 X18.2088 Y-9.2877
G01 X18.1961 Y-9.2418
G01 X18.1812 Y-9.1966
G01 X18.1641 Y-9.1522
G01 X18.1448 Y-9.1087
G01 X18.1234 Y-9.0661
G01 X18.0999 Y-9.0247
G01 X18.0744 Y-8.9845
G01 X18.0470 Y-8.9456
G01 X18.0177 Y-8.9080
G01 X17.9866 Y-8.8720
G01 X17.9538 Y-8.8375
G01 X17.9193 Y-8.8047
G01 X17.8833 Y-8.7736
G01 X17.8457 Y-8.7443
G01 X17.8068 Y-8.7169
G01 X17.7666 Y-8.6914
G01 X17.7252 Y-8.6679
G01 X17.6826 Y-8.6465
G01 X17.6391 Y-8.6272
G01 X17.5947 Y-8.6101
G01 X17.5495 Y-8.5952
G01 X17.5036 Y-8.5825
G01 X17.4571 Y-8.5720
G01 X17.4102 Y-8.5639
G01 X17.3630 Y-8.5581
G01 X17.3155 Y-8.5546
G01 X17.2679 Y-8.5534
G01 X17.2203 Y-8.5546
G01 X17.1728 Y-8.5581
G01 X17.1256 Y-8.5639
G01 X17.0787 Y-8.5720
G01 X17.0322 Y-8.5825
G01 X16.9863 Y-8.5952
G01 X16.9411 Y-8.6101
G01 X16.8967 Y-8.6272
G01 X16.8532 Y-8.6465
G01 X16.8106 Y-8.6679
G01 X16.7692 Y-8.6914
G01 X16.7290 Y-8.7169
G01 X16.6901 Y-8.7443
G01 X16.6525 Y-8.7736
G01 X16.6165 Y-8.8047
G01 X16.5820 Y-8.8375
G01 X16.5492 Y-8.8720
G01 X16.5181 Y-8.9080
G01 X16.4888 Y-8.9456
G01 X16.4614 Y-8.9845
G01 X16.4359 Y-9.0247
G01 X16.4124 Y-9.0661
G01 X16.3910 Y-9.1087
G01 X16.3717 Y-9.1522
G01 X16.3546 Y-9.1966
G01 X16.3397 Y-9.2418
G01 X16.3270 Y-9.2877
G01 X16.3165 Y-9.3342
G01 X16.3084 Y-9.3811
G01 X16.3026 Y-9.4283
G01 X16.2991 Y-9.4758
G01 X16.2979 Y-9.5234
G01 X16.2991 Y-9.5710
G01 X16.3026 Y-9.6185
G01 X16.3084 Y-9.6657
G01 X16.3165 Y-9.7126
G01 X16.3270 Y-9.7591
G01 X16.3397 Y-9.8050
G01 X16.3546 Y-9.8502
G01 X16.3717 Y-9.8946
G01 X16.3910 Y-9.9381
G01 X16.4124 Y-9.9807
G01 X16.4359 Y-10.0221
G01 X16.4614 Y-10.0623
G01 X16.4888 Y-10.1012
G01 X16.5181 Y-10.1388
G01 X16.5492 Y-10.1748
G01 X16.5820 Y-10.2093
G01 X16.6165 Y-10.2421
G01 X16.6525 Y-10.2732
G01 X16.6901 Y-10.3025
G01 X16.7290 Y-10.3299
G01 X16.7692 Y-10.3554
G01 X16.8106 Y-10.3789
G01 X16.8532 Y-10.4003
G01 X16.8967 Y-10.4196
G01 X16.9411 Y-10.4367
