(G-CODE GENERATED BY FLATCAM v8.993 - www.flatcam.org - Version Date: 2020/06/05)

(Name: RX_frontend_Ф2_низ.gbr_cutout_cnc)
(Type: G-code from Geometry)
(Units: MM)

(Created on Sunday, 25 October 2020 at 11:41)

(This preprocessor is the default preprocessor used by FlatCAM.)
(It is made to work with MACH3 compatible motion controllers.)

(TOOL DIAMETER: 0.8 mm)
(Feedrate_XY: 120.0 mm/min)
(Feedrate_Z: 70.0 mm/min)
(Feedrate rapids 1500.0 mm/min)

(Z_Cut: -1.7 mm)
(DepthPerCut: 0.1 mm <=>17 passes)
(Z_Move: 2.0 mm)
(Z Start: None mm)
(Z End: 25.0 mm)
(Steps per circle: 128)
(Preprocessor Geometry: default)

(X range:  -60.5000 ...    0.5000  mm)
(Y range:  -40.5000 ...    0.5000  mm)

(Spindle Speed: 10000 RPM)
G21
G90
G94



G01 F120.00
G00 Z2.0000

M03 S10000
G00 X0.0000 Y-40.5000
G01 F70.00
G01 Z-0.1000
G01 F120.00
G01 X-60.0000 Y-40.5000
G01 X-60.0490 Y-40.4976
G01 X-60.0975 Y-40.4904
G01 X-60.1451 Y-40.4785
G01 X-60.1913 Y-40.4619
G01 X-60.2357 Y-40.4410
G01 X-60.2778 Y-40.4157
G01 X-60.3172 Y-40.3865
G01 X-60.3536 Y-40.3536
G01 X-60.3865 Y-40.3172
G01 X-60.4157 Y-40.2778
G01 X-60.4410 Y-40.2357
G01 X-60.4619 Y-40.1913
G01 X-60.4785 Y-40.1451
G01 X-60.4904 Y-40.0975
G01 X-60.4976 Y-40.0490
G01 X-60.5000 Y-40.0000
G01 X-60.5000 Y0.0000
G01 X-60.4976 Y0.0490
G01 X-60.4904 Y0.0975
G01 X-60.4785 Y0.1451
G01 X-60.4619 Y0.1913
G01 X-60.4410 Y0.2357
G01 X-60.4157 Y0.2778
G01 X-60.3865 Y0.3172
G01 X-60.3536 Y0.3536
G01 X-60.3172 Y0.3865
G01 X-60.2778 Y0.4157
G01 X-60.2357 Y0.4410
G01 X-60.1913 Y0.4619
G01 X-60.1451 Y0.4785
G01 X-60.0975 Y0.4904
G01 X-60.0490 Y0.4976
G01 X-60.0000 Y0.5000
G01 X0.0000 Y0.5000
G01 X0.0490 Y0.4976
G01 X0.0975 Y0.4904
G01 X0.1451 Y0.4785
G01 X0.1913 Y0.4619
G01 X0.2357 Y0.4410
G01 X0.2778 Y0.4157
G01 X0.3172 Y0.3865
G01 X0.3536 Y0.3536
G01 X0.3865 Y0.3172
G01 X0.4157 Y0.2778
G01 X0.4410 Y0.2357
G01 X0.4619 Y0.1913
G01 X0.4785 Y0.1451
G01 X0.4904 Y0.0975
G01 X0.4976 Y0.0490
G01 X0.5000 Y0.0000
G01 X0.5000 Y-40.0000
G01 X0.4976 Y-40.0490
G01 X0.4904 Y-40.0975
G01 X0.4785 Y-40.1451
G01 X0.4619 Y-40.1913
G01 X0.4410 Y-40.2357
G01 X0.4157 Y-40.2778
G01 X0.3865 Y-40.3172
G01 X0.3536 Y-40.3536
G01 X0.3172 Y-40.3865
G01 X0.2778 Y-40.4157
G01 X0.2357 Y-40.4410
G01 X0.1913 Y-40.4619
G01 X0.1451 Y-40.4785
G01 X0.0975 Y-40.4904
G01 X0.0490 Y-40.4976
G01 X0.0000 Y-40.5000
G00 X0.0000 Y-40.5000
G01 F70.00
G01 Z-0.2000
G01 F120.00
G01 X-60.0000 Y-40.5000
G01 X-60.0490 Y-40.4976
G01 X-60.0975 Y-40.4904
G01 X-60.1451 Y-40.4785
G01 X-60.1913 Y-40.4619
G01 X-60.2357 Y-40.4410
G01 X-60.2778 Y-40.4157
G01 X-60.3172 Y-40.3865
G01 X-60.3536 Y-40.3536
G01 X-60.3865 Y-40.3172
G01 X-60.4157 Y-40.2778
G01 X-60.4410 Y-40.2357
G01 X-60.4619 Y-40.1913
G01 X-60.4785 Y-40.1451
G01 X-60.4904 Y-40.0975
G01 X-60.4976 Y-40.0490
G01 X-60.5000 Y-40.0000
G01 X-60.5000 Y0.0000
G01 X-60.4976 Y0.0490
G01 X-60.4904 Y0.0975
G01 X-60.4785 Y0.1451
G01 X-60.4619 Y0.1913
G01 X-60.4410 Y0.2357
G01 X-60.4157 Y0.2778
G01 X-60.3865 Y0.3172
G01 X-60.3536 Y0.3536
G01 X-60.3172 Y0.3865
G01 X-60.2778 Y0.4157
G01 X-60.2357 Y0.4410
G01 X-60.1913 Y0.4619
G01 X-60.1451 Y0.4785
G01 X-60.0975 Y0.4904
G01 X-60.0490 Y0.4976
G01 X-60.0000 Y0.5000
G01 X0.0000 Y0.5000
G01 X0.0490 Y0.4976
G01 X0.0975 Y0.4904
G01 X0.1451 Y0.4785
G01 X0.1913 Y0.4619
G01 X0.2357 Y0.4410
G01 X0.2778 Y0.4157
G01 X0.3172 Y0.3865
G01 X0.3536 Y0.3536
G01 X0.3865 Y0.3172
G01 X0.4157 Y0.2778
G01 X0.4410 Y0.2357
G01 X0.4619 Y0.1913
G01 X0.4785 Y0.1451
G01 X0.4904 Y0.0975
G01 X0.4976 Y0.0490
G01 X0.5000 Y0.0000
G01 X0.5000 Y-40.0000
G01 X0.4976 Y-40.0490
G01 X0.4904 Y-40.0975
G01 X0.4785 Y-40.1451
G01 X0.4619 Y-40.1913
G01 X0.4410 Y-40.2357
G01 X0.4157 Y-40.2778
G01 X0.3865 Y-40.3172
G01 X0.3536 Y-40.3536
G01 X0.3172 Y-40.3865
G01 X0.2778 Y-40.4157
G01 X0.2357 Y-40.4410
G01 X0.1913 Y-40.4619
G01 X0.1451 Y-40.4785
G01 X0.0975 Y-40.4904
G01 X0.0490 Y-40.4976
G01 X0.0000 Y-40.5000
G00 X0.0000 Y-40.5000
G01 F70.00
G01 Z-0.3000
G01 F120.00
G01 X-60.0000 Y-40.5000
G01 X-60.0490 Y-40.4976
G01 X-60.0975 Y-40.4904
G01 X-60.1451 Y-40.4785
G01 X-60.1913 Y-40.4619
G01 X-60.2357 Y-40.4410
G01 X-60.2778 Y-40.4157
G01 X-60.3172 Y-40.3865
G01 X-60.3536 Y-40.3536
G01 X-60.3865 Y-40.3172
G01 X-60.4157 Y-40.2778
G01 X-60.4410 Y-40.2357
G01 X-60.4619 Y-40.1913
G01 X-60.4785 Y-40.1451
G01 X-60.4904 Y-40.0975
G01 X-60.4976 Y-40.0490
G01 X-60.5000 Y-40.0000
G01 X-60.5000 Y0.0000
G01 X-60.4976 Y0.0490
G01 X-60.4904 Y0.0975
G01 X-60.4785 Y0.1451
G01 X-60.4619 Y0.1913
G01 X-60.4410 Y0.2357
G01 X-60.4157 Y0.2778
G01 X-60.3865 Y0.3172
G01 X-60.3536 Y0.3536
G01 X-60.3172 Y0.3865
G01 X-60.2778 Y0.4157
G01 X-60.2357 Y0.4410
G01 X-60.1913 Y0.4619
G01 X-60.1451 Y0.4785
G01 X-60.0975 Y0.4904
G01 X-60.0490 Y0.4976
G01 X-60.0000 Y0.5000
G01 X0.0000 Y0.5000
G01 X0.0490 Y0.4976
G01 X0.0975 Y0.4904
G01 X0.1451 Y0.4785
G01 X0.1913 Y0.4619
G01 X0.2357 Y0.4410
G01 X0.2778 Y0.4157
G01 X0.3172 Y0.3865
G01 X0.3536 Y0.3536
G01 X0.3865 Y0.3172
G01 X0.4157 Y0.2778
G01 X0.4410 Y0.2357
G01 X0.4619 Y0.1913
G01 X0.4785 Y0.1451
G01 X0.4904 Y0.0975
G01 X0.4976 Y0.0490
G01 X0.5000 Y0.0000
G01 X0.5000 Y-40.0000
G01 X0.4976 Y-40.0490
G01 X0.4904 Y-40.0975
G01 X0.4785 Y-40.1451
G01 X0.4619 Y-40.1913
G01 X0.4410 Y-40.2357
G01 X0.4157 Y-40.2778
G01 X0.3865 Y-40.3172
G01 X0.3536 Y-40.3536
G01 X0.3172 Y-40.3865
G01 X0.2778 Y-40.4157
G01 X0.2357 Y-40.4410
G01 X0.1913 Y-40.4619
G01 X0.1451 Y-40.4785
G01 X0.0975 Y-40.4904
G01 X0.0490 Y-40.4976
G01 X0.0000 Y-40.5000
G00 X0.0000 Y-40.5000
G01 F70.00
G01 Z-0.4000
G01 F120.00
G01 X-60.0000 Y-40.5000
G01 X-60.0490 Y-40.4976
G01 X-60.0975 Y-40.4904
G01 X-60.1451 Y-40.4785
G01 X-60.1913 Y-40.4619
G01 X-60.2357 Y-40.4410
G01 X-60.2778 Y-40.4157
G01 X-60.3172 Y-40.3865
G01 X-60.3536 Y-40.3536
G01 X-60.3865 Y-40.3172
G01 X-60.4157 Y-40.2778
G01 X-60.4410 Y-40.2357
G01 X-60.4619 Y-40.1913
G01 X-60.4785 Y-40.1451
G01 X-60.4904 Y-40.0975
G01 X-60.4976 Y-40.0490
G01 X-60.5000 Y-40.0000
G01 X-60.5000 Y0.0000
G01 X-60.4976 Y0.0490
G01 X-60.4904 Y0.0975
G01 X-60.4785 Y0.1451
G01 X-60.4619 Y0.1913
G01 X-60.4410 Y0.2357
G01 X-60.4157 Y0.2778
G01 X-60.3865 Y0.3172
G01 X-60.3536 Y0.3536
G01 X-60.3172 Y0.3865
G01 X-60.2778 Y0.4157
G01 X-60.2357 Y0.4410
G01 X-60.1913 Y0.4619
G01 X-60.1451 Y0.4785
G01 X-60.0975 Y0.4904
G01 X-60.0490 Y0.4976
G01 X-60.0000 Y0.5000
G01 X0.0000 Y0.5000
G01 X0.0490 Y0.4976
G01 X0.0975 Y0.4904
G01 X0.1451 Y0.4785
G01 X0.1913 Y0.4619
G01 X0.2357 Y0.4410
G01 X0.2778 Y0.4157
G01 X0.3172 Y0.3865
G01 X0.3536 Y0.3536
G01 X0.3865 Y0.3172
G01 X0.4157 Y0.2778
G01 X0.4410 Y0.2357
G01 X0.4619 Y0.1913
G01 X0.4785 Y0.1451
G01 X0.4904 Y0.0975
G01 X0.4976 Y0.0490
G01 X0.5000 Y0.0000
G01 X0.5000 Y-40.0000
G01 X0.4976 Y-40.0490
G01 X0.4904 Y-40.0975
G01 X0.4785 Y-40.1451
G01 X0.4619 Y-40.1913
G01 X0.4410 Y-40.2357
G01 X0.4157 Y-40.2778
G01 X0.3865 Y-40.3172
G01 X0.3536 Y-40.3536
G01 X0.3172 Y-40.3865
G01 X0.2778 Y-40.4157
G01 X0.2357 Y-40.4410
G01 X0.1913 Y-40.4619
G01 X0.1451 Y-40.4785
G01 X0.0975 Y-40.4904
G01 X0.0490 Y-40.4976
G01 X0.0000 Y-40.5000
G00 X0.0000 Y-40.5000
G01 F70.00
G01 Z-0.5000
G01 F120.00
G01 X-60.0000 Y-40.5000
G01 X-60.0490 Y-40.4976
G01 X-60.0975 Y-40.4904
G01 X-60.1451 Y-40.4785
G01 X-60.1913 Y-40.4619
G01 X-60.2357 Y-40.4410
G01 X-60.2778 Y-40.4157
G01 X-60.3172 Y-40.3865
G01 X-60.3536 Y-40.3536
G01 X-60.3865 Y-40.3172
G01 X-60.4157 Y-40.2778
G01 X-60.4410 Y-40.2357
G01 X-60.4619 Y-40.1913
G01 X-60.4785 Y-40.1451
G01 X-60.4904 Y-40.0975
G01 X-60.4976 Y-40.0490
G01 X-60.5000 Y-40.0000
G01 X-60.5000 Y0.0000
G01 X-60.4976 Y0.0490
G01 X-60.4904 Y0.0975
G01 X-60.4785 Y0.1451
G01 X-60.4619 Y0.1913
G01 X-60.4410 Y0.2357
G01 X-60.4157 Y0.2778
G01 X-60.3865 Y0.3172
G01 X-60.3536 Y0.3536
G01 X-60.3172 Y0.3865
G01 X-60.2778 Y0.4157
G01 X-60.2357 Y0.4410
G01 X-60.1913 Y0.4619
G01 X-60.1451 Y0.4785
G01 X-60.0975 Y0.4904
G01 X-60.0490 Y0.4976
G01 X-60.0000 Y0.5000
G01 X0.0000 Y0.5000
G01 X0.0490 Y0.4976
G01 X0.0975 Y0.4904
G01 X0.1451 Y0.4785
G01 X0.1913 Y0.4619
G01 X0.2357 Y0.4410
G01 X0.2778 Y0.4157
G01 X0.3172 Y0.3865
G01 X0.3536 Y0.3536
G01 X0.3865 Y0.3172
G01 X0.4157 Y0.2778
G01 X0.4410 Y0.2357
G01 X0.4619 Y0.1913
G01 X0.4785 Y0.1451
G01 X0.4904 Y0.0975
G01 X0.4976 Y0.0490
G01 X0.5000 Y0.0000
G01 X0.5000 Y-40.0000
G01 X0.4976 Y-40.0490
G01 X0.4904 Y-40.0975
G01 X0.4785 Y-40.1451
G01 X0.4619 Y-40.1913
G01 X0.4410 Y-40.2357
G01 X0.4157 Y-40.2778
G01 X0.3865 Y-40.3172
G01 X0.3536 Y-40.3536
G01 X0.3172 Y-40.3865
G01 X0.2778 Y-40.4157
G01 X0.2357 Y-40.4410
G01 X0.1913 Y-40.4619
G01 X0.1451 Y-40.4785
G01 X0.0975 Y-40.4904
G01 X0.0490 Y-40.4976
G01 X0.0000 Y-40.5000
G00 X0.0000 Y-40.5000
G01 F70.00
G01 Z-0.6000
G01 F120.00
G01 X-60.0000 Y-40.5000
G01 X-60.0490 Y-40.4976
G01 X-60.0975 Y-40.4904
G01 X-60.1451 Y-40.4785
G01 X-60.1913 Y-40.4619
G01 X-60.2357 Y-40.4410
G01 X-60.2778 Y-40.4157
G01 X-60.3172 Y-40.3865
G01 X-60.3536 Y-40.3536
G01 X-60.3865 Y-40.3172
G01 X-60.4157 Y-40.2778
G01 X-60.4410 Y-40.2357
G01 X-60.4619 Y-40.1913
G01 X-60.4785 Y-40.1451
G01 X-60.4904 Y-40.0975
G01 X-60.4976 Y-40.0490
G01 X-60.5000 Y-40.0000
G01 X-60.5000 Y0.0000
G01 X-60.4976 Y0.0490
G01 X-60.4904 Y0.0975
G01 X-60.4785 Y0.1451
G01 X-60.4619 Y0.1913
G01 X-60.4410 Y0.2357
G01 X-60.4157 Y0.2778
G01 X-60.3865 Y0.3172
G01 X-60.3536 Y0.3536
G01 X-60.3172 Y0.3865
G01 X-60.2778 Y0.4157
G01 X-60.2357 Y0.4410
G01 X-60.1913 Y0.4619
G01 X-60.1451 Y0.4785
G01 X-60.0975 Y0.4904
G01 X-60.0490 Y0.4976
G01 X-60.0000 Y0.5000
G01 X0.0000 Y0.5000
G01 X0.0490 Y0.4976
G01 X0.0975 Y0.4904
G01 X0.1451 Y0.4785
G01 X0.1913 Y0.4619
G01 X0.2357 Y0.4410
G01 X0.2778 Y0.4157
G01 X0.3172 Y0.3865
G01 X0.3536 Y0.3536
G01 X0.3865 Y0.3172
G01 X0.4157 Y0.2778
G01 X0.4410 Y0.2357
G01 X0.4619 Y0.1913
G01 X0.4785 Y0.1451
G01 X0.4904 Y0.0975
G01 X0.4976 Y0.0490
G01 X0.5000 Y0.0000
G01 X0.5000 Y-40.0000
G01 X0.4976 Y-40.0490
G01 X0.4904 Y-40.0975
G01 X0.4785 Y-40.1451
G01 X0.4619 Y-40.1913
G01 X0.4410 Y-40.2357
G01 X0.4157 Y-40.2778
G01 X0.3865 Y-40.3172
G01 X0.3536 Y-40.3536
G01 X0.3172 Y-40.3865
G01 X0.2778 Y-40.4157
G01 X0.2357 Y-40.4410
G01 X0.1913 Y-40.4619
G01 X0.1451 Y-40.4785
G01 X0.0975 Y-40.4904
G01 X0.0490 Y-40.4976
G01 X0.0000 Y-40.5000
G00 X0.0000 Y-40.5000
G01 F70.00
G01 Z-0.7000
G01 F120.00
G01 X-60.0000 Y-40.5000
G01 X-60.0490 Y-40.4976
G01 X-60.0975 Y-40.4904
G01 X-60.1451 Y-40.4785
G01 X-60.1913 Y-40.4619
G01 X-60.2357 Y-40.4410
G01 X-60.2778 Y-40.4157
G01 X-60.3172 Y-40.3865
G01 X-60.3536 Y-40.3536
G01 X-60.3865 Y-40.3172
G01 X-60.4157 Y-40.2778
G01 X-60.4410 Y-40.2357
G01 X-60.4619 Y-40.1913
G01 X-60.4785 Y-40.1451
G01 X-60.4904 Y-40.0975
G01 X-60.4976 Y-40.0490
G01 X-60.5000 Y-40.0000
G01 X-60.5000 Y0.0000
G01 X-60.4976 Y0.0490
G01 X-60.4904 Y0.0975
G01 X-60.4785 Y0.1451
G01 X-60.4619 Y0.1913
G01 X-60.4410 Y0.2357
G01 X-60.4157 Y0.2778
G01 X-60.3865 Y0.3172
G01 X-60.3536 Y0.3536
G01 X-60.3172 Y0.3865
G01 X-60.2778 Y0.4157
G01 X-60.2357 Y0.4410
G01 X-60.1913 Y0.4619
G01 X-60.1451 Y0.4785
G01 X-60.0975 Y0.4904
G01 X-60.0490 Y0.4976
G01 X-60.0000 Y0.5000
G01 X0.0000 Y0.5000
G01 X0.0490 Y0.4976
G01 X0.0975 Y0.4904
G01 X0.1451 Y0.4785
G01 X0.1913 Y0.4619
G01 X0.2357 Y0.4410
G01 X0.2778 Y0.4157
G01 X0.3172 Y0.3865
G01 X0.3536 Y0.3536
G01 X0.3865 Y0.3172
G01 X0.4157 Y0.2778
G01 X0.4410 Y0.2357
G01 X0.4619 Y0.1913
G01 X0.4785 Y0.1451
G01 X0.4904 Y0.0975
G01 X0.4976 Y0.0490
G01 X0.5000 Y0.0000
G01 X0.5000 Y-40.0000
G01 X0.4976 Y-40.0490
G01 X0.4904 Y-40.0975
G01 X0.4785 Y-40.1451
G01 X0.4619 Y-40.1913
G01 X0.4410 Y-40.2357
G01 X0.4157 Y-40.2778
G01 X0.3865 Y-40.3172
G01 X0.3536 Y-40.3536
G01 X0.3172 Y-40.3865
G01 X0.2778 Y-40.4157
G01 X0.2357 Y-40.4410
G01 X0.1913 Y-40.4619
G01 X0.1451 Y-40.4785
G01 X0.0975 Y-40.4904
G01 X0.0490 Y-40.4976
G01 X0.0000 Y-40.5000
G00 X0.0000 Y-40.5000
G01 F70.00
G01 Z-0.8000
G01 F120.00
G01 X-60.0000 Y-40.5000
G01 X-60.0490 Y-40.4976
G01 X-60.0975 Y-40.4904
G01 X-60.1451 Y-40.4785
G01 X-60.1913 Y-40.4619
G01 X-60.2357 Y-40.4410
G01 X-60.2778 Y-40.4157
G01 X-60.3172 Y-40.3865
G01 X-60.3536 Y-40.3536
G01 X-60.3865 Y-40.3172
G01 X-60.4157 Y-40.2778
G01 X-60.4410 Y-40.2357
G01 X-60.4619 Y-40.1913
G01 X-60.4785 Y-40.1451
G01 X-60.4904 Y-40.0975
G01 X-60.4976 Y-40.0490
G01 X-60.5000 Y-40.0000
G01 X-60.5000 Y0.0000
G01 X-60.4976 Y0.0490
G01 X-60.4904 Y0.0975
G01 X-60.4785 Y0.1451
G01 X-60.4619 Y0.1913
G01 X-60.4410 Y0.2357
G01 X-60.4157 Y0.2778
G01 X-60.3865 Y0.3172
G01 X-60.3536 Y0.3536
G01 X-60.3172 Y0.3865
G01 X-60.2778 Y0.4157
G01 X-60.2357 Y0.4410
G01 X-60.1913 Y0.4619
G01 X-60.1451 Y0.4785
G01 X-60.0975 Y0.4904
G01 X-60.0490 Y0.4976
G01 X-60.0000 Y0.5000
G01 X0.0000 Y0.5000
G01 X0.0490 Y0.4976
G01 X0.0975 Y0.4904
G01 X0.1451 Y0.4785
G01 X0.1913 Y0.4619
G01 X0.2357 Y0.4410
G01 X0.2778 Y0.4157
G01 X0.3172 Y0.3865
G01 X0.3536 Y0.3536
G01 X0.3865 Y0.3172
G01 X0.4157 Y0.2778
G01 X0.4410 Y0.2357
G01 X0.4619 Y0.1913
G01 X0.4785 Y0.1451
G01 X0.4904 Y0.0975
G01 X0.4976 Y0.0490
G01 X0.5000 Y0.0000
G01 X0.5000 Y-40.0000
G01 X0.4976 Y-40.0490
G01 X0.4904 Y-40.0975
G01 X0.4785 Y-40.1451
G01 X0.4619 Y-40.1913
G01 X0.4410 Y-40.2357
G01 X0.4157 Y-40.2778
G01 X0.3865 Y-40.3172
G01 X0.3536 Y-40.3536
G01 X0.3172 Y-40.3865
G01 X0.2778 Y-40.4157
G01 X0.2357 Y-40.4410
G01 X0.1913 Y-40.4619
G01 X0.1451 Y-40.4785
G01 X0.0975 Y-40.4904
G01 X0.0490 Y-40.4976
G01 X0.0000 Y-40.5000
G00 X0.0000 Y-40.5000
G01 F70.00
G01 Z-0.9000
G01 F120.00
G01 X-60.0000 Y-40.5000
G01 X-60.0490 Y-40.4976
G01 X-60.0975 Y-40.4904
G01 X-60.1451 Y-40.4785
G01 X-60.1913 Y-40.4619
G01 X-60.2357 Y-40.4410
G01 X-60.2778 Y-40.4157
G01 X-60.3172 Y-40.3865
G01 X-60.3536 Y-40.3536
G01 X-60.3865 Y-40.3172
G01 X-60.4157 Y-40.2778
G01 X-60.4410 Y-40.2357
G01 X-60.4619 Y-40.1913
G01 X-60.4785 Y-40.1451
G01 X-60.4904 Y-40.0975
G01 X-60.4976 Y-40.0490
G01 X-60.5000 Y-40.0000
G01 X-60.5000 Y0.0000
G01 X-60.4976 Y0.0490
G01 X-60.4904 Y0.0975
G01 X-60.4785 Y0.1451
G01 X-60.4619 Y0.1913
G01 X-60.4410 Y0.2357
G01 X-60.4157 Y0.2778
G01 X-60.3865 Y0.3172
G01 X-60.3536 Y0.3536
G01 X-60.3172 Y0.3865
G01 X-60.2778 Y0.4157
G01 X-60.2357 Y0.4410
G01 X-60.1913 Y0.4619
G01 X-60.1451 Y0.4785
G01 X-60.0975 Y0.4904
G01 X-60.0490 Y0.4976
G01 X-60.0000 Y0.5000
G01 X0.0000 Y0.5000
G01 X0.0490 Y0.4976
G01 X0.0975 Y0.4904
G01 X0.1451 Y0.4785
G01 X0.1913 Y0.4619
G01 X0.2357 Y0.4410
G01 X0.2778 Y0.4157
G01 X0.3172 Y0.3865
G01 X0.3536 Y0.3536
G01 X0.3865 Y0.3172
G01 X0.4157 Y0.2778
G01 X0.4410 Y0.2357
G01 X0.4619 Y0.1913
G01 X0.4785 Y0.1451
G01 X0.4904 Y0.0975
G01 X0.4976 Y0.0490
G01 X0.5000 Y0.0000
G01 X0.5000 Y-40.0000
G01 X0.4976 Y-40.0490
G01 X0.4904 Y-40.0975
G01 X0.4785 Y-40.1451
G01 X0.4619 Y-40.1913
G01 X0.4410 Y-40.2357
G01 X0.4157 Y-40.2778
G01 X0.3865 Y-40.3172
G01 X0.3536 Y-40.3536
G01 X0.3172 Y-40.3865
G01 X0.2778 Y-40.4157
G01 X0.2357 Y-40.4410
G01 X0.1913 Y-40.4619
G01 X0.1451 Y-40.4785
G01 X0.0975 Y-40.4904
G01 X0.0490 Y-40.4976
G01 X0.0000 Y-40.5000
G00 X0.0000 Y-40.5000
G01 F70.00
G01 Z-1.0000
G01 F120.00
G01 X-60.0000 Y-40.5000
G01 X-60.0490 Y-40.4976
G01 X-60.0975 Y-40.4904
G01 X-60.1451 Y-40.4785
G01 X-60.1913 Y-40.4619
G01 X-60.2357 Y-40.4410
G01 X-60.2778 Y-40.4157
G01 X-60.3172 Y-40.3865
G01 X-60.3536 Y-40.3536
G01 X-60.3865 Y-40.3172
G01 X-60.4157 Y-40.2778
G01 X-60.4410 Y-40.2357
G01 X-60.4619 Y-40.1913
G01 X-60.4785 Y-40.1451
G01 X-60.4904 Y-40.0975
G01 X-60.4976 Y-40.0490
G01 X-60.5000 Y-40.0000
G01 X-60.5000 Y0.0000
G01 X-60.4976 Y0.0490
G01 X-60.4904 Y0.0975
G01 X-60.4785 Y0.1451
G01 X-60.4619 Y0.1913
G01 X-60.4410 Y0.2357
G01 X-60.4157 Y0.2778
G01 X-60.3865 Y0.3172
G01 X-60.3536 Y0.3536
G01 X-60.3172 Y0.3865
G01 X-60.2778 Y0.4157
G01 X-60.2357 Y0.4410
G01 X-60.1913 Y0.4619
G01 X-60.1451 Y0.4785
G01 X-60.0975 Y0.4904
G01 X-60.0490 Y0.4976
G01 X-60.0000 Y0.5000
G01 X0.0000 Y0.5000
G01 X0.0490 Y0.4976
G01 X0.0975 Y0.4904
G01 X0.1451 Y0.4785
G01 X0.1913 Y0.4619
G01 X0.2357 Y0.4410
G01 X0.2778 Y0.4157
G01 X0.3172 Y0.3865
G01 X0.3536 Y0.3536
G01 X0.3865 Y0.3172
G01 X0.4157 Y0.2778
G01 X0.4410 Y0.2357
G01 X0.4619 Y0.1913
G01 X0.4785 Y0.1451
G01 X0.4904 Y0.0975
G01 X0.4976 Y0.0490
G01 X0.5000 Y0.0000
G01 X0.5000 Y-40.0000
G01 X0.4976 Y-40.0490
G01 X0.4904 Y-40.0975
G01 X0.4785 Y-40.1451
G01 X0.4619 Y-40.1913
G01 X0.4410 Y-40.2357
G01 X0.4157 Y-40.2778
G01 X0.3865 Y-40.3172
G01 X0.3536 Y-40.3536
G01 X0.3172 Y-40.3865
G01 X0.2778 Y-40.4157
G01 X0.2357 Y-40.4410
G01 X0.1913 Y-40.4619
G01 X0.1451 Y-40.4785
G01 X0.0975 Y-40.4904
G01 X0.0490 Y-40.4976
G01 X0.0000 Y-40.5000
G00 X0.0000 Y-40.5000
G01 F70.00
G01 Z-1.1000
G01 F120.00
G01 X-60.0000 Y-40.5000
G01 X-60.0490 Y-40.4976
G01 X-60.0975 Y-40.4904
G01 X-60.1451 Y-40.4785
G01 X-60.1913 Y-40.4619
G01 X-60.2357 Y-40.4410
G01 X-60.2778 Y-40.4157
G01 X-60.3172 Y-40.3865
G01 X-60.3536 Y-40.3536
G01 X-60.3865 Y-40.3172
G01 X-60.4157 Y-40.2778
G01 X-60.4410 Y-40.2357
G01 X-60.4619 Y-40.1913
G01 X-60.4785 Y-40.1451
G01 X-60.4904 Y-40.0975
G01 X-60.4976 Y-40.0490
G01 X-60.5000 Y-40.0000
G01 X-60.5000 Y0.0000
G01 X-60.4976 Y0.0490
G01 X-60.4904 Y0.0975
G01 X-60.4785 Y0.1451
G01 X-60.4619 Y0.1913
G01 X-60.4410 Y0.2357
G01 X-60.4157 Y0.2778
G01 X-60.3865 Y0.3172
G01 X-60.3536 Y0.3536
G01 X-60.3172 Y0.3865
G01 X-60.2778 Y0.4157
G01 X-60.2357 Y0.4410
G01 X-60.1913 Y0.4619
G01 X-60.1451 Y0.4785
G01 X-60.0975 Y0.4904
G01 X-60.0490 Y0.4976
G01 X-60.0000 Y0.5000
G01 X0.0000 Y0.5000
G01 X0.0490 Y0.4976
G01 X0.0975 Y0.4904
G01 X0.1451 Y0.4785
G01 X0.1913 Y0.4619
G01 X0.2357 Y0.4410
G01 X0.2778 Y0.4157
G01 X0.3172 Y0.3865
G01 X0.3536 Y0.3536
G01 X0.3865 Y0.3172
G01 X0.4157 Y0.2778
G01 X0.4410 Y0.2357
G01 X0.4619 Y0.1913
G01 X0.4785 Y0.1451
G01 X0.4904 Y0.0975
G01 X0.4976 Y0.0490
G01 X0.5000 Y0.0000
G01 X0.5000 Y-40.0000
G01 X0.4976 Y-40.0490
G01 X0.4904 Y-40.0975
G01 X0.4785 Y-40.1451
G01 X0.4619 Y-40.1913
G01 X0.4410 Y-40.2357
G01 X0.4157 Y-40.2778
G01 X0.3865 Y-40.3172
G01 X0.3536 Y-40.3536
G01 X0.3172 Y-40.3865
G01 X0.2778 Y-40.4157
G01 X0.2357 Y-40.4410
G01 X0.1913 Y-40.4619
G01 X0.1451 Y-40.4785
G01 X0.0975 Y-40.4904
G01 X0.0490 Y-40.4976
G01 X0.0000 Y-40.5000
G00 X0.0000 Y-40.5000
G01 F70.00
G01 Z-1.2000
G01 F120.00
G01 X-60.0000 Y-40.5000
G01 X-60.0490 Y-40.4976
G01 X-60.0975 Y-40.4904
G01 X-60.1451 Y-40.4785
G01 X-60.1913 Y-40.4619
G01 X-60.2357 Y-40.4410
G01 X-60.2778 Y-40.4157
G01 X-60.3172 Y-40.3865
G01 X-60.3536 Y-40.3536
G01 X-60.3865 Y-40.3172
G01 X-60.4157 Y-40.2778
G01 X-60.4410 Y-40.2357
G01 X-60.4619 Y-40.1913
G01 X-60.4785 Y-40.1451
G01 X-60.4904 Y-40.0975
G01 X-60.4976 Y-40.0490
G01 X-60.5000 Y-40.0000
G01 X-60.5000 Y0.0000
G01 X-60.4976 Y0.0490
G01 X-60.4904 Y0.0975
G01 X-60.4785 Y0.1451
G01 X-60.4619 Y0.1913
G01 X-60.4410 Y0.2357
G01 X-60.4157 Y0.2778
G01 X-60.3865 Y0.3172
G01 X-60.3536 Y0.3536
G01 X-60.3172 Y0.3865
G01 X-60.2778 Y0.4157
G01 X-60.2357 Y0.4410
G01 X-60.1913 Y0.4619
G01 X-60.1451 Y0.4785
G01 X-60.0975 Y0.4904
G01 X-60.0490 Y0.4976
G01 X-60.0000 Y0.5000
G01 X0.0000 Y0.5000
G01 X0.0490 Y0.4976
G01 X0.0975 Y0.4904
G01 X0.1451 Y0.4785
G01 X0.1913 Y0.4619
G01 X0.2357 Y0.4410
G01 X0.2778 Y0.4157
G01 X0.3172 Y0.3865
G01 X0.3536 Y0.3536
G01 X0.3865 Y0.3172
G01 X0.4157 Y0.2778
G01 X0.4410 Y0.2357
G01 X0.4619 Y0.1913
G01 X0.4785 Y0.1451
G01 X0.4904 Y0.0975
G01 X0.4976 Y0.0490
G01 X0.5000 Y0.0000
G01 X0.5000 Y-40.0000
G01 X0.4976 Y-40.0490
G01 X0.4904 Y-40.0975
G01 X0.4785 Y-40.1451
G01 X0.4619 Y-40.1913
G01 X0.4410 Y-40.2357
G01 X0.4157 Y-40.2778
G01 X0.3865 Y-40.3172
G01 X0.3536 Y-40.3536
G01 X0.3172 Y-40.3865
G01 X0.2778 Y-40.4157
G01 X0.2357 Y-40.4410
G01 X0.1913 Y-40.4619
G01 X0.1451 Y-40.4785
G01 X0.0975 Y-40.4904
G01 X0.0490 Y-40.4976
G01 X0.0000 Y-40.5000
G00 X0.0000 Y-40.5000
G01 F70.00
G01 Z-1.3000
G01 F120.00
G01 X-60.0000 Y-40.5000
G01 X-60.0490 Y-40.4976
G01 X-60.0975 Y-40.4904
G01 X-60.1451 Y-40.4785
G01 X-60.1913 Y-40.4619
G01 X-60.2357 Y-40.4410
G01 X-60.2778 Y-40.4157
G01 X-60.3172 Y-40.3865
G01 X-60.3536 Y-40.3536
G01 X-60.3865 Y-40.3172
G01 X-60.4157 Y-40.2778
G01 X-60.4410 Y-40.2357
G01 X-60.4619 Y-40.1913
G01 X-60.4785 Y-40.1451
G01 X-60.4904 Y-40.0975
G01 X-60.4976 Y-40.0490
G01 X-60.5000 Y-40.0000
G01 X-60.5000 Y0.0000
G01 X-60.4976 Y0.0490
G01 X-60.4904 Y0.0975
G01 X-60.4785 Y0.1451
G01 X-60.4619 Y0.1913
G01 X-60.4410 Y0.2357
G01 X-60.4157 Y0.2778
G01 X-60.3865 Y0.3172
G01 X-60.3536 Y0.3536
G01 X-60.3172 Y0.3865
G01 X-60.2778 Y0.4157
G01 X-60.2357 Y0.4410
G01 X-60.1913 Y0.4619
G01 X-60.1451 Y0.4785
G01 X-60.0975 Y0.4904
G01 X-60.0490 Y0.4976
G01 X-60.0000 Y0.5000
G01 X0.0000 Y0.5000
G01 X0.0490 Y0.4976
G01 X0.0975 Y0.4904
G01 X0.1451 Y0.4785
G01 X0.1913 Y0.4619
G01 X0.2357 Y0.4410
G01 X0.2778 Y0.4157
G01 X0.3172 Y0.3865
G01 X0.3536 Y0.3536
G01 X0.3865 Y0.3172
G01 X0.4157 Y0.2778
G01 X0.4410 Y0.2357
G01 X0.4619 Y0.1913
G01 X0.4785 Y0.1451
G01 X0.4904 Y0.0975
G01 X0.4976 Y0.0490
G01 X0.5000 Y0.0000
G01 X0.5000 Y-40.0000
G01 X0.4976 Y-40.0490
G01 X0.4904 Y-40.0975
G01 X0.4785 Y-40.1451
G01 X0.4619 Y-40.1913
G01 X0.4410 Y-40.2357
G01 X0.4157 Y-40.2778
G01 X0.3865 Y-40.3172
G01 X0.3536 Y-40.3536
G01 X0.3172 Y-40.3865
G01 X0.2778 Y-40.4157
G01 X0.2357 Y-40.4410
G01 X0.1913 Y-40.4619
G01 X0.1451 Y-40.4785
G01 X0.0975 Y-40.4904
G01 X0.0490 Y-40.4976
G01 X0.0000 Y-40.5000
G00 X0.0000 Y-40.5000
G01 F70.00
G01 Z-1.4000
G01 F120.00
G01 X-60.0000 Y-40.5000
G01 X-60.0490 Y-40.4976
G01 X-60.0975 Y-40.4904
G01 X-60.1451 Y-40.4785
G01 X-60.1913 Y-40.4619
G01 X-60.2357 Y-40.4410
G01 X-60.2778 Y-40.4157
G01 X-60.3172 Y-40.3865
G01 X-60.3536 Y-40.3536
G01 X-60.3865 Y-40.3172
G01 X-60.4157 Y-40.2778
G01 X-60.4410 Y-40.2357
G01 X-60.4619 Y-40.1913
G01 X-60.4785 Y-40.1451
G01 X-60.4904 Y-40.0975
G01 X-60.4976 Y-40.0490
G01 X-60.5000 Y-40.0000
G01 X-60.5000 Y0.0000
G01 X-60.4976 Y0.0490
G01 X-60.4904 Y0.0975
G01 X-60.4785 Y0.1451
G01 X-60.4619 Y0.1913
G01 X-60.4410 Y0.2357
G01 X-60.4157 Y0.2778
G01 X-60.3865 Y0.3172
G01 X-60.3536 Y0.3536
G01 X-60.3172 Y0.3865
G01 X-60.2778 Y0.4157
G01 X-60.2357 Y0.4410
G01 X-60.1913 Y0.4619
G01 X-60.1451 Y0.4785
G01 X-60.0975 Y0.4904
G01 X-60.0490 Y0.4976
G01 X-60.0000 Y0.5000
G01 X0.0000 Y0.5000
G01 X0.0490 Y0.4976
G01 X0.0975 Y0.4904
G01 X0.1451 Y0.4785
G01 X0.1913 Y0.4619
G01 X0.2357 Y0.4410
G01 X0.2778 Y0.4157
G01 X0.3172 Y0.3865
G01 X0.3536 Y0.3536
G01 X0.3865 Y0.3172
G01 X0.4157 Y0.2778
G01 X0.4410 Y0.2357
G01 X0.4619 Y0.1913
G01 X0.4785 Y0.1451
G01 X0.4904 Y0.0975
G01 X0.4976 Y0.0490
G01 X0.5000 Y0.0000
G01 X0.5000 Y-40.0000
G01 X0.4976 Y-40.0490
G01 X0.4904 Y-40.0975
G01 X0.4785 Y-40.1451
G01 X0.4619 Y-40.1913
G01 X0.4410 Y-40.2357
G01 X0.4157 Y-40.2778
G01 X0.3865 Y-40.3172
G01 X0.3536 Y-40.3536
G01 X0.3172 Y-40.3865
G01 X0.2778 Y-40.4157
G01 X0.2357 Y-40.4410
G01 X0.1913 Y-40.4619
G01 X0.1451 Y-40.4785
G01 X0.0975 Y-40.4904
G01 X0.0490 Y-40.4976
G01 X0.0000 Y-40.5000
G00 X0.0000 Y-40.5000
G01 F70.00
G01 Z-1.5000
G01 F120.00
G01 X-60.0000 Y-40.5000
G01 X-60.0490 Y-40.4976
G01 X-60.0975 Y-40.4904
G01 X-60.1451 Y-40.4785
G01 X-60.1913 Y-40.4619
G01 X-60.2357 Y-40.4410
G01 X-60.2778 Y-40.4157
G01 X-60.3172 Y-40.3865
G01 X-60.3536 Y-40.3536
G01 X-60.3865 Y-40.3172
G01 X-60.4157 Y-40.2778
G01 X-60.4410 Y-40.2357
G01 X-60.4619 Y-40.1913
G01 X-60.4785 Y-40.1451
G01 X-60.4904 Y-40.0975
G01 X-60.4976 Y-40.0490
G01 X-60.5000 Y-40.0000
G01 X-60.5000 Y0.0000
G01 X-60.4976 Y0.0490
G01 X-60.4904 Y0.0975
G01 X-60.4785 Y0.1451
G01 X-60.4619 Y0.1913
G01 X-60.4410 Y0.2357
G01 X-60.4157 Y0.2778
G01 X-60.3865 Y0.3172
G01 X-60.3536 Y0.3536
G01 X-60.3172 Y0.3865
G01 X-60.2778 Y0.4157
G01 X-60.2357 Y0.4410
G01 X-60.1913 Y0.4619
G01 X-60.1451 Y0.4785
G01 X-60.0975 Y0.4904
G01 X-60.0490 Y0.4976
G01 X-60.0000 Y0.5000
G01 X0.0000 Y0.5000
G01 X0.0490 Y0.4976
G01 X0.0975 Y0.4904
G01 X0.1451 Y0.4785
G01 X0.1913 Y0.4619
G01 X0.2357 Y0.4410
G01 X0.2778 Y0.4157
G01 X0.3172 Y0.3865
G01 X0.3536 Y0.3536
G01 X0.3865 Y0.3172
G01 X0.4157 Y0.2778
G01 X0.4410 Y0.2357
G01 X0.4619 Y0.1913
G01 X0.4785 Y0.1451
G01 X0.4904 Y0.0975
G01 X0.4976 Y0.0490
G01 X0.5000 Y0.0000
G01 X0.5000 Y-40.0000
G01 X0.4976 Y-40.0490
G01 X0.4904 Y-40.0975
G01 X0.4785 Y-40.1451
G01 X0.4619 Y-40.1913
G01 X0.4410 Y-40.2357
G01 X0.4157 Y-40.2778
G01 X0.3865 Y-40.3172
G01 X0.3536 Y-40.3536
G01 X0.3172 Y-40.3865
G01 X0.2778 Y-40.4157
G01 X0.2357 Y-40.4410
G01 X0.1913 Y-40.4619
G01 X0.1451 Y-40.4785
G01 X0.0975 Y-40.4904
G01 X0.0490 Y-40.4976
G01 X0.0000 Y-40.5000
G00 X0.0000 Y-40.5000
G01 F70.00
G01 Z-1.6000
G01 F120.00
G01 X-60.0000 Y-40.5000
G01 X-60.0490 Y-40.4976
G01 X-60.0975 Y-40.4904
G01 X-60.1451 Y-40.4785
G01 X-60.1913 Y-40.4619
G01 X-60.2357 Y-40.4410
G01 X-60.2778 Y-40.4157
G01 X-60.3172 Y-40.3865
G01 X-60.3536 Y-40.3536
G01 X-60.3865 Y-40.3172
G01 X-60.4157 Y-40.2778
G01 X-60.4410 Y-40.2357
G01 X-60.4619 Y-40.1913
G01 X-60.4785 Y-40.1451
G01 X-60.4904 Y-40.0975
G01 X-60.4976 Y-40.0490
G01 X-60.5000 Y-40.0000
G01 X-60.5000 Y0.0000
G01 X-60.4976 Y0.0490
G01 X-60.4904 Y0.0975
G01 X-60.4785 Y0.1451
G01 X-60.4619 Y0.1913
G01 X-60.4410 Y0.2357
G01 X-60.4157 Y0.2778
G01 X-60.3865 Y0.3172
G01 X-60.3536 Y0.3536
G01 X-60.3172 Y0.3865
G01 X-60.2778 Y0.4157
G01 X-60.2357 Y0.4410
G01 X-60.1913 Y0.4619
G01 X-60.1451 Y0.4785
G01 X-60.0975 Y0.4904
G01 X-60.0490 Y0.4976
G01 X-60.0000 Y0.5000
G01 X0.0000 Y0.5000
G01 X0.0490 Y0.4976
G01 X0.0975 Y0.4904
G01 X0.1451 Y0.4785
G01 X0.1913 Y0.4619
G01 X0.2357 Y0.4410
G01 X0.2778 Y0.4157
G01 X0.3172 Y0.3865
G01 X0.3536 Y0.3536
G01 X0.3865 Y0.3172
G01 X0.4157 Y0.2778
G01 X0.4410 Y0.2357
G01 X0.4619 Y0.1913
G01 X0.4785 Y0.1451
G01 X0.4904 Y0.0975
G01 X0.4976 Y0.0490
G01 X0.5000 Y0.0000
G01 X0.5000 Y-40.0000
G01 X0.4976 Y-40.0490
G01 X0.4904 Y-40.0975
G01 X0.4785 Y-40.1451
G01 X0.4619 Y-40.1913
G01 X0.4410 Y-40.2357
G01 X0.4157 Y-40.2778
G01 X0.3865 Y-40.3172
G01 X0.3536 Y-40.3536
G01 X0.3172 Y-40.3865
G01 X0.2778 Y-40.4157
G01 X0.2357 Y-40.4410
G01 X0.1913 Y-40.4619
G01 X0.1451 Y-40.4785
G01 X0.0975 Y-40.4904
G01 X0.0490 Y-40.4976
G01 X0.0000 Y-40.5000
G00 X0.0000 Y-40.5000
G01 F70.00
G01 Z-1.7000
G01 F120.00
G01 X-60.0000 Y-40.5000
G01 X-60.0490 Y-40.4976
G01 X-60.0975 Y-40.4904
G01 X-60.1451 Y-40.4785
G01 X-60.1913 Y-40.4619
G01 X-60.2357 Y-40.4410
G01 X-60.2778 Y-40.4157
G01 X-60.3172 Y-40.3865
G01 X-60.3536 Y-40.3536
G01 X-60.3865 Y-40.3172
G01 X-60.4157 Y-40.2778
G01 X-60.4410 Y-40.2357
G01 X-60.4619 Y-40.1913
G01 X-60.4785 Y-40.1451
G01 X-60.4904 Y-40.0975
G01 X-60.4976 Y-40.0490
G01 X-60.5000 Y-40.0000
G01 X-60.5000 Y0.0000
G01 X-60.4976 Y0.0490
G01 X-60.4904 Y0.0975
G01 X-60.4785 Y0.1451
G01 X-60.4619 Y0.1913
G01 X-60.4410 Y0.2357
G01 X-60.4157 Y0.2778
G01 X-60.3865 Y0.3172
G01 X-60.3536 Y0.3536
G01 X-60.3172 Y0.3865
G01 X-60.2778 Y0.4157
G01 X-60.2357 Y0.4410
G01 X-60.1913 Y0.4619
G01 X-60.1451 Y0.4785
G01 X-60.0975 Y0.4904
G01 X-60.0490 Y0.4976
G01 X-60.0000 Y0.5000
G01 X0.0000 Y0.5000
G01 X0.0490 Y0.4976
G01 X0.0975 Y0.4904
G01 X0.1451 Y0.4785
G01 X0.1913 Y0.4619
G01 X0.2357 Y0.4410
G01 X0.2778 Y0.4157
G01 X0.3172 Y0.3865
G01 X0.3536 Y0.3536
G01 X0.3865 Y0.3172
G01 X0.4157 Y0.2778
G01 X0.4410 Y0.2357
G01 X0.4619 Y0.1913
G01 X0.4785 Y0.1451
G01 X0.4904 Y0.0975
G01 X0.4976 Y0.0490
G01 X0.5000 Y0.0000
G01 X0.5000 Y-40.0000
G01 X0.4976 Y-40.0490
G01 X0.4904 Y-40.0975
G01 X0.4785 Y-40.1451
G01 X0.4619 Y-40.1913
G01 X0.4410 Y-40.2357
G01 X0.4157 Y-40.2778
G01 X0.3865 Y-40.3172
G01 X0.3536 Y-40.3536
G01 X0.3172 Y-40.3865
G01 X0.2778 Y-40.4157
G01 X0.2357 Y-40.4410
G01 X0.1913 Y-40.4619
G01 X0.1451 Y-40.4785
G01 X0.0975 Y-40.4904
G01 X0.0490 Y-40.4976
G01 X0.0000 Y-40.5000
G00 Z2.0000
M05
G00 Z2.0000
G00 Z25.00

