(G-CODE GENERATED BY FLATCAM v8.993 - www.flatcam.org - Version Date: 2020/06/05)

(Name: RX_frontend_TOP.drl_cnc)
(Type: G-code from Excellon)
(Units: MM)

(Created on Saturday, 24 October 2020 at 22:40)

(This preprocessor is the default preprocessor used by FlatCAM.)
(It is made to work with MACH3 compatible motion controllers.)


(TOOLS DIAMETER: )
(Tool: 1 -> Dia: 0.5)
(Tool: 2 -> Dia: 0.8)

(FEEDRATE Z: )
(Tool: 1 -> Feedrate: 70.0)
(Tool: 2 -> Feedrate: 70.0)

(FEEDRATE RAPIDS: )
(Tool: 1 -> Feedrate Rapids: 1500)
(Tool: 2 -> Feedrate Rapids: 1500)

(Z_CUT: )
(Tool: 1 -> Z_Cut: -1.8)
(Tool: 2 -> Z_Cut: -1.8)

(Tools Offset: )
(Tool: 1 -> Offset Z: -0.0)
(Tool: 2 -> Offset Z: -0.0)

(Z_MOVE: )
(Tool: 1 -> Z_Move: 2)
(Tool: 2 -> Z_Move: 2)

(Z Toolchange: 5.0 mm)
(X,Y Toolchange: 0.00, 0.00 mm)
(Z Start: None mm)
(Z End: 2.0 mm)
(Steps per circle: 128)
(Preprocessor Excellon: default)

(X range:    3.2000 ...   57.1800  mm)
(Y range:  -37.5000 ...   -4.4200  mm)

(Spindle Speed: 10000.0 RPM)
G21
G90
G94



G01 F70.00

M5
G00 Z5.0000
T1
G00 X0.0000 Y0.0000                
M6
(MSG, Change to Tool Dia = 0.50 ||| Total drills for tool T1 = 54)
M0
G00 Z5.0000

M03 S10000
G00 X10.1600 Y-32.7000
G01 Z-1.8000
G01 Z0
G00 Z2.0000
G00 X10.3100 Y-27.8100
G01 Z-1.8000
G01 Z0
G00 Z2.0000
G00 X12.8500 Y-27.8100
G01 Z-1.8000
G01 Z0
G00 Z2.0000
G00 X15.3900 Y-27.8100
G01 Z-1.8000
G01 Z0
G00 Z2.0000
G00 X17.9300 Y-27.8100
G01 Z-1.8000
G01 Z0
G00 Z2.0000
G00 X20.4700 Y-27.8100
G01 Z-1.8000
G01 Z0
G00 Z2.0000
G00 X23.0100 Y-27.8100
G01 Z-1.8000
G01 Z0
G00 Z2.0000
G00 X25.5500 Y-27.8100
G01 Z-1.8000
G01 Z0
G00 Z2.0000
G00 X26.9500 Y-32.2600
G01 Z-1.8000
G01 Z0
G00 Z2.0000
G00 X28.8500 Y-32.2600
G01 Z-1.8000
G01 Z0
G00 Z2.0000
G00 X30.7600 Y-32.2600
G01 Z-1.8000
G01 Z0
G00 Z2.0000
G00 X36.3600 Y-29.0100
G01 Z-1.8000
G01 Z0
G00 Z2.0000
G00 X35.0900 Y-27.6100
G01 Z-1.8000
G01 Z0
G00 Z2.0000
G00 X36.3600 Y-26.2100
G01 Z-1.8000
G01 Z0
G00 Z2.0000
G00 X37.9400 Y-20.5200
G01 Z-1.8000
G01 Z0
G00 Z2.0000
G00 X38.0200 Y-13.6900
G01 Z-1.8000
G01 Z0
G00 Z2.0000
G00 X30.6000 Y-11.5900
G01 Z-1.8000
G01 Z0
G00 Z2.0000
G00 X27.7400 Y-14.4500
G01 Z-1.8000
G01 Z0
G00 Z2.0000
G00 X26.1600 Y-9.5200
G01 Z-1.8000
G01 Z0
G00 Z2.0000
G00 X28.3400 Y-9.5200
G01 Z-1.8000
G01 Z0
G00 Z2.0000
G00 X30.5200 Y-9.5200
G01 Z-1.8000
G01 Z0
G00 Z2.0000
G00 X35.0500 Y-9.5200
G01 Z-1.8000
G01 Z0
G00 Z2.0000
G00 X37.2300 Y-9.5200
G01 Z-1.8000
G01 Z0
G00 Z2.0000
G00 X39.4100 Y-9.5200
G01 Z-1.8000
G01 Z0
G00 Z2.0000
G00 X43.9400 Y-9.5200
G01 Z-1.8000
G01 Z0
G00 Z2.0000
G00 X46.1200 Y-10.8300
G01 Z-1.8000
G01 Z0
G00 Z2.0000
G00 X48.3000 Y-9.5200
G01 Z-1.8000
G01 Z0
G00 Z2.0000
G00 X44.8500 Y-16.6700
G01 Z-1.8000
G01 Z0
G00 Z2.0000
G00 X46.0400 Y-18.8500
G01 Z-1.8000
G01 Z0
G00 Z2.0000
G00 X43.8500 Y-18.8500
G01 Z-1.8000
G01 Z0
G00 Z2.0000
G00 X43.8500 Y-23.5300
G01 Z-1.8000
G01 Z0
G00 Z2.0000
G00 X48.2200 Y-23.5300
G01 Z-1.8000
G01 Z0
G00 Z2.0000
G00 X48.2200 Y-18.8500
G01 Z-1.8000
G01 Z0
G00 Z2.0000
G00 X48.9800 Y-16.5100
G01 Z-1.8000
G01 Z0
G00 Z2.0000
G00 X50.5300 Y-16.0300
G01 Z-1.8000
G01 Z0
G00 Z2.0000
G00 X54.3400 Y-12.8600
G01 Z-1.8000
G01 Z0
G00 Z2.0000
G00 X51.2000 Y-10.8700
G01 Z-1.8000
G01 Z0
G00 Z2.0000
G00 X55.0000 Y-5.0000
G01 Z-1.8000
G01 Z0
G00 Z2.0000
G00 X51.1200 Y-6.1900
G01 Z-1.8000
G01 Z0
G00 Z2.0000
G00 X48.3000 Y-4.8400
G01 Z-1.8000
G01 Z0
G00 Z2.0000
G00 X46.1600 Y-6.1900
G01 Z-1.8000
G01 Z0
G00 Z2.0000
G00 X43.9400 Y-4.8400
G01 Z-1.8000
G01 Z0
G00 Z2.0000
G00 X39.4100 Y-4.8400
G01 Z-1.8000
G01 Z0
G00 Z2.0000
G00 X35.0500 Y-4.8400
G01 Z-1.8000
G01 Z0
G00 Z2.0000
G00 X30.5200 Y-4.8400
G01 Z-1.8000
G01 Z0
G00 Z2.0000
G00 X26.1600 Y-4.8400
G01 Z-1.8000
G01 Z0
G00 Z2.0000
G00 X21.6300 Y-4.8400
G01 Z-1.8000
G01 Z0
G00 Z2.0000
G00 X21.6300 Y-9.5200
G01 Z-1.8000
G01 Z0
G00 Z2.0000
G00 X19.4500 Y-9.5200
G01 Z-1.8000
G01 Z0
G00 Z2.0000
G00 X17.2700 Y-9.5200
G01 Z-1.8000
G01 Z0
G00 Z2.0000
G00 X17.2700 Y-4.8400
G01 Z-1.8000
G01 Z0
G00 Z2.0000
G00 X5.0000 Y-5.0000
G01 Z-1.8000
G01 Z0
G00 Z2.0000
G00 X5.2300 Y-27.8100
G01 Z-1.8000
G01 Z0
G00 Z2.0000
G00 X7.7700 Y-27.8100
G01 Z-1.8000
G01 Z0
G00 Z2.0000
G01 F70.00

M5
G00 Z5.0000
T2
G00 X0.0000 Y0.0000                
M6
(MSG, Change to Tool Dia = 0.80 ||| Total drills for tool T2 = 12)
M0
G00 Z5.0000

M03 S10000
G00 X3.6000 Y-32.7600
G01 Z-1.8000
G01 Z0
G00 Z2.0000
G00 X16.0600 Y-37.1000
G01 Z-1.8000
G01 Z0
G00 Z2.0000
G00 X18.6000 Y-37.1000
G01 Z-1.8000
G01 Z0
G00 Z2.0000
G00 X18.6400 Y-32.7600
G01 Z-1.8000
G01 Z0
G00 Z2.0000
G00 X25.9600 Y-21.8000
G01 Z-1.8000
G01 Z0
G00 Z2.0000
G00 X25.9600 Y-19.2600
G01 Z-1.8000
G01 Z0
G00 Z2.0000
G00 X56.7800 Y-18.2400
G01 Z-1.8000
G01 Z0
G00 Z2.0000
G00 X54.2400 Y-18.2400
G01 Z-1.8000
G01 Z0
G00 Z2.0000
G00 X8.6100 Y-4.8200
G01 Z-1.8000
G01 Z0
G00 Z2.0000
G00 X8.6100 Y-7.3600
G01 Z-1.8000
G01 Z0
G00 Z2.0000
G00 X15.7300 Y-23.2900
G01 Z-1.8000
G01 Z0
G00 Z2.0000
G00 X13.1900 Y-23.2900
G01 Z-1.8000
G01 Z0
G00 Z2.0000
M05
G00 Z2.00

