(G-CODE GENERATED BY FLATCAM v8.993 - www.flatcam.org - Version Date: 2020/06/05)

(Name: RX_frontend_Ф2_низ.gbr_iso_combined_cnc)
(Type: G-code from Geometry)
(Units: MM)

(Created on Saturday, 24 October 2020 at 23:21)

(This preprocessor is the default preprocessor used by FlatCAM.)
(It is made to work with MACH3 compatible motion controllers.)

(TOOL DIAMETER: 0.14 mm)
(Feedrate_XY: 120.0 mm/min)
(Feedrate_Z: 70.0 mm/min)
(Feedrate rapids 1500.0 mm/min)

(Z_Cut: -0.06 mm)
(Z_Move: 2.0 mm)
(Z Start: None mm)
(Z End: 25.0 mm)
(Steps per circle: 128)
(Preprocessor Geometry: default)

(X range:  -60.2800 ...    0.2800  mm)
(Y range:  -40.2800 ...    0.2800  mm)

(Spindle Speed: 10000 RPM)
G21
G90
G94



G01 F120.00
G00 Z2.0000

M03 S10000
G00 X0.0000 Y0.0700
G01 F70.00
G01 Z-0.0600
G01 F120.00
G01 X-60.0000 Y0.0700
G01 X-60.0103 Y0.0692
G01 X-60.0203 Y0.0670
G01 X-60.0299 Y0.0633
G01 X-60.0389 Y0.0582
G01 X-60.0457 Y0.0530
G01 X-60.0519 Y0.0470
G01 X-60.0572 Y0.0403
G01 X-60.0617 Y0.0330
G01 X-60.0653 Y0.0252
G01 X-60.0679 Y0.0170
G01 X-60.0695 Y0.0086
G01 X-60.0700 Y0.0000
G01 X-60.0700 Y-40.0000
G01 X-60.0692 Y-40.0103
G01 X-60.0670 Y-40.0203
G01 X-60.0633 Y-40.0299
G01 X-60.0582 Y-40.0389
G01 X-60.0530 Y-40.0457
G01 X-60.0470 Y-40.0519
G01 X-60.0403 Y-40.0572
G01 X-60.0330 Y-40.0617
G01 X-60.0252 Y-40.0653
G01 X-60.0170 Y-40.0679
G01 X-60.0086 Y-40.0695
G01 X-60.0000 Y-40.0700
G01 X0.0000 Y-40.0700
G01 X0.0103 Y-40.0692
G01 X0.0203 Y-40.0670
G01 X0.0299 Y-40.0633
G01 X0.0389 Y-40.0582
G01 X0.0457 Y-40.0530
G01 X0.0519 Y-40.0470
G01 X0.0572 Y-40.0403
G01 X0.0617 Y-40.0330
G01 X0.0653 Y-40.0252
G01 X0.0679 Y-40.0170
G01 X0.0695 Y-40.0086
G01 X0.0700 Y-40.0000
G01 X0.0700 Y0.0000
G01 X0.0687 Y0.0137
G01 X0.0647 Y0.0268
G01 X0.0582 Y0.0389
G01 X0.0495 Y0.0495
G01 X0.0389 Y0.0582
G01 X0.0268 Y0.0647
G01 X0.0137 Y0.0687
G01 X0.0000 Y0.0700
G00 Z2.0000
G00 X0.0000 Y0.1400
G01 F70.00
G01 Z-0.0600
G01 F120.00
G01 X-60.0000 Y0.1400
G01 X-60.0205 Y0.1385
G01 X-60.0406 Y0.1340
G01 X-60.0599 Y0.1266
G01 X-60.0778 Y0.1164
G01 X-60.0914 Y0.1060
G01 X-60.1037 Y0.0940
G01 X-60.1145 Y0.0806
G01 X-60.1235 Y0.0660
G01 X-60.1306 Y0.0504
G01 X-60.1358 Y0.0340
G01 X-60.1389 Y0.0171
G01 X-60.1400 Y0.0000
G01 X-60.1400 Y-40.0000
G01 X-60.1385 Y-40.0205
G01 X-60.1340 Y-40.0406
G01 X-60.1266 Y-40.0599
G01 X-60.1164 Y-40.0778
G01 X-60.1060 Y-40.0914
G01 X-60.0940 Y-40.1037
G01 X-60.0806 Y-40.1145
G01 X-60.0660 Y-40.1235
G01 X-60.0504 Y-40.1306
G01 X-60.0340 Y-40.1358
G01 X-60.0171 Y-40.1389
G01 X-60.0000 Y-40.1400
G01 X0.0000 Y-40.1400
G01 X0.0205 Y-40.1385
G01 X0.0406 Y-40.1340
G01 X0.0599 Y-40.1266
G01 X0.0778 Y-40.1164
G01 X0.0914 Y-40.1060
G01 X0.1037 Y-40.0940
G01 X0.1145 Y-40.0806
G01 X0.1235 Y-40.0660
G01 X0.1306 Y-40.0504
G01 X0.1358 Y-40.0340
G01 X0.1389 Y-40.0171
G01 X0.1400 Y-40.0000
G01 X0.1400 Y0.0000
G01 X0.1393 Y0.0137
G01 X0.1373 Y0.0273
G01 X0.1340 Y0.0406
G01 X0.1293 Y0.0536
G01 X0.1235 Y0.0660
G01 X0.1164 Y0.0778
G01 X0.1082 Y0.0888
G01 X0.0990 Y0.0990
G01 X0.0888 Y0.1082
G01 X0.0778 Y0.1164
G01 X0.0660 Y0.1235
G01 X0.0536 Y0.1293
G01 X0.0406 Y0.1340
G01 X0.0273 Y0.1373
G01 X0.0137 Y0.1393
G01 X0.0000 Y0.1400
G00 Z2.0000
G00 X0.0000 Y0.2100
G01 F70.00
G01 Z-0.0600
G01 F120.00
G01 X-60.0000 Y0.2100
G01 X-60.0154 Y0.2094
G01 X-60.0308 Y0.2077
G01 X-60.0460 Y0.2049
G01 X-60.0610 Y0.2010
G01 X-60.0756 Y0.1959
G01 X-60.0898 Y0.1898
G01 X-60.1035 Y0.1827
G01 X-60.1167 Y0.1746
G01 X-60.1372 Y0.1590
G01 X-60.1556 Y0.1410
G01 X-60.1717 Y0.1209
G01 X-60.1852 Y0.0990
G01 X-60.1959 Y0.0756
G01 X-60.2037 Y0.0510
G01 X-60.2084 Y0.0257
G01 X-60.2100 Y0.0000
G01 X-60.2100 Y-40.0000
G01 X-60.2094 Y-40.0154
G01 X-60.2077 Y-40.0308
G01 X-60.2049 Y-40.0460
G01 X-60.2010 Y-40.0610
G01 X-60.1959 Y-40.0756
G01 X-60.1898 Y-40.0898
G01 X-60.1827 Y-40.1035
G01 X-60.1746 Y-40.1167
G01 X-60.1590 Y-40.1372
G01 X-60.1410 Y-40.1556
G01 X-60.1209 Y-40.1717
G01 X-60.0990 Y-40.1852
G01 X-60.0756 Y-40.1959
G01 X-60.0510 Y-40.2037
G01 X-60.0257 Y-40.2084
G01 X-60.0000 Y-40.2100
G01 X0.0000 Y-40.2100
G01 X0.0154 Y-40.2094
G01 X0.0308 Y-40.2077
G01 X0.0460 Y-40.2049
G01 X0.0610 Y-40.2010
G01 X0.0756 Y-40.1959
G01 X0.0898 Y-40.1898
G01 X0.1035 Y-40.1827
G01 X0.1167 Y-40.1746
G01 X0.1372 Y-40.1590
G01 X0.1556 Y-40.1410
G01 X0.1717 Y-40.1209
G01 X0.1852 Y-40.0990
G01 X0.1959 Y-40.0756
G01 X0.2037 Y-40.0510
G01 X0.2084 Y-40.0257
G01 X0.2100 Y-40.0000
G01 X0.2100 Y0.0000
G01 X0.2090 Y0.0206
G01 X0.2060 Y0.0410
G01 X0.2010 Y0.0610
G01 X0.1940 Y0.0804
G01 X0.1852 Y0.0990
G01 X0.1746 Y0.1167
G01 X0.1623 Y0.1332
G01 X0.1485 Y0.1485
G01 X0.1332 Y0.1623
G01 X0.1167 Y0.1746
G01 X0.0990 Y0.1852
G01 X0.0804 Y0.1940
G01 X0.0610 Y0.2010
G01 X0.0410 Y0.2060
G01 X0.0206 Y0.2090
G01 X0.0000 Y0.2100
G00 Z2.0000
G00 X0.0000 Y0.2800
G01 F70.00
G01 Z-0.0600
G01 F120.00
G01 X-60.0000 Y0.2800
G01 X-60.0206 Y0.2792
G01 X-60.0411 Y0.2770
G01 X-60.0613 Y0.2732
G01 X-60.0813 Y0.2679
G01 X-60.1008 Y0.2612
G01 X-60.1197 Y0.2531
G01 X-60.1380 Y0.2436
G01 X-60.1556 Y0.2328
G01 X-60.1695 Y0.2228
G01 X-60.1829 Y0.2120
G01 X-60.1955 Y0.2004
G01 X-60.2075 Y0.1880
G01 X-60.2186 Y0.1750
G01 X-60.2289 Y0.1612
G01 X-60.2384 Y0.1469
G01 X-60.2469 Y0.1320
G01 X-60.2546 Y0.1166
G01 X-60.2612 Y0.1008
G01 X-60.2669 Y0.0846
G01 X-60.2716 Y0.0680
G01 X-60.2753 Y0.0513
G01 X-60.2779 Y0.0343
G01 X-60.2795 Y0.0172
G01 X-60.2800 Y0.0000
G01 X-60.2800 Y-40.0000
G01 X-60.2792 Y-40.0206
G01 X-60.2770 Y-40.0411
G01 X-60.2732 Y-40.0613
G01 X-60.2679 Y-40.0813
G01 X-60.2612 Y-40.1008
G01 X-60.2531 Y-40.1197
G01 X-60.2436 Y-40.1380
G01 X-60.2328 Y-40.1556
G01 X-60.2228 Y-40.1695
G01 X-60.2120 Y-40.1829
G01 X-60.2004 Y-40.1955
G01 X-60.1880 Y-40.2075
G01 X-60.1750 Y-40.2186
G01 X-60.1612 Y-40.2289
G01 X-60.1469 Y-40.2384
G01 X-60.1320 Y-40.2469
G01 X-60.1166 Y-40.2546
G01 X-60.1008 Y-40.2612
G01 X-60.0846 Y-40.2669
G01 X-60.0680 Y-40.2716
G01 X-60.0513 Y-40.2753
G01 X-60.0343 Y-40.2779
G01 X-60.0172 Y-40.2795
G01 X-60.0000 Y-40.2800
G01 X0.0000 Y-40.2800
G01 X0.0206 Y-40.2792
G01 X0.0411 Y-40.2770
G01 X0.0613 Y-40.2732
G01 X0.0813 Y-40.2679
G01 X0.1008 Y-40.2612
G01 X0.1197 Y-40.2531
G01 X0.1380 Y-40.2436
G01 X0.1556 Y-40.2328
G01 X0.1695 Y-40.2228
G01 X0.1829 Y-40.2120
G01 X0.1955 Y-40.2004
G01 X0.2075 Y-40.1880
G01 X0.2186 Y-40.1750
G01 X0.2289 Y-40.1612
G01 X0.2384 Y-40.1469
G01 X0.2469 Y-40.1320
G01 X0.2546 Y-40.1166
G01 X0.2612 Y-40.1008
G01 X0.2669 Y-40.0846
G01 X0.2716 Y-40.0680
G01 X0.2753 Y-40.0513
G01 X0.2779 Y-40.0343
G01 X0.2795 Y-40.0172
G01 X0.2800 Y-40.0000
G01 X0.2800 Y0.0000
G01 X0.2787 Y0.0274
G01 X0.2746 Y0.0546
G01 X0.2679 Y0.0813
G01 X0.2587 Y0.1072
G01 X0.2469 Y0.1320
G01 X0.2328 Y0.1556
G01 X0.2164 Y0.1776
G01 X0.1980 Y0.1980
G01 X0.1776 Y0.2164
G01 X0.1556 Y0.2328
G01 X0.1320 Y0.2469
G01 X0.1072 Y0.2587
G01 X0.0813 Y0.2679
G01 X0.0546 Y0.2746
G01 X0.0274 Y0.2787
G01 X0.0000 Y0.2800
G00 Z2.0000
G00 X-5.0135 Y-5.0376
G01 F70.00
G01 Z-0.0600
G01 F120.00
G01 X-5.0059 Y-5.0395
G01 X-4.9980 Y-5.0399
G01 X-4.9903 Y-5.0387
G01 X-4.9829 Y-5.0361
G01 X-4.9762 Y-5.0321
G01 X-4.9704 Y-5.0268
G01 X-4.9657 Y-5.0205
G01 X-4.9624 Y-5.0135
G01 X-4.9605 Y-5.0059
G01 X-4.9601 Y-4.9980
G01 X-4.9613 Y-4.9903
G01 X-4.9639 Y-4.9829
G01 X-4.9679 Y-4.9762
G01 X-4.9732 Y-4.9704
G01 X-4.9795 Y-4.9657
G01 X-4.9865 Y-4.9624
G01 X-4.9941 Y-4.9605
G01 X-5.0020 Y-4.9601
G01 X-5.0097 Y-4.9613
G01 X-5.0171 Y-4.9639
G01 X-5.0238 Y-4.9679
G01 X-5.0296 Y-4.9732
G01 X-5.0343 Y-4.9795
G01 X-5.0376 Y-4.9865
G01 X-5.0395 Y-4.9941
G01 X-5.0399 Y-5.0020
G01 X-5.0387 Y-5.0097
G01 X-5.0361 Y-5.0171
G01 X-5.0321 Y-5.0238
G01 X-5.0268 Y-5.0296
G01 X-5.0205 Y-5.0343
G01 X-5.0135 Y-5.0376
G00 Z2.0000
G00 X-5.1094 Y-4.9892
G01 F70.00
G01 Z-0.0600
G01 F120.00
G01 X-5.1100 Y-5.0000
G01 X-5.1094 Y-5.0108
G01 X-5.1078 Y-5.0215
G01 X-5.1052 Y-5.0319
G01 X-5.1016 Y-5.0421
G01 X-5.0970 Y-5.0518
G01 X-5.0914 Y-5.0611
G01 X-5.0850 Y-5.0698
G01 X-5.0778 Y-5.0778
G01 X-5.0698 Y-5.0850
G01 X-5.0611 Y-5.0914
G01 X-5.0518 Y-5.0970
G01 X-5.0421 Y-5.1016
G01 X-5.0319 Y-5.1052
G01 X-5.0215 Y-5.1078
G01 X-5.0108 Y-5.1094
G01 X-5.0000 Y-5.1100
G01 X-4.9892 Y-5.1094
G01 X-4.9785 Y-5.1078
G01 X-4.9681 Y-5.1052
G01 X-4.9579 Y-5.1016
G01 X-4.9482 Y-5.0970
G01 X-4.9389 Y-5.0914
G01 X-4.9302 Y-5.0850
G01 X-4.9222 Y-5.0778
G01 X-4.9150 Y-5.0698
G01 X-4.9086 Y-5.0611
G01 X-4.9030 Y-5.0518
G01 X-4.8984 Y-5.0421
G01 X-4.8948 Y-5.0319
G01 X-4.8922 Y-5.0215
G01 X-4.8906 Y-5.0108
G01 X-4.8900 Y-5.0000
G01 X-4.8906 Y-4.9892
G01 X-4.8922 Y-4.9785
G01 X-4.8948 Y-4.9681
G01 X-4.8984 Y-4.9579
G01 X-4.9030 Y-4.9482
G01 X-4.9086 Y-4.9389
G01 X-4.9150 Y-4.9302
G01 X-4.9222 Y-4.9222
G01 X-4.9302 Y-4.9150
G01 X-4.9389 Y-4.9086
G01 X-4.9482 Y-4.9030
G01 X-4.9579 Y-4.8984
G01 X-4.9681 Y-4.8948
G01 X-4.9785 Y-4.8922
G01 X-4.9892 Y-4.8906
G01 X-5.0000 Y-4.8900
G01 X-5.0108 Y-4.8906
G01 X-5.0215 Y-4.8922
G01 X-5.0319 Y-4.8948
G01 X-5.0421 Y-4.8984
G01 X-5.0518 Y-4.9030
G01 X-5.0611 Y-4.9086
G01 X-5.0698 Y-4.9150
G01 X-5.0778 Y-4.9222
G01 X-5.0850 Y-4.9302
G01 X-5.0914 Y-4.9389
G01 X-5.0970 Y-4.9482
G01 X-5.1016 Y-4.9579
G01 X-5.1052 Y-4.9681
G01 X-5.1078 Y-4.9785
G01 X-5.1094 Y-4.9892
G00 Z2.0000
G00 X-5.1791 Y-4.9824
G01 F70.00
G01 Z-0.0600
G01 F120.00
G01 X-5.1800 Y-5.0000
G01 X-5.1791 Y-5.0176
G01 X-5.1765 Y-5.0351
G01 X-5.1722 Y-5.0522
G01 X-5.1663 Y-5.0689
G01 X-5.1587 Y-5.0848
G01 X-5.1496 Y-5.1000
G01 X-5.1391 Y-5.1142
G01 X-5.1273 Y-5.1273
G01 X-5.1142 Y-5.1391
G01 X-5.1000 Y-5.1496
G01 X-5.0848 Y-5.1587
G01 X-5.0689 Y-5.1663
G01 X-5.0522 Y-5.1722
G01 X-5.0351 Y-5.1765
G01 X-5.0176 Y-5.1791
G01 X-5.0000 Y-5.1800
G01 X-4.9824 Y-5.1791
G01 X-4.9649 Y-5.1765
G01 X-4.9478 Y-5.1722
G01 X-4.9311 Y-5.1663
G01 X-4.9152 Y-5.1587
G01 X-4.9000 Y-5.1496
G01 X-4.8858 Y-5.1391
G01 X-4.8727 Y-5.1273
G01 X-4.8609 Y-5.1142
G01 X-4.8504 Y-5.1000
G01 X-4.8413 Y-5.0848
G01 X-4.8337 Y-5.0689
G01 X-4.8278 Y-5.0522
G01 X-4.8235 Y-5.0351
G01 X-4.8209 Y-5.0176
G01 X-4.8200 Y-5.0000
G01 X-4.8209 Y-4.9824
G01 X-4.8235 Y-4.9649
G01 X-4.8278 Y-4.9478
G01 X-4.8337 Y-4.9311
G01 X-4.8413 Y-4.9152
G01 X-4.8504 Y-4.9000
G01 X-4.8609 Y-4.8858
G01 X-4.8727 Y-4.8727
G01 X-4.8858 Y-4.8609
G01 X-4.9000 Y-4.8504
G01 X-4.9152 Y-4.8413
G01 X-4.9311 Y-4.8337
G01 X-4.9478 Y-4.8278
G01 X-4.9649 Y-4.8235
G01 X-4.9824 Y-4.8209
G01 X-5.0000 Y-4.8200
G01 X-5.0176 Y-4.8209
G01 X-5.0351 Y-4.8235
G01 X-5.0522 Y-4.8278
G01 X-5.0689 Y-4.8337
G01 X-5.0848 Y-4.8413
G01 X-5.1000 Y-4.8504
G01 X-5.1142 Y-4.8609
G01 X-5.1273 Y-4.8727
G01 X-5.1391 Y-4.8858
G01 X-5.1496 Y-4.9000
G01 X-5.1587 Y-4.9152
G01 X-5.1663 Y-4.9311
G01 X-5.1722 Y-4.9478
G01 X-5.1765 Y-4.9649
G01 X-5.1791 Y-4.9824
G00 Z2.0000
G00 X-7.5228 Y-6.1665
G01 F70.00
G01 Z-0.0600
G01 F120.00
G01 X-7.5065 Y-6.1751
G01 X-7.4913 Y-6.1848
G01 X-7.4770 Y-6.1958
G01 X-7.4637 Y-6.2080
G01 X-7.4515 Y-6.2213
G01 X-7.4405 Y-6.2356
G01 X-7.4308 Y-6.2508
G01 X-7.4222 Y-6.2671
G01 X-7.4222 Y-6.1665
G01 X-7.5228 Y-6.1665
G00 Z2.0000
G00 X-7.8002 Y-6.0265
G01 F70.00
G01 Z-0.0600
G01 F120.00
G01 X-7.8097 Y-6.0259
G01 X-7.8181 Y-6.0242
G01 X-7.8270 Y-6.0212
G01 X-7.8355 Y-6.0170
G01 X-7.8433 Y-6.0117
G01 X-7.8497 Y-6.0060
G01 X-7.8560 Y-5.9989
G01 X-7.8611 Y-5.9910
G01 X-7.8652 Y-5.9825
G01 X-7.8679 Y-5.9743
G01 X-7.8697 Y-5.9651
G01 X-7.8702 Y-5.9565
G01 X-7.8696 Y-5.9471
G01 X-7.8677 Y-5.9378
G01 X-7.8649 Y-5.9297
G01 X-7.8607 Y-5.9213
G01 X-7.8538 Y-5.9114
G01 X-7.8460 Y-5.9035
G01 X-7.8199 Y-5.8847
G01 X-7.7685 Y-5.8446
G01 X-7.7190 Y-5.8019
G01 X-7.6718 Y-5.7569
G01 X-7.6268 Y-5.7097
G01 X-7.5841 Y-5.6602
G01 X-7.5440 Y-5.6088
G01 X-7.5064 Y-5.5554
G01 X-7.4714 Y-5.5002
G01 X-7.4393 Y-5.4434
G01 X-7.4099 Y-5.3851
G01 X-7.3835 Y-5.3255
G01 X-7.3600 Y-5.2646
G01 X-7.3395 Y-5.2026
G01 X-7.3221 Y-5.1397
G01 X-7.3078 Y-5.0760
G01 X-7.2966 Y-5.0116
G01 X-7.2886 Y-4.9469
G01 X-7.2838 Y-4.8818
G01 X-7.2822 Y-4.8165
G01 X-7.2824 Y-4.7752
G01 X-7.2852 Y-4.7099
G01 X-7.2911 Y-4.6449
G01 X-7.3003 Y-4.5802
G01 X-7.3126 Y-4.5160
G01 X-7.3280 Y-4.4526
G01 X-7.3466 Y-4.3900
G01 X-7.3681 Y-4.3283
G01 X-7.3927 Y-4.2678
G01 X-7.4202 Y-4.2086
G01 X-7.4506 Y-4.1508
G01 X-7.4838 Y-4.0945
G01 X-7.5197 Y-4.0400
G01 X-7.5583 Y-3.9872
G01 X-7.5994 Y-3.9365
G01 X-7.6429 Y-3.8878
G01 X-7.6888 Y-3.8413
G01 X-7.7369 Y-3.7971
G01 X-7.7871 Y-3.7553
G01 X-7.8393 Y-3.7160
G01 X-7.8933 Y-3.6794
G01 X-7.9491 Y-3.6454
G01 X-8.0065 Y-3.6142
G01 X-8.0653 Y-3.5859
G01 X-8.1255 Y-3.5605
G01 X-8.1868 Y-3.5381
G01 X-8.2492 Y-3.5187
G01 X-8.3125 Y-3.5024
G01 X-8.3764 Y-3.4892
G01 X-8.4410 Y-3.4792
G01 X-8.5059 Y-3.4723
G01 X-8.5711 Y-3.4687
G01 X-8.6373 Y-3.4682
G01 X-11.0200 Y-3.5104
G01 X-11.0861 Y-3.5132
G01 X-11.1511 Y-3.5191
G01 X-11.2158 Y-3.5283
G01 X-11.2800 Y-3.5406
G01 X-11.3434 Y-3.5560
G01 X-11.4060 Y-3.5746
G01 X-11.4677 Y-3.5961
G01 X-11.5282 Y-3.6207
G01 X-11.5874 Y-3.6482
G01 X-11.6452 Y-3.6786
G01 X-11.7015 Y-3.7118
G01 X-11.7560 Y-3.7477
G01 X-11.8088 Y-3.7863
G01 X-11.8595 Y-3.8274
G01 X-11.9082 Y-3.8709
G01 X-11.9547 Y-3.9168
G01 X-11.9989 Y-3.9649
G01 X-12.0176 Y-3.9870
G01 X-12.0296 Y-3.9969
G01 X-12.0443 Y-4.0043
G01 X-12.0602 Y-4.0080
G01 X-12.1364 Y-4.0084
G01 X-12.1364 Y-4.1359
G01 X-12.1373 Y-4.1452
G01 X-12.1394 Y-4.1543
G01 X-12.1445 Y-4.1669
G01 X-12.1818 Y-4.2345
G01 X-12.2101 Y-4.2933
G01 X-12.2355 Y-4.3535
G01 X-12.2579 Y-4.4148
G01 X-12.2773 Y-4.4772
G01 X-12.2936 Y-4.5405
G01 X-12.3068 Y-4.6044
G01 X-12.3168 Y-4.6690
G01 X-12.3237 Y-4.7339
G01 X-12.3273 Y-4.7991
G01 X-12.3278 Y-4.8644
G01 X-12.3250 Y-4.9297
G01 X-12.3191 Y-4.9947
G01 X-12.3099 Y-5.0594
G01 X-12.2976 Y-5.1236
G01 X-12.2822 Y-5.1870
G01 X-12.2636 Y-5.2496
G01 X-12.2421 Y-5.3113
G01 X-12.2175 Y-5.3718
G01 X-12.1900 Y-5.4310
G01 X-12.1596 Y-5.4888
G01 X-12.1444 Y-5.5147
G01 X-12.1392 Y-5.5275
G01 X-12.1373 Y-5.5360
G01 X-12.1364 Y-5.5455
G01 X-12.1364 Y-5.6684
G01 X-12.0638 Y-5.6689
G01 X-12.0554 Y-5.6705
G01 X-12.0473 Y-5.6730
G01 X-12.0330 Y-5.6805
G01 X-12.0207 Y-5.6911
G01 X-12.0108 Y-5.7031
G01 X-11.9673 Y-5.7518
G01 X-11.9214 Y-5.7983
G01 X-11.8733 Y-5.8425
G01 X-11.8231 Y-5.8843
G01 X-11.7709 Y-5.9236
G01 X-11.7169 Y-5.9602
G01 X-11.6611 Y-5.9942
G01 X-11.6037 Y-6.0254
G01 X-11.5449 Y-6.0537
G01 X-11.4847 Y-6.0791
G01 X-11.4234 Y-6.1015
G01 X-11.3610 Y-6.1209
G01 X-11.2977 Y-6.1372
G01 X-11.2338 Y-6.1504
G01 X-11.1692 Y-6.1604
G01 X-11.1043 Y-6.1673
G01 X-11.0391 Y-6.1709
G01 X-10.9729 Y-6.1714
G01 X-10.0126 Y-6.1544
G01 X-10.0031 Y-6.1550
G01 X-9.9947 Y-6.1566
G01 X-9.9857 Y-6.1596
G01 X-9.9772 Y-6.1638
G01 X-9.9700 Y-6.1685
G01 X-9.9635 Y-6.1742
G01 X-9.9576 Y-6.1805
G01 X-9.9522 Y-6.1883
G01 X-9.9482 Y-6.1959
G01 X-9.9452 Y-6.2040
G01 X-9.9432 Y-6.2124
G01 X-9.9423 Y-6.2209
G01 X-9.9422 Y-6.9531
G01 X-9.6822 Y-6.9531
G01 X-9.6818 Y-6.3488
G01 X-9.6792 Y-6.3362
G01 X-9.6743 Y-6.3243
G01 X-9.6674 Y-6.3134
G01 X-9.6586 Y-6.3041
G01 X-9.6482 Y-6.2965
G01 X-9.6366 Y-6.2909
G01 X-9.6242 Y-6.2875
G01 X-9.6122 Y-6.2865
G01 X-7.6122 Y-6.2865
G01 X-7.6019 Y-6.2873
G01 X-7.5927 Y-6.2893
G01 X-7.5830 Y-6.2929
G01 X-7.5740 Y-6.2978
G01 X-7.5658 Y-6.3041
G01 X-7.5581 Y-6.3121
G01 X-7.5517 Y-6.3213
G01 X-7.5472 Y-6.3305
G01 X-7.5439 Y-6.3412
G01 X-7.5424 Y-6.3514
G01 X-7.5422 Y-6.9531
G01 X-7.2822 Y-6.9531
G01 X-7.2822 Y-6.0265
G01 X-7.8002 Y-6.0265
G00 Z2.0000
G00 X-8.3885 Y-6.0765
G01 F70.00
G01 Z-0.0600
G01 F120.00
G01 X-8.0532 Y-6.0765
G01 X-8.0627 Y-6.0541
G01 X-8.0710 Y-6.0279
G01 X-8.0761 Y-6.0044
G01 X-8.0792 Y-5.9800
G01 X-8.1224 Y-5.9991
G01 X-8.1745 Y-6.0193
G01 X-8.2374 Y-6.0404
G01 X-8.3045 Y-6.0590
G01 X-8.3591 Y-6.0712
G01 X-8.3885 Y-6.0765
G00 Z2.0000
G00 X-8.6788 Y-4.9162
G01 F70.00
G01 Z-0.0600
G01 F120.00
G01 X-8.6687 Y-4.9223
G01 X-8.6581 Y-4.9273
G01 X-8.6470 Y-4.9313
G01 X-8.6356 Y-4.9341
G01 X-8.6240 Y-4.9358
G01 X-8.6122 Y-4.9364
G01 X-8.6004 Y-4.9358
G01 X-8.5888 Y-4.9341
G01 X-8.5774 Y-4.9313
G01 X-8.5663 Y-4.9273
G01 X-8.5557 Y-4.9223
G01 X-8.5456 Y-4.9162
G01 X-8.5361 Y-4.9092
G01 X-8.5274 Y-4.9013
G01 X-8.5195 Y-4.8926
G01 X-8.5125 Y-4.8831
G01 X-8.5064 Y-4.8730
G01 X-8.5014 Y-4.8624
G01 X-8.4974 Y-4.8513
G01 X-8.4946 Y-4.8399
G01 X-8.4929 Y-4.8283
G01 X-8.4923 Y-4.8165
G01 X-8.4929 Y-4.8047
G01 X-8.4946 Y-4.7931
G01 X-8.4974 Y-4.7817
G01 X-8.5014 Y-4.7706
G01 X-8.5064 Y-4.7600
G01 X-8.5125 Y-4.7499
G01 X-8.5195 Y-4.7404
G01 X-8.5274 Y-4.7317
G01 X-8.5361 Y-4.7238
G01 X-8.5456 Y-4.7168
G01 X-8.5557 Y-4.7107
G01 X-8.5663 Y-4.7057
G01 X-8.5774 Y-4.7017
G01 X-8.5888 Y-4.6989
G01 X-8.6004 Y-4.6972
G01 X-8.6122 Y-4.6966
G01 X-8.6240 Y-4.6972
G01 X-8.6356 Y-4.6989
G01 X-8.6470 Y-4.7017
G01 X-8.6581 Y-4.7057
G01 X-8.6687 Y-4.7107
G01 X-8.6788 Y-4.7168
G01 X-8.6883 Y-4.7238
G01 X-8.6970 Y-4.7317
G01 X-8.7049 Y-4.7404
G01 X-8.7119 Y-4.7499
G01 X-8.7180 Y-4.7600
G01 X-8.7230 Y-4.7706
G01 X-8.7270 Y-4.7817
G01 X-8.7298 Y-4.7931
G01 X-8.7315 Y-4.8047
G01 X-8.7321 Y-4.8165
G01 X-8.7315 Y-4.8283
G01 X-8.7298 Y-4.8399
G01 X-8.7270 Y-4.8513
G01 X-8.7230 Y-4.8624
G01 X-8.7180 Y-4.8730
G01 X-8.7119 Y-4.8831
G01 X-8.7049 Y-4.8926
G01 X-8.6970 Y-4.9013
G01 X-8.6883 Y-4.9092
G01 X-8.6788 Y-4.9162
G00 Z2.0000
G00 X-8.8019 Y-4.8072
G01 F70.00
G01 Z-0.0600
G01 F120.00
G01 X-8.8019 Y-4.8258
G01 X-8.8001 Y-4.8444
G01 X-8.7964 Y-4.8627
G01 X-8.7910 Y-4.8805
G01 X-8.7839 Y-4.8977
G01 X-8.7751 Y-4.9141
G01 X-8.7648 Y-4.9296
G01 X-8.7529 Y-4.9441
G01 X-8.7398 Y-4.9572
G01 X-8.7253 Y-4.9691
G01 X-8.7098 Y-4.9794
G01 X-8.6934 Y-4.9882
G01 X-8.6762 Y-4.9953
G01 X-8.6584 Y-5.0007
G01 X-8.6401 Y-5.0044
G01 X-8.6215 Y-5.0062
G01 X-8.6029 Y-5.0062
G01 X-8.5843 Y-5.0044
G01 X-8.5660 Y-5.0007
G01 X-8.5482 Y-4.9953
G01 X-8.5310 Y-4.9882
G01 X-8.5146 Y-4.9794
G01 X-8.4991 Y-4.9691
G01 X-8.4846 Y-4.9572
G01 X-8.4715 Y-4.9441
G01 X-8.4596 Y-4.9296
G01 X-8.4493 Y-4.9141
G01 X-8.4405 Y-4.8977
G01 X-8.4334 Y-4.8805
G01 X-8.4280 Y-4.8627
G01 X-8.4243 Y-4.8444
G01 X-8.4225 Y-4.8258
G01 X-8.4225 Y-4.8072
G01 X-8.4243 Y-4.7886
G01 X-8.4280 Y-4.7703
G01 X-8.4334 Y-4.7525
G01 X-8.4405 Y-4.7353
G01 X-8.4493 Y-4.7189
G01 X-8.4596 Y-4.7034
G01 X-8.4715 Y-4.6889
G01 X-8.4846 Y-4.6758
G01 X-8.4991 Y-4.6639
G01 X-8.5146 Y-4.6536
G01 X-8.5310 Y-4.6448
G01 X-8.5482 Y-4.6377
G01 X-8.5660 Y-4.6323
G01 X-8.5843 Y-4.6286
G01 X-8.6029 Y-4.6268
G01 X-8.6215 Y-4.6268
G01 X-8.6401 Y-4.6286
G01 X-8.6584 Y-4.6323
G01 X-8.6762 Y-4.6377
G01 X-8.6934 Y-4.6448
G01 X-8.7098 Y-4.6536
G01 X-8.7253 Y-4.6639
G01 X-8.7398 Y-4.6758
G01 X-8.7529 Y-4.6889
G01 X-8.7648 Y-4.7034
G01 X-8.7751 Y-4.7189
G01 X-8.7839 Y-4.7353
G01 X-8.7910 Y-4.7525
G01 X-8.7964 Y-4.7703
G01 X-8.8001 Y-4.7886
G01 X-8.8019 Y-4.8072
G00 Z2.0000
G00 X-8.8718 Y-4.8037
G01 F70.00
G01 Z-0.0600
G01 F120.00
G01 X-8.8718 Y-4.8293
G01 X-8.8693 Y-4.8546
G01 X-8.8644 Y-4.8797
G01 X-8.8570 Y-4.9041
G01 X-8.8472 Y-4.9276
G01 X-8.8352 Y-4.9501
G01 X-8.8210 Y-4.9714
G01 X-8.8048 Y-4.9911
G01 X-8.7868 Y-5.0091
G01 X-8.7671 Y-5.0253
G01 X-8.7458 Y-5.0395
G01 X-8.7233 Y-5.0515
G01 X-8.6998 Y-5.0613
G01 X-8.6754 Y-5.0687
G01 X-8.6503 Y-5.0736
G01 X-8.6250 Y-5.0761
G01 X-8.5994 Y-5.0761
G01 X-8.5741 Y-5.0736
G01 X-8.5490 Y-5.0687
G01 X-8.5246 Y-5.0613
G01 X-8.5011 Y-5.0515
G01 X-8.4786 Y-5.0395
G01 X-8.4573 Y-5.0253
G01 X-8.4376 Y-5.0091
G01 X-8.4196 Y-4.9911
G01 X-8.4034 Y-4.9714
G01 X-8.3892 Y-4.9501
G01 X-8.3772 Y-4.9276
G01 X-8.3674 Y-4.9041
G01 X-8.3600 Y-4.8797
G01 X-8.3551 Y-4.8546
G01 X-8.3526 Y-4.8293
G01 X-8.3526 Y-4.8037
G01 X-8.3551 Y-4.7784
G01 X-8.3600 Y-4.7533
G01 X-8.3674 Y-4.7289
G01 X-8.3772 Y-4.7054
G01 X-8.3892 Y-4.6829
G01 X-8.4034 Y-4.6616
G01 X-8.4196 Y-4.6419
G01 X-8.4376 Y-4.6239
G01 X-8.4573 Y-4.6077
G01 X-8.4786 Y-4.5935
G01 X-8.5011 Y-4.5815
G01 X-8.5246 Y-4.5717
G01 X-8.5490 Y-4.5643
G01 X-8.5741 Y-4.5594
G01 X-8.5994 Y-4.5569
G01 X-8.6250 Y-4.5569
G01 X-8.6503 Y-4.5594
G01 X-8.6754 Y-4.5643
G01 X-8.6998 Y-4.5717
G01 X-8.7233 Y-4.5815
G01 X-8.7458 Y-4.5935
G01 X-8.7671 Y-4.6077
G01 X-8.7868 Y-4.6239
G01 X-8.8048 Y-4.6419
G01 X-8.8210 Y-4.6616
G01 X-8.8352 Y-4.6829
G01 X-8.8472 Y-4.7054
G01 X-8.8570 Y-4.7289
G01 X-8.8644 Y-4.7533
G01 X-8.8693 Y-4.7784
G01 X-8.8718 Y-4.8037
G00 Z2.0000
G00 X-8.9418 Y-4.8003
G01 F70.00
G01 Z-0.0600
G01 F120.00
G01 X-8.9418 Y-4.8327
G01 X-8.9386 Y-4.8649
G01 X-8.9323 Y-4.8967
G01 X-8.9229 Y-4.9277
G01 X-8.9105 Y-4.9576
G01 X-8.8952 Y-4.9861
G01 X-8.8772 Y-5.0131
G01 X-8.8567 Y-5.0381
G01 X-8.8338 Y-5.0610
G01 X-8.8088 Y-5.0815
G01 X-8.7818 Y-5.0995
G01 X-8.7533 Y-5.1148
G01 X-8.7234 Y-5.1272
G01 X-8.6924 Y-5.1366
G01 X-8.6606 Y-5.1429
G01 X-8.6284 Y-5.1461
G01 X-8.5960 Y-5.1461
G01 X-8.5638 Y-5.1429
G01 X-8.5320 Y-5.1366
G01 X-8.5010 Y-5.1272
G01 X-8.4711 Y-5.1148
G01 X-8.4426 Y-5.0995
G01 X-8.4156 Y-5.0815
G01 X-8.3906 Y-5.0610
G01 X-8.3677 Y-5.0381
G01 X-8.3472 Y-5.0131
G01 X-8.3292 Y-4.9861
G01 X-8.3139 Y-4.9576
G01 X-8.3015 Y-4.9277
G01 X-8.2921 Y-4.8967
G01 X-8.2858 Y-4.8649
G01 X-8.2826 Y-4.8327
G01 X-8.2826 Y-4.8003
G01 X-8.2858 Y-4.7681
G01 X-8.2921 Y-4.7363
G01 X-8.3015 Y-4.7053
G01 X-8.3139 Y-4.6754
G01 X-8.3292 Y-4.6469
G01 X-8.3472 Y-4.6199
G01 X-8.3677 Y-4.5949
G01 X-8.3906 Y-4.5720
G01 X-8.4156 Y-4.5515
G01 X-8.4426 Y-4.5335
G01 X-8.4711 Y-4.5182
G01 X-8.5010 Y-4.5058
G01 X-8.5320 Y-4.4964
G01 X-8.5638 Y-4.4901
G01 X-8.5960 Y-4.4869
G01 X-8.6284 Y-4.4869
G01 X-8.6606 Y-4.4901
G01 X-8.6924 Y-4.4964
G01 X-8.7234 Y-4.5058
G01 X-8.7533 Y-4.5182
G01 X-8.7818 Y-4.5335
G01 X-8.8088 Y-4.5515
G01 X-8.8338 Y-4.5720
G01 X-8.8567 Y-4.5949
G01 X-8.8772 Y-4.6199
G01 X-8.8952 Y-4.6469
G01 X-8.9105 Y-4.6754
G01 X-8.9229 Y-4.7053
G01 X-8.9323 Y-4.7363
G01 X-8.9386 Y-4.7681
G01 X-8.9418 Y-4.8003
G00 Z2.0000
G00 X-9.7615 Y-6.0997
G01 F70.00
G01 Z-0.0600
G01 F120.00
G01 X-9.7543 Y-6.1153
G01 X-9.7381 Y-6.1064
G01 X-9.7222 Y-6.0990
G01 X-9.7615 Y-6.0997
G00 Z2.0000
G00 X-9.9266 Y-6.0326
G01 F70.00
G01 Z-0.0600
G01 F120.00
G01 X-9.9116 Y-6.0400
G01 X-9.8961 Y-6.0494
G01 X-9.8815 Y-6.0600
G01 X-9.8697 Y-6.0701
G01 X-9.8570 Y-6.0830
G01 X-9.8454 Y-6.0969
G01 X-9.8364 Y-6.1095
G01 X-9.8272 Y-6.1251
G01 X-9.8203 Y-6.1390
G01 X-9.8137 Y-6.1558
G01 X-9.8092 Y-6.1707
G01 X-9.8053 Y-6.1884
G01 X-9.8023 Y-6.2166
G01 X-9.8022 Y-6.2671
G01 X-9.7896 Y-6.2442
G01 X-9.7729 Y-6.2213
G01 X-9.7532 Y-6.2009
G01 X-9.7310 Y-6.1833
G01 X-9.7066 Y-6.1689
G01 X-9.6805 Y-6.1579
G01 X-9.6532 Y-6.1505
G01 X-9.6251 Y-6.1469
G01 X-7.8897 Y-6.1465
G01 X-7.9082 Y-6.1366
G01 X-7.9274 Y-6.1236
G01 X-7.9432 Y-6.1104
G01 X-7.9593 Y-6.0937
G01 X-7.9734 Y-6.0753
G01 X-7.9842 Y-6.0578
G01 X-7.9943 Y-6.0369
G01 X-8.0012 Y-6.0175
G01 X-8.0067 Y-5.9949
G01 X-8.0095 Y-5.9745
G01 X-8.0102 Y-5.9513
G01 X-8.0087 Y-5.9308
G01 X-8.0046 Y-5.9080
G01 X-7.9988 Y-5.8882
G01 X-7.9901 Y-5.8667
G01 X-7.9801 Y-5.8481
G01 X-8.0395 Y-5.8824
G01 X-8.0949 Y-5.9103
G01 X-8.1492 Y-5.9344
G01 X-8.2094 Y-5.9574
G01 X-8.2610 Y-5.9744
G01 X-8.3132 Y-5.9889
G01 X-8.3711 Y-6.0022
G01 X-8.4347 Y-6.0134
G01 X-8.4936 Y-6.0207
G01 X-8.5580 Y-6.0252
G01 X-8.6122 Y-6.0265
G01 X-8.6664 Y-6.0252
G01 X-8.7308 Y-6.0207
G01 X-8.7947 Y-6.0126
G01 X-9.9266 Y-6.0326
G00 Z2.0000
G00 X-8.9418 Y-7.3403
G01 F70.00
G01 Z-0.0600
G01 F120.00
G01 X-8.9418 Y-7.3727
G01 X-8.9386 Y-7.4049
G01 X-8.9323 Y-7.4367
G01 X-8.9229 Y-7.4677
G01 X-8.9105 Y-7.4976
G01 X-8.8952 Y-7.5261
G01 X-8.8772 Y-7.5531
G01 X-8.8567 Y-7.5781
G01 X-8.8338 Y-7.6010
G01 X-8.8088 Y-7.6215
G01 X-8.7818 Y-7.6395
G01 X-8.7533 Y-7.6548
G01 X-8.7234 Y-7.6672
G01 X-8.6924 Y-7.6766
G01 X-8.6606 Y-7.6829
G01 X-8.6284 Y-7.6861
G01 X-8.5960 Y-7.6861
G01 X-8.5638 Y-7.6829
G01 X-8.5320 Y-7.6766
G01 X-8.5010 Y-7.6672
G01 X-8.4711 Y-7.6548
G01 X-8.4426 Y-7.6395
G01 X-8.4156 Y-7.6215
G01 X-8.3906 Y-7.6010
G01 X-8.3677 Y-7.5781
G01 X-8.3472 Y-7.5531
G01 X-8.3292 Y-7.5261
G01 X-8.3139 Y-7.4976
G01 X-8.3015 Y-7.4677
G01 X-8.2921 Y-7.4367
G01 X-8.2858 Y-7.4049
G01 X-8.2826 Y-7.3727
G01 X-8.2826 Y-7.3403
G01 X-8.2858 Y-7.3081
G01 X-8.2921 Y-7.2763
G01 X-8.3015 Y-7.2453
G01 X-8.3139 Y-7.2154
G01 X-8.3292 Y-7.1869
G01 X-8.3472 Y-7.1599
G01 X-8.3677 Y-7.1349
G01 X-8.3906 Y-7.1120
G01 X-8.4156 Y-7.0915
G01 X-8.4426 Y-7.0735
G01 X-8.4711 Y-7.0582
G01 X-8.5010 Y-7.0458
G01 X-8.5320 Y-7.0364
G01 X-8.5638 Y-7.0301
G01 X-8.5960 Y-7.0269
G01 X-8.6284 Y-7.0269
G01 X-8.6606 Y-7.0301
G01 X-8.6924 Y-7.0364
G01 X-8.7234 Y-7.0458
G01 X-8.7533 Y-7.0582
G01 X-8.7818 Y-7.0735
G01 X-8.8088 Y-7.0915
G01 X-8.8338 Y-7.1120
G01 X-8.8567 Y-7.1349
G01 X-8.8772 Y-7.1599
G01 X-8.8952 Y-7.1869
G01 X-8.9105 Y-7.2154
G01 X-8.9229 Y-7.2453
G01 X-8.9323 Y-7.2763
G01 X-8.9386 Y-7.3081
G01 X-8.9418 Y-7.3403
G00 Z2.0000
G00 X-8.8718 Y-7.3437
G01 F70.00
G01 Z-0.0600
G01 F120.00
G01 X-8.8718 Y-7.3693
G01 X-8.8693 Y-7.3946
G01 X-8.8644 Y-7.4197
G01 X-8.8570 Y-7.4441
G01 X-8.8472 Y-7.4676
G01 X-8.8352 Y-7.4901
G01 X-8.8210 Y-7.5114
G01 X-8.8048 Y-7.5311
G01 X-8.7868 Y-7.5491
G01 X-8.7671 Y-7.5653
G01 X-8.7458 Y-7.5795
G01 X-8.7233 Y-7.5915
G01 X-8.6998 Y-7.6013
G01 X-8.6754 Y-7.6087
G01 X-8.6503 Y-7.6136
G01 X-8.6250 Y-7.6161
G01 X-8.5994 Y-7.6161
G01 X-8.5741 Y-7.6136
G01 X-8.5490 Y-7.6087
G01 X-8.5246 Y-7.6013
G01 X-8.5011 Y-7.5915
G01 X-8.4786 Y-7.5795
G01 X-8.4573 Y-7.5653
G01 X-8.4376 Y-7.5491
G01 X-8.4196 Y-7.5311
G01 X-8.4034 Y-7.5114
G01 X-8.3892 Y-7.4901
G01 X-8.3772 Y-7.4676
G01 X-8.3674 Y-7.4441
G01 X-8.3600 Y-7.4197
G01 X-8.3551 Y-7.3946
G01 X-8.3526 Y-7.3693
G01 X-8.3526 Y-7.3437
G01 X-8.3551 Y-7.3184
G01 X-8.3600 Y-7.2933
G01 X-8.3674 Y-7.2689
G01 X-8.3772 Y-7.2454
G01 X-8.3892 Y-7.2229
G01 X-8.4034 Y-7.2016
G01 X-8.4196 Y-7.1819
G01 X-8.4376 Y-7.1639
G01 X-8.4573 Y-7.1477
G01 X-8.4786 Y-7.1335
G01 X-8.5011 Y-7.1215
G01 X-8.5246 Y-7.1117
G01 X-8.5490 Y-7.1043
G01 X-8.5741 Y-7.0994
G01 X-8.5994 Y-7.0969
G01 X-8.6250 Y-7.0969
G01 X-8.6503 Y-7.0994
G01 X-8.6754 Y-7.1043
G01 X-8.6998 Y-7.1117
G01 X-8.7233 Y-7.1215
G01 X-8.7458 Y-7.1335
G01 X-8.7671 Y-7.1477
G01 X-8.7868 Y-7.1639
G01 X-8.8048 Y-7.1819
G01 X-8.8210 Y-7.2016
G01 X-8.8352 Y-7.2229
G01 X-8.8472 Y-7.2454
G01 X-8.8570 Y-7.2689
G01 X-8.8644 Y-7.2933
G01 X-8.8693 Y-7.3184
G01 X-8.8718 Y-7.3437
G00 Z2.0000
G00 X-8.8019 Y-7.3472
G01 F70.00
G01 Z-0.0600
G01 F120.00
G01 X-8.8019 Y-7.3658
G01 X-8.8001 Y-7.3844
G01 X-8.7964 Y-7.4027
G01 X-8.7910 Y-7.4205
G01 X-8.7839 Y-7.4377
G01 X-8.7751 Y-7.4541
G01 X-8.7648 Y-7.4696
G01 X-8.7529 Y-7.4841
G01 X-8.7398 Y-7.4972
G01 X-8.7253 Y-7.5091
G01 X-8.7098 Y-7.5194
G01 X-8.6934 Y-7.5282
G01 X-8.6762 Y-7.5353
G01 X-8.6584 Y-7.5407
G01 X-8.6401 Y-7.5444
G01 X-8.6215 Y-7.5462
G01 X-8.6029 Y-7.5462
G01 X-8.5843 Y-7.5444
G01 X-8.5660 Y-7.5407
G01 X-8.5482 Y-7.5353
G01 X-8.5310 Y-7.5282
G01 X-8.5146 Y-7.5194
G01 X-8.4991 Y-7.5091
G01 X-8.4846 Y-7.4972
G01 X-8.4715 Y-7.4841
G01 X-8.4596 Y-7.4696
G01 X-8.4493 Y-7.4541
G01 X-8.4405 Y-7.4377
G01 X-8.4334 Y-7.4205
G01 X-8.4280 Y-7.4027
G01 X-8.4243 Y-7.3844
G01 X-8.4225 Y-7.3658
G01 X-8.4225 Y-7.3472
G01 X-8.4243 Y-7.3286
G01 X-8.4280 Y-7.3103
G01 X-8.4334 Y-7.2925
G01 X-8.4405 Y-7.2753
G01 X-8.4493 Y-7.2589
G01 X-8.4596 Y-7.2434
G01 X-8.4715 Y-7.2289
G01 X-8.4846 Y-7.2158
G01 X-8.4991 Y-7.2039
G01 X-8.5146 Y-7.1936
G01 X-8.5310 Y-7.1848
G01 X-8.5482 Y-7.1777
G01 X-8.5660 Y-7.1723
G01 X-8.5843 Y-7.1686
G01 X-8.6029 Y-7.1668
G01 X-8.6215 Y-7.1668
G01 X-8.6401 Y-7.1686
G01 X-8.6584 Y-7.1723
G01 X-8.6762 Y-7.1777
G01 X-8.6934 Y-7.1848
G01 X-8.7098 Y-7.1936
G01 X-8.7253 Y-7.2039
G01 X-8.7398 Y-7.2158
G01 X-8.7529 Y-7.2289
G01 X-8.7648 Y-7.2434
G01 X-8.7751 Y-7.2589
G01 X-8.7839 Y-7.2753
G01 X-8.7910 Y-7.2925
G01 X-8.7964 Y-7.3103
G01 X-8.8001 Y-7.3286
G01 X-8.8019 Y-7.3472
G00 Z2.0000
G00 X-8.6788 Y-7.4562
G01 F70.00
G01 Z-0.0600
G01 F120.00
G01 X-8.6687 Y-7.4623
G01 X-8.6581 Y-7.4673
G01 X-8.6470 Y-7.4713
G01 X-8.6356 Y-7.4741
G01 X-8.6240 Y-7.4758
G01 X-8.6122 Y-7.4764
G01 X-8.6004 Y-7.4758
G01 X-8.5888 Y-7.4741
G01 X-8.5774 Y-7.4713
G01 X-8.5663 Y-7.4673
G01 X-8.5557 Y-7.4623
G01 X-8.5456 Y-7.4562
G01 X-8.5361 Y-7.4492
G01 X-8.5274 Y-7.4413
G01 X-8.5195 Y-7.4326
G01 X-8.5125 Y-7.4231
G01 X-8.5064 Y-7.4130
G01 X-8.5014 Y-7.4024
G01 X-8.4974 Y-7.3913
G01 X-8.4946 Y-7.3799
G01 X-8.4929 Y-7.3683
G01 X-8.4923 Y-7.3565
G01 X-8.4929 Y-7.3447
G01 X-8.4946 Y-7.3331
G01 X-8.4974 Y-7.3217
G01 X-8.5014 Y-7.3106
G01 X-8.5064 Y-7.3000
G01 X-8.5125 Y-7.2899
G01 X-8.5195 Y-7.2804
G01 X-8.5274 Y-7.2717
G01 X-8.5361 Y-7.2638
G01 X-8.5456 Y-7.2568
G01 X-8.5557 Y-7.2507
G01 X-8.5663 Y-7.2457
G01 X-8.5774 Y-7.2417
G01 X-8.5888 Y-7.2389
G01 X-8.6004 Y-7.2372
G01 X-8.6122 Y-7.2366
G01 X-8.6240 Y-7.2372
G01 X-8.6356 Y-7.2389
G01 X-8.6470 Y-7.2417
G01 X-8.6581 Y-7.2457
G01 X-8.6687 Y-7.2507
G01 X-8.6788 Y-7.2568
G01 X-8.6883 Y-7.2638
G01 X-8.6970 Y-7.2717
G01 X-8.7049 Y-7.2804
G01 X-8.7119 Y-7.2899
G01 X-8.7180 Y-7.3000
G01 X-8.7230 Y-7.3106
G01 X-8.7270 Y-7.3217
G01 X-8.7298 Y-7.3331
G01 X-8.7315 Y-7.3447
G01 X-8.7321 Y-7.3565
G01 X-8.7315 Y-7.3683
G01 X-8.7298 Y-7.3799
G01 X-8.7270 Y-7.3913
G01 X-8.7230 Y-7.4024
G01 X-8.7180 Y-7.4130
G01 X-8.7119 Y-7.4231
G01 X-8.7049 Y-7.4326
G01 X-8.6970 Y-7.4413
G01 X-8.6883 Y-7.4492
G01 X-8.6788 Y-7.4562
G00 Z2.0000
G00 X-9.8722 Y-7.8298
G01 F70.00
G01 Z-0.0600
G01 F120.00
G01 X-9.8722 Y-8.6165
G01 X-9.0855 Y-8.6165
G01 X-9.0855 Y-8.4965
G01 X-9.6208 Y-8.4962
G01 X-9.6327 Y-8.4950
G01 X-9.6462 Y-8.4923
G01 X-9.6577 Y-8.4889
G01 X-9.6689 Y-8.4845
G01 X-9.6812 Y-8.4783
G01 X-9.6914 Y-8.4719
G01 X-9.7010 Y-8.4647
G01 X-9.7112 Y-8.4555
G01 X-9.7204 Y-8.4453
G01 X-9.7276 Y-8.4357
G01 X-9.7340 Y-8.4255
G01 X-9.7395 Y-8.4148
G01 X-9.7446 Y-8.4020
G01 X-9.7480 Y-8.3905
G01 X-9.7504 Y-8.3787
G01 X-9.7519 Y-8.3651
G01 X-9.7522 Y-7.8298
G01 X-9.8722 Y-7.8298
G00 Z2.0000
G00 X-9.9422 Y-7.7598
G01 F70.00
G01 Z-0.0600
G01 F120.00
G01 X-9.9422 Y-8.6865
G01 X-9.0155 Y-8.6865
G01 X-9.0155 Y-8.4265
G01 X-9.6148 Y-8.4265
G01 X-9.6284 Y-8.4246
G01 X-9.6406 Y-8.4205
G01 X-9.6518 Y-8.4142
G01 X-9.6617 Y-8.4060
G01 X-9.6699 Y-8.3961
G01 X-9.6762 Y-8.3849
G01 X-9.6803 Y-8.3727
G01 X-9.6822 Y-8.3591
G01 X-9.6822 Y-7.7598
G01 X-9.9422 Y-7.7598
G00 Z2.0000
G00 X-9.8022 Y-8.4459
G01 F70.00
G01 Z-0.0600
G01 F120.00
G01 X-9.8022 Y-8.5465
G01 X-9.7016 Y-8.5465
G01 X-9.7179 Y-8.5379
G01 X-9.7331 Y-8.5282
G01 X-9.7474 Y-8.5172
G01 X-9.7607 Y-8.5050
G01 X-9.7729 Y-8.4917
G01 X-9.7839 Y-8.4774
G01 X-9.7936 Y-8.4622
G01 X-9.8022 Y-8.4459
G00 Z2.0000
G00 X-8.2088 Y-8.6865
G01 F70.00
G01 Z-0.0600
G01 F120.00
G01 X-7.2822 Y-8.6865
G01 X-7.2822 Y-7.7598
G01 X-7.5422 Y-7.7598
G01 X-7.5422 Y-8.3591
G01 X-7.5439 Y-8.3718
G01 X-7.5479 Y-8.3841
G01 X-7.5545 Y-8.3961
G01 X-7.5627 Y-8.4060
G01 X-7.5726 Y-8.4142
G01 X-7.5838 Y-8.4205
G01 X-7.5960 Y-8.4246
G01 X-7.6096 Y-8.4265
G01 X-8.2088 Y-8.4265
G01 X-8.2088 Y-8.6865
G00 Z2.0000
G00 X-8.1388 Y-8.6165
G01 F70.00
G01 Z-0.0600
G01 F120.00
G01 X-7.3522 Y-8.6165
G01 X-7.3522 Y-7.8298
G01 X-7.4722 Y-7.8298
G01 X-7.4725 Y-8.3651
G01 X-7.4737 Y-8.3770
G01 X-7.4760 Y-8.3888
G01 X-7.4798 Y-8.4020
G01 X-7.4842 Y-8.4132
G01 X-7.4896 Y-8.4240
G01 X-7.4968 Y-8.4357
G01 X-7.5040 Y-8.4453
G01 X-7.5132 Y-8.4555
G01 X-7.5221 Y-8.4636
G01 X-7.5330 Y-8.4719
G01 X-7.5432 Y-8.4783
G01 X-7.5539 Y-8.4838
G01 X-7.5667 Y-8.4889
G01 X-7.5782 Y-8.4923
G01 X-7.5917 Y-8.4950
G01 X-7.6036 Y-8.4962
G01 X-8.1388 Y-8.4965
G01 X-8.1388 Y-8.6165
G00 Z2.0000
G00 X-7.5228 Y-8.5465
G01 F70.00
G01 Z-0.0600
G01 F120.00
G01 X-7.4222 Y-8.5465
G01 X-7.4222 Y-8.4459
G01 X-7.4308 Y-8.4622
G01 X-7.4405 Y-8.4774
G01 X-7.4515 Y-8.4917
G01 X-7.4637 Y-8.5050
G01 X-7.4770 Y-8.5172
G01 X-7.4913 Y-8.5282
G01 X-7.5065 Y-8.5379
G01 X-7.5228 Y-8.5465
G00 Z2.0000
G00 X-11.7435 Y-5.6084
G01 F70.00
G01 Z-0.0600
G01 F120.00
G01 X-11.7007 Y-5.6478
G01 X-11.6617 Y-5.6803
G01 X-11.6183 Y-5.7129
G01 X-11.5762 Y-5.7414
G01 X-11.5313 Y-5.7687
G01 X-11.4851 Y-5.7938
G01 X-11.4378 Y-5.8166
G01 X-11.3894 Y-5.8370
G01 X-11.3400 Y-5.8550
G01 X-11.2899 Y-5.8706
G01 X-11.2407 Y-5.8834
G01 X-11.1858 Y-5.8946
G01 X-11.1356 Y-5.9024
G01 X-11.0825 Y-5.9080
G01 X-11.0309 Y-5.9109
G01 X-10.9784 Y-5.9112
G01 X-8.7839 Y-5.8724
G01 X-8.7684 Y-5.8750
G01 X-8.7162 Y-5.8814
G01 X-8.6647 Y-5.8852
G01 X-8.6105 Y-5.8865
G01 X-8.5597 Y-5.8852
G01 X-8.5090 Y-5.8815
G01 X-8.4569 Y-5.8752
G01 X-8.4035 Y-5.8659
G01 X-8.3514 Y-5.8542
G01 X-8.3016 Y-5.8404
G01 X-8.2517 Y-5.8240
G01 X-8.2027 Y-5.8051
G01 X-8.1547 Y-5.7838
G01 X-8.1078 Y-5.7602
G01 X-8.0621 Y-5.7343
G01 X-8.0177 Y-5.7062
G01 X-7.9748 Y-5.6759
G01 X-7.9334 Y-5.6436
G01 X-7.8936 Y-5.6093
G01 X-7.8556 Y-5.5731
G01 X-7.8194 Y-5.5351
G01 X-7.7851 Y-5.4953
G01 X-7.7528 Y-5.4539
G01 X-7.7225 Y-5.4110
G01 X-7.6940 Y-5.3659
G01 X-7.6685 Y-5.3209
G01 X-7.6449 Y-5.2740
G01 X-7.6236 Y-5.2260
G01 X-7.6047 Y-5.1770
G01 X-7.5883 Y-5.1271
G01 X-7.5743 Y-5.0765
G01 X-7.5628 Y-5.0252
G01 X-7.5537 Y-4.9727
G01 X-7.5474 Y-4.9214
G01 X-7.5435 Y-4.8681
G01 X-7.5422 Y-4.8156
G01 X-7.5426 Y-4.7789
G01 X-7.5447 Y-4.7281
G01 X-7.5496 Y-4.6749
G01 X-7.5569 Y-4.6229
G01 X-7.5668 Y-4.5713
G01 X-7.5790 Y-4.5211
G01 X-7.5947 Y-4.4682
G01 X-7.6115 Y-4.4203
G01 X-7.6313 Y-4.3716
G01 X-7.6542 Y-4.3224
G01 X-7.6779 Y-4.2774
G01 X-7.7037 Y-4.2337
G01 X-7.7335 Y-4.1883
G01 X-7.7655 Y-4.1445
G01 X-7.7975 Y-4.1050
G01 X-7.8314 Y-4.0671
G01 X-7.8707 Y-4.0273
G01 X-7.9081 Y-3.9929
G01 X-7.9472 Y-3.9604
G01 X-7.9905 Y-3.9277
G01 X-8.0340 Y-3.8982
G01 X-8.0774 Y-3.8718
G01 X-8.1251 Y-3.8458
G01 X-8.1724 Y-3.8230
G01 X-8.2192 Y-3.8032
G01 X-8.2702 Y-3.7846
G01 X-8.3220 Y-3.7685
G01 X-8.3712 Y-3.7558
G01 X-8.4218 Y-3.7454
G01 X-8.4746 Y-3.7372
G01 X-8.5268 Y-3.7317
G01 X-8.5793 Y-3.7287
G01 X-8.6310 Y-3.7284
G01 X-11.0162 Y-3.7706
G01 X-11.0687 Y-3.7728
G01 X-11.1228 Y-3.7778
G01 X-11.1731 Y-3.7849
G01 X-11.2230 Y-3.7945
G01 X-11.2749 Y-3.8070
G01 X-11.3261 Y-3.8222
G01 X-11.3773 Y-3.8401
G01 X-11.4244 Y-3.8593
G01 X-11.4705 Y-3.8807
G01 X-11.5186 Y-3.9059
G01 X-11.5653 Y-3.9335
G01 X-11.6077 Y-3.9615
G01 X-11.6487 Y-3.9915
G01 X-11.6910 Y-4.0255
G01 X-11.7381 Y-4.0684
G01 X-12.0064 Y-4.0684
G01 X-12.0175 Y-4.0693
G01 X-12.0275 Y-4.0717
G01 X-12.0371 Y-4.0755
G01 X-12.0453 Y-4.0802
G01 X-12.0534 Y-4.0865
G01 X-12.0605 Y-4.0940
G01 X-12.0664 Y-4.1024
G01 X-12.0711 Y-4.1116
G01 X-12.0741 Y-4.1206
G01 X-12.0758 Y-4.1290
G01 X-12.0764 Y-4.1384
G01 X-12.0764 Y-5.5384
G01 X-12.0747 Y-5.5537
G01 X-12.0714 Y-5.5644
G01 X-12.0669 Y-5.5736
G01 X-12.0611 Y-5.5821
G01 X-12.0540 Y-5.5897
G01 X-12.0460 Y-5.5961
G01 X-12.0371 Y-5.6013
G01 X-12.0275 Y-5.6051
G01 X-12.0175 Y-5.6075
G01 X-12.0064 Y-5.6084
G01 X-11.7435 Y-5.6084
G00 Z2.0000
G00 X-11.9391 Y-5.6784
G01 F70.00
G01 Z-0.0600
G01 F120.00
G01 X-11.9163 Y-5.7039
G01 X-11.8728 Y-5.7480
G01 X-11.8272 Y-5.7898
G01 X-11.7797 Y-5.8294
G01 X-11.7302 Y-5.8666
G01 X-11.6790 Y-5.9013
G01 X-11.6262 Y-5.9335
G01 X-11.5718 Y-5.9630
G01 X-11.5161 Y-5.9899
G01 X-11.4590 Y-6.0140
G01 X-11.4009 Y-6.0352
G01 X-11.3418 Y-6.0536
G01 X-11.2819 Y-6.0690
G01 X-11.2213 Y-6.0815
G01 X-11.1602 Y-6.0910
G01 X-11.0986 Y-6.0975
G01 X-11.0369 Y-6.1009
G01 X-10.9733 Y-6.1014
G01 X-10.0112 Y-6.0844
G01 X-9.9923 Y-6.0858
G01 X-9.9755 Y-6.0893
G01 X-9.9576 Y-6.0955
G01 X-9.9421 Y-6.1032
G01 X-9.9292 Y-6.1117
G01 X-9.9159 Y-6.1227
G01 X-9.9042 Y-6.1353
G01 X-9.8941 Y-6.1493
G01 X-9.8857 Y-6.1643
G01 X-9.8793 Y-6.1803
G01 X-9.8749 Y-6.1970
G01 X-9.8727 Y-6.2123
G01 X-9.8722 Y-6.2244
G01 X-9.8722 Y-6.8831
G01 X-9.7522 Y-6.8831
G01 X-9.7522 Y-6.3565
G01 X-9.7513 Y-6.3411
G01 X-9.7492 Y-6.3275
G01 X-9.7462 Y-6.3159
G01 X-9.7422 Y-6.3045
G01 X-9.7373 Y-6.2936
G01 X-9.7314 Y-6.2831
G01 X-9.7246 Y-6.2731
G01 X-9.7171 Y-6.2638
G01 X-9.7087 Y-6.2551
G01 X-9.6997 Y-6.2472
G01 X-9.6900 Y-6.2401
G01 X-9.6797 Y-6.2339
G01 X-9.6594 Y-6.2247
G01 X-9.6479 Y-6.2211
G01 X-9.6361 Y-6.2186
G01 X-9.6242 Y-6.2170
G01 X-9.6122 Y-6.2165
G01 X-7.6122 Y-6.2165
G01 X-7.5917 Y-6.2180
G01 X-7.5732 Y-6.2220
G01 X-7.5539 Y-6.2292
G01 X-7.5359 Y-6.2391
G01 X-7.5208 Y-6.2505
G01 X-7.5062 Y-6.2651
G01 X-7.4948 Y-6.2802
G01 X-7.4849 Y-6.2982
G01 X-7.4777 Y-6.3175
G01 X-7.4737 Y-6.3360
G01 X-7.4722 Y-6.3565
G01 X-7.4722 Y-6.8831
G01 X-7.3522 Y-6.8831
G01 X-7.3522 Y-6.0965
G01 X-7.8020 Y-6.0965
G01 X-7.8174 Y-6.0954
G01 X-7.8326 Y-6.0927
G01 X-7.8538 Y-6.0858
G01 X-7.8647 Y-6.0808
G01 X-7.8751 Y-6.0748
G01 X-7.8850 Y-6.0679
G01 X-7.8943 Y-6.0602
G01 X-7.9095 Y-6.0440
G01 X-7.9166 Y-6.0343
G01 X-7.9229 Y-6.0240
G01 X-7.9321 Y-6.0037
G01 X-7.9356 Y-5.9922
G01 X-7.9382 Y-5.9804
G01 X-7.9402 Y-5.9582
G01 X-7.9399 Y-5.9462
G01 X-7.9382 Y-5.9326
G01 X-7.9352 Y-5.9192
G01 X-7.9315 Y-5.9077
G01 X-7.9268 Y-5.8966
G01 X-7.9203 Y-5.8845
G01 X-7.9137 Y-5.8745
G01 X-7.9063 Y-5.8651
G01 X-7.8980 Y-5.8563
G01 X-7.8877 Y-5.8472
G01 X-7.8616 Y-5.8285
G01 X-7.8129 Y-5.7905
G01 X-7.7661 Y-5.7501
G01 X-7.7213 Y-5.7074
G01 X-7.6786 Y-5.6626
G01 X-7.6382 Y-5.6158
G01 X-7.6002 Y-5.5671
G01 X-7.5646 Y-5.5165
G01 X-7.5315 Y-5.4642
G01 X-7.5010 Y-5.4104
G01 X-7.4732 Y-5.3552
G01 X-7.4482 Y-5.2987
G01 X-7.4259 Y-5.2410
G01 X-7.4065 Y-5.1822
G01 X-7.3900 Y-5.1226
G01 X-7.3765 Y-5.0623
G01 X-7.3659 Y-5.0014
G01 X-7.3583 Y-4.9400
G01 X-7.3538 Y-4.8783
G01 X-7.3522 Y-4.8165
G01 X-7.3524 Y-4.7764
G01 X-7.3551 Y-4.7146
G01 X-7.3607 Y-4.6530
G01 X-7.3694 Y-4.5917
G01 X-7.3810 Y-4.5309
G01 X-7.3956 Y-4.4708
G01 X-7.4132 Y-4.4115
G01 X-7.4336 Y-4.3531
G01 X-7.4569 Y-4.2957
G01 X-7.4830 Y-4.2396
G01 X-7.5118 Y-4.1848
G01 X-7.5432 Y-4.1316
G01 X-7.5773 Y-4.0799
G01 X-7.6138 Y-4.0299
G01 X-7.6527 Y-3.9818
G01 X-7.6939 Y-3.9357
G01 X-7.7374 Y-3.8916
G01 X-7.7830 Y-3.8498
G01 X-7.8305 Y-3.8102
G01 X-7.8800 Y-3.7730
G01 X-7.9312 Y-3.7383
G01 X-7.9840 Y-3.7061
G01 X-8.0384 Y-3.6766
G01 X-8.0941 Y-3.6497
G01 X-8.1512 Y-3.6256
G01 X-8.2093 Y-3.6044
G01 X-8.2684 Y-3.5860
G01 X-8.3283 Y-3.5706
G01 X-8.3889 Y-3.5581
G01 X-8.4500 Y-3.5486
G01 X-8.5116 Y-3.5421
G01 X-8.5733 Y-3.5387
G01 X-8.6369 Y-3.5382
G01 X-11.0179 Y-3.5804
G01 X-11.0814 Y-3.5831
G01 X-11.1430 Y-3.5887
G01 X-11.2043 Y-3.5974
G01 X-11.2651 Y-3.6090
G01 X-11.3252 Y-3.6236
G01 X-11.3845 Y-3.6412
G01 X-11.4429 Y-3.6616
G01 X-11.5003 Y-3.6849
G01 X-11.5564 Y-3.7110
G01 X-11.6112 Y-3.7398
G01 X-11.6644 Y-3.7712
G01 X-11.7161 Y-3.8053
G01 X-11.7661 Y-3.8418
G01 X-11.8142 Y-3.8807
G01 X-11.8603 Y-3.9219
G01 X-11.9044 Y-3.9654
G01 X-11.9347 Y-3.9984
G01 X-11.7657 Y-3.9984
G01 X-11.7363 Y-3.9722
G01 X-11.6928 Y-3.9370
G01 X-11.6476 Y-3.9040
G01 X-11.6023 Y-3.8741
G01 X-11.5526 Y-3.8447
G01 X-11.5062 Y-3.8203
G01 X-11.4507 Y-3.7944
G01 X-11.4005 Y-3.7740
G01 X-11.3476 Y-3.7555
G01 X-11.2940 Y-3.7397
G01 X-11.2429 Y-3.7272
G01 X-11.1812 Y-3.7154
G01 X-11.1292 Y-3.7080
G01 X-11.0734 Y-3.7029
G01 X-11.0175 Y-3.7006
G01 X-8.6331 Y-3.6584
G01 X-8.5788 Y-3.6587
G01 X-8.5212 Y-3.6619
G01 X-8.4655 Y-3.6678
G01 X-8.4102 Y-3.6764
G01 X-8.3554 Y-3.6876
G01 X-8.3012 Y-3.7016
G01 X-8.2477 Y-3.7182
G01 X-8.1952 Y-3.7375
G01 X-8.1420 Y-3.7599
G01 X-8.0932 Y-3.7835
G01 X-8.0470 Y-3.8086
G01 X-7.9962 Y-3.8393
G01 X-7.9471 Y-3.8728
G01 X-7.9051 Y-3.9044
G01 X-7.8647 Y-3.9380
G01 X-7.8208 Y-3.9781
G01 X-7.7792 Y-4.0205
G01 X-7.7442 Y-4.0597
G01 X-7.7111 Y-4.1005
G01 X-7.6760 Y-4.1484
G01 X-7.6434 Y-4.1981
G01 X-7.6167 Y-4.2434
G01 X-7.5907 Y-4.2929
G01 X-7.5658 Y-4.3468
G01 X-7.5460 Y-4.3955
G01 X-7.5286 Y-4.4451
G01 X-7.5117 Y-4.5020
G01 X-7.4977 Y-4.5598
G01 X-7.4879 Y-4.6114
G01 X-7.4805 Y-4.6634
G01 X-7.4748 Y-4.7243
G01 X-7.4726 Y-4.7768
G01 X-7.4722 Y-4.8148
G01 X-7.4737 Y-4.8742
G01 X-7.4777 Y-4.9282
G01 X-7.4841 Y-4.9804
G01 X-7.4945 Y-5.0406
G01 X-7.5064 Y-5.0935
G01 X-7.5203 Y-5.1441
G01 X-7.5388 Y-5.2006
G01 X-7.5603 Y-5.2559
G01 X-7.5817 Y-5.3039
G01 X-7.6060 Y-5.3524
G01 X-7.6362 Y-5.4055
G01 X-7.6643 Y-5.4499
G01 X-7.6965 Y-5.4956
G01 X-7.7332 Y-5.5423
G01 X-7.7675 Y-5.5821
G01 X-7.8037 Y-5.6201
G01 X-7.8466 Y-5.6612
G01 X-7.8917 Y-5.6999
G01 X-7.9331 Y-5.7322
G01 X-7.9760 Y-5.7624
G01 X-8.0291 Y-5.7960
G01 X-8.0748 Y-5.8219
G01 X-8.1217 Y-5.8455
G01 X-8.1728 Y-5.8684
G01 X-8.2281 Y-5.8899
G01 X-8.2813 Y-5.9074
G01 X-8.3352 Y-5.9223
G01 X-8.3932 Y-5.9352
G01 X-8.4449 Y-5.9442
G01 X-8.4970 Y-5.9506
G01 X-8.5545 Y-5.9550
G01 X-8.6122 Y-5.9565
G01 X-8.6681 Y-5.9551
G01 X-8.7239 Y-5.9510
G01 X-8.7893 Y-5.9425
G01 X-10.9771 Y-5.9812
G01 X-11.0331 Y-5.9808
G01 X-11.0890 Y-5.9777
G01 X-11.1447 Y-5.9718
G01 X-11.2000 Y-5.9632
G01 X-11.2514 Y-5.9527
G01 X-11.3123 Y-5.9370
G01 X-11.3625 Y-5.9214
G01 X-11.4166 Y-5.9015
G01 X-11.4666 Y-5.8804
G01 X-11.5170 Y-5.8561
G01 X-11.5662 Y-5.8294
G01 X-11.6126 Y-5.8012
G01 X-11.6604 Y-5.7688
G01 X-11.7038 Y-5.7362
G01 X-11.7468 Y-5.7005
G01 X-11.7710 Y-5.6784
G01 X-11.9391 Y-5.6784
G00 Z2.0000
G00 X-12.1464 Y-4.3224
G01 F70.00
G01 Z-0.0600
G01 F120.00
G01 X-12.1704 Y-4.3792
G01 X-12.1916 Y-4.4373
G01 X-12.2100 Y-4.4964
G01 X-12.2254 Y-4.5563
G01 X-12.2379 Y-4.6169
G01 X-12.2474 Y-4.6780
G01 X-12.2539 Y-4.7396
G01 X-12.2573 Y-4.8013
G01 X-12.2578 Y-4.8632
G01 X-12.2551 Y-4.9250
G01 X-12.2495 Y-4.9866
G01 X-12.2408 Y-5.0479
G01 X-12.2292 Y-5.1087
G01 X-12.2146 Y-5.1688
G01 X-12.1970 Y-5.2281
G01 X-12.1766 Y-5.2865
G01 X-12.1533 Y-5.3439
G01 X-12.1464 Y-5.3587
G01 X-12.1464 Y-4.3224
G00 Z2.0000
G00 X-12.8722 Y-3.9984
G01 F70.00
G01 Z-0.0600
G01 F120.00
G01 X-12.9212 Y-3.9463
G01 X-12.9661 Y-3.9037
G01 X-13.0130 Y-3.8633
G01 X-13.0618 Y-3.8253
G01 X-13.1124 Y-3.7897
G01 X-13.1647 Y-3.7566
G01 X-13.2185 Y-3.7262
G01 X-13.2738 Y-3.6984
G01 X-13.3304 Y-3.6734
G01 X-13.3882 Y-3.6511
G01 X-13.4469 Y-3.6318
G01 X-13.5066 Y-3.6153
G01 X-13.5670 Y-3.6018
G01 X-13.6279 Y-3.5913
G01 X-13.6893 Y-3.5837
G01 X-13.7511 Y-3.5792
G01 X-13.8146 Y-3.5777
G01 X-17.2671 Y-3.5802
G01 X-17.3307 Y-3.5818
G01 X-17.3924 Y-3.5864
G01 X-17.4538 Y-3.5940
G01 X-17.5147 Y-3.6046
G01 X-17.5751 Y-3.6182
G01 X-17.6347 Y-3.6348
G01 X-17.6935 Y-3.6542
G01 X-17.7512 Y-3.6766
G01 X-17.8077 Y-3.7017
G01 X-17.8630 Y-3.7295
G01 X-17.9168 Y-3.7601
G01 X-17.9690 Y-3.7932
G01 X-18.0196 Y-3.8289
G01 X-18.0684 Y-3.8670
G01 X-18.1152 Y-3.9074
G01 X-18.1681 Y-3.9587
G01 X-17.9907 Y-3.9587
G01 X-17.9480 Y-3.9253
G01 X-17.9050 Y-3.8950
G01 X-17.8520 Y-3.8614
G01 X-17.8063 Y-3.8355
G01 X-17.7563 Y-3.8103
G01 X-17.7051 Y-3.7875
G01 X-17.6561 Y-3.7685
G01 X-17.5965 Y-3.7488
G01 X-17.5458 Y-3.7348
G01 X-17.4912 Y-3.7225
G01 X-17.4327 Y-3.7124
G01 X-17.3805 Y-3.7060
G01 X-17.3264 Y-3.7019
G01 X-17.2687 Y-3.7004
G01 X-13.8111 Y-3.6979
G01 X-13.7569 Y-3.6992
G01 X-13.7045 Y-3.7030
G01 X-13.6455 Y-3.7101
G01 X-13.5903 Y-3.7197
G01 X-13.5390 Y-3.7311
G01 X-13.4801 Y-3.7473
G01 X-13.4286 Y-3.7643
G01 X-13.3732 Y-3.7858
G01 X-13.3220 Y-3.8086
G01 X-13.2751 Y-3.8322
G01 X-13.2293 Y-3.8580
G01 X-13.1791 Y-3.8897
G01 X-13.1333 Y-3.9219
G01 X-13.0891 Y-3.9563
G01 X-13.0407 Y-3.9984
G01 X-12.8722 Y-3.9984
G00 Z2.0000
G00 X-17.2850 Y-4.8770
G01 F70.00
G01 Z-0.0600
G01 F120.00
G01 X-17.2776 Y-4.8796
G01 X-17.2699 Y-4.8808
G01 X-17.2620 Y-4.8804
G01 X-17.2544 Y-4.8785
G01 X-17.2474 Y-4.8752
G01 X-17.2411 Y-4.8705
G01 X-17.2358 Y-4.8647
G01 X-17.2318 Y-4.8580
G01 X-17.2292 Y-4.8506
G01 X-17.2280 Y-4.8429
G01 X-17.2284 Y-4.8350
G01 X-17.2303 Y-4.8274
G01 X-17.2336 Y-4.8204
G01 X-17.2383 Y-4.8141
G01 X-17.2441 Y-4.8088
G01 X-17.2508 Y-4.8048
G01 X-17.2582 Y-4.8022
G01 X-17.2659 Y-4.8010
G01 X-17.2738 Y-4.8014
G01 X-17.2814 Y-4.8033
G01 X-17.2884 Y-4.8066
G01 X-17.2947 Y-4.8113
G01 X-17.3000 Y-4.8171
G01 X-17.3040 Y-4.8238
G01 X-17.3066 Y-4.8312
G01 X-17.3078 Y-4.8389
G01 X-17.3074 Y-4.8468
G01 X-17.3055 Y-4.8544
G01 X-17.3022 Y-4.8614
G01 X-17.2975 Y-4.8677
G01 X-17.2917 Y-4.8730
G01 X-17.2850 Y-4.8770
G00 Z2.0000
G00 X-17.3773 Y-4.8301
G01 F70.00
G01 Z-0.0600
G01 F120.00
G01 X-17.3779 Y-4.8409
G01 X-17.3773 Y-4.8517
G01 X-17.3757 Y-4.8624
G01 X-17.3731 Y-4.8728
G01 X-17.3695 Y-4.8830
G01 X-17.3649 Y-4.8927
G01 X-17.3593 Y-4.9020
G01 X-17.3529 Y-4.9107
G01 X-17.3457 Y-4.9187
G01 X-17.3377 Y-4.9259
G01 X-17.3290 Y-4.9323
G01 X-17.3197 Y-4.9379
G01 X-17.3100 Y-4.9425
G01 X-17.2998 Y-4.9461
G01 X-17.2894 Y-4.9487
G01 X-17.2787 Y-4.9503
G01 X-17.2679 Y-4.9509
G01 X-17.2571 Y-4.9503
G01 X-17.2464 Y-4.9487
G01 X-17.2360 Y-4.9461
G01 X-17.2258 Y-4.9425
G01 X-17.2161 Y-4.9379
G01 X-17.2068 Y-4.9323
G01 X-17.1981 Y-4.9259
G01 X-17.1901 Y-4.9187
G01 X-17.1829 Y-4.9107
G01 X-17.1765 Y-4.9020
G01 X-17.1709 Y-4.8927
G01 X-17.1663 Y-4.8830
G01 X-17.1627 Y-4.8728
G01 X-17.1601 Y-4.8624
G01 X-17.1585 Y-4.8517
G01 X-17.1579 Y-4.8409
G01 X-17.1585 Y-4.8301
G01 X-17.1601 Y-4.8194
G01 X-17.1627 Y-4.8090
G01 X-17.1663 Y-4.7988
G01 X-17.1709 Y-4.7891
G01 X-17.1765 Y-4.7798
G01 X-17.1829 Y-4.7711
G01 X-17.1901 Y-4.7631
G01 X-17.1981 Y-4.7559
G01 X-17.2068 Y-4.7495
G01 X-17.2161 Y-4.7439
G01 X-17.2258 Y-4.7393
G01 X-17.2360 Y-4.7357
G01 X-17.2464 Y-4.7331
G01 X-17.2571 Y-4.7315
G01 X-17.2679 Y-4.7309
G01 X-17.2787 Y-4.7315
G01 X-17.2894 Y-4.7331
G01 X-17.2998 Y-4.7357
G01 X-17.3100 Y-4.7393
G01 X-17.3197 Y-4.7439
G01 X-17.3290 Y-4.7495
G01 X-17.3377 Y-4.7559
G01 X-17.3457 Y-4.7631
G01 X-17.3529 Y-4.7711
G01 X-17.3593 Y-4.7798
G01 X-17.3649 Y-4.7891
G01 X-17.3695 Y-4.7988
G01 X-17.3731 Y-4.8090
G01 X-17.3757 Y-4.8194
G01 X-17.3773 Y-4.8301
G00 Z2.0000
G00 X-17.4477 Y-4.8497
G01 F70.00
G01 Z-0.0600
G01 F120.00
G01 X-17.4459 Y-4.8673
G01 X-17.4425 Y-4.8846
G01 X-17.4374 Y-4.9015
G01 X-17.4306 Y-4.9179
G01 X-17.4223 Y-4.9334
G01 X-17.4125 Y-4.9481
G01 X-17.4013 Y-4.9618
G01 X-17.3888 Y-4.9743
G01 X-17.3751 Y-4.9855
G01 X-17.3604 Y-4.9953
G01 X-17.3449 Y-5.0036
G01 X-17.3285 Y-5.0104
G01 X-17.3116 Y-5.0155
G01 X-17.2943 Y-5.0189
G01 X-17.2767 Y-5.0207
G01 X-17.2591 Y-5.0207
G01 X-17.2415 Y-5.0189
G01 X-17.2242 Y-5.0155
G01 X-17.2073 Y-5.0104
G01 X-17.1909 Y-5.0036
G01 X-17.1754 Y-4.9953
G01 X-17.1607 Y-4.9855
G01 X-17.1470 Y-4.9743
G01 X-17.1345 Y-4.9618
G01 X-17.1233 Y-4.9481
G01 X-17.1135 Y-4.9334
G01 X-17.1052 Y-4.9179
G01 X-17.0984 Y-4.9015
G01 X-17.0933 Y-4.8846
G01 X-17.0899 Y-4.8673
G01 X-17.0881 Y-4.8497
G01 X-17.0881 Y-4.8321
G01 X-17.0899 Y-4.8145
G01 X-17.0933 Y-4.7972
G01 X-17.0984 Y-4.7803
G01 X-17.1052 Y-4.7639
G01 X-17.1135 Y-4.7484
G01 X-17.1233 Y-4.7337
G01 X-17.1345 Y-4.7200
G01 X-17.1470 Y-4.7075
G01 X-17.1607 Y-4.6963
G01 X-17.1754 Y-4.6865
G01 X-17.1909 Y-4.6782
G01 X-17.2073 Y-4.6714
G01 X-17.2242 Y-4.6663
G01 X-17.2415 Y-4.6629
G01 X-17.2591 Y-4.6611
G01 X-17.2767 Y-4.6611
G01 X-17.2943 Y-4.6629
G01 X-17.3116 Y-4.6663
G01 X-17.3285 Y-4.6714
G01 X-17.3449 Y-4.6782
G01 X-17.3604 Y-4.6865
G01 X-17.3751 Y-4.6963
G01 X-17.3888 Y-4.7075
G01 X-17.4013 Y-4.7200
G01 X-17.4125 Y-4.7337
G01 X-17.4223 Y-4.7484
G01 X-17.4306 Y-4.7639
G01 X-17.4374 Y-4.7803
G01 X-17.4425 Y-4.7972
G01 X-17.4459 Y-4.8145
G01 X-17.4477 Y-4.8321
G01 X-17.4477 Y-4.8497
G00 Z2.0000
G00 X-18.0527 Y-5.5687
G01 F70.00
G01 Z-0.0600
G01 F120.00
G01 X-18.0243 Y-5.5984
G01 X-17.9862 Y-5.6346
G01 X-17.9464 Y-5.6689
G01 X-17.9050 Y-5.7012
G01 X-17.8620 Y-5.7314
G01 X-17.8176 Y-5.7595
G01 X-17.7718 Y-5.7854
G01 X-17.7249 Y-5.8090
G01 X-17.6768 Y-5.8302
G01 X-17.6278 Y-5.8491
G01 X-17.5779 Y-5.8655
G01 X-17.5273 Y-5.8795
G01 X-17.4760 Y-5.8910
G01 X-17.4242 Y-5.8999
G01 X-17.3721 Y-5.9063
G01 X-17.3214 Y-5.9100
G01 X-17.2671 Y-5.9114
G01 X-13.8104 Y-5.9089
G01 X-13.7570 Y-5.9075
G01 X-13.7063 Y-5.9037
G01 X-13.6559 Y-5.8974
G01 X-13.6024 Y-5.8882
G01 X-13.5503 Y-5.8764
G01 X-13.4989 Y-5.8621
G01 X-13.4506 Y-5.8461
G01 X-13.4032 Y-5.8278
G01 X-13.3536 Y-5.8058
G01 X-13.3059 Y-5.7817
G01 X-13.2610 Y-5.7562
G01 X-13.2181 Y-5.7290
G01 X-13.1744 Y-5.6983
G01 X-13.1316 Y-5.6649
G01 X-13.0925 Y-5.6311
G01 X-13.0687 Y-5.6084
G01 X-12.6021 Y-5.6083
G01 X-12.5936 Y-5.6072
G01 X-12.5853 Y-5.6051
G01 X-12.5772 Y-5.6020
G01 X-12.5697 Y-5.5980
G01 X-12.5627 Y-5.5931
G01 X-12.5563 Y-5.5873
G01 X-12.5507 Y-5.5808
G01 X-12.5459 Y-5.5736
G01 X-12.5417 Y-5.5652
G01 X-12.5387 Y-5.5562
G01 X-12.5370 Y-5.5478
G01 X-12.5364 Y-5.5384
G01 X-12.5364 Y-4.1384
G01 X-12.5370 Y-4.1290
G01 X-12.5387 Y-4.1206
G01 X-12.5424 Y-4.1100
G01 X-12.5473 Y-4.1010
G01 X-12.5534 Y-4.0927
G01 X-12.5607 Y-4.0854
G01 X-12.5690 Y-4.0793
G01 X-12.5788 Y-4.0741
G01 X-12.5894 Y-4.0705
G01 X-12.5995 Y-4.0687
G01 X-13.0687 Y-4.0684
G01 X-13.0937 Y-4.0447
G01 X-13.1341 Y-4.0099
G01 X-13.1749 Y-3.9781
G01 X-13.2186 Y-3.9474
G01 X-13.2623 Y-3.9198
G01 X-13.3081 Y-3.8939
G01 X-13.3550 Y-3.8703
G01 X-13.4038 Y-3.8488
G01 X-13.4521 Y-3.8302
G01 X-13.5020 Y-3.8138
G01 X-13.5526 Y-3.7998
G01 X-13.6039 Y-3.7883
G01 X-13.6557 Y-3.7794
G01 X-13.7078 Y-3.7730
G01 X-13.7602 Y-3.7692
G01 X-13.8119 Y-3.7679
G01 X-17.2687 Y-3.7704
G01 X-17.3212 Y-3.7717
G01 X-17.3736 Y-3.7756
G01 X-17.4240 Y-3.7819
G01 X-17.4792 Y-3.7915
G01 X-17.5288 Y-3.8027
G01 X-17.5794 Y-3.8167
G01 X-17.6293 Y-3.8332
G01 X-17.6775 Y-3.8519
G01 X-17.7278 Y-3.8743
G01 X-17.7732 Y-3.8972
G01 X-17.8196 Y-3.9235
G01 X-17.8633 Y-3.9512
G01 X-17.9055 Y-3.9810
G01 X-17.9469 Y-4.0133
G01 X-17.9648 Y-4.0287
G01 X-19.0716 Y-4.0287
G01 X-19.0818 Y-4.0296
G01 X-19.0918 Y-4.0320
G01 X-19.1014 Y-4.0358
G01 X-19.1103 Y-4.0410
G01 X-19.1171 Y-4.0463
G01 X-19.1231 Y-4.0523
G01 X-19.1324 Y-4.0657
G01 X-19.1360 Y-4.0735
G01 X-19.1386 Y-4.0817
G01 X-19.1407 Y-4.0978
G01 X-19.1407 Y-5.4996
G01 X-19.1398 Y-5.5098
G01 X-19.1374 Y-5.5198
G01 X-19.1336 Y-5.5294
G01 X-19.1284 Y-5.5383
G01 X-19.1177 Y-5.5506
G01 X-19.1045 Y-5.5600
G01 X-19.0967 Y-5.5637
G01 X-19.0885 Y-5.5664
G01 X-19.0724 Y-5.5687
G01 X-18.0527 Y-5.5687
G00 Z2.0000
G00 X-17.2653 Y-6.1016
G01 F70.00
G01 Z-0.0600
G01 F120.00
G01 X-13.8128 Y-6.0991
G01 X-13.7492 Y-6.0975
G01 X-13.6875 Y-6.0929
G01 X-13.6261 Y-6.0853
G01 X-13.5652 Y-6.0747
G01 X-13.5048 Y-6.0611
G01 X-13.4452 Y-6.0445
G01 X-13.3864 Y-6.0251
G01 X-13.3287 Y-6.0027
G01 X-13.2722 Y-5.9776
G01 X-13.2169 Y-5.9498
G01 X-13.1631 Y-5.9192
G01 X-13.1109 Y-5.8861
G01 X-13.0603 Y-5.8504
G01 X-13.0115 Y-5.8123
G01 X-12.9647 Y-5.7719
G01 X-12.9199 Y-5.7292
G01 X-12.8722 Y-5.6784
G01 X-13.0407 Y-5.6784
G01 X-13.0905 Y-5.7216
G01 X-13.1319 Y-5.7540
G01 X-13.1806 Y-5.7881
G01 X-13.2250 Y-5.8162
G01 X-13.2736 Y-5.8438
G01 X-13.3236 Y-5.8690
G01 X-13.3748 Y-5.8918
G01 X-13.4270 Y-5.9120
G01 X-13.4769 Y-5.9285
G01 X-13.5374 Y-5.9453
G01 X-13.5887 Y-5.9568
G01 X-13.6438 Y-5.9664
G01 X-13.6994 Y-5.9733
G01 X-13.7518 Y-5.9773
G01 X-13.8112 Y-5.9789
G01 X-17.2688 Y-5.9814
G01 X-17.3230 Y-5.9801
G01 X-17.3789 Y-5.9760
G01 X-17.4344 Y-5.9692
G01 X-17.4862 Y-5.9603
G01 X-17.5475 Y-5.9465
G01 X-17.5982 Y-5.9325
G01 X-17.6513 Y-5.9150
G01 X-17.7036 Y-5.8949
G01 X-17.7579 Y-5.8707
G01 X-17.8048 Y-5.8471
G01 X-17.8506 Y-5.8213
G01 X-17.8980 Y-5.7915
G01 X-17.9466 Y-5.7574
G01 X-17.9908 Y-5.7230
G01 X-18.0345 Y-5.6853
G01 X-18.0826 Y-5.6387
G01 X-18.2439 Y-5.6387
G01 X-18.2014 Y-5.6882
G01 X-18.1587 Y-5.7330
G01 X-18.1138 Y-5.7756
G01 X-18.0669 Y-5.8160
G01 X-18.0181 Y-5.8540
G01 X-17.9675 Y-5.8896
G01 X-17.9152 Y-5.9227
G01 X-17.8614 Y-5.9531
G01 X-17.8061 Y-5.9809
G01 X-17.7495 Y-6.0059
G01 X-17.6917 Y-6.0282
G01 X-17.6330 Y-6.0475
G01 X-17.5733 Y-6.0640
G01 X-17.5129 Y-6.0775
G01 X-17.4520 Y-6.0880
G01 X-17.3906 Y-6.0956
G01 X-17.3288 Y-6.1001
G01 X-17.2653 Y-6.1016
G00 Z2.0000
G00 X-17.2661 Y-6.1716
G01 F70.00
G01 Z-0.0600
G01 F120.00
G01 X-13.8119 Y-6.1691
G01 X-13.7457 Y-6.1674
G01 X-13.6806 Y-6.1626
G01 X-13.6158 Y-6.1545
G01 X-13.5515 Y-6.1433
G01 X-13.4877 Y-6.1290
G01 X-13.4248 Y-6.1115
G01 X-13.3628 Y-6.0910
G01 X-13.3019 Y-6.0674
G01 X-13.2422 Y-6.0409
G01 X-13.1839 Y-6.0115
G01 X-13.1271 Y-5.9793
G01 X-13.0719 Y-5.9443
G01 X-13.0185 Y-5.9066
G01 X-12.9671 Y-5.8664
G01 X-12.9177 Y-5.8237
G01 X-12.8704 Y-5.7787
G01 X-12.8254 Y-5.7313
G01 X-12.7886 Y-5.6889
G01 X-12.7794 Y-5.6812
G01 X-12.7698 Y-5.6755
G01 X-12.7553 Y-5.6703
G01 X-12.7408 Y-5.6684
G01 X-12.4764 Y-5.6684
G01 X-12.4764 Y-4.0084
G01 X-12.7399 Y-4.0084
G01 X-12.7519 Y-4.0072
G01 X-12.7634 Y-4.0040
G01 X-12.7765 Y-3.9976
G01 X-12.7879 Y-3.9885
G01 X-12.8267 Y-3.9441
G01 X-12.8717 Y-3.8968
G01 X-12.9191 Y-3.8518
G01 X-12.9686 Y-3.8092
G01 X-13.0201 Y-3.7690
G01 X-13.0735 Y-3.7314
G01 X-13.1287 Y-3.6965
G01 X-13.1856 Y-3.6644
G01 X-13.2439 Y-3.6351
G01 X-13.3037 Y-3.6086
G01 X-13.3646 Y-3.5852
G01 X-13.4266 Y-3.5647
G01 X-13.4896 Y-3.5474
G01 X-13.5533 Y-3.5331
G01 X-13.6177 Y-3.5220
G01 X-13.6825 Y-3.5140
G01 X-13.7477 Y-3.5093
G01 X-13.8138 Y-3.5077
G01 X-17.2680 Y-3.5102
G01 X-17.3342 Y-3.5119
G01 X-17.3993 Y-3.5167
G01 X-17.4641 Y-3.5248
G01 X-17.5284 Y-3.5360
G01 X-17.5922 Y-3.5503
G01 X-17.6551 Y-3.5678
G01 X-17.7171 Y-3.5883
G01 X-17.7780 Y-3.6119
G01 X-17.8377 Y-3.6384
G01 X-17.8960 Y-3.6678
G01 X-17.9528 Y-3.7000
G01 X-18.0080 Y-3.7350
G01 X-18.0614 Y-3.7727
G01 X-18.1128 Y-3.8129
G01 X-18.1622 Y-3.8556
G01 X-18.2095 Y-3.9006
G01 X-18.2585 Y-3.9517
G01 X-18.2720 Y-3.9608
G01 X-18.2872 Y-3.9666
G01 X-18.2957 Y-3.9682
G01 X-18.3042 Y-3.9687
G01 X-19.2007 Y-3.9687
G01 X-19.2007 Y-5.6287
G01 X-18.3747 Y-5.6287
G01 X-18.3653 Y-5.6293
G01 X-18.3560 Y-5.6312
G01 X-18.3479 Y-5.6340
G01 X-18.3402 Y-5.6378
G01 X-18.3330 Y-5.6425
G01 X-18.3258 Y-5.6486
G01 X-18.3201 Y-5.6549
G01 X-18.2959 Y-5.6858
G01 X-18.2532 Y-5.7352
G01 X-18.2082 Y-5.7825
G01 X-18.1608 Y-5.8275
G01 X-18.1113 Y-5.8701
G01 X-18.0598 Y-5.9103
G01 X-18.0064 Y-5.9479
G01 X-17.9512 Y-5.9828
G01 X-17.8943 Y-6.0149
G01 X-17.8360 Y-6.0442
G01 X-17.7762 Y-6.0707
G01 X-17.7153 Y-6.0941
G01 X-17.6533 Y-6.1146
G01 X-17.5903 Y-6.1319
G01 X-17.5266 Y-6.1462
G01 X-17.4622 Y-6.1573
G01 X-17.3974 Y-6.1653
G01 X-17.3322 Y-6.1700
G01 X-17.2661 Y-6.1716
G00 Z2.0000
G00 X-18.4760 Y-8.9919
G01 F70.00
G01 Z-0.0600
G01 F120.00
G01 X-18.4448 Y-9.0535
G01 X-18.4249 Y-9.0986
G01 X-18.4053 Y-9.1495
G01 X-18.3882 Y-9.2012
G01 X-18.3743 Y-9.2512
G01 X-18.3622 Y-9.3043
G01 X-18.3592 Y-9.3213
G01 X-18.3561 Y-9.3043
G01 X-18.3440 Y-9.2512
G01 X-18.3301 Y-9.2012
G01 X-18.3130 Y-9.1495
G01 X-18.2934 Y-9.0986
G01 X-18.2735 Y-9.0535
G01 X-18.2423 Y-8.9919
G01 X-18.2556 Y-9.0002
G01 X-18.2694 Y-9.0073
G01 X-18.2836 Y-9.0134
G01 X-18.2982 Y-9.0184
G01 X-18.3131 Y-9.0224
G01 X-18.3283 Y-9.0252
G01 X-18.3437 Y-9.0269
G01 X-18.3591 Y-9.0275
G01 X-18.3746 Y-9.0269
G01 X-18.3900 Y-9.0252
G01 X-18.4052 Y-9.0224
G01 X-18.4201 Y-9.0184
G01 X-18.4347 Y-9.0134
G01 X-18.4489 Y-9.0073
G01 X-18.4627 Y-9.0002
G01 X-18.4760 Y-8.9919
G00 Z2.0000
G00 X-18.3592 Y-9.7255
G01 F70.00
G01 Z-0.0600
G01 F120.00
G01 X-18.3622 Y-9.7425
G01 X-18.3743 Y-9.7956
G01 X-18.3882 Y-9.8456
G01 X-18.4053 Y-9.8973
G01 X-18.4249 Y-9.9482
G01 X-18.4448 Y-9.9933
G01 X-18.4760 Y-10.0549
G01 X-18.4627 Y-10.0466
G01 X-18.4489 Y-10.0395
G01 X-18.4347 Y-10.0334
G01 X-18.4201 Y-10.0284
G01 X-18.4052 Y-10.0244
G01 X-18.3900 Y-10.0216
G01 X-18.3746 Y-10.0199
G01 X-18.3591 Y-10.0193
G01 X-18.3437 Y-10.0199
G01 X-18.3283 Y-10.0216
G01 X-18.3131 Y-10.0244
G01 X-18.2982 Y-10.0284
G01 X-18.2836 Y-10.0334
G01 X-18.2694 Y-10.0395
G01 X-18.2556 Y-10.0466
G01 X-18.2423 Y-10.0549
G01 X-18.2735 Y-9.9933
G01 X-18.2934 Y-9.9482
G01 X-18.3130 Y-9.8973
G01 X-18.3301 Y-9.8456
G01 X-18.3440 Y-9.7956
G01 X-18.3561 Y-9.7425
G01 X-18.3592 Y-9.7255
G00 Z2.0000
G00 X-18.5664 Y-10.2739
G01 F70.00
G01 Z-0.0600
G01 F120.00
G01 X-18.5537 Y-10.2593
G01 X-18.5187 Y-10.2144
G01 X-18.4685 Y-10.1418
G01 X-18.4544 Y-10.1267
G01 X-18.4384 Y-10.1139
G01 X-18.4251 Y-10.1058
G01 X-18.4095 Y-10.0987
G01 X-18.3932 Y-10.0935
G01 X-18.3763 Y-10.0904
G01 X-18.3609 Y-10.0893
G01 X-18.3437 Y-10.0902
G01 X-18.3268 Y-10.0931
G01 X-18.3120 Y-10.0975
G01 X-18.2962 Y-10.1043
G01 X-18.2814 Y-10.1129
G01 X-18.2677 Y-10.1233
G01 X-18.2554 Y-10.1353
G01 X-18.2447 Y-10.1487
G01 X-18.2324 Y-10.1678
G01 X-18.1996 Y-10.2144
G01 X-18.1646 Y-10.2593
G01 X-18.1274 Y-10.3024
G01 X-18.0881 Y-10.3436
G01 X-18.0469 Y-10.3829
G01 X-18.0038 Y-10.4201
G01 X-17.9589 Y-10.4551
G01 X-17.9123 Y-10.4879
G01 X-17.8642 Y-10.5183
G01 X-17.8147 Y-10.5464
G01 X-17.7638 Y-10.5720
G01 X-17.7118 Y-10.5951
G01 X-17.6587 Y-10.6156
G01 X-17.6046 Y-10.6334
G01 X-17.5497 Y-10.6486
G01 X-17.4942 Y-10.6611
G01 X-17.4381 Y-10.6708
G01 X-17.3816 Y-10.6778
G01 X-17.3248 Y-10.6820
G01 X-17.2679 Y-10.6834
G01 X-17.2110 Y-10.6820
G01 X-17.1542 Y-10.6778
G01 X-17.0977 Y-10.6708
G01 X-17.0416 Y-10.6611
G01 X-16.9861 Y-10.6486
G01 X-16.9312 Y-10.6334
G01 X-16.8771 Y-10.6156
G01 X-16.8240 Y-10.5951
G01 X-16.7720 Y-10.5720
G01 X-16.7211 Y-10.5464
G01 X-16.6716 Y-10.5183
G01 X-16.6235 Y-10.4879
G01 X-16.5769 Y-10.4551
G01 X-16.5320 Y-10.4201
G01 X-16.4889 Y-10.3829
G01 X-16.4477 Y-10.3436
G01 X-16.4084 Y-10.3024
G01 X-16.3712 Y-10.2593
G01 X-16.3362 Y-10.2144
G01 X-16.3034 Y-10.1678
G01 X-16.2730 Y-10.1197
G01 X-16.2449 Y-10.0702
G01 X-16.2193 Y-10.0193
G01 X-16.1962 Y-9.9673
G01 X-16.1757 Y-9.9142
G01 X-16.1579 Y-9.8601
G01 X-16.1427 Y-9.8052
G01 X-16.1302 Y-9.7497
G01 X-16.1205 Y-9.6936
G01 X-16.1135 Y-9.6371
G01 X-16.1093 Y-9.5803
G01 X-16.1079 Y-9.5234
G01 X-16.1093 Y-9.4665
G01 X-16.1135 Y-9.4097
G01 X-16.1205 Y-9.3532
G01 X-16.1302 Y-9.2971
G01 X-16.1427 Y-9.2416
G01 X-16.1579 Y-9.1867
G01 X-16.1757 Y-9.1326
G01 X-16.1962 Y-9.0795
G01 X-16.2193 Y-9.0275
G01 X-16.2449 Y-8.9766
G01 X-16.2730 Y-8.9271
G01 X-16.3034 Y-8.8790
G01 X-16.3362 Y-8.8324
G01 X-16.3712 Y-8.7875
G01 X-16.4084 Y-8.7444
G01 X-16.4477 Y-8.7032
G01 X-16.4889 Y-8.6639
G01 X-16.5320 Y-8.6267
G01 X-16.5769 Y-8.5917
G01 X-16.6235 Y-8.5589
G01 X-16.6716 Y-8.5285
G01 X-16.7211 Y-8.5004
G01 X-16.7720 Y-8.4748
G01 X-16.8240 Y-8.4517
G01 X-16.8771 Y-8.4312
G01 X-16.9312 Y-8.4134
G01 X-16.9861 Y-8.3982
G01 X-17.0416 Y-8.3857
G01 X-17.0977 Y-8.3760
G01 X-17.1542 Y-8.3690
G01 X-17.2110 Y-8.3648
G01 X-17.2679 Y-8.3634
G01 X-17.3248 Y-8.3648
G01 X-17.3816 Y-8.3690
G01 X-17.4381 Y-8.3760
G01 X-17.4942 Y-8.3857
G01 X-17.5497 Y-8.3982
G01 X-17.6046 Y-8.4134
G01 X-17.6587 Y-8.4312
G01 X-17.7118 Y-8.4517
G01 X-17.7638 Y-8.4748
G01 X-17.8147 Y-8.5004
G01 X-17.8642 Y-8.5285
G01 X-17.9123 Y-8.5589
G01 X-17.9589 Y-8.5917
G01 X-18.0038 Y-8.6267
G01 X-18.0469 Y-8.6639
G01 X-18.0881 Y-8.7032
G01 X-18.1274 Y-8.7444
G01 X-18.1646 Y-8.7875
G01 X-18.1996 Y-8.8324
G01 X-18.2324 Y-8.8790
G01 X-18.2447 Y-8.8981
G01 X-18.2578 Y-8.9140
G01 X-18.2717 Y-8.9268
G01 X-18.2857 Y-8.9367
G01 X-18.3008 Y-8.9448
G01 X-18.3185 Y-8.9515
G01 X-18.3335 Y-8.9551
G01 X-18.3506 Y-8.9572
G01 X-18.3660 Y-8.9573
G01 X-18.3814 Y-8.9557
G01 X-18.3981 Y-8.9519
G01 X-18.4127 Y-8.9468
G01 X-18.4282 Y-8.9393
G01 X-18.4412 Y-8.9310
G01 X-18.4557 Y-8.9189
G01 X-18.4685 Y-8.9050
G01 X-18.5187 Y-8.8324
G01 X-18.5537 Y-8.7875
G01 X-18.5664 Y-8.7729
G01 X-18.5664 Y-8.9760
G01 X-18.5575 Y-8.9902
G01 X-18.5340 Y-9.0316
G01 X-18.5095 Y-9.0803
G01 X-18.4896 Y-9.1254
G01 X-18.4724 Y-9.1698
G01 X-18.4547 Y-9.2232
G01 X-18.4416 Y-9.2707
G01 X-18.4311 Y-9.3171
G01 X-18.4217 Y-9.3708
G01 X-18.4154 Y-9.4215
G01 X-18.4119 Y-9.4689
G01 X-18.4104 Y-9.5234
G01 X-18.4119 Y-9.5779
G01 X-18.4154 Y-9.6253
G01 X-18.4217 Y-9.6760
G01 X-18.4311 Y-9.7297
G01 X-18.4416 Y-9.7761
G01 X-18.4547 Y-9.8236
G01 X-18.4724 Y-9.8770
G01 X-18.4896 Y-9.9214
G01 X-18.5095 Y-9.9665
G01 X-18.5340 Y-10.0152
G01 X-18.5575 Y-10.0566
G01 X-18.5664 Y-10.0708
G01 X-18.5664 Y-10.2739
G00 Z2.0000
G00 X-18.6364 Y-10.4451
G01 F70.00
G01 Z-0.0600
G01 F120.00
G01 X-18.6244 Y-10.4348
G01 X-18.5807 Y-10.3931
G01 X-18.5390 Y-10.3494
G01 X-18.4996 Y-10.3037
G01 X-18.4625 Y-10.2561
G01 X-18.4277 Y-10.2067
G01 X-18.4164 Y-10.1890
G01 X-18.4093 Y-10.1804
G01 X-18.3973 Y-10.1706
G01 X-18.3843 Y-10.1640
G01 X-18.3703 Y-10.1602
G01 X-18.3557 Y-10.1594
G01 X-18.3430 Y-10.1612
G01 X-18.3300 Y-10.1657
G01 X-18.3181 Y-10.1726
G01 X-18.3079 Y-10.1817
G01 X-18.3019 Y-10.1890
G01 X-18.2906 Y-10.2067
G01 X-18.2558 Y-10.2561
G01 X-18.2187 Y-10.3037
G01 X-18.1793 Y-10.3494
G01 X-18.1376 Y-10.3931
G01 X-18.0939 Y-10.4348
G01 X-18.0482 Y-10.4742
G01 X-18.0006 Y-10.5113
G01 X-17.9512 Y-10.5461
G01 X-17.9002 Y-10.5784
G01 X-17.8477 Y-10.6081
G01 X-17.7938 Y-10.6353
G01 X-17.7386 Y-10.6598
G01 X-17.6823 Y-10.6815
G01 X-17.6249 Y-10.7004
G01 X-17.5668 Y-10.7165
G01 X-17.5079 Y-10.7297
G01 X-17.4484 Y-10.7401
G01 X-17.3885 Y-10.7475
G01 X-17.3283 Y-10.7519
G01 X-17.2679 Y-10.7534
G01 X-17.2075 Y-10.7519
G01 X-17.1473 Y-10.7475
G01 X-17.0874 Y-10.7401
G01 X-17.0279 Y-10.7297
G01 X-16.9690 Y-10.7165
G01 X-16.9109 Y-10.7004
G01 X-16.8535 Y-10.6815
G01 X-16.7972 Y-10.6598
G01 X-16.7420 Y-10.6353
G01 X-16.6881 Y-10.6081
G01 X-16.6356 Y-10.5784
G01 X-16.5846 Y-10.5461
G01 X-16.5352 Y-10.5113
G01 X-16.4876 Y-10.4742
G01 X-16.4419 Y-10.4348
G01 X-16.3982 Y-10.3931
G01 X-16.3565 Y-10.3494
G01 X-16.3171 Y-10.3037
G01 X-16.2800 Y-10.2561
G01 X-16.2452 Y-10.2067
G01 X-16.2129 Y-10.1557
G01 X-16.1832 Y-10.1032
G01 X-16.1560 Y-10.0493
G01 X-16.1315 Y-9.9941
G01 X-16.1098 Y-9.9378
G01 X-16.0909 Y-9.8804
G01 X-16.0748 Y-9.8223
G01 X-16.0616 Y-9.7634
G01 X-16.0512 Y-9.7039
G01 X-16.0438 Y-9.6440
G01 X-16.0394 Y-9.5838
G01 X-16.0379 Y-9.5234
G01 X-16.0394 Y-9.4630
G01 X-16.0438 Y-9.4028
G01 X-16.0512 Y-9.3429
G01 X-16.0616 Y-9.2834
G01 X-16.0748 Y-9.2245
G01 X-16.0909 Y-9.1664
G01 X-16.1098 Y-9.1090
G01 X-16.1315 Y-9.0527
G01 X-16.1560 Y-8.9975
G01 X-16.1832 Y-8.9436
G01 X-16.2129 Y-8.8911
G01 X-16.2452 Y-8.8401
G01 X-16.2800 Y-8.7907
G01 X-16.3171 Y-8.7431
G01 X-16.3565 Y-8.6974
G01 X-16.3982 Y-8.6537
G01 X-16.4419 Y-8.6120
G01 X-16.4876 Y-8.5726
G01 X-16.5352 Y-8.5355
G01 X-16.5846 Y-8.5007
G01 X-16.6356 Y-8.4684
G01 X-16.6881 Y-8.4387
G01 X-16.7420 Y-8.4115
G01 X-16.7972 Y-8.3870
G01 X-16.8535 Y-8.3653
G01 X-16.9109 Y-8.3464
G01 X-16.9690 Y-8.3303
G01 X-17.0279 Y-8.3171
G01 X-17.0874 Y-8.3067
G01 X-17.1473 Y-8.2993
G01 X-17.2075 Y-8.2949
G01 X-17.2679 Y-8.2934
G01 X-17.3283 Y-8.2949
G01 X-17.3885 Y-8.2993
G01 X-17.4484 Y-8.3067
G01 X-17.5079 Y-8.3171
G01 X-17.5668 Y-8.3303
G01 X-17.6249 Y-8.3464
G01 X-17.6823 Y-8.3653
G01 X-17.7386 Y-8.3870
G01 X-17.7938 Y-8.4115
G01 X-17.8477 Y-8.4387
G01 X-17.9002 Y-8.4684
G01 X-17.9512 Y-8.5007
G01 X-18.0006 Y-8.5355
G01 X-18.0482 Y-8.5726
G01 X-18.0939 Y-8.6120
G01 X-18.1376 Y-8.6537
G01 X-18.1793 Y-8.6974
G01 X-18.2187 Y-8.7431
G01 X-18.2558 Y-8.7907
G01 X-18.2906 Y-8.8401
G01 X-18.3019 Y-8.8578
G01 X-18.3085 Y-8.8658
G01 X-18.3161 Y-8.8727
G01 X-18.3254 Y-8.8788
G01 X-18.3348 Y-8.8831
G01 X-18.3455 Y-8.8861
G01 X-18.3617 Y-8.8874
G01 X-18.3703 Y-8.8866
G01 X-18.3786 Y-8.8847
G01 X-18.3867 Y-8.8818
G01 X-18.3944 Y-8.8780
G01 X-18.4015 Y-8.8732
G01 X-18.4080 Y-8.8676
G01 X-18.4164 Y-8.8578
G01 X-18.4277 Y-8.8401
G01 X-18.4625 Y-8.7907
G01 X-18.4996 Y-8.7431
G01 X-18.5390 Y-8.6974
G01 X-18.5807 Y-8.6537
G01 X-18.6244 Y-8.6120
G01 X-18.6364 Y-8.6017
G01 X-18.6364 Y-8.9963
G01 X-18.6184 Y-9.0247
G01 X-18.5958 Y-9.0646
G01 X-18.5732 Y-9.1095
G01 X-18.5542 Y-9.1522
G01 X-18.5377 Y-9.1950
G01 X-18.5219 Y-9.2426
G01 X-18.5095 Y-9.2877
G01 X-18.4994 Y-9.3325
G01 X-18.4909 Y-9.3811
G01 X-18.4851 Y-9.4283
G01 X-18.4817 Y-9.4741
G01 X-18.4804 Y-9.5234
G01 X-18.4817 Y-9.5727
G01 X-18.4851 Y-9.6185
G01 X-18.4909 Y-9.6657
G01 X-18.4994 Y-9.7143
G01 X-18.5095 Y-9.7591
G01 X-18.5219 Y-9.8042
G01 X-18.5377 Y-9.8518
G01 X-18.5542 Y-9.8946
G01 X-18.5732 Y-9.9373
G01 X-18.5958 Y-9.9822
G01 X-18.6184 Y-10.0221
G01 X-18.6364 Y-10.0505
G01 X-18.6364 Y-10.4451
G00 Z2.0000
G00 X-19.4675 Y-9.5595
G01 F70.00
G01 Z-0.0600
G01 F120.00
G01 X-19.4601 Y-9.5621
G01 X-19.4524 Y-9.5633
G01 X-19.4445 Y-9.5629
G01 X-19.4369 Y-9.5610
G01 X-19.4299 Y-9.5577
G01 X-19.4236 Y-9.5530
G01 X-19.4183 Y-9.5472
G01 X-19.4143 Y-9.5405
G01 X-19.4117 Y-9.5331
G01 X-19.4105 Y-9.5254
G01 X-19.4109 Y-9.5175
G01 X-19.4128 Y-9.5099
G01 X-19.4161 Y-9.5029
G01 X-19.4208 Y-9.4966
G01 X-19.4266 Y-9.4913
G01 X-19.4333 Y-9.4873
G01 X-19.4407 Y-9.4847
G01 X-19.4484 Y-9.4835
G01 X-19.4563 Y-9.4839
G01 X-19.4639 Y-9.4858
G01 X-19.4709 Y-9.4891
G01 X-19.4772 Y-9.4938
G01 X-19.4825 Y-9.4996
G01 X-19.4865 Y-9.5063
G01 X-19.4891 Y-9.5137
G01 X-19.4903 Y-9.5214
G01 X-19.4899 Y-9.5293
G01 X-19.4880 Y-9.5369
G01 X-19.4847 Y-9.5439
G01 X-19.4800 Y-9.5502
G01 X-19.4742 Y-9.5555
G01 X-19.4675 Y-9.5595
G00 Z2.0000
G00 X-19.5598 Y-9.5126
G01 F70.00
G01 Z-0.0600
G01 F120.00
G01 X-19.5604 Y-9.5234
G01 X-19.5598 Y-9.5342
G01 X-19.5582 Y-9.5449
G01 X-19.5556 Y-9.5553
G01 X-19.5520 Y-9.5655
G01 X-19.5474 Y-9.5752
G01 X-19.5418 Y-9.5845
G01 X-19.5354 Y-9.5932
G01 X-19.5282 Y-9.6012
G01 X-19.5202 Y-9.6084
G01 X-19.5115 Y-9.6148
G01 X-19.5022 Y-9.6204
G01 X-19.4925 Y-9.6250
G01 X-19.4823 Y-9.6286
G01 X-19.4719 Y-9.6312
G01 X-19.4612 Y-9.6328
G01 X-19.4504 Y-9.6334
G01 X-19.4396 Y-9.6328
G01 X-19.4289 Y-9.6312
G01 X-19.4185 Y-9.6286
G01 X-19.4083 Y-9.6250
G01 X-19.3986 Y-9.6204
G01 X-19.3893 Y-9.6148
G01 X-19.3806 Y-9.6084
G01 X-19.3726 Y-9.6012
G01 X-19.3654 Y-9.5932
G01 X-19.3590 Y-9.5845
G01 X-19.3534 Y-9.5752
G01 X-19.3488 Y-9.5655
G01 X-19.3452 Y-9.5553
G01 X-19.3426 Y-9.5449
G01 X-19.3410 Y-9.5342
G01 X-19.3404 Y-9.5234
G01 X-19.3410 Y-9.5126
G01 X-19.3426 Y-9.5019
G01 X-19.3452 Y-9.4915
G01 X-19.3488 Y-9.4813
G01 X-19.3534 Y-9.4716
G01 X-19.3590 Y-9.4623
G01 X-19.3654 Y-9.4536
G01 X-19.3726 Y-9.4456
G01 X-19.3806 Y-9.4384
G01 X-19.3893 Y-9.4320
G01 X-19.3986 Y-9.4264
G01 X-19.4083 Y-9.4218
G01 X-19.4185 Y-9.4182
G01 X-19.4289 Y-9.4156
G01 X-19.4396 Y-9.4140
G01 X-19.4504 Y-9.4134
G01 X-19.4612 Y-9.4140
G01 X-19.4719 Y-9.4156
G01 X-19.4823 Y-9.4182
G01 X-19.4925 Y-9.4218
G01 X-19.5022 Y-9.4264
G01 X-19.5115 Y-9.4320
G01 X-19.5202 Y-9.4384
G01 X-19.5282 Y-9.4456
G01 X-19.5354 Y-9.4536
G01 X-19.5418 Y-9.4623
G01 X-19.5474 Y-9.4716
G01 X-19.5520 Y-9.4813
G01 X-19.5556 Y-9.4915
G01 X-19.5582 Y-9.5019
G01 X-19.5598 Y-9.5126
G00 Z2.0000
G00 X-19.6302 Y-9.5322
G01 F70.00
G01 Z-0.0600
G01 F120.00
G01 X-19.6284 Y-9.5498
G01 X-19.6250 Y-9.5671
G01 X-19.6199 Y-9.5840
G01 X-19.6131 Y-9.6004
G01 X-19.6048 Y-9.6159
G01 X-19.5950 Y-9.6306
G01 X-19.5838 Y-9.6443
G01 X-19.5713 Y-9.6568
G01 X-19.5576 Y-9.6680
G01 X-19.5429 Y-9.6778
G01 X-19.5274 Y-9.6861
G01 X-19.5110 Y-9.6929
G01 X-19.4941 Y-9.6980
G01 X-19.4768 Y-9.7014
G01 X-19.4592 Y-9.7032
G01 X-19.4416 Y-9.7032
G01 X-19.4240 Y-9.7014
G01 X-19.4067 Y-9.6980
G01 X-19.3898 Y-9.6929
G01 X-19.3734 Y-9.6861
G01 X-19.3579 Y-9.6778
G01 X-19.3432 Y-9.6680
G01 X-19.3295 Y-9.6568
G01 X-19.3170 Y-9.6443
G01 X-19.3058 Y-9.6306
G01 X-19.2960 Y-9.6159
G01 X-19.2877 Y-9.6004
G01 X-19.2809 Y-9.5840
G01 X-19.2758 Y-9.5671
G01 X-19.2724 Y-9.5498
G01 X-19.2706 Y-9.5322
G01 X-19.2706 Y-9.5146
G01 X-19.2724 Y-9.4970
G01 X-19.2758 Y-9.4797
G01 X-19.2809 Y-9.4628
G01 X-19.2877 Y-9.4464
G01 X-19.2960 Y-9.4309
G01 X-19.3058 Y-9.4162
G01 X-19.3170 Y-9.4025
G01 X-19.3295 Y-9.3900
G01 X-19.3432 Y-9.3788
G01 X-19.3579 Y-9.3690
G01 X-19.3734 Y-9.3607
G01 X-19.3898 Y-9.3539
G01 X-19.4067 Y-9.3488
G01 X-19.4240 Y-9.3454
G01 X-19.4416 Y-9.3436
G01 X-19.4592 Y-9.3436
G01 X-19.4768 Y-9.3454
G01 X-19.4941 Y-9.3488
G01 X-19.5110 Y-9.3539
G01 X-19.5274 Y-9.3607
G01 X-19.5429 Y-9.3690
G01 X-19.5576 Y-9.3788
G01 X-19.5713 Y-9.3900
G01 X-19.5838 Y-9.4025
G01 X-19.5950 Y-9.4162
G01 X-19.6048 Y-9.4309
G01 X-19.6131 Y-9.4464
G01 X-19.6199 Y-9.4628
G01 X-19.6250 Y-9.4797
G01 X-19.6284 Y-9.4970
G01 X-19.6302 Y-9.5146
G01 X-19.6302 Y-9.5322
G00 Z2.0000
G00 X-20.5416 Y-9.3213
G01 F70.00
G01 Z-0.0600
G01 F120.00
G01 X-20.5386 Y-9.3043
G01 X-20.5265 Y-9.2512
G01 X-20.5126 Y-9.2012
G01 X-20.4955 Y-9.1495
G01 X-20.4759 Y-9.0986
G01 X-20.4560 Y-9.0535
G01 X-20.4248 Y-8.9919
G01 X-20.4381 Y-9.0002
G01 X-20.4519 Y-9.0073
G01 X-20.4661 Y-9.0134
G01 X-20.4807 Y-9.0184
G01 X-20.4956 Y-9.0224
G01 X-20.5108 Y-9.0252
G01 X-20.5262 Y-9.0269
G01 X-20.5417 Y-9.0275
G01 X-20.5571 Y-9.0269
G01 X-20.5725 Y-9.0252
G01 X-20.5877 Y-9.0224
G01 X-20.6026 Y-9.0184
G01 X-20.6172 Y-9.0134
G01 X-20.6314 Y-9.0073
G01 X-20.6452 Y-9.0002
G01 X-20.6585 Y-8.9919
G01 X-20.6273 Y-9.0535
G01 X-20.6074 Y-9.0986
G01 X-20.5878 Y-9.1495
G01 X-20.5707 Y-9.2012
G01 X-20.5568 Y-9.2512
G01 X-20.5447 Y-9.3043
G01 X-20.5416 Y-9.3213
G00 Z2.0000
G00 X-20.5929 Y-9.5200
G01 F70.00
G01 Z-0.0600
G01 F120.00
G01 X-20.5942 Y-9.4724
G01 X-20.5979 Y-9.4215
G01 X-20.6042 Y-9.3708
G01 X-20.6129 Y-9.3205
G01 X-20.6241 Y-9.2707
G01 X-20.6377 Y-9.2215
G01 X-20.6537 Y-9.1730
G01 X-20.6721 Y-9.1254
G01 X-20.6928 Y-9.0787
G01 X-20.7157 Y-9.0331
G01 X-20.7409 Y-8.9887
G01 X-20.7682 Y-8.9456
G01 X-20.7976 Y-8.9039
G01 X-20.8290 Y-8.8636
G01 X-20.8623 Y-8.8250
G01 X-20.8975 Y-8.7880
G01 X-20.9345 Y-8.7528
G01 X-20.9731 Y-8.7195
G01 X-21.0134 Y-8.6881
G01 X-21.0551 Y-8.6587
G01 X-21.0982 Y-8.6314
G01 X-21.1426 Y-8.6062
G01 X-21.1882 Y-8.5833
G01 X-21.2349 Y-8.5626
G01 X-21.2825 Y-8.5442
G01 X-21.3310 Y-8.5282
G01 X-21.3802 Y-8.5146
G01 X-21.4300 Y-8.5034
G01 X-21.4803 Y-8.4947
G01 X-21.5310 Y-8.4884
G01 X-21.5819 Y-8.4847
G01 X-21.6329 Y-8.4834
G01 X-21.6839 Y-8.4847
G01 X-21.7348 Y-8.4884
G01 X-21.7855 Y-8.4947
G01 X-21.8358 Y-8.5034
G01 X-21.8856 Y-8.5146
G01 X-21.9348 Y-8.5282
G01 X-21.9833 Y-8.5442
G01 X-22.0309 Y-8.5626
G01 X-22.0776 Y-8.5833
G01 X-22.1232 Y-8.6062
G01 X-22.1676 Y-8.6314
G01 X-22.2107 Y-8.6587
G01 X-22.2524 Y-8.6881
G01 X-22.2927 Y-8.7195
G01 X-22.3313 Y-8.7528
G01 X-22.3683 Y-8.7880
G01 X-22.4035 Y-8.8250
G01 X-22.4368 Y-8.8636
G01 X-22.4682 Y-8.9039
G01 X-22.4976 Y-8.9456
G01 X-22.5249 Y-8.9887
G01 X-22.5501 Y-9.0331
G01 X-22.5730 Y-9.0787
G01 X-22.5937 Y-9.1254
G01 X-22.6121 Y-9.1730
G01 X-22.6281 Y-9.2215
G01 X-22.6417 Y-9.2707
G01 X-22.6529 Y-9.3205
G01 X-22.6616 Y-9.3708
G01 X-22.6679 Y-9.4215
G01 X-22.6716 Y-9.4724
G01 X-22.6729 Y-9.5234
G01 X-22.6716 Y-9.5744
G01 X-22.6679 Y-9.6253
G01 X-22.6616 Y-9.6760
G01 X-22.6529 Y-9.7263
G01 X-22.6417 Y-9.7761
G01 X-22.6281 Y-9.8253
G01 X-22.6121 Y-9.8738
G01 X-22.5937 Y-9.9214
G01 X-22.5730 Y-9.9681
G01 X-22.5501 Y-10.0137
G01 X-22.5249 Y-10.0581
G01 X-22.4976 Y-10.1012
G01 X-22.4682 Y-10.1429
G01 X-22.4368 Y-10.1832
G01 X-22.4035 Y-10.2218
G01 X-22.3683 Y-10.2588
G01 X-22.3313 Y-10.2940
G01 X-22.2927 Y-10.3273
G01 X-22.2524 Y-10.3587
G01 X-22.2107 Y-10.3881
G01 X-22.1676 Y-10.4154
G01 X-22.1232 Y-10.4406
G01 X-22.0776 Y-10.4635
G01 X-22.0309 Y-10.4842
G01 X-21.9833 Y-10.5026
G01 X-21.9348 Y-10.5186
G01 X-21.8856 Y-10.5322
G01 X-21.8358 Y-10.5434
G01 X-21.7855 Y-10.5521
G01 X-21.7348 Y-10.5584
G01 X-21.6839 Y-10.5621
G01 X-21.6329 Y-10.5634
G01 X-21.5819 Y-10.5621
G01 X-21.5310 Y-10.5584
G01 X-21.4803 Y-10.5521
G01 X-21.4300 Y-10.5434
G01 X-21.3802 Y-10.5322
G01 X-21.3310 Y-10.5186
G01 X-21.2825 Y-10.5026
G01 X-21.2349 Y-10.4842
G01 X-21.1882 Y-10.4635
G01 X-21.1426 Y-10.4406
G01 X-21.0982 Y-10.4154
G01 X-21.0551 Y-10.3881
G01 X-21.0134 Y-10.3587
G01 X-20.9731 Y-10.3273
G01 X-20.9345 Y-10.2940
G01 X-20.8975 Y-10.2588
G01 X-20.8623 Y-10.2218
G01 X-20.8290 Y-10.1832
G01 X-20.7976 Y-10.1429
G01 X-20.7682 Y-10.1012
G01 X-20.7409 Y-10.0581
G01 X-20.7157 Y-10.0137
G01 X-20.6928 Y-9.9681
G01 X-20.6721 Y-9.9214
G01 X-20.6537 Y-9.8738
G01 X-20.6377 Y-9.8253
G01 X-20.6241 Y-9.7761
G01 X-20.6129 Y-9.7263
G01 X-20.6042 Y-9.6760
G01 X-20.5979 Y-9.6253
G01 X-20.5942 Y-9.5744
G01 X-20.5929 Y-9.5200
G00 Z2.0000
G00 X-20.6629 Y-9.5217
G01 F70.00
G01 Z-0.0600
G01 F120.00
G01 X-20.6641 Y-9.4758
G01 X-20.6676 Y-9.4283
G01 X-20.6734 Y-9.3811
G01 X-20.6815 Y-9.3342
G01 X-20.6920 Y-9.2877
G01 X-20.7047 Y-9.2418
G01 X-20.7196 Y-9.1966
G01 X-20.7367 Y-9.1522
G01 X-20.7560 Y-9.1087
G01 X-20.7774 Y-9.0661
G01 X-20.8009 Y-9.0247
G01 X-20.8264 Y-8.9845
G01 X-20.8538 Y-8.9456
G01 X-20.8831 Y-8.9080
G01 X-20.9142 Y-8.8720
G01 X-20.9470 Y-8.8375
G01 X-20.9815 Y-8.8047
G01 X-21.0175 Y-8.7736
G01 X-21.0551 Y-8.7443
G01 X-21.0940 Y-8.7169
G01 X-21.1342 Y-8.6914
G01 X-21.1756 Y-8.6679
G01 X-21.2182 Y-8.6465
G01 X-21.2617 Y-8.6272
G01 X-21.3061 Y-8.6101
G01 X-21.3513 Y-8.5952
G01 X-21.3972 Y-8.5825
G01 X-21.4437 Y-8.5720
G01 X-21.4906 Y-8.5639
G01 X-21.5378 Y-8.5581
G01 X-21.5853 Y-8.5546
G01 X-21.6329 Y-8.5534
G01 X-21.6805 Y-8.5546
G01 X-21.7280 Y-8.5581
G01 X-21.7752 Y-8.5639
G01 X-21.8221 Y-8.5720
G01 X-21.8686 Y-8.5825
G01 X-21.9145 Y-8.5952
G01 X-21.9597 Y-8.6101
G01 X-22.0041 Y-8.6272
G01 X-22.0476 Y-8.6465
G01 X-22.0902 Y-8.6679
G01 X-22.1316 Y-8.6914
G01 X-22.1718 Y-8.7169
G01 X-22.2107 Y-8.7443
G01 X-22.2483 Y-8.7736
G01 X-22.2843 Y-8.8047
G01 X-22.3188 Y-8.8375
G01 X-22.3516 Y-8.8720
G01 X-22.3827 Y-8.9080
G01 X-22.4120 Y-8.9456
G01 X-22.4394 Y-8.9845
G01 X-22.4649 Y-9.0247
G01 X-22.4884 Y-9.0661
G01 X-22.5098 Y-9.1087
G01 X-22.5291 Y-9.1522
G01 X-22.5462 Y-9.1966
G01 X-22.5611 Y-9.2418
G01 X-22.5738 Y-9.2877
G01 X-22.5843 Y-9.3342
G01 X-22.5924 Y-9.3811
G01 X-22.5982 Y-9.4283
G01 X-22.6017 Y-9.4758
G01 X-22.6029 Y-9.5234
G01 X-22.6017 Y-9.5710
G01 X-22.5982 Y-9.6185
G01 X-22.5924 Y-9.6657
G01 X-22.5843 Y-9.7126
G01 X-22.5738 Y-9.7591
G01 X-22.5611 Y-9.8050
G01 X-22.5462 Y-9.8502
G01 X-22.5291 Y-9.8946
G01 X-22.5098 Y-9.9381
G01 X-22.4884 Y-9.9807
G01 X-22.4649 Y-10.0221
G01 X-22.4394 Y-10.0623
G01 X-22.4120 Y-10.1012
G01 X-22.3827 Y-10.1388
G01 X-22.3516 Y-10.1748
G01 X-22.3188 Y-10.2093
G01 X-22.2843 Y-10.2421
G01 X-22.2483 Y-10.2732
G01 X-22.2107 Y-10.3025
G01 X-22.1718 Y-10.3299
G01 X-22.1316 Y-10.3554
G01 X-22.0902 Y-10.3789
G01 X-22.0476 Y-10.4003
G01 X-22.0041 Y-10.4196
G01 X-21.9597 Y-10.4367
G01 X-21.9145 Y-10.4516
G01 X-21.8686 Y-10.4643
G01 X-21.8221 Y-10.4748
G01 X-21.7752 Y-10.4829
G01 X-21.7280 Y-10.4887
G01 X-21.6805 Y-10.4922
G01 X-21.6329 Y-10.4934
G01 X-21.5853 Y-10.4922
G01 X-21.5378 Y-10.4887
G01 X-21.4906 Y-10.4829
G01 X-21.4437 Y-10.4748
G01 X-21.3972 Y-10.4643
G01 X-21.3513 Y-10.4516
G01 X-21.3061 Y-10.4367
G01 X-21.2617 Y-10.4196
G01 X-21.2182 Y-10.4003
G01 X-21.1756 Y-10.3789
G01 X-21.1342 Y-10.3554
G01 X-21.0940 Y-10.3299
G01 X-21.0551 Y-10.3025
G01 X-21.0175 Y-10.2732
G01 X-20.9815 Y-10.2421
G01 X-20.9470 Y-10.2093
G01 X-20.9142 Y-10.1748
G01 X-20.8831 Y-10.1388
G01 X-20.8538 Y-10.1012
G01 X-20.8264 Y-10.0623
G01 X-20.8009 Y-10.0221
G01 X-20.7774 Y-9.9807
G01 X-20.7560 Y-9.9381
G01 X-20.7367 Y-9.8946
G01 X-20.7196 Y-9.8502
G01 X-20.7047 Y-9.8050
G01 X-20.6920 Y-9.7591
G01 X-20.6815 Y-9.7126
G01 X-20.6734 Y-9.6657
G01 X-20.6676 Y-9.6185
G01 X-20.6641 Y-9.5710
G01 X-20.6629 Y-9.5217
G00 Z2.0000
G00 X-20.6585 Y-10.0549
G01 F70.00
G01 Z-0.0600
G01 F120.00
G01 X-20.6452 Y-10.0466
G01 X-20.6314 Y-10.0395
G01 X-20.6172 Y-10.0334
G01 X-20.6026 Y-10.0284
G01 X-20.5877 Y-10.0244
G01 X-20.5725 Y-10.0216
G01 X-20.5571 Y-10.0199
G01 X-20.5417 Y-10.0193
G01 X-20.5262 Y-10.0199
G01 X-20.5108 Y-10.0216
G01 X-20.4956 Y-10.0244
G01 X-20.4807 Y-10.0284
G01 X-20.4661 Y-10.0334
G01 X-20.4519 Y-10.0395
G01 X-20.4381 Y-10.0466
G01 X-20.4248 Y-10.0549
G01 X-20.4560 Y-9.9933
G01 X-20.4759 Y-9.9482
G01 X-20.4955 Y-9.8973
G01 X-20.5126 Y-9.8456
G01 X-20.5265 Y-9.7956
G01 X-20.5386 Y-9.7425
G01 X-20.5416 Y-9.7255
G01 X-20.5447 Y-9.7425
G01 X-20.5568 Y-9.7956
G01 X-20.5707 Y-9.8456
G01 X-20.5878 Y-9.8973
G01 X-20.6074 Y-9.9482
G01 X-20.6273 Y-9.9933
G01 X-20.6585 Y-10.0549
G00 Z2.0000
G00 X-20.6599 Y-10.1544
G01 F70.00
G01 Z-0.0600
G01 F120.00
G01 X-20.6465 Y-10.1366
G01 X-20.6382 Y-10.1279
G01 X-20.6291 Y-10.1200
G01 X-20.6194 Y-10.1129
G01 X-20.6092 Y-10.1067
G01 X-20.5984 Y-10.1013
G01 X-20.5872 Y-10.0969
G01 X-20.5757 Y-10.0935
G01 X-20.5639 Y-10.0911
G01 X-20.5519 Y-10.0897
G01 X-20.5399 Y-10.0893
G01 X-20.5279 Y-10.0900
G01 X-20.5160 Y-10.0917
G01 X-20.5043 Y-10.0944
G01 X-20.4929 Y-10.0981
G01 X-20.4787 Y-10.1043
G01 X-20.4639 Y-10.1129
G01 X-20.4502 Y-10.1233
G01 X-20.4379 Y-10.1353
G01 X-20.4272 Y-10.1487
G01 X-20.4149 Y-10.1678
G01 X-20.3821 Y-10.2144
G01 X-20.3471 Y-10.2593
G01 X-20.3344 Y-10.2739
G01 X-20.3344 Y-10.0708
G01 X-20.3433 Y-10.0566
G01 X-20.3668 Y-10.0152
G01 X-20.3913 Y-9.9665
G01 X-20.4112 Y-9.9214
G01 X-20.4284 Y-9.8770
G01 X-20.4461 Y-9.8236
G01 X-20.4592 Y-9.7761
G01 X-20.4697 Y-9.7297
G01 X-20.4791 Y-9.6760
G01 X-20.4854 Y-9.6253
G01 X-20.4889 Y-9.5779
G01 X-20.4904 Y-9.5234
G01 X-20.4889 Y-9.4689
G01 X-20.4854 Y-9.4215
G01 X-20.4791 Y-9.3708
G01 X-20.4697 Y-9.3171
G01 X-20.4592 Y-9.2707
G01 X-20.4461 Y-9.2232
G01 X-20.4284 Y-9.1698
G01 X-20.4112 Y-9.1254
G01 X-20.3913 Y-9.0803
G01 X-20.3668 Y-9.0316
G01 X-20.3433 Y-8.9902
G01 X-20.3344 Y-8.9760
G01 X-20.3344 Y-8.7729
G01 X-20.3471 Y-8.7875
G01 X-20.3821 Y-8.8324
G01 X-20.4323 Y-8.9050
G01 X-20.4451 Y-8.9189
G01 X-20.4596 Y-8.9310
G01 X-20.4741 Y-8.9401
G01 X-20.4881 Y-8.9468
G01 X-20.5027 Y-8.9519
G01 X-20.5194 Y-8.9557
G01 X-20.5348 Y-8.9573
G01 X-20.5502 Y-8.9572
G01 X-20.5673 Y-8.9551
G01 X-20.5823 Y-8.9515
G01 X-20.6000 Y-8.9448
G01 X-20.6151 Y-8.9367
G01 X-20.6291 Y-8.9268
G01 X-20.6430 Y-8.9140
G01 X-20.6561 Y-8.8981
G01 X-20.6684 Y-8.8790
G01 X-20.7012 Y-8.8324
G01 X-20.7362 Y-8.7875
G01 X-20.7734 Y-8.7444
G01 X-20.8127 Y-8.7032
G01 X-20.8539 Y-8.6639
G01 X-20.8970 Y-8.6267
G01 X-20.9419 Y-8.5917
G01 X-20.9885 Y-8.5589
G01 X-21.0366 Y-8.5285
G01 X-21.0861 Y-8.5004
G01 X-21.1370 Y-8.4748
G01 X-21.1890 Y-8.4517
G01 X-21.2421 Y-8.4312
G01 X-21.2962 Y-8.4134
G01 X-21.3511 Y-8.3982
G01 X-21.4066 Y-8.3857
G01 X-21.4627 Y-8.3760
G01 X-21.5192 Y-8.3690
G01 X-21.5760 Y-8.3648
G01 X-21.6329 Y-8.3634
G01 X-21.6898 Y-8.3648
G01 X-21.7466 Y-8.3690
G01 X-21.8031 Y-8.3760
G01 X-21.8592 Y-8.3857
G01 X-21.9147 Y-8.3982
G01 X-21.9696 Y-8.4134
G01 X-22.0237 Y-8.4312
G01 X-22.0768 Y-8.4517
G01 X-22.1288 Y-8.4748
G01 X-22.1797 Y-8.5004
G01 X-22.2292 Y-8.5285
G01 X-22.2773 Y-8.5589
G01 X-22.3239 Y-8.5917
G01 X-22.3688 Y-8.6267
G01 X-22.4119 Y-8.6639
G01 X-22.4531 Y-8.7032
G01 X-22.4924 Y-8.7444
G01 X-22.5296 Y-8.7875
G01 X-22.5646 Y-8.8324
G01 X-22.5974 Y-8.8790
G01 X-22.6278 Y-8.9271
G01 X-22.6559 Y-8.9766
G01 X-22.6815 Y-9.0275
G01 X-22.7046 Y-9.0795
G01 X-22.7251 Y-9.1326
G01 X-22.7429 Y-9.1867
G01 X-22.7581 Y-9.2416
G01 X-22.7706 Y-9.2971
G01 X-22.7803 Y-9.3532
G01 X-22.7873 Y-9.4097
G01 X-22.7915 Y-9.4665
G01 X-22.7929 Y-9.5234
G01 X-22.7915 Y-9.5803
G01 X-22.7873 Y-9.6371
G01 X-22.7803 Y-9.6936
G01 X-22.7706 Y-9.7497
G01 X-22.7581 Y-9.8052
G01 X-22.7429 Y-9.8601
G01 X-22.7251 Y-9.9142
G01 X-22.7046 Y-9.9673
G01 X-22.6815 Y-10.0193
G01 X-22.6559 Y-10.0702
G01 X-22.6278 Y-10.1197
G01 X-22.5974 Y-10.1678
G01 X-22.5646 Y-10.2144
G01 X-22.5296 Y-10.2593
G01 X-22.4924 Y-10.3024
G01 X-22.4531 Y-10.3436
G01 X-22.4119 Y-10.3829
G01 X-22.3688 Y-10.4201
G01 X-22.3239 Y-10.4551
G01 X-22.2773 Y-10.4879
G01 X-22.2292 Y-10.5183
G01 X-22.1797 Y-10.5464
G01 X-22.1288 Y-10.5720
G01 X-22.0768 Y-10.5951
G01 X-22.0237 Y-10.6156
G01 X-21.9696 Y-10.6334
G01 X-21.9147 Y-10.6486
G01 X-21.8592 Y-10.6611
G01 X-21.8031 Y-10.6708
G01 X-21.7466 Y-10.6778
G01 X-21.6898 Y-10.6820
G01 X-21.6329 Y-10.6834
G01 X-21.5760 Y-10.6820
G01 X-21.5192 Y-10.6778
G01 X-21.4627 Y-10.6708
G01 X-21.4066 Y-10.6611
G01 X-21.3511 Y-10.6486
G01 X-21.2962 Y-10.6334
G01 X-21.2421 Y-10.6156
G01 X-21.1890 Y-10.5951
G01 X-21.1370 Y-10.5720
G01 X-21.0861 Y-10.5464
G01 X-21.0366 Y-10.5183
G01 X-20.9885 Y-10.4879
G01 X-20.9419 Y-10.4551
G01 X-20.8970 Y-10.4201
G01 X-20.8539 Y-10.3829
G01 X-20.8127 Y-10.3436
G01 X-20.7734 Y-10.3024
G01 X-20.7362 Y-10.2593
G01 X-20.7012 Y-10.2144
G01 X-20.6684 Y-10.1678
G01 X-20.6599 Y-10.1544
G00 Z2.0000
G00 X-20.6008 Y-10.1919
G01 F70.00
G01 Z-0.0600
G01 F120.00
G01 X-20.5918 Y-10.1804
G01 X-20.5805 Y-10.1711
G01 X-20.5676 Y-10.1643
G01 X-20.5536 Y-10.1603
G01 X-20.5391 Y-10.1594
G01 X-20.5255 Y-10.1612
G01 X-20.5117 Y-10.1660
G01 X-20.4993 Y-10.1736
G01 X-20.4922 Y-10.1798
G01 X-20.4859 Y-10.1869
G01 X-20.4731 Y-10.2067
G01 X-20.4383 Y-10.2561
G01 X-20.4012 Y-10.3037
G01 X-20.3618 Y-10.3494
G01 X-20.3201 Y-10.3931
G01 X-20.2764 Y-10.4348
G01 X-20.2644 Y-10.4451
G01 X-20.2644 Y-10.0505
G01 X-20.2824 Y-10.0221
G01 X-20.3050 Y-9.9822
G01 X-20.3276 Y-9.9373
G01 X-20.3466 Y-9.8946
G01 X-20.3631 Y-9.8518
G01 X-20.3789 Y-9.8042
G01 X-20.3913 Y-9.7591
G01 X-20.4014 Y-9.7143
G01 X-20.4099 Y-9.6657
G01 X-20.4157 Y-9.6185
G01 X-20.4191 Y-9.5727
G01 X-20.4204 Y-9.5234
G01 X-20.4191 Y-9.4741
G01 X-20.4157 Y-9.4283
G01 X-20.4099 Y-9.3811
G01 X-20.4014 Y-9.3325
G01 X-20.3913 Y-9.2877
G01 X-20.3789 Y-9.2426
G01 X-20.3631 Y-9.1950
G01 X-20.3466 Y-9.1522
G01 X-20.3276 Y-9.1095
G01 X-20.3050 Y-9.0646
G01 X-20.2824 Y-9.0247
G01 X-20.2644 Y-8.9963
G01 X-20.2644 Y-8.6017
G01 X-20.2764 Y-8.6120
G01 X-20.3201 Y-8.6537
G01 X-20.3618 Y-8.6974
G01 X-20.4012 Y-8.7431
G01 X-20.4383 Y-8.7907
G01 X-20.4731 Y-8.8401
G01 X-20.4844 Y-8.8578
G01 X-20.4928 Y-8.8676
G01 X-20.4993 Y-8.8732
G01 X-20.5064 Y-8.8780
G01 X-20.5141 Y-8.8818
G01 X-20.5222 Y-8.8847
G01 X-20.5305 Y-8.8866
G01 X-20.5391 Y-8.8874
G01 X-20.5553 Y-8.8861
G01 X-20.5660 Y-8.8831
G01 X-20.5754 Y-8.8788
G01 X-20.5847 Y-8.8727
G01 X-20.5923 Y-8.8658
G01 X-20.5989 Y-8.8578
G01 X-20.6102 Y-8.8401
G01 X-20.6450 Y-8.7907
G01 X-20.6821 Y-8.7431
G01 X-20.7215 Y-8.6974
G01 X-20.7632 Y-8.6537
G01 X-20.8069 Y-8.6120
G01 X-20.8526 Y-8.5726
G01 X-20.9002 Y-8.5355
G01 X-20.9496 Y-8.5007
G01 X-21.0006 Y-8.4684
G01 X-21.0531 Y-8.4387
G01 X-21.1070 Y-8.4115
G01 X-21.1622 Y-8.3870
G01 X-21.2185 Y-8.3653
G01 X-21.2759 Y-8.3464
G01 X-21.3340 Y-8.3303
G01 X-21.3929 Y-8.3171
G01 X-21.4524 Y-8.3067
G01 X-21.5123 Y-8.2993
G01 X-21.5725 Y-8.2949
G01 X-21.6329 Y-8.2934
G01 X-21.6933 Y-8.2949
G01 X-21.7535 Y-8.2993
G01 X-21.8134 Y-8.3067
G01 X-21.8729 Y-8.3171
G01 X-21.9318 Y-8.3303
G01 X-21.9899 Y-8.3464
G01 X-22.0473 Y-8.3653
G01 X-22.1036 Y-8.3870
G01 X-22.1588 Y-8.4115
G01 X-22.2127 Y-8.4387
G01 X-22.2652 Y-8.4684
G01 X-22.3162 Y-8.5007
G01 X-22.3656 Y-8.5355
G01 X-22.4132 Y-8.5726
G01 X-22.4589 Y-8.6120
G01 X-22.5026 Y-8.6537
G01 X-22.5443 Y-8.6974
G01 X-22.5837 Y-8.7431
G01 X-22.6208 Y-8.7907
G01 X-22.6556 Y-8.8401
G01 X-22.6879 Y-8.8911
G01 X-22.7176 Y-8.9436
G01 X-22.7448 Y-8.9975
G01 X-22.7693 Y-9.0527
G01 X-22.7910 Y-9.1090
G01 X-22.8099 Y-9.1664
G01 X-22.8260 Y-9.2245
G01 X-22.8392 Y-9.2834
G01 X-22.8496 Y-9.3429
G01 X-22.8570 Y-9.4028
G01 X-22.8614 Y-9.4630
G01 X-22.8629 Y-9.5234
G01 X-22.8614 Y-9.5838
G01 X-22.8570 Y-9.6440
G01 X-22.8496 Y-9.7039
G01 X-22.8392 Y-9.7634
G01 X-22.8260 Y-9.8223
G01 X-22.8099 Y-9.8804
G01 X-22.7910 Y-9.9378
G01 X-22.7693 Y-9.9941
G01 X-22.7448 Y-10.0493
G01 X-22.7176 Y-10.1032
G01 X-22.6879 Y-10.1557
G01 X-22.6556 Y-10.2067
G01 X-22.6208 Y-10.2561
G01 X-22.5837 Y-10.3037
G01 X-22.5443 Y-10.3494
G01 X-22.5026 Y-10.3931
G01 X-22.4589 Y-10.4348
G01 X-22.4132 Y-10.4742
G01 X-22.3656 Y-10.5113
G01 X-22.3162 Y-10.5461
G01 X-22.2652 Y-10.5784
G01 X-22.2127 Y-10.6081
G01 X-22.1588 Y-10.6353
G01 X-22.1036 Y-10.6598
G01 X-22.0473 Y-10.6815
G01 X-21.9899 Y-10.7004
G01 X-21.9318 Y-10.7165
G01 X-21.8729 Y-10.7297
G01 X-21.8134 Y-10.7401
G01 X-21.7535 Y-10.7475
G01 X-21.6933 Y-10.7519
G01 X-21.6329 Y-10.7534
G01 X-21.5725 Y-10.7519
G01 X-21.5123 Y-10.7475
G01 X-21.4524 Y-10.7401
G01 X-21.3929 Y-10.7297
G01 X-21.3340 Y-10.7165
G01 X-21.2759 Y-10.7004
G01 X-21.2185 Y-10.6815
G01 X-21.1622 Y-10.6598
G01 X-21.1070 Y-10.6353
G01 X-21.0531 Y-10.6081
G01 X-21.0006 Y-10.5784
G01 X-20.9496 Y-10.5461
G01 X-20.9002 Y-10.5113
G01 X-20.8526 Y-10.4742
G01 X-20.8069 Y-10.4348
G01 X-20.7632 Y-10.3931
G01 X-20.7215 Y-10.3494
G01 X-20.6821 Y-10.3037
G01 X-20.6450 Y-10.2561
G01 X-20.6102 Y-10.2067
G01 X-20.6008 Y-10.1919
G00 Z2.0000
G00 X-21.6500 Y-9.5595
G01 F70.00
G01 Z-0.0600
G01 F120.00
G01 X-21.6426 Y-9.5621
G01 X-21.6349 Y-9.5633
G01 X-21.6270 Y-9.5629
G01 X-21.6194 Y-9.5610
G01 X-21.6124 Y-9.5577
G01 X-21.6061 Y-9.5530
G01 X-21.6008 Y-9.5472
G01 X-21.5968 Y-9.5405
G01 X-21.5942 Y-9.5331
G01 X-21.5930 Y-9.5254
G01 X-21.5934 Y-9.5175
G01 X-21.5953 Y-9.5099
G01 X-21.5986 Y-9.5029
G01 X-21.6033 Y-9.4966
G01 X-21.6091 Y-9.4913
G01 X-21.6158 Y-9.4873
G01 X-21.6232 Y-9.4847
G01 X-21.6309 Y-9.4835
G01 X-21.6388 Y-9.4839
G01 X-21.6464 Y-9.4858
G01 X-21.6534 Y-9.4891
G01 X-21.6597 Y-9.4938
G01 X-21.6650 Y-9.4996
G01 X-21.6690 Y-9.5063
G01 X-21.6716 Y-9.5137
G01 X-21.6728 Y-9.5214
G01 X-21.6724 Y-9.5293
G01 X-21.6705 Y-9.5369
G01 X-21.6672 Y-9.5439
G01 X-21.6625 Y-9.5502
G01 X-21.6567 Y-9.5555
G01 X-21.6500 Y-9.5595
G00 Z2.0000
G00 X-21.7423 Y-9.5126
G01 F70.00
G01 Z-0.0600
G01 F120.00
G01 X-21.7429 Y-9.5234
G01 X-21.7423 Y-9.5342
G01 X-21.7407 Y-9.5449
G01 X-21.7381 Y-9.5553
G01 X-21.7345 Y-9.5655
G01 X-21.7299 Y-9.5752
G01 X-21.7243 Y-9.5845
G01 X-21.7179 Y-9.5932
G01 X-21.7107 Y-9.6012
G01 X-21.7027 Y-9.6084
G01 X-21.6940 Y-9.6148
G01 X-21.6847 Y-9.6204
G01 X-21.6750 Y-9.6250
G01 X-21.6648 Y-9.6286
G01 X-21.6544 Y-9.6312
G01 X-21.6437 Y-9.6328
G01 X-21.6329 Y-9.6334
G01 X-21.6221 Y-9.6328
G01 X-21.6114 Y-9.6312
G01 X-21.6010 Y-9.6286
G01 X-21.5908 Y-9.6250
G01 X-21.5811 Y-9.6204
G01 X-21.5718 Y-9.6148
G01 X-21.5631 Y-9.6084
G01 X-21.5551 Y-9.6012
G01 X-21.5479 Y-9.5932
G01 X-21.5415 Y-9.5845
G01 X-21.5359 Y-9.5752
G01 X-21.5313 Y-9.5655
G01 X-21.5277 Y-9.5553
G01 X-21.5251 Y-9.5449
G01 X-21.5235 Y-9.5342
G01 X-21.5229 Y-9.5234
G01 X-21.5235 Y-9.5126
G01 X-21.5251 Y-9.5019
G01 X-21.5277 Y-9.4915
G01 X-21.5313 Y-9.4813
G01 X-21.5359 Y-9.4716
G01 X-21.5415 Y-9.4623
G01 X-21.5479 Y-9.4536
G01 X-21.5551 Y-9.4456
G01 X-21.5631 Y-9.4384
G01 X-21.5718 Y-9.4320
G01 X-21.5811 Y-9.4264
G01 X-21.5908 Y-9.4218
G01 X-21.6010 Y-9.4182
G01 X-21.6114 Y-9.4156
G01 X-21.6221 Y-9.4140
G01 X-21.6329 Y-9.4134
G01 X-21.6437 Y-9.4140
G01 X-21.6544 Y-9.4156
G01 X-21.6648 Y-9.4182
G01 X-21.6750 Y-9.4218
G01 X-21.6847 Y-9.4264
G01 X-21.6940 Y-9.4320
G01 X-21.7027 Y-9.4384
G01 X-21.7107 Y-9.4456
G01 X-21.7179 Y-9.4536
G01 X-21.7243 Y-9.4623
G01 X-21.7299 Y-9.4716
G01 X-21.7345 Y-9.4813
G01 X-21.7381 Y-9.4915
G01 X-21.7407 Y-9.5019
G01 X-21.7423 Y-9.5126
G00 Z2.0000
G00 X-21.8127 Y-9.5322
G01 F70.00
G01 Z-0.0600
G01 F120.00
G01 X-21.8109 Y-9.5498
G01 X-21.8075 Y-9.5671
G01 X-21.8024 Y-9.5840
G01 X-21.7956 Y-9.6004
G01 X-21.7873 Y-9.6159
G01 X-21.7775 Y-9.6306
G01 X-21.7663 Y-9.6443
G01 X-21.7538 Y-9.6568
G01 X-21.7401 Y-9.6680
G01 X-21.7254 Y-9.6778
G01 X-21.7099 Y-9.6861
G01 X-21.6935 Y-9.6929
G01 X-21.6766 Y-9.6980
G01 X-21.6593 Y-9.7014
G01 X-21.6417 Y-9.7032
G01 X-21.6241 Y-9.7032
G01 X-21.6065 Y-9.7014
G01 X-21.5892 Y-9.6980
G01 X-21.5723 Y-9.6929
G01 X-21.5559 Y-9.6861
G01 X-21.5404 Y-9.6778
G01 X-21.5257 Y-9.6680
G01 X-21.5120 Y-9.6568
G01 X-21.4995 Y-9.6443
G01 X-21.4883 Y-9.6306
G01 X-21.4785 Y-9.6159
G01 X-21.4702 Y-9.6004
G01 X-21.4634 Y-9.5840
G01 X-21.4583 Y-9.5671
G01 X-21.4549 Y-9.5498
G01 X-21.4531 Y-9.5322
G01 X-21.4531 Y-9.5146
G01 X-21.4549 Y-9.4970
G01 X-21.4583 Y-9.4797
G01 X-21.4634 Y-9.4628
G01 X-21.4702 Y-9.4464
G01 X-21.4785 Y-9.4309
G01 X-21.4883 Y-9.4162
G01 X-21.4995 Y-9.4025
G01 X-21.5120 Y-9.3900
G01 X-21.5257 Y-9.3788
G01 X-21.5404 Y-9.3690
G01 X-21.5559 Y-9.3607
G01 X-21.5723 Y-9.3539
G01 X-21.5892 Y-9.3488
G01 X-21.6065 Y-9.3454
G01 X-21.6241 Y-9.3436
G01 X-21.6417 Y-9.3436
G01 X-21.6593 Y-9.3454
G01 X-21.6766 Y-9.3488
G01 X-21.6935 Y-9.3539
G01 X-21.7099 Y-9.3607
G01 X-21.7254 Y-9.3690
G01 X-21.7401 Y-9.3788
G01 X-21.7538 Y-9.3900
G01 X-21.7663 Y-9.4025
G01 X-21.7775 Y-9.4162
G01 X-21.7873 Y-9.4309
G01 X-21.7956 Y-9.4464
G01 X-21.8024 Y-9.4628
G01 X-21.8075 Y-9.4797
G01 X-21.8109 Y-9.4970
G01 X-21.8127 Y-9.5146
G01 X-21.8127 Y-9.5322
G00 Z2.0000
G00 X-25.1179 Y-9.5200
G01 F70.00
G01 Z-0.0600
G01 F120.00
G01 X-25.1192 Y-9.4724
G01 X-25.1229 Y-9.4215
G01 X-25.1292 Y-9.3708
G01 X-25.1379 Y-9.3205
G01 X-25.1491 Y-9.2707
G01 X-25.1627 Y-9.2215
G01 X-25.1787 Y-9.1730
G01 X-25.1971 Y-9.1254
G01 X-25.2178 Y-9.0787
G01 X-25.2407 Y-9.0331
G01 X-25.2659 Y-8.9887
G01 X-25.2932 Y-8.9456
G01 X-25.3226 Y-8.9039
G01 X-25.3540 Y-8.8636
G01 X-25.3873 Y-8.8250
G01 X-25.4225 Y-8.7880
G01 X-25.4595 Y-8.7528
G01 X-25.4981 Y-8.7195
G01 X-25.5384 Y-8.6881
G01 X-25.5801 Y-8.6587
G01 X-25.6232 Y-8.6314
G01 X-25.6676 Y-8.6062
G01 X-25.7132 Y-8.5833
G01 X-25.7599 Y-8.5626
G01 X-25.8075 Y-8.5442
G01 X-25.8560 Y-8.5282
G01 X-25.9052 Y-8.5146
G01 X-25.9550 Y-8.5034
G01 X-26.0053 Y-8.4947
G01 X-26.0560 Y-8.4884
G01 X-26.1069 Y-8.4847
G01 X-26.1579 Y-8.4834
G01 X-26.2089 Y-8.4847
G01 X-26.2598 Y-8.4884
G01 X-26.3105 Y-8.4947
G01 X-26.3608 Y-8.5034
G01 X-26.4106 Y-8.5146
G01 X-26.4598 Y-8.5282
G01 X-26.5083 Y-8.5442
G01 X-26.5559 Y-8.5626
G01 X-26.6026 Y-8.5833
G01 X-26.6482 Y-8.6062
G01 X-26.6926 Y-8.6314
G01 X-26.7357 Y-8.6587
G01 X-26.7774 Y-8.6881
G01 X-26.8177 Y-8.7195
G01 X-26.8563 Y-8.7528
G01 X-26.8933 Y-8.7880
G01 X-26.9285 Y-8.8250
G01 X-26.9618 Y-8.8636
G01 X-26.9932 Y-8.9039
G01 X-27.0226 Y-8.9456
G01 X-27.0499 Y-8.9887
G01 X-27.0751 Y-9.0331
G01 X-27.0980 Y-9.0787
G01 X-27.1187 Y-9.1254
G01 X-27.1371 Y-9.1730
G01 X-27.1531 Y-9.2215
G01 X-27.1667 Y-9.2707
G01 X-27.1779 Y-9.3205
G01 X-27.1866 Y-9.3708
G01 X-27.1929 Y-9.4215
G01 X-27.1966 Y-9.4724
G01 X-27.1979 Y-9.5234
G01 X-27.1966 Y-9.5744
G01 X-27.1929 Y-9.6253
G01 X-27.1866 Y-9.6760
G01 X-27.1779 Y-9.7263
G01 X-27.1667 Y-9.7761
G01 X-27.1531 Y-9.8253
G01 X-27.1371 Y-9.8738
G01 X-27.1187 Y-9.9214
G01 X-27.0980 Y-9.9681
G01 X-27.0751 Y-10.0137
G01 X-27.0499 Y-10.0581
G01 X-27.0226 Y-10.1012
G01 X-26.9932 Y-10.1429
G01 X-26.9618 Y-10.1832
G01 X-26.9285 Y-10.2218
G01 X-26.8933 Y-10.2588
G01 X-26.8563 Y-10.2940
G01 X-26.8177 Y-10.3273
G01 X-26.7774 Y-10.3587
G01 X-26.7357 Y-10.3881
G01 X-26.6926 Y-10.4154
G01 X-26.6482 Y-10.4406
G01 X-26.6026 Y-10.4635
G01 X-26.5559 Y-10.4842
G01 X-26.5083 Y-10.5026
G01 X-26.4598 Y-10.5186
G01 X-26.4106 Y-10.5322
G01 X-26.3608 Y-10.5434
G01 X-26.3105 Y-10.5521
G01 X-26.2598 Y-10.5584
G01 X-26.2089 Y-10.5621
G01 X-26.1579 Y-10.5634
G01 X-26.1069 Y-10.5621
G01 X-26.0560 Y-10.5584
G01 X-26.0053 Y-10.5521
G01 X-25.9550 Y-10.5434
G01 X-25.9052 Y-10.5322
G01 X-25.8560 Y-10.5186
G01 X-25.8075 Y-10.5026
G01 X-25.7599 Y-10.4842
G01 X-25.7132 Y-10.4635
G01 X-25.6676 Y-10.4406
G01 X-25.6232 Y-10.4154
G01 X-25.5801 Y-10.3881
G01 X-25.5384 Y-10.3587
G01 X-25.4981 Y-10.3273
G01 X-25.4595 Y-10.2940
G01 X-25.4225 Y-10.2588
G01 X-25.3873 Y-10.2218
G01 X-25.3540 Y-10.1832
G01 X-25.3226 Y-10.1429
G01 X-25.2932 Y-10.1012
G01 X-25.2659 Y-10.0581
G01 X-25.2407 Y-10.0137
G01 X-25.2178 Y-9.9681
G01 X-25.1971 Y-9.9214
G01 X-25.1787 Y-9.8738
G01 X-25.1627 Y-9.8253
G01 X-25.1491 Y-9.7761
G01 X-25.1379 Y-9.7263
G01 X-25.1292 Y-9.6760
G01 X-25.1229 Y-9.6253
G01 X-25.1192 Y-9.5744
G01 X-25.1179 Y-9.5200
G00 Z2.0000
G00 X-25.1879 Y-9.5217
G01 F70.00
G01 Z-0.0600
G01 F120.00
G01 X-25.1891 Y-9.4758
G01 X-25.1926 Y-9.4283
G01 X-25.1984 Y-9.3811
G01 X-25.2065 Y-9.3342
G01 X-25.2170 Y-9.2877
G01 X-25.2297 Y-9.2418
G01 X-25.2446 Y-9.1966
G01 X-25.2617 Y-9.1522
G01 X-25.2810 Y-9.1087
G01 X-25.3024 Y-9.0661
G01 X-25.3259 Y-9.0247
G01 X-25.3514 Y-8.9845
G01 X-25.3788 Y-8.9456
G01 X-25.4081 Y-8.9080
G01 X-25.4392 Y-8.8720
G01 X-25.4720 Y-8.8375
G01 X-25.5065 Y-8.8047
G01 X-25.5425 Y-8.7736
G01 X-25.5801 Y-8.7443
G01 X-25.6190 Y-8.7169
G01 X-25.6592 Y-8.6914
G01 X-25.7006 Y-8.6679
G01 X-25.7432 Y-8.6465
G01 X-25.7867 Y-8.6272
G01 X-25.8311 Y-8.6101
G01 X-25.8763 Y-8.5952
G01 X-25.9222 Y-8.5825
G01 X-25.9687 Y-8.5720
G01 X-26.0156 Y-8.5639
G01 X-26.0628 Y-8.5581
G01 X-26.1103 Y-8.5546
G01 X-26.1579 Y-8.5534
G01 X-26.2055 Y-8.5546
G01 X-26.2530 Y-8.5581
G01 X-26.3002 Y-8.5639
G01 X-26.3471 Y-8.5720
G01 X-26.3936 Y-8.5825
G01 X-26.4395 Y-8.5952
G01 X-26.4847 Y-8.6101
G01 X-26.5291 Y-8.6272
G01 X-26.5726 Y-8.6465
G01 X-26.6152 Y-8.6679
G01 X-26.6566 Y-8.6914
G01 X-26.6968 Y-8.7169
G01 X-26.7357 Y-8.7443
G01 X-26.7733 Y-8.7736
G01 X-26.8093 Y-8.8047
G01 X-26.8438 Y-8.8375
G01 X-26.8766 Y-8.8720
G01 X-26.9077 Y-8.9080
G01 X-26.9370 Y-8.9456
G01 X-26.9644 Y-8.9845
G01 X-26.9899 Y-9.0247
G01 X-27.0134 Y-9.0661
G01 X-27.0348 Y-9.1087
G01 X-27.0541 Y-9.1522
G01 X-27.0712 Y-9.1966
G01 X-27.0861 Y-9.2418
G01 X-27.0988 Y-9.2877
G01 X-27.1093 Y-9.3342
G01 X-27.1174 Y-9.3811
G01 X-27.1232 Y-9.4283
G01 X-27.1267 Y-9.4758
G01 X-27.1279 Y-9.5234
G01 X-27.1267 Y-9.5710
G01 X-27.1232 Y-9.6185
G01 X-27.1174 Y-9.6657
G01 X-27.1093 Y-9.7126
G01 X-27.0988 Y-9.7591
G01 X-27.0861 Y-9.8050
G01 X-27.0712 Y-9.8502
G01 X-27.0541 Y-9.8946
G01 X-27.0348 Y-9.9381
G01 X-27.0134 Y-9.9807
G01 X-26.9899 Y-10.0221
G01 X-26.9644 Y-10.0623
G01 X-26.9370 Y-10.1012
G01 X-26.9077 Y-10.1388
G01 X-26.8766 Y-10.1748
G01 X-26.8438 Y-10.2093
G01 X-26.8093 Y-10.2421
G01 X-26.7733 Y-10.2732
G01 X-26.7357 Y-10.3025
G01 X-26.6968 Y-10.3299
G01 X-26.6566 Y-10.3554
G01 X-26.6152 Y-10.3789
G01 X-26.5726 Y-10.4003
G01 X-26.5291 Y-10.4196
G01 X-26.4847 Y-10.4367
G01 X-26.4395 Y-10.4516
G01 X-26.3936 Y-10.4643
G01 X-26.3471 Y-10.4748
G01 X-26.3002 Y-10.4829
G01 X-26.2530 Y-10.4887
G01 X-26.2055 Y-10.4922
G01 X-26.1579 Y-10.4934
G01 X-26.1103 Y-10.4922
G01 X-26.0628 Y-10.4887
G01 X-26.0156 Y-10.4829
G01 X-25.9687 Y-10.4748
G01 X-25.9222 Y-10.4643
G01 X-25.8763 Y-10.4516
G01 X-25.8311 Y-10.4367
G01 X-25.7867 Y-10.4196
G01 X-25.7432 Y-10.4003
G01 X-25.7006 Y-10.3789
G01 X-25.6592 Y-10.3554
G01 X-25.6190 Y-10.3299
G01 X-25.5801 Y-10.3025
G01 X-25.5425 Y-10.2732
G01 X-25.5065 Y-10.2421
G01 X-25.4720 Y-10.2093
G01 X-25.4392 Y-10.1748
G01 X-25.4081 Y-10.1388
G01 X-25.3788 Y-10.1012
G01 X-25.3514 Y-10.0623
G01 X-25.3259 Y-10.0221
G01 X-25.3024 Y-9.9807
G01 X-25.2810 Y-9.9381
G01 X-25.2617 Y-9.8946
G01 X-25.2446 Y-9.8502
G01 X-25.2297 Y-9.8050
G01 X-25.2170 Y-9.7591
G01 X-25.2065 Y-9.7126
G01 X-25.1984 Y-9.6657
G01 X-25.1926 Y-9.6185
G01 X-25.1891 Y-9.5710
G01 X-25.1879 Y-9.5217
G00 Z2.0000
G00 X-26.1750 Y-9.5595
G01 F70.00
G01 Z-0.0600
G01 F120.00
G01 X-26.1676 Y-9.5621
G01 X-26.1599 Y-9.5633
G01 X-26.1520 Y-9.5629
G01 X-26.1444 Y-9.5610
G01 X-26.1374 Y-9.5577
G01 X-26.1311 Y-9.5530
G01 X-26.1258 Y-9.5472
G01 X-26.1218 Y-9.5405
G01 X-26.1192 Y-9.5331
G01 X-26.1180 Y-9.5254
G01 X-26.1184 Y-9.5175
G01 X-26.1203 Y-9.5099
G01 X-26.1236 Y-9.5029
G01 X-26.1283 Y-9.4966
G01 X-26.1341 Y-9.4913
G01 X-26.1408 Y-9.4873
G01 X-26.1482 Y-9.4847
G01 X-26.1559 Y-9.4835
G01 X-26.1638 Y-9.4839
G01 X-26.1714 Y-9.4858
G01 X-26.1784 Y-9.4891
G01 X-26.1847 Y-9.4938
G01 X-26.1900 Y-9.4996
G01 X-26.1940 Y-9.5063
G01 X-26.1966 Y-9.5137
G01 X-26.1978 Y-9.5214
G01 X-26.1974 Y-9.5293
G01 X-26.1955 Y-9.5369
G01 X-26.1922 Y-9.5439
G01 X-26.1875 Y-9.5502
G01 X-26.1817 Y-9.5555
G01 X-26.1750 Y-9.5595
G00 Z2.0000
G00 X-26.2673 Y-9.5126
G01 F70.00
G01 Z-0.0600
G01 F120.00
G01 X-26.2679 Y-9.5234
G01 X-26.2673 Y-9.5342
G01 X-26.2657 Y-9.5449
G01 X-26.2631 Y-9.5553
G01 X-26.2595 Y-9.5655
G01 X-26.2549 Y-9.5752
G01 X-26.2493 Y-9.5845
G01 X-26.2429 Y-9.5932
G01 X-26.2357 Y-9.6012
G01 X-26.2277 Y-9.6084
G01 X-26.2190 Y-9.6148
G01 X-26.2097 Y-9.6204
G01 X-26.2000 Y-9.6250
G01 X-26.1898 Y-9.6286
G01 X-26.1794 Y-9.6312
G01 X-26.1687 Y-9.6328
G01 X-26.1579 Y-9.6334
G01 X-26.1471 Y-9.6328
G01 X-26.1364 Y-9.6312
G01 X-26.1260 Y-9.6286
G01 X-26.1158 Y-9.6250
G01 X-26.1061 Y-9.6204
G01 X-26.0968 Y-9.6148
G01 X-26.0881 Y-9.6084
G01 X-26.0801 Y-9.6012
G01 X-26.0729 Y-9.5932
G01 X-26.0665 Y-9.5845
G01 X-26.0609 Y-9.5752
G01 X-26.0563 Y-9.5655
G01 X-26.0527 Y-9.5553
G01 X-26.0501 Y-9.5449
G01 X-26.0485 Y-9.5342
G01 X-26.0479 Y-9.5234
G01 X-26.0485 Y-9.5126
G01 X-26.0501 Y-9.5019
G01 X-26.0527 Y-9.4915
G01 X-26.0563 Y-9.4813
G01 X-26.0609 Y-9.4716
G01 X-26.0665 Y-9.4623
G01 X-26.0729 Y-9.4536
G01 X-26.0801 Y-9.4456
G01 X-26.0881 Y-9.4384
G01 X-26.0968 Y-9.4320
G01 X-26.1061 Y-9.4264
G01 X-26.1158 Y-9.4218
G01 X-26.1260 Y-9.4182
G01 X-26.1364 Y-9.4156
G01 X-26.1471 Y-9.4140
G01 X-26.1579 Y-9.4134
G01 X-26.1687 Y-9.4140
G01 X-26.1794 Y-9.4156
G01 X-26.1898 Y-9.4182
G01 X-26.2000 Y-9.4218
G01 X-26.2097 Y-9.4264
G01 X-26.2190 Y-9.4320
G01 X-26.2277 Y-9.4384
G01 X-26.2357 Y-9.4456
G01 X-26.2429 Y-9.4536
G01 X-26.2493 Y-9.4623
G01 X-26.2549 Y-9.4716
G01 X-26.2595 Y-9.4813
G01 X-26.2631 Y-9.4915
G01 X-26.2657 Y-9.5019
G01 X-26.2673 Y-9.5126
G00 Z2.0000
G00 X-26.3377 Y-9.5322
G01 F70.00
G01 Z-0.0600
G01 F120.00
G01 X-26.3359 Y-9.5498
G01 X-26.3325 Y-9.5671
G01 X-26.3274 Y-9.5840
G01 X-26.3206 Y-9.6004
G01 X-26.3123 Y-9.6159
G01 X-26.3025 Y-9.6306
G01 X-26.2913 Y-9.6443
G01 X-26.2788 Y-9.6568
G01 X-26.2651 Y-9.6680
G01 X-26.2504 Y-9.6778
G01 X-26.2349 Y-9.6861
G01 X-26.2185 Y-9.6929
G01 X-26.2016 Y-9.6980
G01 X-26.1843 Y-9.7014
G01 X-26.1667 Y-9.7032
G01 X-26.1491 Y-9.7032
G01 X-26.1315 Y-9.7014
G01 X-26.1142 Y-9.6980
G01 X-26.0973 Y-9.6929
G01 X-26.0809 Y-9.6861
G01 X-26.0654 Y-9.6778
G01 X-26.0507 Y-9.6680
G01 X-26.0370 Y-9.6568
G01 X-26.0245 Y-9.6443
G01 X-26.0133 Y-9.6306
G01 X-26.0035 Y-9.6159
G01 X-25.9952 Y-9.6004
G01 X-25.9884 Y-9.5840
G01 X-25.9833 Y-9.5671
G01 X-25.9799 Y-9.5498
G01 X-25.9781 Y-9.5322
G01 X-25.9781 Y-9.5146
G01 X-25.9799 Y-9.4970
G01 X-25.9833 Y-9.4797
G01 X-25.9884 Y-9.4628
G01 X-25.9952 Y-9.4464
G01 X-26.0035 Y-9.4309
G01 X-26.0133 Y-9.4162
G01 X-26.0245 Y-9.4025
G01 X-26.0370 Y-9.3900
G01 X-26.0507 Y-9.3788
G01 X-26.0654 Y-9.3690
G01 X-26.0809 Y-9.3607
G01 X-26.0973 Y-9.3539
G01 X-26.1142 Y-9.3488
G01 X-26.1315 Y-9.3454
G01 X-26.1491 Y-9.3436
G01 X-26.1667 Y-9.3436
G01 X-26.1843 Y-9.3454
G01 X-26.2016 Y-9.3488
G01 X-26.2185 Y-9.3539
G01 X-26.2349 Y-9.3607
G01 X-26.2504 Y-9.3690
G01 X-26.2651 Y-9.3788
G01 X-26.2788 Y-9.3900
G01 X-26.2913 Y-9.4025
G01 X-26.3025 Y-9.4162
G01 X-26.3123 Y-9.4309
G01 X-26.3206 Y-9.4464
G01 X-26.3274 Y-9.4628
G01 X-26.3325 Y-9.4797
G01 X-26.3359 Y-9.4970
G01 X-26.3377 Y-9.5146
G01 X-26.3377 Y-9.5322
G00 Z2.0000
G00 X-27.2492 Y-9.7255
G01 F70.00
G01 Z-0.0600
G01 F120.00
G01 X-27.2522 Y-9.7425
G01 X-27.2643 Y-9.7956
G01 X-27.2782 Y-9.8456
G01 X-27.2953 Y-9.8973
G01 X-27.3149 Y-9.9482
G01 X-27.3348 Y-9.9933
G01 X-27.3660 Y-10.0549
G01 X-27.3527 Y-10.0466
G01 X-27.3389 Y-10.0395
G01 X-27.3247 Y-10.0334
G01 X-27.3101 Y-10.0284
G01 X-27.2952 Y-10.0244
G01 X-27.2800 Y-10.0216
G01 X-27.2646 Y-10.0199
G01 X-27.2492 Y-10.0193
G01 X-27.2337 Y-10.0199
G01 X-27.2183 Y-10.0216
G01 X-27.2031 Y-10.0244
G01 X-27.1882 Y-10.0284
G01 X-27.1736 Y-10.0334
G01 X-27.1594 Y-10.0395
G01 X-27.1456 Y-10.0466
G01 X-27.1323 Y-10.0549
G01 X-27.1635 Y-9.9933
G01 X-27.1834 Y-9.9482
G01 X-27.2030 Y-9.8973
G01 X-27.2201 Y-9.8456
G01 X-27.2340 Y-9.7956
G01 X-27.2461 Y-9.7425
G01 X-27.2492 Y-9.7255
G00 Z2.0000
G00 X-27.4564 Y-10.2739
G01 F70.00
G01 Z-0.0600
G01 F120.00
G01 X-27.4437 Y-10.2593
G01 X-27.4087 Y-10.2144
G01 X-27.3585 Y-10.1418
G01 X-27.3444 Y-10.1267
G01 X-27.3284 Y-10.1139
G01 X-27.3151 Y-10.1058
G01 X-27.2995 Y-10.0987
G01 X-27.2832 Y-10.0935
G01 X-27.2663 Y-10.0904
G01 X-27.2509 Y-10.0893
G01 X-27.2337 Y-10.0902
G01 X-27.2168 Y-10.0931
G01 X-27.2020 Y-10.0975
G01 X-27.1862 Y-10.1043
G01 X-27.1714 Y-10.1129
G01 X-27.1577 Y-10.1233
G01 X-27.1454 Y-10.1353
G01 X-27.1347 Y-10.1487
G01 X-27.1224 Y-10.1678
G01 X-27.0896 Y-10.2144
G01 X-27.0546 Y-10.2593
G01 X-27.0174 Y-10.3024
G01 X-26.9781 Y-10.3436
G01 X-26.9369 Y-10.3829
G01 X-26.8938 Y-10.4201
G01 X-26.8489 Y-10.4551
G01 X-26.8023 Y-10.4879
G01 X-26.7542 Y-10.5183
G01 X-26.7047 Y-10.5464
G01 X-26.6538 Y-10.5720
G01 X-26.6018 Y-10.5951
G01 X-26.5487 Y-10.6156
G01 X-26.4946 Y-10.6334
G01 X-26.4397 Y-10.6486
G01 X-26.3842 Y-10.6611
G01 X-26.3281 Y-10.6708
G01 X-26.2716 Y-10.6778
G01 X-26.2148 Y-10.6820
G01 X-26.1579 Y-10.6834
G01 X-26.1010 Y-10.6820
G01 X-26.0442 Y-10.6778
G01 X-25.9877 Y-10.6708
G01 X-25.9316 Y-10.6611
G01 X-25.8761 Y-10.6486
G01 X-25.8212 Y-10.6334
G01 X-25.7671 Y-10.6156
G01 X-25.7140 Y-10.5951
G01 X-25.6620 Y-10.5720
G01 X-25.6111 Y-10.5464
G01 X-25.5616 Y-10.5183
G01 X-25.5135 Y-10.4879
G01 X-25.4669 Y-10.4551
G01 X-25.4220 Y-10.4201
G01 X-25.3789 Y-10.3829
G01 X-25.3377 Y-10.3436
G01 X-25.2984 Y-10.3024
G01 X-25.2612 Y-10.2593
G01 X-25.2262 Y-10.2144
G01 X-25.1934 Y-10.1678
G01 X-25.1630 Y-10.1197
G01 X-25.1349 Y-10.0702
G01 X-25.1093 Y-10.0193
G01 X-25.0862 Y-9.9673
G01 X-25.0657 Y-9.9142
G01 X-25.0479 Y-9.8601
G01 X-25.0327 Y-9.8052
G01 X-25.0202 Y-9.7497
G01 X-25.0105 Y-9.6936
G01 X-25.0035 Y-9.6371
G01 X-24.9993 Y-9.5803
G01 X-24.9979 Y-9.5234
G01 X-24.9993 Y-9.4665
G01 X-25.0035 Y-9.4097
G01 X-25.0105 Y-9.3532
G01 X-25.0202 Y-9.2971
G01 X-25.0327 Y-9.2416
G01 X-25.0479 Y-9.1867
G01 X-25.0657 Y-9.1326
G01 X-25.0862 Y-9.0795
G01 X-25.1093 Y-9.0275
G01 X-25.1349 Y-8.9766
G01 X-25.1630 Y-8.9271
G01 X-25.1934 Y-8.8790
G01 X-25.2262 Y-8.8324
G01 X-25.2612 Y-8.7875
G01 X-25.2984 Y-8.7444
G01 X-25.3377 Y-8.7032
G01 X-25.3789 Y-8.6639
G01 X-25.4220 Y-8.6267
G01 X-25.4669 Y-8.5917
G01 X-25.5135 Y-8.5589
G01 X-25.5616 Y-8.5285
G01 X-25.6111 Y-8.5004
G01 X-25.6620 Y-8.4748
G01 X-25.7140 Y-8.4517
G01 X-25.7671 Y-8.4312
G01 X-25.8212 Y-8.4134
G01 X-25.8761 Y-8.3982
G01 X-25.9316 Y-8.3857
G01 X-25.9877 Y-8.3760
G01 X-26.0442 Y-8.3690
G01 X-26.1010 Y-8.3648
G01 X-26.1579 Y-8.3634
G01 X-26.2148 Y-8.3648
G01 X-26.2716 Y-8.3690
G01 X-26.3281 Y-8.3760
G01 X-26.3842 Y-8.3857
G01 X-26.4397 Y-8.3982
G01 X-26.4946 Y-8.4134
G01 X-26.5487 Y-8.4312
G01 X-26.6018 Y-8.4517
G01 X-26.6538 Y-8.4748
G01 X-26.7047 Y-8.5004
G01 X-26.7542 Y-8.5285
G01 X-26.8023 Y-8.5589
G01 X-26.8489 Y-8.5917
G01 X-26.8938 Y-8.6267
G01 X-26.9369 Y-8.6639
G01 X-26.9781 Y-8.7032
G01 X-27.0174 Y-8.7444
G01 X-27.0546 Y-8.7875
G01 X-27.0896 Y-8.8324
G01 X-27.1224 Y-8.8790
G01 X-27.1347 Y-8.8981
G01 X-27.1478 Y-8.9140
G01 X-27.1617 Y-8.9268
G01 X-27.1757 Y-8.9367
G01 X-27.1908 Y-8.9448
G01 X-27.2085 Y-8.9515
G01 X-27.2235 Y-8.9551
G01 X-27.2406 Y-8.9572
G01 X-27.2560 Y-8.9573
G01 X-27.2714 Y-8.9557
G01 X-27.2881 Y-8.9519
G01 X-27.3027 Y-8.9468
G01 X-27.3182 Y-8.9393
G01 X-27.3312 Y-8.9310
G01 X-27.3457 Y-8.9189
G01 X-27.3585 Y-8.9050
